targets/wolf_faust/transmissive/A050409.it8
IT8.7/1
ORIGINATOR "Wolf Faust"
DESCRIPTOR "Agfachrome RSX, RSX II and CT Precisa, Type 3, L* a* b* (light D50, viewing angle 2)"
MANUFACTURER "Wolf Faust - http://www.coloraid.de"
CREATED "April 09, 2005"
PROD_DATE "2005:04"
DIFFUSE_GEOMETRY "opal"
SERIAL "A050409 Batch Average Data"
MATERIAL "Agfachrome RSX II"
KEYWORD "MEAN_DE" # Mean Delta E of samples compared to batch average
NUMBER_OF_FIELDS 17
BEGIN_DATA_FORMAT
SAMPLE_ID   XYZ_X   XYZ_Y   XYZ_Z          LAB_L   LAB_A   LAB_B          LAB_C   LAB_H          STDEV_X  STDEV_Y  STDEV_Z          STDEV_L  STDEV_A  STDEV_B        MEAN_DE  STDEV_DE
END_DATA_FORMAT
NUMBER_OF_SETS 288
BEGIN_DATA
A1           2.37    2.00    1.45          15.49    9.53    2.32           9.81   13.67            0.08     0.06     0.04            0.30     0.35     0.33           0.47    0.57
A2           3.02    2.03    1.21          15.66   21.12    5.67          21.87   15.01            0.09     0.05     0.03            0.28     0.38     0.37           0.49    0.60 
A3           3.57    2.00    1.00          15.47   31.04    8.37          32.15   15.08            0.10     0.05     0.02            0.27     0.45     0.37           0.53    0.64
A4           4.47    2.08    0.82          15.90   42.11   12.09          43.82   16.01            0.13     0.06     0.02            0.28     0.48     0.35           0.56    0.66 
A5          11.03    9.46    7.05          36.86   14.85    3.04          15.16   11.56            0.29     0.23     0.18            0.42     0.42     0.44           0.67    0.74
A6          13.06    9.45    6.15          36.83   29.05    6.93          29.87   13.41            0.33     0.23     0.21            0.43     0.37     0.54           0.69    0.78 
A7          15.19    9.21    5.14          36.38   44.28   11.01          45.63   13.97            0.34     0.21     0.15            0.39     0.33     0.48           0.61    0.70
A8          16.63    8.68    4.30          35.36   56.95   13.86          58.61   13.68            0.13     0.08     0.12            0.16     0.07     0.52           0.47    0.55 
A9          32.01   31.00   25.67          62.50    7.81   -0.15           7.83   230.26            0.73     0.71     0.61            0.60     0.21     0.52           0.75    0.82
A10         34.20   31.04   24.57          62.54   15.38    1.87          15.50    6.91            0.74     0.70     0.67            0.59     0.16     0.51           0.73    0.80
A11         36.08   30.80   23.52          62.33   22.64    3.46          22.91    8.67            0.69     0.65     0.68            0.56     0.17     0.51           0.68    0.77
A12         38.33   30.51   22.04          62.09   31.05    5.85          31.60   10.66            0.55     0.56     0.64            0.48     0.33     0.55           0.70    0.80 
A13         64.33   68.17   57.13          86.09   -3.17   -0.91           3.30   195.92            0.43     0.33     0.22            0.16     0.31     0.16           0.35    0.39
A14         69.91   70.63   56.94          87.31    3.90    1.38           4.14   19.55            0.25     0.27     0.20            0.13     0.06     0.14           0.18    0.20 
A15         70.63   71.87   56.38          87.91    2.85    3.00           4.14   46.47            0.22     0.20     0.24            0.10     0.11     0.15           0.19    0.21
A16         66.72   69.09   56.92          86.55    0.22    0.09           0.30   132.62            0.35     0.29     0.19            0.14     0.18     0.20           0.28    0.31
A17         69.72   70.55   56.18          87.27    3.66    2.10           4.22   29.83            0.33     0.34     0.26            0.17     0.07     0.14           0.21    0.23
A18         64.91   68.45   55.20          86.23   -2.43    1.35           2.79   150.77            0.45     0.32     0.33            0.16     0.34     0.18           0.37    0.42 
A19         61.89   65.16   56.14          84.57   -2.17   -2.51           3.32   229.09            0.59     0.54     0.20            0.28     0.21     0.34           0.42    0.49
A20          6.80    3.18    2.04          20.76   48.15    5.11          48.42    6.05            0.16     0.07     0.06            0.26     0.46     0.37           0.57    0.64 
A21         28.32   20.05   17.03          51.89   39.71   -1.13          39.73   332.66            0.49     0.41     0.59            0.46     0.12     0.65           0.68    0.81
A22         54.89   52.60   38.62          77.64   10.78    6.17          12.43   29.75            0.71     0.82     0.86            0.49     0.33     0.44           0.66    0.73
B1           3.61    3.19    1.87          20.79    8.60    6.88          11.02   38.65            0.10     0.08     0.05            0.30     0.38     0.40           0.52    0.63
B2           4.29    3.22    1.15          20.92   18.03   15.57          23.82   40.81            0.12     0.07     0.03            0.29     0.42     0.38           0.51    0.63
B3           4.91    3.17    0.66          20.70   27.14   23.28          35.76   40.61            0.14     0.08     0.01            0.31     0.48     0.43           0.57    0.72
B4           5.66    3.15    0.20          20.64   36.38   31.76          48.29   41.12            0.17     0.09     0.00            0.34     0.51     0.57           0.66    0.83
B5          13.97   12.41    7.38          41.86   13.20   10.33          16.77   38.03            0.36     0.30     0.19            0.46     0.37     0.53           0.71    0.79
B6          15.91   12.19    4.76          41.52   26.30   21.90          34.23   39.78            0.37     0.28     0.15            0.44     0.38     0.47           0.64    0.75
B7          18.16   12.10    2.81          41.38   39.28   34.11          52.02   40.97            0.40     0.28     0.08            0.44     0.28     0.34           0.52    0.62
B8          20.01   11.49    1.37          40.39   52.99   46.21          70.31   41.09            0.18     0.14     0.04            0.23     0.15     0.20           0.31    0.34
B9          37.68   37.47   29.45          67.62    5.11    2.32           5.62   24.24            0.83     0.82     0.67            0.61     0.22     0.50           0.73    0.82
B10         39.49   37.50   26.41          67.64   10.75    7.42          13.07   34.55            0.81     0.82     0.69            0.61     0.18     0.52           0.74    0.82
B11         41.02   37.40   24.10          67.57   15.80   11.41          19.49   35.82            0.75     0.77     0.68            0.57     0.25     0.48           0.72    0.79
B12         42.87   36.97   19.88          67.25   22.76   19.10          29.72   39.99            0.67     0.76     0.64            0.57     0.46     0.53           0.80    0.90
B13         59.51   64.02   55.22          83.98   -5.24   -2.56           5.83   206.06            0.58     0.50     0.34            0.26     0.29     0.24           0.42    0.45
B14         62.07   61.56   53.75          82.68    6.37   -3.24           7.15   333.14            0.60     0.71     0.41            0.38     0.24     0.31           0.50    0.55
B15         64.83   67.05   49.91          85.53    0.42    5.91           5.93   85.88            0.47     0.42     0.58            0.21     0.17     0.39           0.42    0.47
B16         55.18   57.38   48.48          80.39   -0.38   -1.30           1.37   252.33            0.82     0.84     0.61            0.47     0.13     0.44           0.61    0.66
B17         60.59   60.21   48.21          81.95    6.04    1.70           6.29   15.66            0.78     0.85     0.67            0.46     0.22     0.38           0.58    0.64
B18         58.67   63.45   50.10          83.68   -5.97    2.51           6.49   157.20            0.74     0.61     0.66            0.32     0.42     0.38           0.59    0.65
B19         56.26   58.56   53.57          81.05   -0.50   -5.86           5.88   265.09            0.79     0.83     0.39            0.46     0.12     0.45           0.56    0.65
B20          5.27    3.15    1.05          20.62   31.92   16.44          35.90   27.24            0.18     0.10     0.03            0.39     0.51     0.42           0.61    0.77
B21         18.16   12.13    4.67          41.42   39.11   22.24          45.00   29.63            0.42     0.29     0.17            0.46     0.25     0.40           0.59    0.66
B22         36.16   31.01   19.94          62.51   22.14   10.81          24.64   26.01            0.68     0.66     0.67            0.56     0.19     0.54           0.71    0.80
C1           6.84    6.70    3.85          31.11    3.96    9.21          10.02   66.76            0.20     0.18     0.11            0.42     0.33     0.42           0.60    0.68
C2           7.30    6.69    2.27          31.10    8.46   20.80          22.46   67.88            0.19     0.16     0.05            0.37     0.38     0.37           0.56    0.65
C3           7.77    6.62    1.26          30.92   13.74   31.29          34.18   66.29            0.21     0.16     0.03            0.38     0.43     0.43           0.60    0.71
C4           8.50    6.72    0.45          31.16   19.21   45.15          49.07   66.95            0.22     0.15     0.01            0.35     0.48     0.55           0.67    0.81
C5          26.32   25.39   13.49          57.45    7.73   17.29          18.94   65.92            0.56     0.53     0.37            0.51     0.34     0.51           0.70    0.80
C6          27.67   24.83    7.30          56.90   15.57   36.58          39.75   66.95            0.60     0.58     0.24            0.57     0.35     0.44           0.71    0.80
C7          29.56   24.67    3.49          56.75   23.54   55.75          60.52   67.11            0.55     0.51     0.09            0.50     0.27     0.40           0.60    0.70
C8          31.58   24.06    0.87          56.14   33.69   80.60          87.36   67.32            0.39     0.36     0.02            0.36     0.24     0.43           0.54    0.61
C9          44.19   44.81   32.91          72.76    2.90    5.83           6.52   63.53            0.95     0.99     0.76            0.65     0.20     0.47           0.71    0.83
C10         45.05   44.71   28.18          72.70    5.64   13.14          14.30   66.75            0.86     0.90     0.74            0.60     0.20     0.51           0.70    0.81
C11         45.87   44.43   23.35          72.51    8.80   21.33          23.07   67.58            0.84     0.92     0.70            0.61     0.29     0.46           0.71    0.82
C12         47.45   44.04   15.79          72.25   14.35   36.93          39.62   68.77            0.72     0.87     0.51            0.58     0.52     0.41           0.77    0.88
C13         53.68   60.18   54.74          81.94  -10.82   -5.57          12.17   207.24            0.63     0.54     0.35            0.29     0.36     0.30           0.51    0.55
C14         57.10   53.76   51.35          78.32   13.32   -8.12          15.60   328.63            0.75     0.89     0.51            0.52     0.42     0.40           0.70    0.78
C15         63.11   65.73   41.33          84.86   -0.61   15.07          15.08   92.31            0.54     0.48     0.71            0.25     0.18     0.57           0.55    0.64
C16         43.64   45.33   38.65          73.10   -0.20   -1.69           1.71   262.98            0.92     0.96     0.78            0.63     0.20     0.53           0.78    0.85
C17         53.68   50.58   38.38          76.42   12.95    4.39          13.68   18.74            0.82     0.93     0.83            0.57     0.36     0.41           0.69    0.79
C18         51.38   58.55   41.85          81.04  -12.94    7.83          15.13   148.84            0.85     0.70     0.78            0.39     0.58     0.51           0.77    0.86
C19         46.50   48.25   50.98          74.98   -0.07  -13.47          13.47   269.66            0.97     1.05     0.48            0.66     0.19     0.67           0.82    0.96
C20         13.29    9.65    1.16          37.20   28.93   43.42          52.18   56.32            0.41     0.29     0.03            0.54     0.37     0.50           0.69    0.82
C21         23.99   22.21   13.02          54.25   11.66   13.06          17.51   48.23            0.68     0.65     0.48            0.68     0.28     0.53           0.82    0.91
C22         29.56   25.05   12.63          57.12   21.95   19.10          29.10   41.02            0.60     0.55     0.41            0.54     0.13     0.47           0.64    0.72
D1           4.63    4.86    2.68          26.33   -0.71    9.20           9.23   94.47            0.13     0.12     0.07            0.36     0.32     0.35           0.51    0.60
D2           4.53    4.76    1.63          26.04   -0.79   18.38          18.40   92.48            0.12     0.10     0.03            0.31     0.36     0.41           0.54    0.63
D3           4.50    4.75    0.96          26.02   -1.18   27.18          27.21   92.48            0.12     0.11     0.02            0.32     0.37     0.38           0.51    0.62
D4           4.32    4.59    0.47          25.53   -1.41   35.16          35.19   92.30            0.12     0.10     0.01            0.30     0.42     0.43           0.56    0.67
D5          19.53   20.35   10.91          52.22   -0.45   15.75          15.76   91.66            0.48     0.46     0.28            0.51     0.39     0.46           0.70    0.79
D6          19.01   19.98    5.52          51.81   -1.31   35.73          35.76   92.11            0.49     0.50     0.15            0.57     0.44     0.47           0.76    0.86
D7          18.72   19.80    2.62          51.60   -1.88   53.24          53.28   92.02            0.49     0.51     0.06            0.58     0.45     0.54           0.81    0.92
D8          18.48   19.61    1.04          51.39   -2.19   69.68          69.72   91.80            0.39     0.39     0.02            0.45     0.43     0.59           0.74    0.85
D9          49.62   52.06   28.91          77.32   -1.56   19.90          19.97   94.48            0.83     0.87     0.70            0.52     0.18     0.56           0.69    0.79
D10         49.04   51.93   16.21          77.24   -2.77   44.51          44.59   93.56            0.73     0.78     0.40            0.47     0.19     0.39           0.54    0.64
D11         48.46   51.21    7.80          76.80   -2.48   68.92          68.96   92.06            0.62     0.61     0.15            0.37     0.22     0.24           0.43    0.49
D12         47.38   50.09    4.81          76.12   -2.52   81.31          81.35   91.77            0.54     0.46     0.09            0.28     0.37     0.28           0.49    0.54
D13         48.03   56.19   54.12          79.72  -16.24   -8.73          18.44   208.24            0.64     0.56     0.35            0.32     0.40     0.32           0.54    0.60
D14         52.47   46.75   48.97          74.03   20.13  -12.84          23.88   327.46            0.63     0.75     0.44            0.48     0.45     0.39           0.67    0.77
D15         61.51   64.37   33.20          84.16   -1.30   25.05          25.08   92.96            0.50     0.46     0.64            0.24     0.16     0.62           0.58    0.68
D16         33.01   34.38   29.73          65.26   -0.50   -2.20           2.27   257.24            0.82     0.84     0.69            0.66     0.22     0.50           0.79    0.86
D17         46.95   41.66   29.30          70.63   19.94    7.75          21.39   21.25            0.74     0.82     0.77            0.57     0.39     0.44           0.72    0.82
D18         44.28   53.38   33.83          78.10  -19.84   13.67          24.10   145.44            0.80     0.68     0.73            0.40     0.62     0.58           0.85    0.94
D19         37.59   39.04   48.45          68.78   -0.19  -21.30          21.31   269.49            0.93     0.98     0.46            0.71     0.19     0.75           0.86    1.05
D20          3.18    3.15    1.08          20.62    2.50   15.96          16.15   81.12            0.11     0.10     0.03            0.39     0.27     0.35           0.50    0.59
D21         32.60   30.02    1.64          61.67   13.52   79.70          80.84   80.37            0.66     0.64     0.04            0.55     0.27     0.64           0.73    0.89
D22         44.57   47.87   51.13          74.74   -4.52  -14.06          14.77   252.17            0.78     0.83     0.38            0.52     0.18     0.56           0.69    0.79
E1           6.00    6.76    3.93          31.26   -5.52    8.98          10.56   121.64            0.15     0.15     0.10            0.35     0.35     0.43           0.58    0.66
E2           5.62    6.83    2.43          31.41  -10.54   20.01          22.62   117.78            0.14     0.14     0.04            0.33     0.40     0.38           0.56    0.64
E3           4.92    6.56    1.31          30.78  -16.22   30.40          34.46   118.08            0.14     0.16     0.02            0.37     0.38     0.42           0.59    0.68
E4           4.54    6.70    0.68          31.11  -22.49   40.81          46.60   118.87            0.12     0.14     0.01            0.33     0.44     0.47           0.62    0.72
E5          27.48   31.18   17.66          62.66  -10.03   15.99          18.88   122.12            0.59     0.61     0.42            0.51     0.36     0.65           0.79    0.90
E6          25.07   31.07   10.75          62.56  -19.54   34.06          39.26   119.84            0.59     0.65     0.25            0.55     0.36     0.50           0.72    0.83
E7          22.24   30.25    5.80          61.86  -29.02   51.72          59.31   119.29            0.49     0.58     0.13            0.50     0.41     0.46           0.69    0.79
E8          20.00   29.00    3.41          60.78  -34.98   63.26          72.29   118.94            0.32     0.33     0.05            0.29     0.41     0.36           0.50    0.61
E9          48.40   52.51   37.19          77.58   -6.02    8.02          10.03   126.94            0.90     0.92     0.74            0.54     0.21     0.49           0.65    0.76
E10         45.98   52.28   29.46          77.45  -12.18   19.24          22.77   122.34            0.83     0.83     0.73            0.49     0.32     0.61           0.73    0.85
E11         43.65   51.68   23.25          77.09  -17.32   29.38          34.10   120.52            0.73     0.68     0.57            0.41     0.42     0.62           0.73    0.85
E12         42.14   50.97   20.04          76.66  -19.98   34.99          40.29   119.72            0.73     0.63     0.49            0.38     0.56     0.61           0.81    0.92
E13         43.38   52.69   53.52          77.69  -20.73  -11.59          23.75   209.20            0.63     0.57     0.35            0.34     0.42     0.32           0.55    0.62
E14         48.02   40.39   46.51          69.74   26.75  -17.37          31.89   327.00            0.66     0.76     0.48            0.54     0.51     0.40           0.74    0.84
E15         60.15   63.05   26.26          83.47   -1.50   34.96          34.99   92.46            0.45     0.42     0.52            0.22     0.16     0.61           0.55    0.67
E16         24.42   25.28   22.10          57.34    0.17   -2.45           2.48   275.19            0.67     0.67     0.56            0.65     0.30     0.56           0.81    0.90
E17         40.69   33.72   21.62          64.73   27.03   11.24          29.27   22.57            0.58     0.62     0.61            0.49     0.36     0.52           0.71    0.80
E18         38.42   48.74   26.79          75.29  -25.57   19.94          32.43   142.05            0.75     0.66     0.64            0.41     0.62     0.61           0.85    0.96
E19         30.06   30.94   45.61          62.45    0.84  -28.87          28.89   271.66            0.80     0.88     0.51            0.74     0.30     0.71           0.87    1.07
E20          8.08    9.41    1.41          36.75   -8.62   39.49          40.42   102.32            0.27     0.30     0.03            0.55     0.28     0.58           0.71    0.85
E21         27.07   32.23    7.14          63.53  -15.39   48.64          51.02   107.56            0.66     0.74     0.19            0.61     0.42     0.52           0.83    0.91
E22          9.23   19.15   15.63          50.87  -59.51    0.42          59.51   179.59            0.17     0.24     0.40            0.28     0.19     0.69           0.66    0.77
F1           3.78    4.68    3.43          25.81  -10.32    2.81          10.71   164.75            0.11     0.12     0.09            0.35     0.33     0.35           0.52    0.60
F2           3.19    4.73    2.94          25.95  -20.33    6.54          21.36   162.17            0.08     0.10     0.07            0.29     0.37     0.35           0.52    0.58
F3           2.71    4.74    2.47          25.98  -28.85   10.29          30.64   160.36            0.07     0.10     0.05            0.30     0.32     0.32           0.48    0.54
F4           1.86    4.80    1.86          26.17  -47.66   16.25          50.35   161.17            0.04     0.09     0.03            0.27     0.23     0.27           0.36    0.44
F5          12.92   16.11   11.87          47.11  -16.19    4.04          16.70   165.99            0.33     0.36     0.30            0.47     0.33     0.51           0.69    0.77
F6          10.20   15.90    9.86          46.85  -34.45    9.84          35.83   164.06            0.27     0.37     0.23            0.49     0.31     0.46           0.65    0.74
F7           8.10   15.66    7.87          46.52  -50.49   16.43          53.09   161.97            0.21     0.34     0.19            0.45     0.33     0.50           0.66    0.75
F8           6.47   15.03    6.50          45.67  -62.61   20.62          65.92   161.77            0.11     0.18     0.13            0.25     0.14     0.45           0.47    0.53
F9          33.04   37.65   30.20          67.75  -11.16    1.35          11.26   173.07            0.82     0.88     0.72            0.65     0.27     0.52           0.77    0.88
F10         29.58   37.58   27.44          67.70  -23.61    5.77          24.31   166.27            0.76     0.86     0.73            0.64     0.30     0.56           0.81    0.91
F11         26.46   37.13   25.26          67.37  -34.48    8.97          35.63   165.42            0.61     0.70     0.68            0.53     0.31     0.59           0.76    0.85
F12         23.21   35.61   22.95          66.22  -43.38   11.23          44.82   165.50            0.49     0.51     0.61            0.39     0.51     0.70           0.83    0.95
F13         38.90   49.12   52.83          75.53  -25.07  -14.57          29.00   210.15            0.57     0.53     0.33            0.33     0.41     0.33           0.55    0.62
F14         43.88   34.79   44.00          65.58   32.91  -21.52          39.32   326.83            0.58     0.63     0.45            0.49     0.45     0.35           0.68    0.76
F15         58.90   61.60   20.18          82.70   -1.18   45.12          45.13   91.50            0.46     0.44     0.45            0.24     0.14     0.60           0.56    0.66
F16         17.02   17.66   15.49          49.08   -0.06   -2.29           2.31   269.87            0.55     0.55     0.46            0.68     0.31     0.54           0.83    0.92
F17         35.07   27.04   15.13          59.01   33.59   15.72          37.09   25.07            0.48     0.50     0.45            0.46     0.36     0.47           0.64    0.75
F18         32.78   43.91   20.50          72.17  -31.10   26.29          40.72   139.79            0.68     0.63     0.56            0.42     0.61     0.69           0.92    1.01
F19         23.39   23.90   42.66          55.99    1.54  -36.41          36.44   272.42            0.61     0.66     0.44            0.67     0.27     0.67           0.81    0.98
