targets/wolf_faust/transmissive/A050410.it8
IT8.7/1
ORIGINATOR "Wolf Faust"
DESCRIPTOR "Agfachrome RSX, RSX II and CT Precisa, Type 3, L* a* b* (light D50, viewing angle 2)"
MANUFACTURER "Wolf Faust - http://www.coloraid.de"
CREATED "May 23, 2005"
PROD_DATE "2005:04"
DIFFUSE_GEOMETRY "opal"
SERIAL "A050410 Batch Average Data"
MATERIAL "Agfachrome RSX II"
KEYWORD "MEAN_DE" # Mean Delta E of samples compared to batch average
NUMBER_OF_FIELDS 17
BEGIN_DATA_FORMAT
SAMPLE_ID   XYZ_X   XYZ_Y   XYZ_Z          LAB_L   LAB_A   LAB_B          LAB_C   LAB_H          STDEV_X  STDEV_Y  STDEV_Z          STDEV_L  STDEV_A  STDEV_B        MEAN_DE  STDEV_DE
END_DATA_FORMAT
NUMBER_OF_SETS 288
BEGIN_DATA
A1           2.71    2.36    1.61          17.25    8.61    3.50           9.30   22.09            0.08     0.07     0.06            0.34     0.14     0.16           0.34    0.40
A2           3.42    2.36    1.26          17.26   20.88    7.69          22.25   20.21            0.09     0.07     0.05            0.32     0.18     0.22           0.37    0.43 
A3           3.90    2.22    1.11          16.60   31.07    8.64          32.25   15.54            0.09     0.05     0.04            0.26     0.24     0.21           0.35    0.41
A4           4.70    2.20    0.88          16.49   42.57   11.92          44.21   15.65            0.09     0.04     0.03            0.20     0.30     0.21           0.35    0.41 
A5          11.86   10.39    7.44          38.53   13.63    4.34          14.31   17.66            0.29     0.25     0.26            0.44     0.18     0.35           0.50    0.59
A6          14.10   10.30    6.32          38.36   29.09    8.80          30.40   16.84            0.32     0.25     0.23            0.44     0.19     0.34           0.47    0.58 
A7          16.05    9.98    5.41          37.81   43.12   12.12          44.79   15.70            0.28     0.19     0.19            0.34     0.18     0.41           0.46    0.56
A8          17.45    9.33    4.77          36.61   56.05   13.39          57.63   13.44            0.15     0.10     0.16            0.19     0.06     0.54           0.45    0.58 
A9          34.16   33.65   26.76          64.68    6.04    1.71           6.29   15.75            0.80     0.80     0.79            0.64     0.14     0.45           0.69    0.80
A10         35.90   33.19   25.51          64.31   13.53    3.24          13.92   13.45            0.78     0.77     0.77            0.62     0.17     0.44           0.66    0.78
A11         37.87   33.10   24.33          64.24   20.29    5.24          20.96   14.48            0.78     0.76     0.76            0.61     0.23     0.51           0.71    0.82
A12         40.07   32.63   23.00          63.86   28.91    7.06          29.76   13.71            0.64     0.68     0.79            0.55     0.40     0.60           0.73    0.91 
A13         65.44   69.08   56.76          86.54   -2.60    0.26           2.62   173.78            0.54     0.38     0.26            0.19     0.41     0.20           0.42    0.49
A14         70.74   71.63   56.65          87.79    3.57    2.51           4.37   35.10            0.37     0.37     0.26            0.18     0.07     0.12           0.20    0.23 
A15         71.29   72.55   56.29          88.23    2.84    3.66           4.63   52.21            0.32     0.26     0.31            0.13     0.17     0.13           0.22    0.24
A16         67.86   70.25   56.66          87.12    0.27    1.35           1.39   80.03            0.46     0.36     0.20            0.18     0.28     0.19           0.33    0.38
A17         70.78   71.82   56.16          87.88    3.28    3.18           4.57   44.18            0.39     0.37     0.32            0.18     0.11     0.10           0.21    0.23
A18         65.91   69.31   54.82          86.66   -2.03    2.48           3.22   129.03            0.58     0.44     0.42            0.21     0.39     0.23           0.44    0.50 
A19         63.53   66.83   56.03          85.42   -2.07   -0.93           2.27   203.64            0.59     0.53     0.25            0.27     0.23     0.29           0.40    0.45
A20          7.22    3.43    2.23          21.69   48.31    4.95          48.56    5.85            0.15     0.07     0.07            0.25     0.37     0.24           0.42    0.51 
A21         29.68   21.59   17.93          53.59   37.64   -0.24          37.65   215.63            0.42     0.35     0.50            0.38     0.10     0.55           0.56    0.67
A22         56.75   54.91   39.57          78.99    9.58    7.23          12.01   37.04            0.74     0.86     0.79            0.50     0.32     0.35           0.60    0.69
B1           4.00    3.68    1.98          22.57    6.87    8.85          11.20   52.19            0.11     0.11     0.07            0.37     0.11     0.12           0.34    0.40
B2           4.68    3.67    1.28          22.53   16.32   16.54          23.24   45.37            0.10     0.08     0.04            0.30     0.12     0.26           0.36    0.41
B3           5.36    3.65    0.77          22.49   24.92   24.20          34.74   44.16            0.12     0.09     0.02            0.30     0.18     0.19           0.34    0.40
B4           6.36    3.60    0.23          22.30   36.86   34.09          50.21   42.76            0.12     0.07     0.01            0.26     0.20     0.37           0.40    0.50
B5          15.14   13.73    7.92          43.84   11.83   11.62          16.59   44.48            0.38     0.35     0.28            0.50     0.16     0.29           0.51    0.60
B6          17.37   13.68    5.13          43.77   24.73   23.83          34.34   43.93            0.37     0.32     0.19            0.46     0.17     0.28           0.48    0.56
B7          19.51   13.40    3.11          43.36   37.63   35.32          51.61   43.19            0.31     0.23     0.10            0.34     0.18     0.30           0.42    0.49
B8          21.09   12.47    1.55          41.95   51.46   46.73          69.51   42.24            0.11     0.09     0.04            0.14     0.11     0.28           0.27    0.33
B9          39.66   40.02   30.36          69.48    3.39    4.08           5.31   50.07            0.87     0.89     0.84            0.63     0.15     0.52           0.71    0.83
B10         41.61   40.13   27.54          69.56    9.05    8.80          12.63   44.16            0.89     0.91     0.81            0.65     0.17     0.44           0.69    0.80
B11         42.71   39.66   24.67          69.22   13.81   13.21          19.12   43.71            0.86     0.90     0.78            0.64     0.23     0.48           0.70    0.83
B12         44.74   39.30   21.17          68.97   20.83   19.43          28.49   43.00            0.76     0.87     0.78            0.63     0.51     0.58           0.84    0.99
B13         60.68   65.32   55.00          84.65   -5.36   -1.17           5.49   192.21            0.72     0.59     0.40            0.30     0.40     0.25           0.48    0.56
B14         63.76   63.74   53.77          83.83    5.31   -1.27           5.47   346.68            0.79     0.90     0.46            0.47     0.23     0.42           0.58    0.67
B15         65.87   68.25   49.29          86.13    0.15    7.65           7.66   88.83            0.65     0.57     0.71            0.29     0.24     0.40           0.45    0.55
B16         56.42   59.10   48.15          81.35   -1.40    0.72           1.61   153.63            1.00     1.04     0.74            0.57     0.07     0.36           0.57    0.68
B17         62.33   62.40   48.18          83.12    5.07    3.74           6.31   36.45            0.87     0.97     0.74            0.51     0.22     0.28           0.53    0.63
B18         59.59   64.54   49.61          84.24   -6.20    4.04           7.41   146.90            0.73     0.59     0.65            0.31     0.43     0.32           0.53    0.62
B19         57.94   60.73   53.71          82.23   -1.50   -3.95           4.23   248.93            0.88     0.92     0.43            0.50     0.08     0.49           0.60    0.70
B20          5.90    3.60    1.17          22.31   31.93   17.64          36.48   28.91            0.15     0.09     0.04            0.33     0.23     0.22           0.40    0.46
B21         19.61   13.50    5.06          43.50   37.56   23.75          44.44   32.30            0.33     0.24     0.14            0.34     0.17     0.24           0.39    0.46
B22         37.85   33.10   21.04          64.23   20.24   11.53          23.30   29.65            0.67     0.66     0.62            0.53     0.17     0.43           0.60    0.70
C1           7.65    7.61    4.01          33.15    2.99   11.76          12.14   75.71            0.22     0.21     0.15            0.46     0.09     0.25           0.47    0.53
C2           8.20    7.68    2.51          33.31    7.28   22.56          23.71   72.13            0.20     0.19     0.08            0.41     0.17     0.19           0.43    0.48
C3           8.70    7.58    1.31          33.09   12.59   34.42          36.65   69.90            0.19     0.17     0.04            0.38     0.17     0.18           0.39    0.45
C4           9.52    7.68    0.51          33.30   18.59   47.83          51.31   68.76            0.17     0.14     0.01            0.30     0.16     0.37           0.42    0.50
C5          27.83   27.28   14.23          59.23    6.13   18.41          19.41   71.59            0.67     0.68     0.53            0.62     0.15     0.35           0.57    0.73
C6          29.41   26.98    7.71          58.96   13.47   38.50          40.79   70.72            0.60     0.61     0.29            0.56     0.22     0.28           0.53    0.66
C7          31.12   26.53    3.65          58.54   21.68   57.80          61.73   69.44            0.51     0.51     0.11            0.47     0.21     0.25           0.47    0.58
C8          33.15   25.90    0.97          57.94   31.56   81.94          87.81   68.94            0.26     0.24     0.02            0.23     0.13     0.24           0.31    0.36
C9          46.11   47.19   33.80          74.31    1.73    7.18           7.39   76.39            0.95     1.00     0.92            0.63     0.16     0.52           0.72    0.83
C10         47.07   47.25   29.03          74.35    4.25   14.59          15.20   73.76            1.00     1.07     0.89            0.68     0.19     0.49           0.73    0.86
C11         47.83   46.87   24.25          74.10    7.42   22.39          23.59   71.66            0.98     1.08     0.83            0.68     0.27     0.50           0.75    0.89
C12         49.20   46.30   16.64          73.74   12.73   37.46          39.57   71.23            0.79     0.95     0.61            0.61     0.52     0.44           0.75    0.92
C13         55.03   61.59   54.54          82.69  -10.65   -4.05          11.40   200.81            0.79     0.65     0.40            0.35     0.48     0.30           0.56    0.67
C14         59.26   56.65   51.68          79.98   11.39   -5.63          12.71   333.78            0.92     1.09     0.53            0.61     0.46     0.56           0.80    0.95
C15         64.21   66.93   41.28          85.47   -0.74   16.19          16.21   92.60            0.69     0.61     0.89            0.31     0.25     0.64           0.61    0.76
C16         45.38   47.62   39.16          74.58   -1.53    0.19           1.59   173.75            1.13     1.19     0.86            0.75     0.12     0.42           0.74    0.87
C17         55.73   53.23   39.05          78.01   11.27    6.24          12.88   28.97            0.90     1.04     0.87            0.61     0.38     0.33           0.68    0.79
C18         52.49   59.70   41.96          81.67  -12.75    8.78          15.48   145.45            0.82     0.67     0.77            0.36     0.56     0.44           0.69    0.80
C19         48.54   50.96   51.35          76.65   -1.63  -11.00          11.12   261.55            0.97     1.05     0.48            0.63     0.13     0.63           0.78    0.91
C20         14.48   10.80    1.41          39.24   27.66   43.71          51.73   57.68            0.30     0.23     0.03            0.39     0.17     0.31           0.46    0.53
C21         25.94   24.53   14.00          56.61    9.80   14.48          17.49   55.91            0.59     0.56     0.43            0.55     0.17     0.35           0.59    0.67
C22         31.43   27.25   13.18          59.20   19.92   21.17          29.07   46.75            0.66     0.63     0.45            0.57     0.12     0.37           0.58    0.69
D1           4.99    5.28    2.79          27.51   -1.20   10.36          10.43   96.60            0.15     0.16     0.10            0.44     0.13     0.18           0.44    0.49
D2           5.07    5.47    1.70          28.02   -2.38   21.06          21.19   96.45            0.14     0.16     0.06            0.42     0.14     0.17           0.40    0.48
D3           5.05    5.42    1.07          27.89   -2.10   28.70          28.78   94.18            0.12     0.14     0.03            0.37     0.18     0.22           0.39    0.46
D4           5.00    5.34    0.51          27.67   -1.86   38.02          38.07   92.81            0.09     0.10     0.01            0.26     0.12     0.31           0.36    0.42
D5          20.93   22.15   11.12          54.18   -2.00   18.49          18.59   96.19            0.53     0.57     0.42            0.60     0.12     0.37           0.57    0.72
D6          20.69   22.04    6.01          54.07   -2.73   37.29          37.39   94.18            0.46     0.52     0.20            0.55     0.20     0.21           0.51    0.62
D7          19.99   21.40    2.85          53.38   -3.13   54.52          54.61   93.28            0.42     0.47     0.08            0.50     0.21     0.34           0.51    0.64
D8          19.89   21.25    1.12          53.22   -2.96   71.68          71.74   92.36            0.28     0.31     0.02            0.33     0.14     0.37           0.45    0.52
D9          51.60   54.49   29.77          78.74   -2.45   21.00          21.14   96.66            0.93     0.99     0.91            0.57     0.11     0.56           0.70    0.81
D10         50.58   53.74   17.02          78.31   -3.24   44.45          44.57   94.18            0.79     0.84     0.55            0.49     0.13     0.52           0.61    0.73
D11         49.32   52.26    8.02          77.44   -2.89   69.15          69.21   92.39            0.65     0.62     0.21            0.37     0.21     0.31           0.44    0.52
D12         48.32   50.69    4.51          76.49   -1.53   83.60          83.61   91.05            0.53     0.44     0.10            0.27     0.35     0.19           0.40    0.48
D13         49.82   57.89   54.00          80.68  -15.50   -6.95          16.98   204.15            0.80     0.68     0.39            0.38     0.53     0.35           0.62    0.74
D14         54.70   49.76   49.40          75.92   17.68  -10.08          20.35   330.35            0.85     1.01     0.50            0.62     0.53     0.57           0.82    1.00
D15         62.69   65.62   33.62          84.80   -1.34   25.55          25.59   93.00            0.68     0.62     0.89            0.31     0.23     0.79           0.70    0.88
D16         35.01   36.72   30.56          67.06   -1.35   -0.40           1.45   196.08            1.05     1.12     0.90            0.84     0.14     0.39           0.81    0.93
D17         48.96   44.20   30.36          72.36   18.04    9.04          20.18   26.62            0.88     1.00     0.85            0.66     0.48     0.31           0.74    0.87
D18         45.86   54.83   34.35          78.94  -18.96   14.37          23.79   142.83            0.83     0.70     0.76            0.40     0.61     0.50           0.77    0.89
D19         39.70   41.69   48.75          70.65   -1.57  -18.41          18.48   265.10            0.90     0.98     0.47            0.68     0.16     0.70           0.84    0.98
D20          3.62    3.68    1.31          22.58    1.04   16.27          16.30   86.33            0.10     0.10     0.03            0.36     0.12     0.24           0.39    0.45
D21         34.49   32.02    1.67          63.36   12.85   82.28          83.28   81.13            0.57     0.56     0.04            0.46     0.13     0.39           0.53    0.61
D22         46.32   50.28   51.34          76.24   -5.99  -11.71          13.16   242.82            0.99     1.07     0.42            0.65     0.10     0.72           0.82    0.98
E1           6.76    7.73    4.08          33.41   -6.85   11.79          13.64   120.15            0.21     0.23     0.14            0.49     0.15     0.14           0.46    0.53
E2           6.13    7.54    2.64          33.01  -11.70   21.04          24.08   119.08            0.16     0.19     0.08            0.41     0.15     0.18           0.41    0.47
E3           5.54    7.50    1.58          32.91  -17.90   30.78          35.61   120.17            0.13     0.18     0.04            0.39     0.17     0.29           0.42    0.51
E4           5.09    7.49    0.73          32.90  -23.25   43.01          48.89   118.39            0.11     0.15     0.01            0.32     0.15     0.35           0.42    0.50
E5          29.20   33.34   18.54          64.43  -10.93   17.10          20.30   122.58            0.74     0.82     0.60            0.65     0.10     0.31           0.58    0.73
E6          26.38   32.80   11.37          63.99  -20.22   34.65          40.12   120.27            0.62     0.75     0.38            0.61     0.21     0.25           0.57    0.69
E7          23.50   31.69    5.82          63.09  -28.56   53.74          60.86   117.99            0.42     0.52     0.15            0.43     0.12     0.18           0.41    0.48
E8          20.99   30.08    3.60          61.72  -34.22   63.59          72.21   118.29            0.24     0.26     0.06            0.22     0.26     0.21           0.34    0.40
E9          50.33   54.70   37.87          78.86   -6.31    9.30          11.24   124.20            0.95     0.99     0.87            0.57     0.13     0.38           0.59    0.69
E10         47.74   54.16   30.47          78.55  -12.01   19.55          22.95   121.57            0.89     0.89     0.84            0.51     0.25     0.54           0.65    0.79
E11         45.01   52.99   23.83          77.87  -16.75   29.65          34.05   119.46            0.87     0.80     0.70            0.47     0.47     0.53           0.69    0.85
E12         43.20   52.00   20.17          77.28  -19.48   35.79          40.75   118.56            0.79     0.68     0.63            0.41     0.58     0.60           0.72    0.93
E13         45.00   54.28   53.40          78.62  -20.05   -9.84          22.33   206.15            0.77     0.66     0.35            0.38     0.55     0.37           0.63    0.77
E14         50.38   43.55   47.11          71.92   23.72  -14.32          27.71   328.89            0.85     0.99     0.53            0.66     0.60     0.58           0.88    1.06
E15         61.21   64.16   26.44          84.05   -1.52   35.65          35.69   92.43            0.66     0.60     0.75            0.31     0.22     0.77           0.67    0.86
E16         25.92   27.29   22.62          59.23   -1.61   -0.19           1.64   186.84            0.79     0.83     0.71            0.75     0.19     0.28           0.70    0.82
E17         42.61   36.15   22.33          66.63   24.65   13.13          27.93   28.03            0.72     0.78     0.70            0.59     0.43     0.42           0.71    0.84
E18         39.63   49.90   27.11          76.01  -24.86   20.64          32.31   140.29            0.77     0.67     0.64            0.41     0.62     0.41           0.71    0.85
E19         31.81   33.44   46.04          64.51   -1.55  -25.84          25.89   266.55            0.80     0.90     0.48            0.72     0.24     0.72           0.89    1.05
E20          8.64   10.38    1.67          38.51  -11.19   39.46          41.02   105.83            0.24     0.28     0.04            0.49     0.14     0.46           0.58    0.69
E21         28.59   33.89    7.42          64.87  -15.20   49.84          52.10   106.96            0.69     0.77     0.20            0.61     0.12     0.35           0.60    0.71
E22          9.83   20.04   16.48          51.88  -59.05    0.13          59.05   179.88            0.18     0.25     0.46            0.28     0.26     0.61           0.58    0.72
F1           4.53    5.56    3.79          28.28  -10.43    4.75          11.47   155.51            0.14     0.17     0.14            0.44     0.12     0.19           0.43    0.50
F2           3.54    5.37    3.10          27.77  -22.50    8.46          24.04   159.40            0.11     0.14     0.10            0.39     0.10     0.15           0.36    0.43
F3           2.84    5.22    2.71          27.36  -32.45   10.74          34.18   161.68            0.09     0.15     0.09            0.40     0.20     0.15           0.40    0.48
F4           2.01    5.20    1.86          27.29  -48.94   18.12          52.19   159.69            0.05     0.13     0.06            0.36     0.35     0.21           0.43    0.54
F5          13.85   17.48   12.48          48.85  -17.72    5.27          18.49   163.46            0.38     0.46     0.46            0.56     0.15     0.39           0.58    0.70
F6          11.13   17.29   10.34          48.61  -35.08   11.34          36.87   162.08            0.29     0.41     0.36            0.51     0.17     0.31           0.50    0.62
F7           8.76   16.69    8.27          47.86  -50.55   17.21          53.40   161.20            0.21     0.35     0.27            0.44     0.18     0.28           0.45    0.55
F8           6.75   15.53    6.87          46.35  -62.72   20.19          65.89   162.16            0.11     0.19     0.18            0.25     0.06     0.35           0.35    0.43
F9          34.88   40.03   31.13          69.48  -12.21    2.89          12.55   166.71            0.91     1.00     0.88            0.71     0.12     0.31           0.65    0.78
F10         31.14   39.56   28.60          69.15  -24.00    6.35          24.83   165.19            0.83     0.95     0.88            0.68     0.14     0.42           0.68    0.81
F11         27.62   38.50   25.41          68.39  -34.15   10.44          35.72   163.01            0.68     0.77     0.82            0.56     0.30     0.53           0.66    0.83
F12         24.12   36.59   23.50          66.97  -42.59   11.49          44.11   164.91            0.49     0.50     0.71            0.38     0.51     0.68           0.73    0.93
F13         40.69   50.86   52.75          76.59  -24.08  -12.64          27.20   207.70            0.69     0.62     0.34            0.37     0.50     0.37           0.59    0.72
F14         46.10   37.68   44.62          67.78   29.84  -18.49          35.10   328.22            0.76     0.85     0.50            0.63     0.57     0.54           0.84    1.01
F15         60.08   62.84   20.93          83.36   -1.21   44.72          44.74   91.55            0.65     0.60     0.61            0.31     0.20     0.72           0.64    0.81
F16         18.49   19.41   16.37          51.16   -1.15   -0.83           1.45   214.99            0.59     0.61     0.59            0.70     0.16     0.32           0.68    0.79
F17         36.74   29.03   16.08          60.80   31.44   16.49          35.50   27.68            0.58     0.60     0.57            0.52     0.38     0.53           0.69    0.83
F18         34.21   45.28   21.26          73.08  -29.99   26.33          39.91   138.72            0.70     0.64     0.58            0.42     0.59     0.49           0.75    0.88
F19         25.07   26.18   43.13          58.20   -0.71  -33.16          33.17   268.76            0.68     0.76     0.50            0.71     0.25     0.66           0.86    1.00
