targets/wolf_faust/transmissive/A050407.it8
IT8.7/1
ORIGINATOR "Wolf Faust"
DESCRIPTOR "Agfachrome RSX, RSX II and CT Precisa, Type 3, L* a* b* (light D50, viewing angle 2)"
MANUFACTURER "Wolf Faust - http://www.coloraid.de"
CREATED "July 17, 2005"
PROD_DATE "2005:04"
DIFFUSE_GEOMETRY "opal"
SERIAL "A050407 Batch Average Data"
MATERIAL "Agfachrome RSX II"
KEYWORD "MEAN_DE" # Mean Delta E of samples compared to batch average
NUMBER_OF_FIELDS 18
BEGIN_DATA_FORMAT
SAMPLE_ID  XYZ_X   XYZ_Y   XYZ_Z          LAB_L   LAB_A   LAB_B          LAB_C   LAB_H          D_RED  D_GREEN  D_BLUE  D_VIS          STDEV_X STDEV_Y STDEV_Z        MEAN_DE  STDEV_DE
END_DATA_FORMAT
NUMBER_OF_SETS 288
BEGIN_DATA
A1          2.63    2.36    1.43          17.25    7.24    5.57           9.15   37.46           1.42    1.77    1.92    1.60            0.07    0.06    0.04           0.61     0.66
A2          3.17    2.30    1.27          16.99   17.98    7.13          19.35   21.62           1.25    1.94    1.95    1.58            0.08    0.06    0.04           0.62     0.67 
A3          3.64    2.12    0.97          16.12   29.28    9.96          30.93   18.79           1.10    2.25    2.05    1.57            0.09    0.05    0.03           0.69     0.73
A4          4.42    2.07    0.81          15.84   41.72   12.06          43.43   16.12           0.94    2.90    2.05    1.53            0.09    0.04    0.03           0.66     0.70 
A5         11.25   10.05    6.62          37.93   11.83    6.71          13.61   29.56           0.81    1.11    1.18    0.97            0.29    0.26    0.21           0.61     0.68
A6         13.50   10.13    5.59          38.07   26.52   11.72          29.00   23.83           0.64    1.23    1.25    0.94            0.34    0.26    0.18           0.61     0.70 
A7         15.76   10.00    4.78          37.85   41.27   15.45          44.07   20.52           0.50    1.42    1.30    0.91            0.32    0.22    0.15           0.54     0.63
A8         17.31    9.30    3.95          36.55   55.57   18.02          58.42   17.97           0.40    1.74    1.36    0.91            0.21    0.15    0.13           0.49     0.55 
A9         32.05   31.81   23.08          63.18    5.04    5.74           7.65   48.58           0.43    0.53    0.59    0.49            0.82    0.84    0.78           0.79     0.89
A10        34.30   31.91   22.25          63.27   12.59    7.48          14.65   30.69           0.36    0.56    0.60    0.48            0.76    0.76    0.72           0.77     0.86
A11        36.61   32.13   20.66          63.44   19.62   10.92          22.46   29.09           0.29    0.60    0.64    0.46            0.73    0.73    0.70           0.79     0.90
A12        39.40   32.18   19.75          63.49   28.41   12.89          31.21   24.39           0.22    0.64    0.65    0.45            0.63    0.66    0.72           0.85     0.99 
A13        64.91   68.70   56.20          86.35   -2.97    0.51           3.02  170.06           0.19    0.15    0.17    0.17            0.53    0.45    0.28           0.30     0.36
A14        70.52   71.63   56.09          87.79    3.13    3.10           4.40   44.70           0.12    0.15    0.17    0.14            0.32    0.35    0.27           0.19     0.21 
A15        70.86   72.30   55.34          88.11    2.43    4.44           5.07   61.35           0.12    0.15    0.17    0.14            0.28    0.28    0.31           0.20     0.21
A16        67.27   69.82   56.05          86.91   -0.13    1.62           1.63   94.72           0.16    0.15    0.17    0.16            0.38    0.35    0.25           0.23     0.25
A17        70.36   71.61   55.28          87.78    2.83    3.93           4.85   54.20           0.12    0.15    0.17    0.14            0.27    0.29    0.27           0.17     0.19
A18        65.07   68.73   53.31          86.37   -2.67    3.60           4.49  126.49           0.18    0.15    0.19    0.16            0.53    0.46    0.45           0.34     0.39 
A19        63.41   66.80   55.51          85.40   -2.26   -0.41           2.30  190.15           0.20    0.17    0.17    0.18            0.51    0.48    0.27           0.30     0.34
A20         6.71    3.18    1.96          20.73   47.31    5.83          47.67    7.03           0.78    2.62    1.63    1.35            0.13    0.06    0.06           0.50     0.57 
A21        28.70   20.95   14.98          52.89   36.90    5.54          37.31    8.54           0.31    0.92    0.76    0.62            0.40    0.33    0.45           0.65     0.73
A22        55.11   53.04   35.45          77.89   10.23   10.98          15.01   47.02           0.17    0.32    0.39    0.26            0.70    0.79    0.92           0.65     0.79
B1          3.99    3.75    1.98          22.84    5.51    9.30          10.82   59.27           1.26    1.52    1.79    1.41            0.10    0.09    0.06           0.67     0.70
B2          4.49    3.58    1.28          22.23   15.09   16.00          22.00   46.67           1.13    1.65    2.01    1.39            0.12    0.10    0.03           0.64     0.69
B3          5.23    3.62    0.78          22.37   23.89   23.84          33.75   44.93           1.00    1.77    2.28    1.36            0.14    0.10    0.02           0.64     0.69
B4          6.17    3.58    0.22          22.23   35.17   34.18          49.04   44.18           0.87    2.02    3.05    1.33            0.15    0.09    0.01           0.51     0.62
B5         14.40   13.29    6.86          43.19   10.14   14.79          17.93   55.55           0.71    0.97    1.18    0.85            0.37    0.34    0.20           0.62     0.69
B6         16.66   13.31    4.59          43.23   23.18   25.77          34.66   48.02           0.56    1.06    1.39    0.82            0.42    0.34    0.14           0.74     0.83
B7         18.85   13.17    2.94          43.01   35.79   35.96          50.74   45.13           0.45    1.18    1.62    0.80            0.41    0.31    0.08           0.75     0.83
B8         21.17   12.59    1.43          42.13   51.07   48.50          70.43   43.52           0.34    1.41    1.99    0.79            0.23    0.19    0.03           0.52     0.57
B9         37.67   38.17   26.55          68.14    2.81    8.04           8.52   70.72           0.37    0.44    0.53    0.41            0.93    0.96    0.87           0.77     0.88
B10        39.82   38.35   23.72          68.28    9.08   13.33          16.13   55.73           0.31    0.47    0.58    0.40            0.85    0.88    0.75           0.75     0.85
B11        41.25   38.36   21.29          68.28   13.46   17.99          22.47   53.19           0.26    0.49    0.63    0.39            0.87    0.91    0.67           0.75     0.88
B12        43.91   38.49   18.32          68.37   21.00   24.38          32.18   49.26           0.20    0.52    0.71    0.38            0.71    0.81    0.59           0.82     0.95
B13        59.84   64.76   54.06          84.36   -6.10   -0.67           6.14  186.26           0.25    0.17    0.19    0.20            0.62    0.56    0.39           0.35     0.41
B14        63.14   62.97   52.58          83.43    5.62   -0.68           5.66  353.21           0.16    0.22    0.19    0.20            0.62    0.73    0.42           0.44     0.53
B15        65.18   67.79   46.69          85.90   -0.42   10.28          10.29   92.32           0.16    0.17    0.26    0.16            0.57    0.54    0.65           0.42     0.50
B16        55.08   57.81   45.63          80.63   -1.64    2.44           2.95  124.04           0.25    0.23    0.27    0.24            0.75    0.78    0.77           0.48     0.55
B17        61.20   61.14   45.44          82.45    5.33    5.82           7.90   47.50           0.16    0.23    0.27    0.21            0.66    0.76    0.79           0.50     0.58
B18        58.35   63.69   46.97          83.80   -7.27    6.33           9.64  138.95           0.25    0.17    0.26    0.20            0.71    0.62    0.67           0.49     0.56
B19        56.83   59.62   52.50          81.63   -1.61   -3.69           4.03  246.26           0.25    0.22    0.20    0.23            0.73    0.79    0.43           0.47     0.55
B20         5.64    3.55    1.12          22.13   29.74   18.08          34.81   31.30           0.94    1.90    2.03    1.36            0.15    0.09    0.04           0.62     0.67
B21        18.93   13.24    4.61          43.12   35.75   25.49          43.91   35.48           0.45    1.18    1.36    0.80            0.37    0.28    0.12           0.56     0.63
B22        36.41   31.92   17.75          63.27   19.72   16.86          25.95   40.53           0.29    0.60    0.71    0.46            0.66    0.65    0.55           0.65     0.76
C1          7.50    7.64    3.79          33.21    1.29   13.20          13.27   84.42           1.04    1.16    1.48    1.11            0.16    0.15    0.10           0.62     0.70
C2          7.97    7.61    2.38          33.15    5.98   23.39          24.14   75.64           0.97    1.20    1.75    1.09            0.20    0.19    0.07           0.70     0.76
C3          8.57    7.70    1.35          33.36   10.34   34.31          35.83   73.23           0.91    1.22    2.11    1.07            0.22    0.19    0.04           0.69     0.76
C4          8.98    7.42    0.49          32.74   16.56   47.21          50.03   70.67           0.86    1.29    2.89    1.07            0.20    0.16    0.01           0.52     0.66
C5         26.50   26.19   12.20          58.22    5.16   22.20          22.80   76.91           0.48    0.63    0.92    0.56            0.66    0.66    0.41           0.71     0.83
C6         28.67   26.44    7.23          58.45   12.81   39.51          41.54   72.03           0.39    0.66    1.21    0.54            0.63    0.63    0.21           0.75     0.87
C7         30.18   26.01    3.46          58.04   20.33   58.20          61.65   70.74           0.34    0.71    1.66    0.54            0.61    0.59    0.10           0.81     0.93
C8         32.97   25.86    0.93          57.90   31.09   82.53          88.19   69.36           0.27    0.78    2.75    0.52            0.43    0.39    0.02           0.48     0.59
C9         43.96   44.97   29.69          72.87    1.75   10.99          11.13   80.95           0.31    0.36    0.48    0.34            1.03    1.10    0.96           0.82     0.93
C10        45.21   45.24   25.41          73.05    4.60   18.49          19.05   76.03           0.27    0.37    0.56    0.33            0.99    1.06    0.78           0.81     0.91
C11        46.28   45.30   21.11          73.08    7.48   26.64          27.67   74.31           0.24    0.39    0.65    0.32            0.87    0.96    0.61           0.75     0.87
C12        47.91   44.62   14.07          72.64   13.95   41.94          44.20   71.60           0.18    0.42    0.87    0.32            0.71    0.86    0.40           0.82     0.94
C13        54.15   60.94   53.65          82.35  -11.41   -3.70          11.99  197.95           0.33    0.18    0.19    0.23            0.64    0.58    0.39           0.40     0.47
C14        58.50   55.66   50.33          79.42   11.99   -5.09          13.03  336.99           0.17    0.30    0.21    0.24            0.64    0.77    0.44           0.53     0.64
C15        63.37   66.33   37.71          85.16   -1.32   20.38          20.42   93.70           0.16    0.18    0.37    0.17            0.58    0.54    0.71           0.57     0.67
C16        43.75   45.96   35.75          73.52   -1.66    3.02           3.45  119.19           0.35    0.34    0.38    0.34            0.84    0.85    0.87           0.69     0.76
C17        54.12   51.43   35.23          76.93   11.87    9.64          15.30   39.08           0.18    0.34    0.39    0.27            0.76    0.88    0.81           0.67     0.77
C18        51.03   58.60   38.34          81.07  -13.98   12.46          18.73  138.29           0.33    0.19    0.36    0.24            0.75    0.66    0.76           0.63     0.73
C19        47.31   49.66   50.03          75.86   -1.60  -10.89          11.01  261.61           0.35    0.30    0.21    0.31            0.83    0.89    0.47           0.64     0.72
C20        14.16   10.81    1.34          39.26   25.62   44.62          51.46   60.14           0.61    1.19    2.12    0.90            0.29    0.23    0.04           0.58     0.64
C21        24.36   23.26   11.67          55.33    8.61   18.79          20.67   65.37           0.50    0.70    0.93    0.61            0.55    0.53    0.35           0.62     0.69
C22        30.02   26.15   11.50          58.18   19.12   24.20          30.84   51.69           0.36    0.70    0.94    0.55            0.59    0.56    0.34           0.59     0.67
D1          4.90    5.34    2.66          27.68   -3.05   11.67          12.07  104.68           1.25    1.29    1.67    1.27            0.11    0.12    0.08           0.64     0.71
D2          4.86    5.27    1.68          27.49   -2.81   20.34          20.53   97.88           1.25    1.29    1.95    1.27            0.12    0.13    0.05           0.61     0.66
D3          4.71    5.20    0.99          27.29   -3.79   28.82          29.06   97.50           1.27    1.28    2.31    1.27            0.11    0.12    0.03           0.51     0.58
D4          4.89    5.38    0.51          27.78   -3.68   38.23          38.41   95.50           1.27    1.26    2.89    1.25            0.11    0.12    0.01           0.43     0.53
D5         19.87   21.32    9.89          53.29   -3.33   20.86          21.13   99.08           0.65    0.68    1.03    0.67            0.50    0.54    0.31           0.69     0.80
D6         19.93   21.48    5.73          53.47   -3.81   37.56          37.75   95.79           0.64    0.67    1.35    0.66            0.54    0.58    0.17           0.82     0.97
D7         19.55   21.15    2.72          53.10   -4.13   55.06          55.21   94.29           0.65    0.67    1.86    0.66            0.48    0.51    0.07           0.79     0.94
D8         19.36   20.98    1.10          52.93   -4.35   71.42          71.55   93.48           0.68    0.68    2.72    0.66            0.42    0.44    0.02           0.63     0.77
D9         49.74   52.47   25.87          77.56   -2.26   25.44          25.55   95.08           0.26    0.28    0.56    0.27            1.08    1.16    0.84           0.78     0.90
D10        49.08   51.77   15.02          77.14   -2.26   47.25          47.30   92.74           0.24    0.29    0.86    0.27            0.87    0.94    0.41           0.66     0.76
D11        48.43   51.30    7.64          76.86   -2.80   69.62          69.68   92.30           0.24    0.30    1.28    0.27            0.62    0.60    0.20           0.61     0.73
D12        47.43   49.94    4.30          76.03   -1.99   83.97          84.00   91.36           0.25    0.31    1.70    0.28            0.51    0.40    0.11           0.61     0.73
D13        48.92   57.20   53.12          80.29  -16.27   -6.67          17.59  202.29           0.42    0.19    0.19    0.26            0.64    0.58    0.39           0.43     0.52
D14        54.26   49.29   48.12          75.63   17.82   -9.11          20.01  332.93           0.18    0.37    0.22    0.29            0.60    0.72    0.43           0.55     0.68
D15        61.86   64.94   30.23          84.45   -1.74   30.10          30.15   93.30           0.15    0.19    0.49    0.18            0.55    0.53    0.68           0.64     0.76
D16        33.59   35.51   27.31          66.14   -2.25    3.29           3.99  124.60           0.46    0.45    0.51    0.45            0.76    0.79    0.71           0.69     0.76
D17        47.93   43.21   26.96          71.69   18.08   13.45          22.54   36.65           0.19    0.45    0.51    0.34            0.66    0.75    0.71           0.68     0.81
D18        44.41   53.64   30.93          78.25  -20.12   18.30          27.20  137.72           0.42    0.21    0.47    0.28            0.71    0.63    0.71           0.73     0.82
D19        38.66   40.81   47.52          70.04   -2.16  -18.05          18.18  263.18           0.47    0.38    0.23    0.40            0.72    0.78    0.43           0.61     0.73
D20         3.60    3.72    1.24          22.71    0.28   17.42          17.42   89.08           1.35    1.47    2.09    1.42            0.09    0.09    0.04           0.46     0.52
D21        33.20   30.99    1.78          62.50   12.07   79.70          80.61   81.39           0.35    0.58    2.28    0.47            0.56    0.55    0.04           0.60     0.72
D22        43.69   47.98   49.85          74.81   -7.39  -12.51          14.53  239.42           0.43    0.29    0.22    0.33            0.74    0.82    0.47           0.52     0.65
E1          6.17    7.32    3.95          32.51   -9.13   11.05          14.33  129.61           1.22    1.11    1.47    1.15            0.14    0.16    0.10           0.62     0.69
E2          5.73    7.35    2.39          32.59  -14.27   22.36          26.53  122.54           1.29    1.07    1.79    1.15            0.13    0.17    0.06           0.61     0.66
E3          5.51    7.60    1.63          33.14  -19.20   30.68          36.20  122.04           1.36    1.03    2.08    1.14            0.13    0.18    0.04           0.59     0.68
E4          5.02    7.49    0.72          32.89  -24.06   43.06          49.32  119.20           1.50    1.00    2.83    1.15            0.12    0.17    0.01           0.49     0.59
E5         27.51   31.71   16.07          63.10  -11.81   20.46          23.62  120.00           0.57    0.47    0.79    0.50            0.72    0.79    0.55           0.70     0.81
E6         25.16   31.30   10.35          62.76  -19.96   35.68          40.88  119.23           0.64    0.45    1.05    0.51            0.60    0.70    0.28           0.62     0.75
E7         22.02   29.96    5.65          61.62  -28.94   52.02          59.53  119.09           0.77    0.43    1.45    0.54            0.45    0.56    0.13           0.74     0.87
E8         20.14   28.98    3.22          60.77  -34.24   64.50          73.02  117.96           0.87    0.42    1.89    0.55            0.34    0.35    0.06           0.57     0.66
E9         48.05   52.37   33.65          77.50   -6.62   12.91          14.51  117.19           0.31    0.27    0.42    0.28            1.15    1.19    1.00           0.78     0.89
E10        45.69   52.00   26.65          77.28  -12.27   23.62          26.62  117.45           0.35    0.25    0.55    0.29            0.97    1.00    0.81           0.77     0.88
E11        43.02   51.12   20.97          76.75  -17.75   33.23          37.68  118.10           0.39    0.25    0.68    0.30            0.81    0.80    0.56           0.68     0.77
E12        41.26   50.25   17.78          76.22  -20.74   39.11          44.27  117.93           0.42    0.24    0.78    0.30            0.64    0.60    0.48           0.76     0.84
E13        44.16   53.59   52.53          78.22  -20.72   -9.60          22.83  204.86           0.51    0.20    0.20    0.30            0.61    0.56    0.38           0.44     0.54
E14        49.92   43.15   45.71          71.65   23.66  -13.13          27.06  330.97           0.20    0.46    0.24    0.35            0.58    0.68    0.45           0.58     0.70
E15        60.58   63.57   23.90          83.74   -1.68   39.64          39.68   92.43           0.15    0.20    0.61    0.18            0.49    0.49    0.51           0.57     0.68
E16        24.97   26.56   20.25          58.56   -2.69    3.35           4.30  129.13           0.59    0.58    0.65    0.58            0.52    0.53    0.58           0.69     0.77
E17        42.02   35.69   19.90          66.28   24.43   17.38          29.98   35.42           0.21    0.57    0.66    0.41            0.54    0.60    0.54           0.67     0.81
E18        38.44   48.80   24.47          75.33  -25.68   24.09          35.21  136.82           0.51    0.24    0.60    0.33            0.64    0.60    0.57           0.66     0.78
E19        30.99   32.82   44.85          64.01   -2.40  -25.26          25.37  264.57           0.60    0.47    0.26    0.51            0.60    0.66    0.42           0.60     0.71
E20         8.22   10.00    1.56          37.84  -11.98   39.51          41.28  106.87           1.10    0.95    2.14    1.00            0.17    0.20    0.04           0.52     0.59
E21        27.10   32.22    6.97          63.52  -15.23   49.37          51.67  107.15           0.57    0.45    1.30    0.49            0.54    0.61    0.21           0.64     0.74
E22         8.92   18.80   13.91          50.45  -60.24    4.08          60.38  176.12           1.90    0.51    0.89    0.81            0.15    0.23    0.37           0.46     0.60
F1          4.23    5.40    3.46          27.85  -12.61    6.12          14.03  154.12           1.44    1.22    1.53    1.29            0.12    0.14    0.08           0.55     0.61
F2          3.52    5.42    2.96          27.88  -23.25    9.71          25.20  157.34           1.66    1.15    1.64    1.31            0.10    0.14    0.09           0.59     0.66
F3          2.84    5.26    2.60          27.46  -32.92   11.78          34.97  160.31           1.94    1.11    1.74    1.34            0.07    0.13    0.08           0.58     0.63
F4          2.03    5.25    2.03          27.42  -49.07   16.69          51.83  161.22           2.59    1.03    1.96    1.36            0.04    0.11    0.06           0.55     0.62
F5         13.06   16.88   11.21          48.10  -19.57    7.72          21.04  158.49           0.99    0.70    0.96    0.80            0.39    0.49    0.41           0.66     0.75
F6         10.63   16.59    9.25          47.74  -35.01   13.46          37.51  158.97           1.25    0.65    1.08    0.82            0.28    0.40    0.27           0.54     0.65
F7          8.30   15.91    7.74          46.85  -50.15   17.49          53.11  160.77           1.60    0.61    1.20    0.86            0.21    0.36    0.23           0.55     0.64
F8          6.42   14.92    6.34          45.53  -62.58   21.06          66.03  161.40           2.05    0.59    1.35    0.90            0.11    0.20    0.14           0.35     0.40
F9         32.61   37.84   27.19          67.90  -13.29    6.54          14.82  153.84           0.54    0.38    0.52    0.43            0.84    0.92    0.91           0.82     0.93
F10        29.15   37.27   24.52          67.47  -24.24   10.47          26.41  156.65           0.66    0.35    0.58    0.45            0.82    0.94    0.87           0.81     0.93
F11        25.88   36.51   22.66          66.90  -34.85   12.95          37.18  159.63           0.80    0.33    0.63    0.47            0.64    0.75    0.73           0.72     0.82
F12        22.94   35.31   20.45          65.99  -43.58   15.76          46.34  160.12           0.94    0.31    0.69    0.49            0.48    0.52    0.66           0.78     0.90
F13        39.81   50.10   51.90          76.13  -24.80  -12.52          27.78  206.78           0.61    0.21    0.21    0.33            0.57    0.55    0.38           0.43     0.52
F14        45.96   37.76   43.38          67.84   29.21  -16.86          33.73  330.00           0.21    0.55    0.26    0.40            0.54    0.61    0.44           0.55     0.68
F15        59.43   62.12   18.46          82.98   -1.12   49.25          49.26   91.30           0.15    0.22    0.76    0.19            0.46    0.46    0.40           0.53     0.62
F16        17.80   19.05   14.25          50.75   -3.03    3.71           4.79  129.37           0.73    0.72    0.82    0.72            0.45    0.46    0.44           0.61     0.71
F17        36.49   28.99   13.96          60.77   30.75   21.78          37.68   35.30           0.23    0.71    0.83    0.49            0.45    0.48    0.41           0.64     0.75
