targets/wolf_faust/transmissive/A050408.it8
IT8.7/1
ORIGINATOR "Wolf Faust"
DESCRIPTOR "Agfachrome RSX, RSX II and CT Precisa, Type 3, L* a* b* (light D50, viewing angle 2)"
MANUFACTURER "Wolf Faust - http://www.coloraid.de"
CREATED "July 17, 2005"
PROD_DATE "2005:04"
DIFFUSE_GEOMETRY "opal"
SERIAL "A050408 Batch Average Data"
MATERIAL "Agfachrome RSX II"
KEYWORD "MEAN_DE" # Mean Delta E of samples compared to batch average
NUMBER_OF_FIELDS 18
BEGIN_DATA_FORMAT
SAMPLE_ID  XYZ_X   XYZ_Y   XYZ_Z          LAB_L   LAB_A   LAB_B          LAB_C   LAB_H          D_RED  D_GREEN  D_BLUE  D_VIS          STDEV_X STDEV_Y STDEV_Z        MEAN_DE  STDEV_DE
END_DATA_FORMAT
NUMBER_OF_SETS 288
BEGIN_DATA
A1          2.65    2.38    1.49          17.38    6.99    5.04           8.62   35.79           1.42    1.76    1.90    1.60            0.05    0.05    0.03           0.26     0.31
A2          3.19    2.31    1.18          17.06   18.00    8.52          19.92   25.33           1.24    1.93    2.00    1.57            0.06    0.05    0.03           0.29     0.34 
A3          3.72    2.17    0.96          16.35   29.57   10.45          31.36   19.46           1.09    2.24    2.05    1.56            0.06    0.03    0.03           0.26     0.30
A4          4.33    2.03    0.80          15.64   41.39   11.99          43.09   16.15           0.95    2.91    2.06    1.54            0.06    0.03    0.02           0.27     0.32 
A5         11.27   10.17    6.62          38.14   11.12    7.08          13.19   32.47           0.81    1.10    1.18    0.97            0.17    0.15    0.19           0.51     0.59
A6         13.48   10.22    5.73          38.24   25.72   11.33          28.11   23.77           0.65    1.22    1.24    0.94            0.24    0.18    0.19           0.51     0.60 
A7         15.68    9.96    4.87          37.77   41.14   14.84          43.74   19.83           0.50    1.42    1.29    0.91            0.27    0.17    0.18           0.57     0.65
A8         17.44    9.38    4.05          36.70   55.58   17.64          58.32   17.61           0.40    1.73    1.35    0.91            0.11    0.08    0.14           0.56     0.69 
A9         32.77   32.63   23.82          63.86    4.71    5.53           7.29   49.29           0.42    0.52    0.57    0.48            0.65    0.64    0.80           0.78     0.92
A10        34.78   32.67   22.79          63.89   11.57    7.50          13.81   32.87           0.36    0.55    0.59    0.47            0.68    0.65    0.85           0.82     0.98
A11        37.05   32.53   21.50          63.77   19.63    9.81          21.96   26.53           0.29    0.59    0.62    0.46            0.64    0.59    0.78           0.79     0.95
A12        39.75   32.54   20.06          63.79   28.19   12.75          30.95   24.32           0.22    0.64    0.65    0.45            0.38    0.38    0.63           0.75     0.93 
A13        65.66   69.40   56.58          86.70   -2.78    0.71           2.87  165.70           0.19    0.15    0.16    0.16            0.44    0.38    0.38           0.31     0.35
A14        71.04   72.22   56.48          88.07    3.00    3.18           4.38   46.65           0.12    0.15    0.16    0.14            0.27    0.31    0.36           0.25     0.29 
A15        71.36   72.85   56.06          88.37    2.39    4.14           4.79   59.97           0.12    0.14    0.17    0.13            0.27    0.30    0.43           0.32     0.37
A16        67.51   70.20   56.45          87.09   -0.38    1.53           1.59  103.23           0.16    0.15    0.16    0.15            0.41    0.40    0.37           0.30     0.35
A17        71.07   72.42   56.03          88.17    2.64    3.82           4.66   55.30           0.12    0.15    0.17    0.14            0.31    0.37    0.42           0.32     0.39
A18        65.88   69.48   54.12          86.74   -2.48    3.39           4.20  126.16           0.18    0.15    0.19    0.16            0.65    0.61    0.69           0.48     0.57 
A19        63.87   67.38   55.90          85.69   -2.49   -0.31           2.52  187.34           0.20    0.16    0.17    0.17            0.52    0.50    0.39           0.35     0.41
A20         6.57    3.11    1.98          20.50   46.91    5.24          47.20    6.37           0.79    2.62    1.63    1.36            0.10    0.05    0.06           0.49     0.58 
A21        29.27   21.49   15.85          53.48   36.54    4.42          36.82    6.90           0.31    0.91    0.74    0.61            0.37    0.28    0.52           0.78     0.94
A22        55.52   53.45   35.94          78.14   10.22   10.72          14.82   46.31           0.17    0.32    0.38    0.26            0.60    0.64    0.94           0.75     0.87
B1          3.94    3.73    1.85          22.75    5.23   10.40          11.64   63.33           1.27    1.52    1.82    1.41            0.06    0.06    0.04           0.28     0.33
B2          4.53    3.62    1.09          22.38   15.02   18.91          24.14   51.54           1.13    1.64    2.11    1.39            0.08    0.06    0.03           0.32     0.35
B3          5.20    3.56    0.67          22.17   24.39   25.52          35.30   46.30           1.00    1.79    2.37    1.37            0.08    0.06    0.02           0.29     0.32
B4          5.91    3.36    0.20          21.43   35.84   33.19          48.85   42.80           0.88    2.09    3.09    1.35            0.06    0.04    0.01           0.25     0.29
B5         14.27   13.35    6.94          43.29    8.93   14.59          17.11   58.51           0.72    0.96    1.18    0.85            0.15    0.14    0.20           0.52     0.63
B6         16.39   13.19    4.58          43.05   22.44   25.53          33.99   48.68           0.58    1.06    1.39    0.83            0.19    0.16    0.13           0.42     0.51
B7         18.86   13.19    2.80          43.04   35.76   37.09          51.52   46.05           0.45    1.18    1.65    0.80            0.20    0.16    0.07           0.36     0.41
B8         21.36   12.74    1.42          42.36   50.96   49.00          70.69   43.88           0.34    1.40    2.00    0.79            0.11    0.09    0.03           0.24     0.27
B9         37.97   38.68   27.33          68.52    2.18    7.36           7.68   73.30           0.37    0.43    0.51    0.41            0.64    0.65    0.84           0.84     0.99
B10        40.30   39.03   24.36          68.77    8.42   13.00          15.50   57.00           0.31    0.45    0.57    0.39            0.76    0.76    0.89           0.87     1.02
B11        41.65   38.92   21.63          68.69   12.90   18.04          22.18   54.40           0.26    0.48    0.63    0.39            0.55    0.54    0.65           0.72     0.87
B12        44.03   38.56   18.51          68.43   21.12   24.06          32.02   48.71           0.20    0.52    0.70    0.38            0.39    0.42    0.60           0.80     0.98
B13        60.77   65.68   54.69          84.83   -5.94   -0.53           5.97  185.11           0.24    0.16    0.18    0.19            0.53    0.46    0.52           0.36     0.43
B14        63.77   63.72   53.13          83.82    5.37   -0.59           5.40  353.67           0.16    0.21    0.19    0.19            0.47    0.54    0.54           0.30     0.37
B15        66.04   68.69   47.97          86.35   -0.43    9.55           9.56   92.51           0.15    0.16    0.25    0.16            0.47    0.45    0.88           0.64     0.77
B16        55.86   58.66   46.59          81.10   -1.72    2.12           2.74  129.56           0.25    0.23    0.26    0.23            0.69    0.72    0.78           0.55     0.61
B17        61.91   61.96   46.38          82.89    5.09    5.45           7.47   46.90           0.16    0.23    0.26    0.20            0.58    0.65    0.79           0.56     0.61
B18        59.49   64.79   48.36          84.38   -7.01    5.70           9.04  141.01           0.24    0.17    0.24    0.19            0.64    0.58    0.86           0.67     0.77
B19        57.59   60.49   53.10          82.10   -1.78   -3.52           3.95  243.20           0.25    0.21    0.19    0.22            0.53    0.54    0.51           0.36     0.41
B20         5.73    3.61    1.10          22.34   29.86   18.63          35.19   31.95           0.93    1.89    2.04    1.35            0.07    0.04    0.02           0.33     0.37
B21        19.13   13.37    4.57          43.32   35.92   26.01          44.36   35.91           0.45    1.18    1.36    0.80            0.25    0.18    0.13           0.46     0.54
B22        36.79   32.21   18.27          63.51   19.92   16.12          25.62   38.96           0.28    0.60    0.70    0.46            0.53    0.50    0.57           0.70     0.83
C1          7.36    7.54    3.78          33.00    0.86   12.92          12.95   86.21           1.05    1.16    1.48    1.11            0.14    0.14    0.11           0.37     0.42
C2          7.96    7.62    2.37          33.18    5.70   23.57          24.25   76.40           0.97    1.19    1.76    1.09            0.13    0.13    0.06           0.30     0.35
C3          8.26    7.33    1.28          32.55   11.08   33.81          35.58   71.85           0.92    1.25    2.13    1.09            0.11    0.10    0.03           0.35     0.40
C4          8.76    7.28    0.48          32.43   16.04   46.86          49.53   71.10           0.87    1.29    2.91    1.08            0.10    0.09    0.01           0.34     0.37
C5         26.70   26.58   12.62          58.58    4.42   21.65          22.10   78.46           0.48    0.62    0.90    0.56            0.48    0.49    0.43           0.66     0.75
C6         28.60   26.40    7.13          58.41   12.69   39.91          41.88   72.36           0.40    0.66    1.22    0.55            0.41    0.39    0.21           0.55     0.64
C7         30.64   26.49    3.45          58.49   20.11   59.01          62.34   71.18           0.33    0.70    1.66    0.53            0.29    0.28    0.07           0.36     0.39
C8         32.89   25.83    0.92          57.88   30.92   82.71          88.30   69.51           0.27    0.78    2.77    0.52            0.18    0.18    0.01           0.26     0.28
C9         44.50   45.70   30.23          73.35    1.24   10.97          11.04   83.49           0.31    0.35    0.47    0.33            0.74    0.78    0.91           0.84     0.97
C10        45.14   45.39   25.69          73.15    3.98   18.17          18.61   77.61           0.27    0.37    0.55    0.33            0.72    0.74    0.90           0.86     1.04
C11        46.65   45.74   21.45          73.38    7.27   26.48          27.46   74.64           0.23    0.38    0.64    0.32            0.59    0.61    0.67           0.80     0.96
C12        48.43   45.28   14.13          73.08   13.50   42.52          44.61   72.38           0.18    0.41    0.87    0.31            0.38    0.45    0.41           0.72     0.86
C13        54.66   61.58   54.25          82.69  -11.58   -3.75          12.17  197.96           0.33    0.17    0.18    0.22            0.61    0.53    0.53           0.40     0.49
C14        59.18   56.53   50.91          79.91   11.51   -4.89          12.51  336.98           0.17    0.29    0.20    0.24            0.52    0.61    0.56           0.34     0.44
C15        64.15   67.19   38.88          85.60   -1.44   19.56          19.61   94.18           0.15    0.17    0.35    0.17            0.41    0.40    0.91           0.85     1.05
C16        44.06   46.59   36.79          73.92   -2.49    2.26           3.39  138.69           0.35    0.33    0.37    0.33            0.74    0.76    0.92           0.74     0.84
C17        55.05   52.52   36.49          77.59   11.39    9.00          14.53   38.26           0.17    0.33    0.37    0.26            0.60    0.67    0.91           0.80     0.91
C18        51.74   59.43   39.95          81.53  -14.07   11.12          17.94  141.73           0.33    0.19    0.34    0.23            0.75    0.66    1.01           0.88     1.02
C19        47.67   50.39   50.65          76.31   -2.53  -10.81          11.11  256.82           0.35    0.29    0.21    0.31            0.59    0.63    0.53           0.41     0.46
C20        14.08   10.81    1.32          39.26   25.11   44.93          51.47   60.80           0.62    1.18    2.14    0.90            0.17    0.12    0.03           0.40     0.48
C21        24.61   23.63   12.22          55.71    8.03   17.85          19.58   65.76           0.50    0.69    0.91    0.61            0.40    0.38    0.38           0.62     0.71
C22        30.45   26.58   11.83          58.58   19.00   23.93          30.55   51.54           0.35    0.69    0.92    0.54            0.45    0.41    0.40           0.65     0.76
D1          4.99    5.45    2.65          27.99   -3.29   12.31          12.74  104.99           1.25    1.28    1.67    1.26            0.08    0.09    0.06           0.29     0.34
D2          4.85    5.32    1.67          27.62   -3.49   20.75          21.04   99.56           1.25    1.28    1.96    1.27            0.08    0.09    0.04           0.31     0.34
D3          4.75    5.26    0.88          27.47   -4.12   30.97          31.24   97.58           1.27    1.27    2.41    1.27            0.08    0.10    0.02           0.31     0.38
D4          4.84    5.38    0.51          27.80   -4.35   38.36          38.61   96.46           1.28    1.26    2.91    1.26            0.06    0.06    0.01           0.31     0.34
D5         19.78   21.45   10.05          53.43   -4.41   20.60          21.07  102.08           0.66    0.67    1.02    0.66            0.29    0.31    0.27           0.54     0.61
D6         19.86   21.56    5.43          53.55   -4.55   39.16          39.43   96.62           0.65    0.67    1.39    0.65            0.29    0.32    0.14           0.46     0.53
D7         19.76   21.40    2.68          53.39   -4.33   55.83          56.00   94.43           0.65    0.67    1.87    0.65            0.25    0.27    0.05           0.40     0.46
D8         19.52   21.23    1.09          53.20   -4.69   71.98          72.13   93.73           0.68    0.67    2.74    0.65            0.21    0.22    0.02           0.43     0.47
D9         50.13   52.92   26.32          77.83   -2.38   25.13          25.24   95.42           0.25    0.28    0.55    0.27            0.62    0.66    0.77           0.85     0.98
D10        49.23   52.13   14.96          77.35   -2.78   47.77          47.85   93.33           0.24    0.29    0.86    0.27            0.71    0.77    0.49           0.74     0.84
D11        48.46   51.41    7.52          76.92   -3.01   70.22          70.28   92.46           0.24    0.30    1.29    0.27            0.54    0.54    0.18           0.42     0.48
D12        47.31   49.82    4.08          75.96   -2.01   85.15          85.18   91.35           0.25    0.31    1.75    0.28            0.31    0.28    0.06           0.31     0.35
D13        49.34   57.76   53.70          80.60  -16.46   -6.76          17.80  202.34           0.42    0.18    0.19    0.26            0.59    0.53    0.53           0.41     0.50
D14        54.93   50.15   48.72          76.16   17.27   -8.88          19.42  332.77           0.18    0.36    0.22    0.29            0.52    0.59    0.53           0.40     0.49
D15        62.59   65.73   31.06          84.86   -1.82   29.50          29.55   93.52           0.15    0.19    0.47    0.17            0.45    0.44    0.90           0.91     1.11
D16        33.87   36.11   27.98          66.60   -3.28    2.97           4.45  138.47           0.46    0.44    0.50    0.45            0.57    0.58    0.77           0.73     0.84
D17        48.59   44.00   27.61          72.23   17.60   13.28          22.06   36.99           0.19    0.44    0.50    0.33            0.53    0.57    0.80           0.81     0.94
D18        44.88   54.27   31.96          78.62  -20.35   17.36          26.75  139.55           0.42    0.21    0.46    0.28            0.66    0.61    0.90           0.90     1.07
D19        38.96   41.49   48.15          70.52   -3.26  -17.96          18.26  259.70           0.47    0.36    0.23    0.40            0.49    0.52    0.49           0.37     0.43
D20         3.57    3.73    1.22          22.76   -0.40   17.76          17.77   91.29           1.36    1.46    2.10    1.42            0.05    0.05    0.03           0.29     0.33
D21        34.50   32.17    1.47          63.48   12.37   84.82          85.72   81.70           0.33    0.57    2.50    0.45            0.40    0.38    0.02           0.40     0.49
D22        44.10   48.61   50.46          75.21   -7.90  -12.50          14.79  237.71           0.43    0.28    0.21    0.33            0.54    0.58    0.46           0.41     0.46
E1          6.26    7.45    3.73          32.82   -9.42   12.95          16.01  126.04           1.21    1.10    1.51    1.14            0.11    0.13    0.10           0.34     0.39
E2          5.75    7.38    2.35          32.65  -14.32   22.83          26.95  122.10           1.28    1.07    1.81    1.14            0.09    0.12    0.06           0.35     0.39
E3          5.40    7.41    1.34          32.72  -18.73   33.42          38.31  119.28           1.37    1.04    2.23    1.14            0.09    0.12    0.03           0.39     0.46
E4          4.76    7.25    0.71          32.37  -25.06   42.45          49.30  120.56           1.55    1.00    2.85    1.16            0.05    0.07    0.01           0.31     0.36
E5         27.27   31.68   16.16          63.08  -12.64   20.20          23.83  122.05           0.58    0.47    0.79    0.50            0.41    0.46    0.47           0.64     0.76
E6         25.13   31.47   10.11          62.90  -20.71   36.70          42.14  119.44           0.65    0.44    1.07    0.51            0.32    0.39    0.27           0.56     0.64
E7         22.15   30.41    5.52          62.00  -29.98   53.32          61.18  119.35           0.77    0.42    1.47    0.53            0.30    0.37    0.11           0.40     0.47
E8         19.95   29.02    3.37          60.80  -35.33   63.54          72.70  119.07           0.88    0.42    1.86    0.55            0.17    0.21    0.05           0.23     0.27
E9         48.21   52.84   34.32          77.78   -7.36   12.41          14.43  120.72           0.32    0.26    0.41    0.28            0.69    0.72    0.88           0.78     0.90
E10        45.66   52.17   27.08          77.38  -12.77   23.06          26.36  119.00           0.35    0.25    0.54    0.29            0.64    0.64    0.79           0.83     1.00
E11        43.31   51.53   21.19          77.00  -17.94   33.23          37.77  118.36           0.39    0.24    0.68    0.29            0.55    0.55    0.61           0.78     0.95
E12        41.54   50.68   18.00          76.48  -21.01   39.07          44.36  118.27           0.42    0.24    0.77    0.30            0.50    0.47    0.51           0.74     0.88
E13        44.58   54.14   53.11          78.54  -20.88   -9.67          23.01  204.86           0.51    0.20    0.20    0.29            0.53    0.48    0.47           0.38     0.46
E14        50.90   44.29   46.60          72.42   22.97  -12.86          26.32  330.76           0.19    0.44    0.23    0.34            0.49    0.54    0.47           0.41     0.48
E15        61.28   64.34   24.61          84.14   -1.77   39.04          39.08   92.60           0.15    0.20    0.60    0.18            0.39    0.40    0.70           0.85     1.01
E16        25.15   26.93   20.98          58.91   -3.42    2.47           4.24  144.73           0.59    0.57    0.64    0.57            0.57    0.57    0.72           0.72     0.85
E17        42.41   36.11   20.33          66.60   24.21   17.05          29.61   35.13           0.21    0.57    0.65    0.41            0.46    0.49    0.66           0.81     0.98
E18        38.86   49.39   25.27          75.69  -25.91   23.29          34.84  138.06           0.51    0.23    0.58    0.32            0.62    0.59    0.76           0.87     1.00
E19        31.20   33.33   45.41          64.43   -3.42  -25.22          25.45  262.28           0.61    0.45    0.25    0.50            0.48    0.52    0.50           0.40     0.50
E20         8.40   10.26    1.55          38.31  -12.49   40.43          42.32  107.17           1.10    0.94    2.16    0.99            0.12    0.14    0.04           0.41     0.46
E21        27.23   32.70    6.92          63.91  -16.43   50.23          52.85  108.11           0.58    0.44    1.30    0.48            0.33    0.37    0.14           0.42     0.47
E22         8.96   18.91   14.28          50.58  -60.48    3.35          60.57  176.83           1.91    0.50    0.87    0.80            0.12    0.18    0.38           0.63     0.79
F1          4.17    5.38    3.47          27.79  -13.23    5.99          14.52  155.66           1.45    1.22    1.53    1.29            0.08    0.10    0.09           0.34     0.38
F2          3.54    5.46    2.94          28.00  -23.52   10.08          25.59  156.79           1.66    1.15    1.65    1.31            0.06    0.09    0.07           0.35     0.38
F3          2.81    5.24    2.43          27.40  -33.15   13.10          35.65  158.44           1.94    1.11    1.79    1.34            0.05    0.08    0.05           0.32     0.37
F4          1.95    5.04    1.71          26.85  -48.51   18.92          52.07  158.70           2.60    1.05    2.08    1.38            0.03    0.07    0.04           0.32     0.36
F5         13.12   16.94   11.27          48.18  -19.52    7.67          20.97  158.55           0.99    0.70    0.96    0.80            0.29    0.36    0.39           0.61     0.70
F6         10.56   16.76    9.35          47.96  -36.46   13.50          38.88  159.68           1.27    0.64    1.08    0.82            0.15    0.23    0.25           0.54     0.63
F7          8.46   16.30    7.72          47.37  -50.92   18.46          54.16  160.07           1.60    0.60    1.21    0.85            0.12    0.22    0.18           0.46     0.53
F8          6.49   15.10    6.40          45.76  -62.87   21.20          66.35  161.37           2.05    0.58    1.34    0.90            0.09    0.17    0.16           0.39     0.46
F9         33.01   38.31   27.73          68.24  -13.36    6.22          14.75  155.11           0.53    0.38    0.51    0.43            0.64    0.70    0.83           0.79     0.91
F10        29.28   37.64   24.95          67.75  -24.94   10.17          26.94  157.83           0.66    0.35    0.57    0.45            0.51    0.58    0.74           0.74     0.89
F11        25.88   36.78   22.89          67.11  -35.71   12.88          37.97  160.18           0.81    0.32    0.63    0.47            0.47    0.57    0.69           0.73     0.88
F12        22.81   35.33   21.20          66.01  -44.26   14.26          46.51  162.15           0.96    0.31    0.67    0.49            0.32    0.36    0.64           0.81     0.98
F13        40.21   50.62   52.47          76.45  -24.95  -12.59          27.94  206.78           0.60    0.21    0.20    0.33            0.47    0.45    0.47           0.35     0.43
F14        46.68   38.55   44.06          68.42   28.69  -16.69          33.19  329.80           0.21    0.54    0.26    0.39            0.45    0.48    0.49           0.36     0.45
F15        60.15   62.94   19.20          83.41   -1.25   48.39          48.40   91.48           0.15    0.21    0.73    0.19            0.35    0.36    0.53           0.76     0.92
F16        17.84   19.23   14.88          50.95   -3.69    2.46           4.46  146.85           0.74    0.72    0.80    0.72            0.39    0.40    0.54           0.68     0.81
F17        36.85   29.35   14.55          61.09   30.58   20.78          36.98   34.19           0.23    0.71    0.81    0.48            0.43    0.43    0.53           0.73     0.89
