targets/wolf_faust/transmissive/A051024.it8
IT8.7/1
ORIGINATOR "Wolf Faust"
DESCRIPTOR "Agfachrome RSX, RSX II and CT Precisa, Type 3, L* a* b* (light D50, viewing angle 2)"
MANUFACTURER "Wolf Faust - http://www.coloraid.de"
CREATED "February 16, 2006"
PROD_DATE "2005:10"
DIFFUSE_GEOMETRY "opal"
SERIAL "A051024 Batch Average Data"
MATERIAL "Agfachrome RSX II"
KEYWORD "MEAN_DE" # Mean Delta E of samples compared to batch average
NUMBER_OF_FIELDS 18
BEGIN_DATA_FORMAT
SAMPLE_ID  XYZ_X   XYZ_Y   XYZ_Z          LAB_L   LAB_A   LAB_B          LAB_C   LAB_H          D_RED  D_GREEN  D_BLUE  D_VIS          STDEV_X STDEV_Y STDEV_Z        MEAN_DE  STDEV_DE
END_DATA_FORMAT
NUMBER_OF_SETS 288
BEGIN_DATA
A1          2.55    2.30    1.35          16.97    6.77    6.11           9.13   42.05           1.43    1.77    1.96    1.61            0.05    0.05    0.03           0.30     0.33
A2          3.05    2.22    1.11          16.60   17.67    8.59          19.65   25.94           1.26    1.95    2.02    1.59            0.06    0.04    0.03           0.26     0.30 
A3          3.51    2.08    0.92          15.92   28.19   10.37          30.03   20.19           1.12    2.23    2.08    1.58            0.05    0.03    0.02           0.27     0.30
A4          4.40    2.05    0.75          15.73   41.87   12.90          43.81   17.13           0.94    2.93    2.09    1.54            0.06    0.02    0.02           0.27     0.31 
A5         11.05   10.06    6.41          37.95   10.35    7.68          12.89   36.57           0.82    1.10    1.20    0.97            0.17    0.16    0.14           0.33     0.36
A6         13.30   10.14    5.60          38.09   25.20   11.70          27.78   24.90           0.65    1.22    1.25    0.94            0.19    0.14    0.12           0.34     0.37 
A7         15.44    9.91    4.74          37.67   40.15   15.39          43.00   20.98           0.51    1.41    1.31    0.92            0.17    0.11    0.09           0.31     0.34
A8         17.44    9.43    4.06          36.80   55.19   17.79          57.99   17.86           0.40    1.71    1.35    0.91            0.08    0.06    0.08           0.31     0.38 
A9         32.31   32.41   23.93          63.68    3.85    4.99           6.31   52.27           0.44    0.52    0.57    0.48            0.55    0.54    0.62           0.55     0.64
A10        34.45   32.44   22.47          63.70   11.27    7.79          13.71   34.65           0.36    0.55    0.60    0.47            0.61    0.57    0.58           0.57     0.65
A11        36.64   32.32   21.54          63.60   19.04    9.43          21.25   26.34           0.30    0.59    0.61    0.46            0.51    0.47    0.51           0.50     0.60
A12        39.23   31.97   19.92          63.32   28.61   12.23          31.11   23.14           0.22    0.65    0.65    0.45            0.37    0.39    0.48           0.54     0.63 
A13        65.81   69.36   56.15          86.68   -2.36    1.13           2.62  154.40           0.18    0.15    0.17    0.16            0.34    0.27    0.25           0.20     0.25
A14        71.11   72.25   56.08          88.09    3.09    3.62           4.76   49.49           0.12    0.15    0.17    0.14            0.21    0.21    0.26           0.14     0.17 
A15        71.35   72.66   55.80          88.29    2.73    4.26           5.06   57.30           0.12    0.15    0.17    0.13            0.24    0.22    0.32           0.18     0.21
A16        67.34   69.89   55.94          86.94   -0.12    1.80           1.81   93.85           0.16    0.15    0.17    0.15            0.38    0.33    0.25           0.21     0.24
A17        71.19   72.43   55.88          88.17    2.88    3.98           4.91   54.04           0.12    0.15    0.17    0.14            0.26    0.26    0.28           0.16     0.18
A18        66.53   69.74   54.20          86.87   -1.58    3.51           3.85  114.06           0.17    0.15    0.19    0.16            0.44    0.35    0.42           0.30     0.35 
A19        64.02   67.43   55.49          85.72   -2.27    0.16           2.28  175.84           0.20    0.16    0.17    0.17            0.52    0.46    0.32           0.29     0.34
A20         6.56    3.12    1.82          20.50   46.80    6.84          47.29    8.31           0.78    2.62    1.67    1.36            0.10    0.05    0.04           0.36     0.42 
A21        28.69   21.15   15.56          53.12   35.90    4.49          36.18    7.12           0.32    0.91    0.75    0.62            0.23    0.19    0.33           0.48     0.55
A22        54.99   52.71   34.99          77.70   10.74   11.31          15.60   46.45           0.17    0.32    0.39    0.26            0.46    0.53    0.66           0.49     0.59
B1          3.82    3.66    1.79          22.49    4.49   10.55          11.47   66.96           1.29    1.52    1.84    1.42            0.09    0.09    0.05           0.30     0.36
B2          4.51    3.71    1.24          22.68   13.41   17.38          21.95   52.33           1.14    1.61    2.04    1.38            0.09    0.08    0.03           0.33     0.37
B3          5.00    3.49    0.64          21.90   23.04   25.69          34.51   48.12           1.03    1.77    2.40    1.38            0.08    0.06    0.01           0.33     0.37
B4          5.77    3.42    0.22          21.65   33.29   33.27          47.06   44.98           0.91    2.00    3.08    1.36            0.07    0.04    0.00           0.28     0.36
B5         14.22   13.27    6.99          43.17    9.09   14.18          16.85   57.33           0.72    0.96    1.17    0.85            0.21    0.19    0.15           0.37     0.40
B6         16.46   13.27    4.47          43.17   22.33   26.35          34.54   49.71           0.57    1.06    1.40    0.83            0.25    0.20    0.09           0.37     0.40
B7         18.75   13.13    2.74          42.96   35.54   37.40          51.59   46.47           0.45    1.18    1.66    0.80            0.19    0.13    0.05           0.31     0.34
B8         21.05   12.52    1.33          42.04   50.90   49.53          71.02   44.21           0.34    1.41    2.04    0.79            0.11    0.09    0.02           0.21     0.23
B9         37.89   38.68   27.27          68.52    1.92    7.45           7.70   75.51           0.38    0.43    0.51    0.41            0.63    0.63    0.65           0.53     0.62
B10        39.86   38.84   24.59          68.64    7.66   12.35          14.54   58.17           0.31    0.45    0.56    0.40            0.60    0.60    0.62           0.51     0.63
B11        41.48   38.72   21.98          68.55   13.00   17.09          21.48   52.73           0.26    0.48    0.62    0.39            0.55    0.55    0.52           0.51     0.60
B12        43.73   38.22   18.09          68.18   21.28   24.55          32.49   49.08           0.20    0.52    0.71    0.38            0.37    0.41    0.37           0.39     0.51
B13        60.71   65.67   54.55          84.83   -6.04   -0.38           6.06  183.61           0.24    0.16    0.18    0.19            0.44    0.37    0.30           0.27     0.32
B14        63.90   63.65   52.96          83.78    5.82   -0.47           5.84  355.36           0.16    0.21    0.19    0.19            0.45    0.52    0.38           0.31     0.35
B15        66.40   68.88   47.84          86.44   -0.02    9.86           9.86   90.09           0.15    0.16    0.25    0.16            0.43    0.39    0.73           0.46     0.57
B16        55.60   58.28   46.59          80.89   -1.48    1.77           2.32  130.42           0.25    0.23    0.26    0.24            0.76    0.81    0.79           0.48     0.54
B17        61.77   61.54   46.12          82.67    5.74    5.38           7.87   43.10           0.16    0.23    0.26    0.20            0.61    0.69    0.77           0.48     0.55
B18        59.25   64.60   48.17          84.28   -7.15    5.74           9.17  141.25           0.24    0.17    0.24    0.19            0.65    0.54    0.74           0.53     0.62
B19        57.12   59.99   52.75          81.83   -1.75   -3.61           4.02  244.04           0.25    0.21    0.19    0.23            0.69    0.73    0.46           0.40     0.47
B20         5.40    3.41    1.05          21.63   29.15   18.21          34.38   31.99           0.96    1.91    2.06    1.37            0.09    0.06    0.03           0.29     0.33
B21        18.61   13.09    4.30          42.90   35.05   26.86          44.16   37.46           0.46    1.18    1.40    0.81            0.17    0.13    0.09           0.35     0.39
B22        36.69   32.40   18.43          63.67   18.93   16.02          24.80   40.23           0.29    0.59    0.70    0.46            0.42    0.41    0.40           0.47     0.53
C1          7.22    7.45    3.49          32.82    0.32   14.47          14.48   88.74           1.06    1.16    1.53    1.12            0.14    0.15    0.09           0.35     0.40
C2          7.62    7.41    2.27          32.71    4.62   23.57          24.02   78.90           0.99    1.20    1.78    1.11            0.14    0.14    0.06           0.35     0.39
C3          8.23    7.51    1.25          32.95    9.16   34.88          36.06   75.29           0.93    1.22    2.16    1.09            0.14    0.13    0.03           0.36     0.40
C4          8.90    7.55    0.49          33.03   14.59   47.64          49.83   72.97           0.87    1.26    2.91    1.07            0.12    0.09    0.01           0.33     0.41
C5         26.56   26.52   12.47          58.52    4.10   21.97          22.35   79.44           0.49    0.61    0.91    0.56            0.45    0.45    0.27           0.44     0.49
C6         28.24   26.15    6.85          58.18   12.31   40.65          42.47   73.15           0.40    0.66    1.24    0.55            0.41    0.39    0.14           0.40     0.45
C7         30.19   26.09    3.35          58.12   20.03   59.05          62.35   71.26           0.34    0.71    1.68    0.54            0.31    0.29    0.05           0.32     0.37
C8         32.73   25.71    0.90          57.76   30.88   82.74          88.32   69.53           0.27    0.78    2.79    0.52            0.22    0.19    0.01           0.30     0.35
C9         44.22   45.69   30.17          73.34    0.46   11.04          11.05   87.59           0.31    0.35    0.47    0.33            0.65    0.66    0.67           0.55     0.64
C10        45.21   45.53   26.05          73.24    3.77   17.68          18.08   77.95           0.28    0.37    0.54    0.33            0.66    0.69    0.60           0.51     0.60
C11        45.93   44.99   20.97          72.88    7.36   26.58          27.58   74.52           0.24    0.39    0.66    0.33            0.58    0.61    0.49           0.51     0.59
C12        48.07   44.84   13.30          72.78   13.79   44.24          46.34   72.69           0.18    0.42    0.90    0.32            0.42    0.49    0.26           0.40     0.49
C13        54.96   61.83   54.13          82.82  -11.39   -3.39          11.88  196.60           0.32    0.17    0.19    0.22            0.52    0.43    0.32           0.36     0.42
C14        59.34   56.68   50.76          80.00   11.51   -4.57          12.38  338.33           0.17    0.29    0.21    0.24            0.53    0.65    0.43           0.45     0.53
C15        64.38   67.25   38.49          85.63   -1.03   20.11          20.14   92.94           0.15    0.18    0.36    0.17            0.40    0.36    0.71           0.59     0.70
C16        43.95   46.39   36.41          73.80   -2.29    2.57           3.45  132.01           0.35    0.33    0.37    0.34            0.72    0.78    0.81           0.59     0.67
C17        54.93   52.31   36.07          77.46   11.64    9.36          14.94   38.80           0.17    0.33    0.38    0.27            0.61    0.71    0.82           0.61     0.70
C18        51.63   59.30   39.22          81.45  -14.04   11.95          18.44  139.61           0.33    0.19    0.35    0.24            0.58    0.49    0.80           0.68     0.80
C19        47.61   50.34   50.36          76.27   -2.54  -10.55          10.86  256.46           0.35    0.29    0.21    0.31            0.77    0.85    0.47           0.58     0.69
C20        13.86   10.62    1.25          38.93   25.13   45.19          51.71   60.92           0.62    1.19    2.17    0.91            0.21    0.18    0.04           0.44     0.48
C21        24.31   23.39   12.08          55.47    7.79   17.81          19.44   66.38           0.51    0.69    0.91    0.61            0.30    0.28    0.24           0.44     0.49
C22        30.28   26.48   11.49          58.49   18.78   24.77          31.09   52.83           0.35    0.69    0.94    0.54            0.39    0.36    0.25           0.47     0.50
D1          4.82    5.35    2.59          27.70   -4.16   12.30          12.99  108.68           1.27    1.28    1.68    1.27            0.10    0.11    0.06           0.33     0.38
D2          4.81    5.32    1.61          27.64   -4.00   21.42          21.79  100.57           1.26    1.28    1.98    1.27            0.10    0.12    0.04           0.40     0.43
D3          4.58    5.15    1.00          27.15   -4.87   28.41          28.82   99.72           1.29    1.28    2.31    1.28            0.09    0.09    0.02           0.36     0.39
D4          4.77    5.33    0.50          27.65   -4.56   38.21          38.49   96.81           1.29    1.26    2.92    1.26            0.06    0.05    0.00           0.28     0.33
D5         19.86   21.53   10.06          53.52   -4.41   20.71          21.18  102.01           0.66    0.67    1.02    0.66            0.31    0.31    0.17           0.40     0.45
D6         19.60   21.30    5.39          53.27   -4.60   38.89          39.16   96.75           0.65    0.67    1.39    0.66            0.33    0.35    0.10           0.46     0.52
D7         19.33   21.06    2.74          53.02   -4.86   54.73          54.94   95.07           0.66    0.67    1.86    0.66            0.27    0.28    0.03           0.46     0.52
D8         18.86   20.62    1.07          52.53   -5.16   71.22          71.41   94.14           0.70    0.68    2.76    0.67            0.28    0.28    0.01           0.47     0.58
D9         49.81   52.60   26.37          77.64   -2.43   24.71          24.83   95.61           0.26    0.28    0.55    0.27            0.71    0.74    0.59           0.49     0.59
D10        48.86   51.78   14.90          77.15   -2.88   47.57          47.66   93.47           0.24    0.29    0.87    0.27            0.61    0.64    0.37           0.43     0.51
D11        47.81   50.70    7.24          76.50   -2.97   70.60          70.66   92.41           0.25    0.30    1.32    0.28            0.49    0.47    0.12           0.28     0.34
D12        46.84   49.37    3.97          75.68   -2.12   85.30          85.33   91.43           0.26    0.32    1.76    0.28            0.41    0.33    0.07           0.40     0.44
D13        49.46   57.89   53.56          80.68  -16.47   -6.48          17.70  201.47           0.42    0.18    0.19    0.26            0.57    0.48    0.33           0.41     0.50
D14        55.17   50.45   48.70          76.34   17.07   -8.55          19.09  333.40           0.18    0.36    0.22    0.28            0.56    0.67    0.43           0.47     0.61
D15        62.69   65.70   30.50          84.84   -1.52   30.35          30.38   92.86           0.15    0.19    0.48    0.17            0.40    0.38    0.62           0.56     0.70
D16        33.28   35.51   27.62          66.14   -3.33    2.77           4.35  140.46           0.47    0.45    0.50    0.45            0.61    0.67    0.70           0.61     0.69
D17        48.21   43.53   27.25          71.91   17.93   13.34          22.35   36.64           0.19    0.44    0.51    0.34            0.54    0.62    0.71           0.64     0.75
D18        44.53   53.93   31.31          78.42  -20.51   18.01          27.30  138.73           0.42    0.21    0.47    0.28            0.63    0.58    0.78           0.74     0.87
D19        38.49   41.10   47.76          70.24   -3.62  -17.97          18.34  258.61           0.48    0.37    0.23    0.40            0.72    0.81    0.48           0.66     0.77
D20         3.38    3.59    1.16          22.25   -1.17   17.73          17.77   93.78           1.39    1.47    2.13    1.43            0.07    0.09    0.04           0.38     0.42
D21        32.64   30.54    1.65          62.12   11.72   80.38          81.23   81.70           0.36    0.59    2.36    0.48            0.27    0.26    0.02           0.39     0.42
D22        43.14   47.79   50.06          74.69   -8.49  -12.94          15.48  236.74           0.44    0.29    0.22    0.34            0.50    0.53    0.31           0.40     0.46
E1          6.22    7.44    3.68          32.79   -9.83   13.20          16.46  126.68           1.21    1.10    1.52    1.14            0.14    0.16    0.10           0.38     0.45
E2          5.72    7.37    2.28          32.63  -14.58   23.37          27.55  121.97           1.29    1.07    1.82    1.15            0.12    0.15    0.05           0.38     0.44
E3          5.22    7.30    1.38          32.48  -19.76   32.45          37.99  121.34           1.39    1.04    2.20    1.15            0.10    0.14    0.04           0.38     0.42
E4          4.86    7.30    0.70          32.48  -24.21   42.86          49.23  119.46           1.52    1.00    2.87    1.16            0.08    0.10    0.01           0.33     0.43
E5         27.19   31.72   16.28          63.11  -13.12   19.96          23.89  123.31           0.59    0.46    0.79    0.51            0.48    0.55    0.36           0.49     0.56
E6         24.39   30.77    9.96          62.31  -21.33   36.17          41.99  120.53           0.67    0.45    1.07    0.52            0.45    0.54    0.24           0.45     0.53
E7         21.90   30.07    5.40          61.71  -29.88   53.40          61.19  119.23           0.78    0.43    1.48    0.54            0.31    0.39    0.10           0.30     0.37
E8         19.80   28.81    3.27          60.62  -35.24   63.90          72.98  118.87           0.89    0.42    1.88    0.56            0.18    0.20    0.04           0.26     0.32
E9         47.84   52.37   34.15          77.50   -7.20   12.17          14.15  120.64           0.32    0.26    0.41    0.28            0.79    0.81    0.80           0.54     0.66
E10        45.28   51.70   26.61          77.10  -12.66   23.38          26.59  118.44           0.36    0.26    0.55    0.29            0.79    0.80    0.63           0.53     0.67
E11        42.52   50.79   21.08          76.55  -18.35   32.67          37.47  119.32           0.40    0.25    0.68    0.30            0.62    0.61    0.42           0.46     0.56
E12        40.64   49.87   17.01          75.99  -21.63   40.46          45.88  118.13           0.43    0.25    0.80    0.31            0.54    0.48    0.32           0.48     0.59
E13        44.55   54.15   52.85          78.55  -20.99   -9.39          22.99  204.10           0.51    0.20    0.20    0.29            0.56    0.49    0.38           0.40     0.52
E14        50.85   44.31   46.37          72.44   22.77  -12.56          26.01  331.11           0.19    0.44    0.24    0.34            0.55    0.63    0.47           0.49     0.60
E15        61.24   64.17   23.93          84.05   -1.46   40.14          40.16   92.09           0.15    0.20    0.61    0.18            0.40    0.39    0.54           0.62     0.73
E16        24.36   26.14   20.19          58.16   -3.60    2.79           4.58  142.33           0.61    0.58    0.65    0.59            0.49    0.52    0.57           0.59     0.68
E17        41.89   35.56   19.87          66.18   24.45   17.28          29.94   35.24           0.21    0.57    0.66    0.41            0.42    0.47    0.51           0.57     0.68
E18        38.45   48.98   24.60          75.44  -26.14   24.06          35.53  137.38           0.51    0.24    0.60    0.33            0.47    0.44    0.60           0.67     0.78
E19        30.71   32.92   44.97          64.10   -3.80  -25.27          25.55  261.44           0.62    0.46    0.26    0.51            0.62    0.71    0.47           0.68     0.79
E20         7.82    9.67    1.46          37.25  -13.12   39.76          41.87  108.26           1.14    0.96    2.20    1.02            0.14    0.20    0.05           0.53     0.58
E21        26.30   31.70    6.76          63.10  -16.69   49.53          52.27  108.63           0.59    0.45    1.32    0.50            0.38    0.44    0.15           0.43     0.50
E22         8.85   18.74   14.10          50.38  -60.59    3.47          60.69  176.73           1.93    0.51    0.88    0.81            0.12    0.17    0.27           0.42     0.47
F1          3.98    5.23    3.27          27.39  -14.18    6.66          15.67  154.86           1.48    1.22    1.56    1.31            0.09    0.12    0.09           0.34     0.40
F2          3.32    5.30    2.87          27.58  -25.16    9.87          27.02  158.59           1.71    1.15    1.66    1.32            0.09    0.13    0.08           0.38     0.44
F3          2.78    5.23    2.38          27.39  -33.71   13.46          36.30  158.23           1.96    1.11    1.80    1.34            0.07    0.12    0.05           0.39     0.43
F4          1.93    5.03    1.65          26.81  -48.90   19.50          52.65  158.26           2.64    1.05    2.10    1.38            0.03    0.08    0.03           0.36     0.41
F5         12.97   16.86   10.75          48.08  -20.02    9.11          22.00  155.52           1.00    0.70    0.98    0.80            0.26    0.33    0.25           0.43     0.49
F6         10.32   16.42    9.05          47.52  -36.40   13.80          38.93  159.24           1.28    0.65    1.10    0.83            0.22    0.33    0.23           0.44     0.51
F7          8.17   15.81    7.32          46.73  -50.74   18.95          54.17  159.53           1.62    0.61    1.24    0.86            0.15    0.26    0.17           0.41     0.45
F8          6.41   14.99    6.32          45.62  -63.08   21.30          66.58  161.34           2.07    0.59    1.35    0.90            0.10    0.17    0.11           0.25     0.29
F9         32.43   37.84   27.24          67.90  -13.94    6.44          15.36  155.20           0.55    0.38    0.52    0.44            0.69    0.74    0.72           0.55     0.68
F10        28.58   36.91   24.51          67.20  -25.28   10.03          27.20  158.36           0.68    0.35    0.58    0.46            0.57    0.66    0.60           0.50     0.62
F11        25.12   35.96   22.13          66.49  -36.22   13.25          38.57  159.91           0.83    0.33    0.64    0.48            0.43    0.52    0.51           0.47     0.59
F12        22.35   34.87   20.52          65.65  -44.79   15.00          47.24  161.48           0.97    0.32    0.69    0.50            0.30    0.33    0.42           0.47     0.59
F13        40.08   50.54   52.17          76.40  -25.13  -12.34          28.00  206.16           0.61    0.21    0.20    0.33            0.49    0.45    0.37           0.35     0.46
F14        46.78   38.79   44.01          68.60   28.22  -16.33          32.61  329.94           0.21    0.53    0.26    0.39            0.51    0.57    0.47           0.46     0.60
F15        60.13   62.76   18.61          83.32   -0.92   49.50          49.51   91.06           0.14    0.21    0.75    0.19            0.33    0.33    0.41           0.50     0.66
F16        17.24   18.67   14.19          50.29   -4.06    3.09           5.11  142.75           0.75    0.73    0.82    0.73            0.38    0.41    0.40           0.52     0.60
F17        36.30   28.84   13.90          60.64   30.69   21.69          37.58   35.25           0.23    0.72    0.83    0.49            0.35    0.38    0.39           0.56     0.66
