targets/wolf_faust/transmissive/A051023.it8
IT8.7/1
ORIGINATOR "Wolf Faust"
DESCRIPTOR "Agfachrome RSX, RSX II and CT Precisa, Type 3, L* a* b* (light D50, viewing angle 2)"
MANUFACTURER "Wolf Faust - http://www.coloraid.de"
CREATED "January 11, 2006"
PROD_DATE "2005:10"
DIFFUSE_GEOMETRY "opal"
SERIAL "A051023 Batch Average Data"
MATERIAL "Agfachrome RSX II"
KEYWORD "MEAN_DE" # Mean Delta E of samples compared to batch average
NUMBER_OF_FIELDS 18
BEGIN_DATA_FORMAT
SAMPLE_ID  XYZ_X   XYZ_Y   XYZ_Z          LAB_L   LAB_A   LAB_B          LAB_C   LAB_H          D_RED  D_GREEN  D_BLUE  D_VIS          STDEV_X STDEV_Y STDEV_Z        MEAN_DE  STDEV_DE
END_DATA_FORMAT
NUMBER_OF_SETS 288
BEGIN_DATA
A1          2.16    1.93    1.19          15.11    6.87    4.96           8.48   35.85           1.50    1.86    2.01    1.69            0.05    0.05    0.03           0.31     0.34
A2          2.63    1.88    0.99          14.83   17.60    7.41          19.10   22.82           1.32    2.04    2.07    1.66            0.07    0.05    0.03           0.33     0.39 
A3          3.14    1.81    0.82          14.48   28.22    9.64          29.82   18.85           1.16    2.34    2.13    1.64            0.09    0.05    0.03           0.38     0.44
A4          3.85    1.78    0.62          14.29   40.28   12.89          42.29   17.74           1.00    3.02    2.17    1.60            0.10    0.05    0.02           0.43     0.51 
A5          9.95    9.02    5.92          36.03   10.25    6.62          12.20   32.85           0.87    1.15    1.23    1.02            0.27    0.25    0.20           0.53     0.59
A6         11.80    8.91    4.96          35.81   24.88   10.98          27.20   23.82           0.70    1.29    1.31    1.00            0.29    0.24    0.16           0.54     0.59 
A7         13.96    8.74    4.17          35.48   40.62   14.84          43.25   20.07           0.55    1.50    1.37    0.97            0.33    0.22    0.13           0.53     0.59
A8         16.44    8.63    3.46          35.25   56.37   18.87          59.44   18.51           0.41    1.83    1.42    0.94            0.22    0.15    0.13           0.45     0.52 
A9         29.64   29.66   21.72          61.36    3.99    5.21           6.57   52.50           0.47    0.56    0.62    0.52            0.78    0.79    0.76           0.75     0.84
A10        31.84   29.83   20.53          61.50   11.52    7.85          13.94   34.26           0.39    0.59    0.64    0.51            0.86    0.86    0.78           0.78     0.88
A11        34.62   30.28   19.70          61.89   19.61   10.24          22.13   27.56           0.31    0.63    0.66    0.49            0.71    0.69    0.71           0.75     0.86
A12        37.81   30.42   18.52          62.01   29.72   12.97          32.43   23.56           0.23    0.68    0.68    0.47            0.58    0.61    0.64           0.76     0.88 
A13        64.09   68.23   55.59          86.12   -3.82    0.74           3.89  168.90           0.20    0.15    0.17    0.17            0.63    0.57    0.42           0.38     0.42
A14        70.28   71.46   55.54          87.71    2.95    3.54           4.61   50.18           0.12    0.15    0.17    0.14            0.28    0.30    0.26           0.18     0.20 
A15        70.74   72.24   55.21          88.09    2.31    4.54           5.09   63.01           0.12    0.15    0.18    0.14            0.28    0.27    0.28           0.19     0.20
A16        66.26   69.10   55.48          86.55   -0.80    1.60           1.80  116.86           0.17    0.16    0.17    0.16            0.52    0.48    0.27           0.33     0.37
A17        70.49   71.89   55.36          87.91    2.53    4.08           4.80   58.21           0.12    0.15    0.17    0.14            0.30    0.30    0.29           0.18     0.21
A18        64.94   68.70   53.25          86.35   -2.89    3.64           4.66  128.42           0.19    0.15    0.19    0.16            0.46    0.38    0.42           0.37     0.40 
A19        62.00   65.74   54.90          84.86   -3.20   -0.69           3.28  192.00           0.22    0.17    0.18    0.19            0.57    0.56    0.31           0.36     0.41
A20         6.02    2.83    1.69          19.34   46.03    6.27          46.46    7.75           0.82    2.71    1.70    1.40            0.11    0.05    0.06           0.45     0.51 
A21        27.62   20.14   14.42          51.99   36.52    5.42          36.93    8.44           0.33    0.94    0.78    0.64            0.46    0.41    0.48           0.64     0.75
A22        53.66   51.28   34.02          76.84   11.08   11.24          15.78   45.40           0.18    0.34    0.41    0.27            0.76    0.87    0.84           0.69     0.80
B1          3.30    3.14    1.61          20.60    4.50    9.24          10.28   64.02           1.35    1.60    1.89    1.48            0.10    0.10    0.05           0.38     0.45
B2          3.90    3.07    0.85          20.32   15.06   19.19          24.40   51.89           1.18    1.73    2.24    1.46            0.10    0.09    0.03           0.42     0.49
B3          4.27    2.90    0.50          19.64   23.31   24.45          33.78   46.37           1.08    1.89    2.53    1.45            0.12    0.09    0.02           0.52     0.58
B4          4.94    2.82    0.18          19.31   33.55   29.91          44.95   41.71           0.96    2.15    3.13    1.43            0.14    0.09    0.00           0.61     0.71
B5         12.59   11.77    6.14          40.84    8.68   13.87          16.36   57.97           0.77    1.01    1.23    0.91            0.33    0.32    0.19           0.56     0.64
B6         14.68   11.80    4.05          40.89   21.77   24.85          33.04   48.78           0.62    1.11    1.45    0.88            0.33    0.29    0.11           0.60     0.66
B7         17.04   11.81    2.44          40.90   35.31   36.24          50.60   45.74           0.49    1.24    1.71    0.85            0.37    0.28    0.06           0.58     0.65
B8         20.45   11.89    1.04          41.04   52.29   51.88          73.66   44.77           0.35    1.47    2.18    0.81            0.21    0.17    0.03           0.33     0.38
B9         35.20   36.02   25.24          66.53    1.59    7.56           7.72   78.14           0.41    0.46    0.55    0.44            0.94    0.99    0.85           0.77     0.89
B10        37.42   36.34   22.42          66.77    7.90   13.18          15.37   59.07           0.34    0.49    0.61    0.42            0.94    0.98    0.79           0.78     0.89
B11        39.20   36.51   20.05          66.91   13.03   18.17          22.36   54.35           0.29    0.51    0.66    0.41            0.82    0.87    0.69           0.76     0.87
B12        42.34   36.68   16.65          67.04   22.12   25.89          34.05   49.49           0.20    0.55    0.76    0.40            0.58    0.67    0.55           0.74     0.87
B13        59.11   64.39   53.75          84.17   -7.01   -0.67           7.04  185.47           0.26    0.17    0.19    0.20            0.73    0.70    0.52           0.39     0.47
B14        61.92   61.49   51.84          82.64    6.19   -1.22           6.31  348.94           0.17    0.23    0.20    0.21            0.69    0.83    0.50           0.54     0.63
B15        65.02   67.76   46.35          85.89   -0.72   10.65          10.68   93.86           0.16    0.17    0.26    0.17            0.65    0.65    0.75           0.52     0.61
B16        53.31   56.05   44.63          79.64   -1.88    1.95           2.72  134.35           0.27    0.25    0.28    0.25            0.99    1.06    0.98           0.67     0.74
B17        60.02   59.71   44.56          81.68    5.88    5.56           8.09   43.36           0.17    0.25    0.28    0.22            0.79    0.92    0.94           0.65     0.74
B18        57.72   63.42   46.81          83.66   -8.21    6.28          10.34  142.62           0.26    0.17    0.26    0.20            0.74    0.67    0.66           0.55     0.63
B19        55.28   58.11   51.94          80.80   -1.88   -4.50           4.88  247.16           0.27    0.23    0.20    0.24            0.72    0.81    0.46           0.51     0.59
B20         4.76    2.96    0.81          19.90   28.75   19.13          34.53   33.64           1.00    2.00    2.20    1.43            0.10    0.07    0.02           0.36     0.41
B21        17.48   12.17    4.13          41.49   35.18   25.42          43.40   35.85           0.49    1.22    1.41    0.84            0.31    0.24    0.11           0.45     0.50
B22        34.82   30.46   16.85          62.04   19.67   16.79          25.86   40.48           0.30    0.63    0.74    0.48            0.60    0.61    0.48           0.62     0.72
C1          6.37    6.61    3.17          30.91   -0.03   13.40          13.40   90.14           1.11    1.22    1.58    1.17            0.18    0.19    0.09           0.48     0.56
C2          6.81    6.62    1.99          30.93    4.38   23.17          23.58   79.30           1.04    1.25    1.85    1.16            0.20    0.20    0.06           0.52     0.61
C3          7.14    6.37    0.93          30.33   10.22   35.06          36.52   73.74           0.98    1.31    2.34    1.15            0.20    0.19    0.03           0.57     0.63
C4          7.69    6.47    0.44          30.56   14.48   44.38          46.68   71.93           0.93    1.33    2.96    1.14            0.23    0.20    0.01           0.75     0.83
C5         23.93   23.90   11.47          55.98    3.92   20.52          20.89   79.19           0.53    0.66    0.95    0.61            0.68    0.66    0.39           0.63     0.73
C6         26.15   24.12    6.39          56.21   12.37   39.25          41.15   72.51           0.43    0.70    1.27    0.58            0.65    0.62    0.19           0.64     0.73
C7         28.17   24.20    3.08          56.29   20.20   57.82          61.25   70.74           0.36    0.74    1.73    0.57            0.62    0.56    0.08           0.65     0.76
C8         31.26   24.41    0.86          56.50   30.99   81.35          87.05   69.14           0.29    0.81    2.82    0.55            0.56    0.50    0.01           0.74     0.84
C9         41.46   42.83   28.22          71.43    0.52   10.90          10.92   87.28           0.34    0.38    0.50    0.36            0.98    1.05    0.88           0.78     0.88
C10        42.71   42.93   24.00          71.50    3.94   18.37          18.79   77.88           0.30    0.39    0.58    0.35            1.03    1.11    0.82           0.80     0.90
C11        44.05   43.10   19.93          71.62    7.42   26.54          27.56   74.37           0.26    0.41    0.68    0.35            0.89    0.99    0.69           0.77     0.87
C12        46.54   43.00   12.68          71.55   14.84   43.84          46.29   71.30           0.18    0.44    0.93    0.33            0.69    0.83    0.38           0.72     0.84
C13        52.70   60.05   53.24          81.86  -13.04   -4.08          13.67  197.37           0.36    0.18    0.19    0.24            0.76    0.72    0.51           0.45     0.54
C14        57.14   54.08   49.50          78.50   12.63   -5.73          13.87  335.61           0.18    0.31    0.22    0.26            0.80    0.97    0.57           0.72     0.87
C15        63.13   66.23   37.17          85.11   -1.69   21.03          21.09   94.60           0.16    0.18    0.38    0.17            0.73    0.72    0.85           0.66     0.80
C16        41.16   43.69   34.40          72.02   -2.92    2.36           3.78  141.50           0.38    0.36    0.40    0.36            1.00    1.06    1.07           0.81     0.91
C17        53.20   50.36   34.51          76.29   12.29    9.56          15.58   37.86           0.18    0.35    0.40    0.28            0.87    1.00    0.88           0.79     0.92
C18        49.57   57.72   37.88          80.58  -15.78   12.25          19.98  142.20           0.36    0.19    0.37    0.25            0.72    0.66    0.76           0.69     0.80
C19        44.94   47.62   49.31          74.58   -2.78  -12.28          12.60  257.23           0.39    0.31    0.22    0.33            0.79    0.91    0.48           0.66     0.80
C20        12.85    9.82    0.98          37.51   24.69   46.60          52.74   62.08           0.66    1.23    2.33    0.94            0.26    0.22    0.02           0.58     0.66
C21        22.65   21.77   11.02          53.78    7.73   18.07          19.66   66.83           0.54    0.72    0.96    0.64            0.56    0.57    0.36           0.61     0.71
C22        28.15   24.48   10.65          56.56   18.93   24.03          30.59   51.77           0.38    0.73    0.97    0.57            0.56    0.54    0.36           0.56     0.64
D1          4.24    4.73    2.35          25.94   -4.32   11.29          12.09  110.92           1.33    1.33    1.73    1.33            0.12    0.14    0.07           0.43     0.49
D2          4.29    4.75    1.37          26.02   -4.00   21.39          21.77  100.60           1.31    1.33    2.07    1.32            0.12    0.14    0.04           0.42     0.51
D3          4.26    4.73    0.64          25.94   -3.98   32.69          32.93   96.94           1.33    1.32    2.65    1.31            0.11    0.12    0.02           0.49     0.56
D4          4.23    4.78    0.46          26.10   -5.17   36.23          36.60   98.12           1.35    1.30    2.95    1.31            0.13    0.15    0.01           0.67     0.76
D5         17.59   19.24    9.00          50.97   -5.07   19.93          20.57  104.29           0.72    0.71    1.08    0.71            0.52    0.56    0.31           0.61     0.73
D6         17.67   19.30    4.89          51.03   -4.92   37.62          37.94   97.46           0.70    0.71    1.44    0.70            0.47    0.51    0.14           0.62     0.72
D7         17.56   19.16    2.11          50.88   -4.86   56.37          56.58   94.92           0.71    0.71    2.04    0.70            0.43    0.45    0.06           0.65     0.74
D8         17.21   18.92    1.00          50.59   -5.54   68.84          69.06   94.60           0.74    0.71    2.78    0.70            0.43    0.48    0.02           0.83     0.95
D9         47.22   49.87   24.49          75.98   -2.39   25.21          25.32   95.42           0.28    0.31    0.58    0.29            1.09    1.18    0.80           0.81     0.90
D10        46.88   49.71   14.09          75.89   -2.93   47.50          47.59   93.53           0.26    0.31    0.90    0.29            0.98    1.08    0.44           0.73     0.81
D11        45.84   48.89    6.91          75.38   -3.66   70.06          70.16   92.99           0.27    0.31    1.35    0.29            0.79    0.82    0.17           0.55     0.63
D12        45.36   48.33    3.95          75.03   -3.52   84.32          84.40   92.39           0.28    0.32    1.77    0.29            0.64    0.56    0.08           0.46     0.54
D13        47.22   56.08   52.65          79.66  -18.21   -7.24          19.60  201.69           0.45    0.19    0.20    0.27            0.80    0.78    0.55           0.49     0.64
D14        53.07   47.95   47.46          74.79   18.41   -9.79          20.85  332.01           0.19    0.39    0.23    0.30            0.87    1.00    0.62           0.79     0.95
D15        61.52   64.75   29.36          84.35   -2.12   31.31          31.39   93.87           0.16    0.19    0.50    0.18            0.70    0.70    0.78           0.74     0.88
D16        30.99   33.23   25.89          64.34   -3.80    2.63           4.65  145.60           0.51    0.47    0.54    0.48            0.87    0.95    1.00           0.86     0.98
D17        46.67   41.76   25.89          70.70   18.85   13.61          23.25   35.82           0.20    0.47    0.53    0.35            0.80    0.90    0.81           0.83     0.96
D18        42.67   52.49   30.22          77.57  -22.31   18.25          28.83  140.72           0.45    0.22    0.49    0.29            0.75    0.72    0.74           0.74     0.87
D19        36.17   38.60   46.68          68.46   -3.47  -19.79          20.09  260.04           0.51    0.39    0.24    0.43            0.70    0.82    0.49           0.72     0.86
D20         3.11    3.26    0.90          21.07   -0.54   19.53          19.54   91.57           1.42    1.52    2.28    1.47            0.06    0.07    0.02           0.41     0.46
D21        33.19   31.01    1.26          62.51   11.99   85.74          86.58   82.04           0.35    0.58    2.67    0.47            0.54    0.55    0.02           0.66     0.79
D22        41.42   45.92   49.29          73.49   -8.48  -14.14          16.49  239.04           0.47    0.30    0.22    0.36            0.80    0.93    0.48           0.72     0.86
E1          5.49    6.62    3.33          30.93   -9.95   12.33          15.85  128.89           1.27    1.15    1.57    1.19            0.15    0.18    0.10           0.41     0.48
E2          5.09    6.64    2.10          30.96  -14.82   22.13          26.64  123.81           1.35    1.11    1.87    1.19            0.14    0.19    0.07           0.43     0.51
E3          4.69    6.62    1.18          30.91  -19.70   32.39          37.91  121.31           1.45    1.08    2.30    1.20            0.12    0.17    0.03           0.46     0.56
E4          4.05    6.42    0.65          30.46  -26.38   40.23          48.11  123.26           1.65    1.04    2.90    1.22            0.13    0.19    0.01           0.67     0.76
E5         24.71   28.92   14.71          60.70  -13.04   19.69          23.62  123.52           0.63    0.50    0.84    0.55            0.71    0.79    0.52           0.70     0.81
E6         22.75   28.95    9.22          60.73  -21.79   35.98          42.07  121.20           0.70    0.47    1.12    0.55            0.59    0.71    0.24           0.66     0.76
E7         20.41   28.43    5.06          60.27  -30.81   52.63          60.98  120.35           0.82    0.44    1.52    0.56            0.48    0.60    0.11           0.61     0.70
E8         18.45   27.33    2.94          59.28  -36.34   64.02          73.61  119.58           0.94    0.44    1.97    0.58            0.30    0.35    0.06           0.39     0.47
E9         45.15   49.84   32.41          75.97   -8.16   12.11          14.61  123.99           0.35    0.28    0.44    0.31            1.15    1.26    0.94           0.77     0.88
E10        42.74   49.30   25.43          75.63  -13.76   22.90          26.72  121.00           0.39    0.27    0.57    0.31            1.05    1.15    0.76           0.72     0.82
E11        40.67   49.09   20.14          75.50  -19.44   32.79          38.12  120.66           0.43    0.26    0.70    0.32            0.90    0.98    0.62           0.64     0.75
E12        38.95   48.52   16.54          75.15  -23.30   40.12          46.39  120.14           0.46    0.25    0.82    0.32            0.73    0.73    0.47           0.59     0.71
E13        42.46   52.42   52.08          77.53  -22.75  -10.29          24.97  204.33           0.55    0.20    0.20    0.31            0.67    0.68    0.48           0.45     0.58
E14        48.96   42.07   45.16          70.91   24.26  -13.74          27.88  330.48           0.20    0.47    0.25    0.36            0.68    0.77    0.52           0.65     0.81
E15        60.22   63.33   23.04          83.62   -2.00   41.05          41.10   92.79           0.16    0.20    0.63    0.19            0.68    0.69    0.59           0.63     0.75
E16        22.82   24.66   19.09          56.74   -4.26    2.65           5.04  148.27           0.64    0.60    0.68    0.61            0.61    0.66    0.62           0.72     0.84
E17        40.70   34.21   18.83          65.12   25.40   17.68          30.95   34.82           0.21    0.60    0.68    0.43            0.64    0.69    0.63           0.77     0.90
E18        36.67   47.55   23.66          74.54  -28.01   24.22          37.03  139.15           0.55    0.24    0.62    0.34            0.66    0.66    0.59           0.69     0.81
E19        28.76   30.80   43.95          62.34   -3.62  -27.05          27.29  262.36           0.65    0.49    0.27    0.54            0.52    0.63    0.41           0.66     0.80
E20         7.61    9.27    1.17          36.50  -11.87   42.12          43.76  105.73           1.14    0.98    2.36    1.03            0.15    0.20    0.03           0.51     0.62
E21        24.89   30.27    6.35          61.88  -17.36   49.21          52.18  109.44           0.62    0.47    1.35    0.52            0.49    0.61    0.16           0.59     0.68
E22         8.39   18.09   13.60          49.60  -61.17    3.46          61.27  176.77           1.99    0.52    0.90    0.83            0.12    0.21    0.29           0.44     0.53
F1          3.60    4.72    3.07          25.93  -13.70    5.51          14.76  158.11           1.52    1.27    1.59    1.35            0.12    0.16    0.09           0.44     0.52
F2          2.98    4.67    2.59          25.78  -23.25    8.95          24.92  158.95           1.74    1.22    1.71    1.38            0.10    0.15    0.09           0.46     0.52
F3          2.36    4.61    2.16          25.59  -34.16   12.29          36.30  160.22           2.07    1.16    1.85    1.40            0.08    0.14    0.07           0.48     0.56
F4          1.73    4.57    1.50          25.47  -47.78   18.88          51.38  158.44           2.69    1.09    2.15    1.42            0.05    0.13    0.04           0.52     0.62
F5         11.66   15.31   10.10          46.05  -20.21    7.69          21.62  159.15           1.05    0.74    1.01    0.84            0.35    0.44    0.33           0.54     0.64
F6          9.40   15.13    8.43          45.81  -36.27   13.07          38.55  160.18           1.33    0.68    1.13    0.87            0.26    0.40    0.24           0.58     0.65
F7          7.32   14.68    7.00          45.19  -52.03   17.64          54.94  161.27           1.72    0.63    1.26    0.90            0.20    0.36    0.18           0.52     0.60
F8          5.91   14.13    5.85          44.42  -63.33   21.38          66.84  161.35           2.14    0.61    1.39    0.93            0.10    0.20    0.13           0.32     0.37
F9         30.10   35.47   25.85          66.11  -14.77    5.76          15.85  158.71           0.59    0.40    0.55    0.47            0.91    1.04    0.86           0.78     0.89
F10        26.68   35.05   23.31          65.78  -26.71    9.78          28.45  159.89           0.72    0.37    0.61    0.48            0.74    0.91    0.80           0.73     0.84
F11        23.63   34.36   21.45          65.24  -37.31   12.44          39.33  161.57           0.87    0.34    0.66    0.50            0.62    0.80    0.70           0.66     0.77
F12        21.10   33.63   19.70          64.67  -46.42   15.03          48.79  162.07           1.02    0.33    0.71    0.52            0.41    0.49    0.59           0.64     0.79
F13        38.29   49.01   51.45          75.46  -26.71  -13.18          29.79  206.26           0.65    0.22    0.21    0.35            0.63    0.66    0.45           0.45     0.60
F14        44.82   36.47   42.67          66.88   30.10  -17.63          34.88  329.64           0.22    0.57    0.27    0.41            0.68    0.72    0.51           0.65     0.81
F15        59.15   61.96   17.88          82.89   -1.41   50.37          50.39   91.60           0.15    0.22    0.77    0.19            0.66    0.66    0.42           0.53     0.62
F16        16.04   17.40   13.39          48.76   -4.14    2.58           4.89  148.13           0.79    0.76    0.85    0.77            0.42    0.46    0.45           0.67     0.75
F17        35.19   27.52   13.17          59.45   32.07   21.62          38.68   33.99           0.24    0.75    0.85    0.51            0.52    0.54    0.44           0.67     0.78
