targets/wolf_faust/transmissive/A060522.it8
IT8.7/1
ORIGINATOR "Wolf Faust"
DESCRIPTOR "Agfachrome RSX, RSX II and CT Precisa, Type 3, L* a* b* (light D50, viewing angle 2)"
MANUFACTURER "Wolf Faust - http://www.coloraid.de"
CREATED "July 17, 2006"
PROD_DATE "2006:05"
DIFFUSE_GEOMETRY "opal"
SERIAL "A060522 Batch Average Data"
MATERIAL "Agfachrome RSX II"
KEYWORD "MEAN_DE" # Mean Delta E of samples compared to batch average
NUMBER_OF_FIELDS 18
BEGIN_DATA_FORMAT
SAMPLE_ID  XYZ_X   XYZ_Y   XYZ_Z          LAB_L   LAB_A   LAB_B          LAB_C   LAB_H          D_RED  D_GREEN  D_BLUE  D_VIS          STDEV_X STDEV_Y STDEV_Z        MEAN_DE  STDEV_DE
END_DATA_FORMAT
NUMBER_OF_SETS 288
BEGIN_DATA
A1          2.21    1.88    1.44          14.85    8.98    1.27           9.07    8.07           1.48    1.90    1.89    1.70            0.06    0.05    0.06           0.42     0.46
A2          2.96    2.10    1.22          16.02   18.58    6.18          19.59   18.39           1.27    2.00    1.96    1.61            0.06    0.04    0.04           0.39     0.43 
A3          3.33    1.89    1.03          14.90   29.57    6.85          30.36   13.04           1.14    2.35    1.99    1.62            0.07    0.04    0.04           0.46     0.51
A4          4.20    1.89    0.80          14.91   42.72   10.67          44.03   14.03           0.95    3.19    2.04    1.56            0.05    0.02    0.03           0.42     0.45 
A5          9.94    8.62    6.23          35.24   13.62    3.80          14.14   15.59           0.85    1.20    1.20    1.04            0.12    0.11    0.11           0.43     0.48
A6         11.90    8.66    5.38          35.32   27.73    7.97          28.86   16.03           0.68    1.33    1.25    1.00            0.12    0.08    0.08           0.39     0.43 
A7         14.15    8.65    4.67          35.31   42.57   11.70          44.15   15.37           0.54    1.53    1.30    0.97            0.14    0.09    0.09           0.41     0.45
A8         16.47    8.76    4.02          35.51   55.39   15.77          57.59   15.89           0.42    1.78    1.35    0.94            0.09    0.06    0.10           0.39     0.45 
A9         28.42   27.78   22.08          59.69    6.51    1.63           6.72   14.04           0.48    0.60    0.60    0.55            0.37    0.33    0.41           0.40     0.48
A10        30.56   28.12   20.81          60.00   13.34    4.68          14.14   19.32           0.41    0.63    0.63    0.53            0.36    0.35    0.46           0.48     0.56
A11        32.91   28.30   19.83          60.15   21.18    6.96          22.30   18.18           0.33    0.66    0.65    0.52            0.43    0.40    0.47           0.47     0.55
A12        35.93   28.16   18.53          60.03   32.08    9.55          33.47   16.57           0.24    0.73    0.67    0.50            0.30    0.33    0.46           0.58     0.67 
A13        63.27   67.13   58.04          85.57   -3.31   -2.75           4.31  219.73           0.21    0.16    0.15    0.18            0.21    0.19    0.12           0.21     0.25
A14        67.93   68.90   57.68          86.45    3.30   -0.85           3.41  345.58           0.14    0.17    0.15    0.16            0.16    0.15    0.14           0.17     0.20 
A15        68.33   70.02   55.07          87.01    1.79    2.82           3.35   57.50           0.14    0.16    0.18    0.15            0.14    0.14    0.28           0.29     0.34
A16        65.15   68.17   55.61          86.09   -1.30    0.67           1.48  153.51           0.18    0.16    0.17    0.17            0.22    0.19    0.29           0.30     0.36
A17        66.71   67.55   55.11          85.78    3.53    0.67           3.59   10.79           0.14    0.18    0.17    0.17            0.25    0.27    0.25           0.24     0.27
A18        61.48   65.89   54.19          84.94   -4.74    0.20           4.75  177.72           0.22    0.16    0.19    0.19            0.28    0.24    0.35           0.35     0.40 
A19        63.02   65.42   57.13          84.70   -0.14   -3.30           3.31  267.51           0.20    0.18    0.16    0.19            0.27    0.29    0.16           0.20     0.24
A20         6.32    2.96    1.85          19.88   46.91    5.51          47.23    6.70           0.80    2.71    1.66    1.38            0.09    0.04    0.04           0.37     0.42 
A21        26.51   18.81   14.76          50.47   38.63    1.92          38.68    2.85           0.34    0.99    0.76    0.67            0.27    0.22    0.35           0.55     0.60
A22        51.42   48.19   32.59          74.94   13.47   10.07          16.82   36.77           0.19    0.37    0.42    0.30            0.48    0.56    0.60           0.59     0.66
B1          3.35    3.00    1.89          20.06    7.79    5.38           9.47   34.62           1.32    1.65    1.78    1.50            0.09    0.08    0.07           0.49     0.54
B2          3.92    2.98    1.19          19.98   16.85   13.35          21.50   38.40           1.17    1.77    2.02    1.47            0.09    0.07    0.04           0.43     0.47
B3          4.50    2.96    0.69          19.87   25.46   21.26          33.17   39.86           1.05    1.92    2.31    1.44            0.10    0.06    0.02           0.43     0.49
B4          5.33    3.15    0.29          20.64   32.54   30.06          44.30   42.73           0.94    2.04    2.83    1.39            0.11    0.07    0.00           0.45     0.55
B5         12.91   11.64    6.64          40.64   11.69   11.30          16.25   44.03           0.74    1.04    1.18    0.91            0.17    0.15    0.11           0.41     0.44
B6         14.61   11.32    4.40          40.12   24.71   21.47          32.73   40.99           0.61    1.16    1.39    0.89            0.16    0.12    0.08           0.38     0.43
B7         17.00   11.46    2.69          40.34   37.52   33.26          50.14   41.56           0.48    1.28    1.64    0.86            0.19    0.14    0.06           0.40     0.45
B8         19.66   11.46    1.59          40.35   51.44   43.57          67.41   40.26           0.36    1.48    1.90    0.83            0.11    0.09    0.04           0.31     0.35
B9         33.27   33.29   25.01          64.39    4.17    4.26           5.96   45.61           0.42    0.50    0.55    0.47            0.44    0.43    0.46           0.38     0.45
B10        35.19   33.57   22.70          64.62    9.83    8.93          13.28   42.26           0.36    0.53    0.59    0.46            0.48    0.49    0.51           0.52     0.59
B11        37.29   34.15   20.11          65.08   14.79   14.88          20.98   45.17           0.30    0.54    0.66    0.44            0.45    0.46    0.49           0.51     0.58
B12        40.40   34.25   16.83          65.16   24.32   22.22          32.94   42.42           0.22    0.59    0.74    0.43            0.34    0.38    0.43           0.55     0.66
B13        57.57   62.52   55.71          83.19   -6.53   -4.44           7.89  214.23           0.27    0.18    0.17    0.21            0.31    0.25    0.23           0.27     0.33
B14        58.66   56.66   52.56          79.99    9.94   -6.59          11.92  326.45           0.18    0.28    0.19    0.24            0.43    0.46    0.36           0.27     0.32
B15        63.33   65.71   46.25          84.85   -0.07    8.98           8.98   90.42           0.17    0.18    0.26    0.18            0.32    0.31    0.52           0.43     0.51
B16        50.48   52.44   43.71          77.55   -0.24   -0.53           0.64  243.30           0.28    0.28    0.28    0.28            0.41    0.41    0.45           0.35     0.40
B17        56.89   55.51   43.48          79.33    8.45    2.83           8.91   18.52           0.18    0.29    0.28    0.25            0.39    0.46    0.50           0.40     0.45
B18        55.95   61.41   46.80          82.60   -7.96    4.45           9.12  150.87           0.27    0.19    0.26    0.22            0.33    0.28    0.54           0.47     0.55
B19        52.19   53.66   52.58          78.26    1.19   -9.58           9.65  277.05           0.29    0.27    0.19    0.27            0.38    0.42    0.24           0.33     0.39
B20         4.96    2.98    1.05          19.95   31.00   15.28          34.56   26.23           0.98    2.05    2.03    1.43            0.10    0.06    0.03           0.36     0.40
B21        16.96   11.40    4.18          40.24   37.69   22.96          44.14   31.35           0.49    1.29    1.39    0.86            0.25    0.17    0.11           0.40     0.45
B22        33.17   28.60   17.05          60.42   20.91   13.54          24.91   32.91           0.32    0.66    0.73    0.51            0.44    0.41    0.39           0.49     0.56
C1          6.38    6.23    3.54          30.00    3.91    9.29          10.09   67.16           1.09    1.27    1.50    1.19            0.15    0.14    0.11           0.52     0.57
C2          6.81    6.31    2.31          30.18    7.60   18.93          20.40   68.13           1.02    1.29    1.74    1.17            0.17    0.15    0.07           0.51     0.57
C3          7.19    6.21    1.29          29.94   12.44   29.25          31.79   66.96           0.96    1.34    2.09    1.16            0.15    0.12    0.04           0.52     0.57
C4          7.75    6.36    0.58          30.31   16.16   41.39          44.43   68.67           0.91    1.36    2.68    1.14            0.16    0.13    0.01           0.51     0.57
C5         23.82   23.22   11.91          55.29    6.44   18.02          19.14   70.34           0.52    0.68    0.92    0.62            0.29    0.30    0.21           0.47     0.51
C6         25.56   23.12    6.62          55.19   14.32   36.48          39.19   68.57           0.43    0.73    1.24    0.60            0.30    0.27    0.14           0.46     0.51
C7         27.75   23.58    3.29          55.66   21.21   55.23          59.17   68.99           0.36    0.76    1.67    0.58            0.30    0.27    0.06           0.46     0.54
C8         29.98   23.35    1.05          55.43   30.81   76.43          82.41   68.04           0.30    0.83    2.56    0.57            0.31    0.29    0.02           0.38     0.46
C9         39.36   40.05   28.07          69.50    2.34    7.81           8.16   73.30           0.36    0.41    0.50    0.39            0.59    0.61    0.55           0.46     0.54
C10        40.62   40.28   24.16          69.67    5.56   14.91          15.92   69.54           0.31    0.43    0.57    0.38            0.65    0.69    0.57           0.51     0.59
C11        41.68   40.30   19.91          69.68    8.72   23.23          24.81   69.43           0.27    0.44    0.68    0.37            0.50    0.53    0.47           0.53     0.62
C12        44.62   40.52   12.58          69.84   16.76   41.17          44.45   67.86           0.19    0.48    0.92    0.36            0.43    0.52    0.31           0.56     0.63
C13        51.51   58.41   55.16          80.97  -12.25   -7.69          14.47  212.12           0.37    0.19    0.18    0.25            0.45    0.37    0.30           0.38     0.44
C14        52.66   47.63   49.37          74.59   18.25  -12.33          22.02  325.94           0.20    0.39    0.21    0.31            0.40    0.45    0.34           0.33     0.39
C15        61.68   64.40   38.09          84.17   -0.98   18.15          18.18   93.07           0.17    0.19    0.36    0.18            0.34    0.31    0.53           0.47     0.58
C16        38.85   40.56   33.95          69.86   -0.82   -0.70           1.12  220.90           0.40    0.39    0.40    0.39            0.46    0.47    0.49           0.44     0.50
C17        49.50   45.57   33.28          73.27   15.58    6.14          16.75   21.51           0.20    0.41    0.41    0.32            0.35    0.40    0.46           0.46     0.52
C18        48.58   56.26   38.86          79.76  -14.91    9.51          17.69  147.50           0.36    0.20    0.35    0.26            0.37    0.29    0.53           0.52     0.63
C19        41.51   42.29   49.27          71.07    2.21  -18.29          18.42  276.90           0.41    0.37    0.21    0.38            0.33    0.34    0.25           0.33     0.38
C20        12.40    9.18    1.34          36.32   26.84   39.61          47.85   55.88           0.66    1.29    2.08    0.97            0.23    0.17    0.04           0.47     0.53
C21        21.86   20.60   11.14          52.51    9.54   15.54          18.24   58.44           0.54    0.76    0.94    0.66            0.39    0.37    0.26           0.50     0.55
C22        27.45   23.50   10.99          55.58   20.37   21.29          29.47   46.27           0.39    0.76    0.95    0.59            0.40    0.37    0.23           0.44     0.50
D1          4.11    4.38    2.46          24.89   -1.55    8.50           8.65  100.37           1.32    1.39    1.69    1.36            0.11    0.11    0.09           0.50     0.55
D2          4.20    4.53    1.73          25.36   -2.29   16.16          16.32   98.07           1.30    1.36    1.90    1.34            0.08    0.09    0.06           0.45     0.48
D3          4.11    4.46    0.96          25.15   -2.68   25.68          25.82   95.97           1.32    1.36    2.30    1.34            0.09    0.09    0.03           0.44     0.47
D4          4.13    4.46    0.58          25.12   -2.28   32.34          32.43   94.04           1.32    1.36    2.70    1.34            0.09    0.09    0.01           0.46     0.52
D5         17.69   18.79    9.72          50.44   -2.28   16.53          16.69   97.84           0.70    0.74    1.03    0.72            0.26    0.27    0.21           0.53     0.58
D6         17.42   18.50    5.16          50.09   -2.24   34.59          34.66   93.70           0.69    0.74    1.40    0.72            0.29    0.30    0.13           0.47     0.52
D7         17.52   18.91    2.63          50.58   -3.80   51.39          51.53   94.23           0.69    0.72    1.86    0.71            0.27    0.28    0.08           0.49     0.54
D8         17.49   18.72    1.22          50.36   -3.03   65.40          65.47   92.65           0.71    0.73    2.55    0.71            0.29    0.26    0.01           0.55     0.63
D9         44.94   47.35   25.29          74.41   -2.06   21.05          21.15   95.58           0.30    0.33    0.56    0.32            0.51    0.53    0.45           0.47     0.54
D10        44.48   47.14   14.22          74.28   -2.79   44.36          44.45   93.60           0.28    0.33    0.88    0.31            0.52    0.57    0.33           0.49     0.56
D11        44.75   47.39    7.13          74.44   -2.70   67.50          67.55   92.29           0.27    0.33    1.32    0.31            0.48    0.47    0.14           0.46     0.52
D12        44.28   47.57    4.22          74.55   -4.56   81.92          82.04   93.19           0.29    0.32    1.72    0.30            0.37    0.29    0.08           0.44     0.51
D13        46.66   54.89   54.51          78.98  -16.84  -10.43          19.81  211.78           0.45    0.20    0.18    0.28            0.45    0.38    0.30           0.39     0.49
D14        47.77   40.66   46.57          69.93   25.24  -17.12          30.50  325.85           0.22    0.49    0.23    0.37            0.48    0.54    0.40           0.44     0.53
D15        60.15   63.03   30.73          83.46   -1.48   27.58          27.62   93.06           0.17    0.20    0.48    0.19            0.35    0.34    0.48           0.54     0.61
D16        29.82   31.32   25.58          62.78   -1.44    0.47           1.53  162.66           0.51    0.51    0.54    0.51            0.43    0.47    0.42           0.48     0.55
D17        43.66   38.11   25.07          68.10   21.42   10.55          23.88   26.22           0.21    0.52    0.54    0.39            0.38    0.44    0.43           0.54     0.60
D18        42.73   51.86   31.56          77.20  -20.51   15.51          25.71  142.90           0.44    0.22    0.46    0.30            0.39    0.32    0.47           0.52     0.63
D19        33.39   33.62   46.30          64.66    3.46  -25.89          26.12  277.60           0.52    0.48    0.24    0.49            0.37    0.37    0.28           0.34     0.42
D20         3.04    3.12    1.25          20.50    0.62   13.52          13.53   87.37           1.41    1.55    2.05    1.49            0.06    0.05    0.04           0.29     0.34
D21        30.28   28.04    1.50          59.92   12.61   78.30          79.31   80.85           0.38    0.63    2.41    0.51            0.30    0.29    0.02           0.40     0.45
D22        38.98   42.87   50.97          71.46   -7.31  -19.53          20.85  249.48           0.50    0.33    0.20    0.39            0.47    0.49    0.28           0.41     0.52
E1          5.51    6.33    3.65          30.24   -6.69    9.03          11.24  126.53           1.24    1.19    1.50    1.21            0.15    0.16    0.12           0.50     0.57
E2          5.18    6.45    2.52          30.51  -11.79   17.66          21.24  123.74           1.31    1.14    1.73    1.20            0.10    0.12    0.07           0.42     0.45
E3          4.58    6.32    1.50          30.20  -18.09   27.06          32.55  123.76           1.43    1.11    2.10    1.22            0.09    0.12    0.04           0.50     0.53
E4          4.42    6.45    0.81          30.52  -21.53   37.42          43.17  119.92           1.51    1.07    2.65    1.21            0.07    0.10    0.01           0.40     0.44
E5         24.34   27.90   15.35          59.79  -10.72   16.52          19.70  122.98           0.62    0.53    0.81    0.56            0.41    0.45    0.34           0.51     0.57
E6         22.22   27.76    9.66          59.67  -19.60   32.62          38.05  121.00           0.70    0.50    1.08    0.57            0.34    0.40    0.22           0.50     0.57
E7         20.23   27.83    5.29          59.74  -29.33   50.52          58.41  120.14           0.81    0.46    1.48    0.57            0.21    0.27    0.10           0.42     0.50
E8         18.82   27.86    3.44          59.76  -36.53   61.25          71.32  120.81           0.92    0.43    1.83    0.57            0.19    0.19    0.06           0.32     0.38
E9         43.03   47.01   32.30          74.19   -6.67    9.21          11.37  125.93           0.37    0.31    0.44    0.33            0.53    0.54    0.57           0.49     0.60
E10        40.75   46.71   25.21          74.00  -12.72   20.48          24.11  121.86           0.40    0.30    0.57    0.34            0.63    0.65    0.54           0.57     0.65
E11        38.98   46.71   19.92          74.00  -18.26   30.65          35.68  120.79           0.44    0.28    0.71    0.34            0.56    0.55    0.44           0.59     0.67
E12        37.37   46.70   15.91          74.00  -23.38   39.64          46.02  120.53           0.48    0.27    0.84    0.34            0.44    0.38    0.34           0.62     0.72
E13        42.27   51.52   53.88          76.99  -21.00  -13.17          24.79  212.11           0.54    0.21    0.19    0.32            0.45    0.39    0.29           0.41     0.52
E14        42.75   33.91   43.45          64.89   32.59  -22.03          39.34  325.94           0.24    0.61    0.26    0.44            0.44    0.47    0.36           0.43     0.55
E15        58.91   61.76   24.77          82.79   -1.53   36.42          36.45   92.41           0.16    0.21    0.59    0.20            0.33    0.32    0.39           0.50     0.58
E16        21.79   22.86   18.82          54.93   -1.21    0.11           1.25  176.78           0.64    0.65    0.68    0.64            0.35    0.38    0.34           0.49     0.56
E17        37.64   30.67   18.15          62.23   28.24   14.16          31.59   26.63           0.24    0.67    0.69    0.47            0.26    0.29    0.33           0.48     0.58
E18        37.44   47.59   25.45          74.56  -25.59   21.02          33.12  140.61           0.52    0.25    0.58    0.34            0.43    0.38    0.47           0.57     0.71
E19        25.84   25.41   42.82          57.47    5.68  -34.05          34.52  279.48           0.66    0.60    0.27    0.62            0.34    0.34    0.28           0.38     0.47
E20         7.18    8.68    1.53          35.36  -11.04   35.57          37.24  107.25           1.15    1.02    2.12    1.06            0.11    0.12    0.03           0.37     0.41
E21        24.07   28.69    6.35          60.51  -14.96   46.84          49.17  107.71           0.62    0.50    1.34    0.54            0.35    0.38    0.14           0.48     0.56
E22         8.96   18.55   13.98          50.16  -58.74    3.41          58.84  176.68           1.85    0.52    0.88    0.81            0.11    0.15    0.24           0.41     0.47
F1          3.59    4.48    3.27          25.19  -10.61    2.84          10.98  165.02           1.50    1.31    1.54    1.37            0.09    0.10    0.11           0.46     0.51
F2          3.01    4.51    2.91          25.28  -20.58    5.60          21.33  164.79           1.71    1.24    1.63    1.39            0.09    0.11    0.10           0.50     0.54
F3          2.49    4.48    2.48          25.19  -29.71    8.83          31.00  163.45           1.95    1.19    1.74    1.41            0.06    0.09    0.07           0.47     0.52
F4          1.68    4.50    1.88          25.26  -48.13   14.45          50.25  163.29           2.72    1.10    1.99    1.44            0.03    0.08    0.05           0.49     0.53
F5         11.74   14.94   10.56          45.55  -17.45    5.32          18.24  163.06           1.03    0.76    0.98    0.85            0.20    0.24    0.24           0.45     0.51
F6          9.50   14.78    8.89          45.33  -33.46   10.58          35.10  162.46           1.29    0.70    1.09    0.87            0.17    0.24    0.21           0.45     0.49
F7          7.41   14.46    7.23          44.88  -49.84   16.14          52.39  162.06           1.67    0.65    1.24    0.90            0.13    0.23    0.18           0.50     0.58
F8          5.86   13.95    6.13          44.16  -62.71   19.68          65.72  162.58           2.12    0.61    1.36    0.93            0.06    0.10    0.15           0.38     0.49
F9         29.06   33.70   25.89          64.72  -12.71    3.28          13.13  165.56           0.59    0.43    0.54    0.49            0.57    0.62    0.64           0.60     0.69
F10        25.96   33.38   23.08          64.46  -23.99    7.94          25.28  161.69           0.71    0.40    0.61    0.50            0.47    0.53    0.55           0.57     0.63
F11        23.35   33.21   21.32          64.33  -34.60   11.13          36.35  162.17           0.85    0.37    0.66    0.51            0.34    0.39    0.47           0.58     0.66
F12        21.07   33.18   20.06          64.31  -45.01   13.64          47.04  163.14           1.00    0.33    0.70    0.52            0.25    0.25    0.43           0.63     0.72
F13        38.72   48.64   53.37          75.22  -24.34  -15.67          28.95  212.78           0.63    0.22    0.19    0.35            0.44    0.38    0.29           0.43     0.49
F14        38.34   28.36   40.44          60.21   39.16  -26.28          47.16  326.13           0.26    0.74    0.28    0.51            0.37    0.37    0.34           0.40     0.47
F15        57.87   60.54   19.77          82.13   -1.20   44.97          44.98   91.53           0.16    0.23    0.71    0.20            0.40    0.40    0.36           0.55     0.64
F16        15.63   16.39   13.45          47.48   -0.97    0.20           1.03  170.55           0.78    0.80    0.84    0.79            0.32    0.33    0.30           0.50     0.56
F17        32.78   24.95   13.03          57.02   34.21   17.81          38.57   27.50           0.26    0.81    0.85    0.55            0.29    0.30    0.30           0.51     0.58
