targets/wolf_faust/transmissive/A060401.it8
IT8.7/1
ORIGINATOR "Wolf Faust"
DESCRIPTOR "Agfachrome RSX, RSX II and CT Precisa, Type 3, L* a* b* (light D50, viewing angle 2)"
MANUFACTURER "Wolf Faust - http://www.coloraid.de"
CREATED "March 26, 2006"
PROD_DATE "2006:03"
DIFFUSE_GEOMETRY "opal"
SERIAL "A060401 Batch Average Data"
MATERIAL "Agfachrome RSX II"
KEYWORD "MEAN_DE" # Mean Delta E of samples compared to batch average
NUMBER_OF_FIELDS 18
BEGIN_DATA_FORMAT
SAMPLE_ID  XYZ_X   XYZ_Y   XYZ_Z          LAB_L   LAB_A   LAB_B          LAB_C   LAB_H          D_RED  D_GREEN  D_BLUE  D_VIS          STDEV_X STDEV_Y STDEV_Z        MEAN_DE  STDEV_DE
END_DATA_FORMAT
NUMBER_OF_SETS 288
BEGIN_DATA
A1          2.21    1.89    1.43          14.89    8.97    1.55           9.11    9.79           1.48    1.89    1.89    1.70            0.09    0.08    0.07           0.45     0.52
A2          2.74    1.89    1.11          14.89   19.37    5.66          20.18   16.27           1.29    2.07    1.99    1.66            0.11    0.08    0.06           0.49     0.57 
A3          3.39    1.94    0.96          15.19   29.35    8.50          30.56   16.14           1.13    2.32    2.03    1.61            0.12    0.07    0.04           0.52     0.60
A4          4.30    1.91    0.78          15.01   43.58   11.26          45.02   14.49           0.94    3.25    2.04    1.56            0.10    0.04    0.03           0.44     0.51 
A5         10.23    8.94    6.60          35.87   13.09    3.28          13.50   14.07           0.84    1.17    1.16    1.02            0.30    0.28    0.22           0.59     0.68
A6         12.06    8.78    5.75          35.56   27.82    6.58          28.59   13.31           0.68    1.32    1.22    1.00            0.32    0.25    0.17           0.59     0.66 
A7         14.42    8.74    4.79          35.47   43.54   11.29          44.98   14.54           0.53    1.53    1.28    0.96            0.36    0.24    0.20           0.53     0.62
A8         16.73    8.84    4.33          35.67   56.17   14.24          57.95   14.23           0.41    1.79    1.31    0.93            0.20    0.14    0.15           0.52     0.59 
A9         30.90   30.31   24.30          61.91    6.31    1.28           6.45   11.48           0.45    0.55    0.55    0.51            0.83    0.84    0.70           0.70     0.80
A10        32.63   29.98   22.88          61.63   13.79    3.45          14.22   14.04           0.38    0.60    0.58    0.50            0.89    0.89    0.74           0.74     0.87
A11        34.80   29.92   21.84          61.58   21.58    5.36          22.24   13.94           0.31    0.64    0.60    0.49            0.78    0.78    0.66           0.74     0.87
A12        37.95   30.02   20.67          61.67   31.64    7.84          32.60   13.92           0.23    0.69    0.62    0.48            0.62    0.67    0.69           0.84     0.97 
A13        66.01   69.02   59.00          86.51   -1.19   -2.09           2.42  240.74           0.18    0.15    0.14    0.16            0.49    0.42    0.43           0.42     0.46
A14        69.38   70.08   58.56          87.04    3.92   -0.74           3.99  349.29           0.13    0.16    0.14    0.15            0.32    0.27    0.26           0.27     0.29 
A15        69.91   71.24   56.98          87.60    2.63    1.85           3.23   35.09           0.13    0.15    0.16    0.14            0.30    0.25    0.32           0.24     0.28
A16        67.26   69.70   57.30          86.85    0.11    0.23           0.34  107.20           0.16    0.15    0.16    0.16            0.36    0.27    0.25           0.30     0.33
A17        68.44   69.04   56.57          86.52    4.12    0.41           4.14    5.77           0.13    0.17    0.16    0.16            0.44    0.37    0.39           0.29     0.33
A18        64.63   68.15   56.71          86.08   -2.44   -0.49           2.50  191.61           0.19    0.15    0.16    0.17            0.36    0.25    0.29           0.31     0.36 
A19        65.87   67.81   58.20          85.91    1.07   -2.31           2.55  294.99           0.17    0.17    0.15    0.17            0.28    0.24    0.11           0.21     0.23
A20         6.51    3.03    1.99          20.18   47.61    4.57          47.83    5.48           0.78    2.70    1.62    1.37            0.13    0.06    0.06           0.44     0.51 
A21        27.46   19.52   16.11          51.29   38.92   -0.01          38.92  215.99           0.33    0.97    0.72    0.65            0.46    0.38    0.43           0.48     0.58
A22        54.13   51.01   35.66          76.68   12.97    8.60          15.57   33.56           0.17    0.34    0.38    0.28            0.63    0.74    0.67           0.50     0.63
B1          3.45    3.15    1.92          20.63    6.89    6.03           9.16   41.18           1.31    1.62    1.77    1.48            0.13    0.13    0.08           0.46     0.54
B2          4.03    3.04    1.19          20.18   17.56   13.71          22.27   37.98           1.15    1.77    2.01    1.46            0.15    0.12    0.06           0.49     0.57
B3          4.71    3.09    0.72          20.40   25.79   21.62          33.66   39.97           1.03    1.90    2.28    1.42            0.17    0.12    0.03           0.53     0.64
B4          5.22    3.07    0.28          20.31   32.61   29.79          44.17   42.41           0.94    2.06    2.85    1.40            0.17    0.11    0.01           0.62     0.78
B5         13.23   11.97    7.05          41.16   11.52   10.46          15.57   42.26           0.74    1.02    1.15    0.90            0.31    0.31    0.21           0.51     0.60
B6         15.02   11.58    4.62          40.54   25.30   21.00          32.88   39.69           0.60    1.15    1.36    0.88            0.34    0.28    0.12           0.49     0.57
B7         17.24   11.52    2.77          40.45   38.35   32.81          50.46   40.55           0.47    1.29    1.62    0.85            0.40    0.29    0.11           0.51     0.58
B8         19.97   11.58    1.49          40.53   52.14   45.01          68.88   40.81           0.35    1.48    1.93    0.82            0.21    0.18    0.06           0.37     0.45
B9         36.01   36.14   27.73          66.62    3.93    3.41           5.21   40.99           0.39    0.47    0.50    0.44            0.89    0.93    0.72           0.67     0.77
B10        37.92   36.27   24.92          66.72    9.77    8.44          12.91   40.84           0.33    0.49    0.55    0.43            0.93    0.97    0.72           0.65     0.81
B11        39.86   36.62   22.63          66.99   14.76   13.16          19.78   41.70           0.28    0.51    0.60    0.41            0.77    0.83    0.59           0.73     0.88
B12        42.44   36.24   18.85          66.70   23.85   20.34          31.35   40.45           0.20    0.56    0.68    0.40            0.61    0.70    0.55           0.81     0.95
B13        60.22   64.86   57.63          84.41   -5.43   -4.32           6.94  218.54           0.25    0.17    0.15    0.20            0.58    0.48    0.47           0.50     0.57
B14        61.82   59.93   54.88          81.80    9.59   -5.95          11.29  328.22           0.16    0.25    0.17    0.22            0.74    0.87    0.57           0.63     0.75
B15        66.09   68.00   48.48          86.01    1.16    8.37           8.46   82.05           0.14    0.17    0.24    0.16            0.47    0.38    0.47           0.40     0.48
B16        53.98   56.24   46.90          79.75   -0.62   -0.58           0.89  225.02           0.26    0.25    0.25    0.25            0.86    0.96    0.73           0.58     0.66
B17        60.19   58.94   46.22          81.26    8.10    2.82           8.58   19.26           0.16    0.26    0.25    0.22            0.77    0.92    0.69           0.55     0.66
B18        58.64   63.73   49.37          83.82   -6.66    3.58           7.56  151.73           0.25    0.17    0.23    0.20            0.47    0.37    0.52           0.39     0.46
B19        55.22   57.00   54.81          80.18    0.65   -8.68           8.70  274.22           0.26    0.24    0.17    0.25            0.60    0.68    0.38           0.50     0.59
B20         5.18    3.07    1.09          20.33   32.02   15.35          35.51   25.61           0.95    2.05    2.00    1.41            0.13    0.08    0.03           0.44     0.49
B21        17.81   11.99    4.57          41.20   38.20   22.41          44.29   30.40           0.47    1.26    1.34    0.84            0.29    0.22    0.10           0.43     0.47
B22        35.21   30.27   18.71          61.89   21.64   12.35          24.92   29.69           0.29    0.63    0.68    0.49            0.58    0.58    0.55           0.57     0.68
C1          6.49    6.36    3.70          30.30    3.77    8.80           9.58   66.82           1.08    1.26    1.47    1.18            0.21    0.21    0.15           0.51     0.58
C2          6.96    6.46    2.30          30.53    7.64   19.58          21.02   68.68           1.01    1.28    1.74    1.16            0.24    0.23    0.09           0.54     0.64
C3          7.50    6.55    1.26          30.75   11.94   30.97          33.20   68.92           0.95    1.31    2.11    1.14            0.21    0.19    0.04           0.55     0.62
C4          8.09    6.61    0.56          30.91   16.74   42.69          45.85   68.58           0.89    1.34    2.71    1.12            0.21    0.20    0.02           0.63     0.77
C5         25.13   24.53   12.90          56.61    6.38   17.46          18.59   69.94           0.50    0.66    0.88    0.59            0.59    0.59    0.41           0.58     0.67
C6         26.53   24.16    7.06          56.24   13.81   36.45          38.98   69.25           0.42    0.71    1.21    0.58            0.61    0.62    0.23           0.62     0.69
C7         28.83   24.50    3.37          56.58   21.47   56.29          60.24   69.12           0.35    0.74    1.65    0.56            0.48    0.49    0.09           0.59     0.69
C8         31.34   24.46    1.05          56.54   31.08   78.42          84.35   68.38           0.28    0.81    2.58    0.55            0.42    0.43    0.02           0.59     0.70
C9         42.48   43.35   30.74          71.79    2.05    7.46           7.74   74.64           0.33    0.38    0.45    0.36            0.88    0.95    0.70           0.63     0.73
C10        43.09   42.90   26.24          71.48    5.20   14.32          15.23   70.04           0.29    0.40    0.53    0.36            0.81    0.90    0.59           0.57     0.72
C11        44.52   43.06   21.83          71.59    8.88   22.63          24.32   68.57           0.25    0.41    0.63    0.35            0.89    1.01    0.69           0.73     0.90
C12        47.07   43.28   13.94          71.74   15.50   40.73          43.58   69.16           0.18    0.44    0.87    0.33            0.69    0.85    0.44           0.82     1.01
C13        54.67   61.20   57.15          82.49  -10.69   -7.14          12.85  213.75           0.33    0.17    0.16    0.23            0.57    0.47    0.47           0.52     0.59
C14        55.93   51.10   51.94          76.74   17.27  -11.50          20.75  326.34           0.18    0.35    0.19    0.28            0.75    0.90    0.56           0.76     0.92
C15        64.26   66.53   40.10          85.26    0.26   17.36          17.36   89.13           0.14    0.18    0.34    0.17            0.49    0.42    0.50           0.48     0.56
C16        42.27   44.28   37.05          72.41   -1.25   -0.71           1.48  210.85           0.37    0.35    0.36    0.36            0.88    1.02    0.77           0.72     0.83
C17        52.79   49.07   36.27          75.49   14.68    5.69          15.75   21.19           0.18    0.37    0.37    0.29            0.72    0.86    0.68           0.59     0.72
C18        51.73   59.00   41.61          81.29  -13.10    8.56          15.65  146.84           0.33    0.19    0.32    0.24            0.52    0.43    0.60           0.49     0.58
C19        44.73   45.87   51.74          73.46    1.45  -16.94          17.01  274.88           0.37    0.34    0.19    0.35            0.66    0.78    0.44           0.64     0.76
C20        12.70    9.35    1.21          36.64   27.44   41.75          49.96   56.69           0.64    1.28    2.14    0.96            0.34    0.29    0.05           0.53     0.66
C21        23.04   21.64   12.36          53.64   10.09   13.86          17.14   53.95           0.52    0.73    0.89    0.64            0.46    0.48    0.29           0.58     0.64
C22        28.86   24.74   12.17          56.82   20.57   19.89          28.61   44.03           0.37    0.73    0.89    0.57            0.58    0.56    0.34           0.56     0.65
D1          4.27    4.61    2.79          25.59   -2.39    7.01           7.41  108.80           1.32    1.36    1.61    1.34            0.17    0.19    0.12           0.55     0.63
D2          4.30    4.64    1.75          25.67   -2.31   16.44          16.61   98.00           1.30    1.35    1.89    1.33            0.15    0.17    0.08           0.49     0.57
D3          4.37    4.71    0.89          25.87   -2.27   27.95          28.05   94.65           1.29    1.34    2.35    1.31            0.13    0.15    0.03           0.51     0.60
D4          4.25    4.60    0.57          25.55   -2.43   33.34          33.43   94.17           1.31    1.34    2.72    1.32            0.13    0.15    0.02           0.62     0.72
D5         18.59   19.65   10.25          51.44   -1.84   16.49          16.59   96.35           0.68    0.72    1.00    0.70            0.42    0.46    0.27           0.63     0.70
D6         18.13   19.37    5.50          51.11   -2.83   34.63          34.74   94.67           0.67    0.72    1.36    0.70            0.45    0.49    0.16           0.56     0.65
D7         18.15   19.53    2.74          51.29   -3.52   51.76          51.88   93.89           0.68    0.71    1.82    0.69            0.47    0.54    0.10           0.73     0.85
D8         18.15   19.52    1.21          51.29   -3.50   67.12          67.21   92.99           0.70    0.71    2.57    0.69            0.35    0.39    0.02           0.61     0.72
D9         48.19   50.44   27.18          76.34   -1.24   21.08          21.12   93.36           0.27    0.30    0.53    0.29            0.79    0.87    0.67           0.57     0.65
D10        47.26   49.88   15.48          75.99   -2.31   44.13          44.19   92.99           0.26    0.31    0.84    0.29            0.76    0.83    0.44           0.52     0.62
D11        46.45   49.38    7.77          75.68   -3.23   67.10          67.17   92.76           0.26    0.31    1.26    0.29            0.62    0.65    0.21           0.41     0.49
D12        45.78   48.66    4.17          75.24   -3.20   83.39          83.45   92.20           0.27    0.32    1.72    0.29            0.44    0.44    0.13           0.46     0.53
D13        50.10   57.97   56.62          80.72  -14.94   -9.63          17.78  212.81           0.41    0.18    0.16    0.26            0.53    0.46    0.48           0.51     0.57
D14        50.30   43.05   48.91          71.59   24.96  -16.98          30.19  325.77           0.20    0.46    0.21    0.35            0.64    0.73    0.54           0.69     0.81
D15        62.59   65.06   32.88          84.52   -0.34   26.14          26.14   90.74           0.15    0.19    0.44    0.18            0.55    0.45    0.50           0.50     0.61
D16        32.28   33.72   28.53          64.74   -0.84   -1.17           1.49  235.07           0.48    0.48    0.48    0.47            0.83    0.95    0.75           0.77     0.89
D17        45.74   39.95   27.59          69.43   21.71    8.49          23.31   21.37           0.20    0.50    0.49    0.37            0.64    0.74    0.66           0.66     0.78
D18        45.73   54.55   34.34          78.78  -18.62   14.11          23.36  142.86           0.40    0.21    0.42    0.28            0.52    0.45    0.63           0.58     0.73
D19        35.71   35.99   48.46          66.51    3.43  -25.23          25.46  277.72           0.49    0.45    0.22    0.46            0.67    0.78    0.48           0.72     0.88
D20         3.18    3.25    1.26          21.01    0.75   14.14          14.16   86.95           1.39    1.54    2.04    1.48            0.11    0.11    0.04           0.48     0.57
D21        31.80   29.45    1.45          61.17   12.80   81.01          82.02   81.02           0.36    0.61    2.46    0.49            0.60    0.63    0.04           0.67     0.84
D22        41.62   45.87   52.74          73.46   -7.73  -18.04          19.63  246.78           0.47    0.30    0.19    0.36            0.54    0.62    0.33           0.50     0.62
E1          5.77    6.69    3.85          31.08   -7.37    9.21          11.80  128.67           1.23    1.16    1.47    1.18            0.21    0.25    0.15           0.57     0.65
E2          5.19    6.52    2.45          30.68  -12.41   18.53          22.31  123.81           1.31    1.14    1.75    1.20            0.15    0.19    0.09           0.54     0.61
E3          4.92    6.55    1.32          30.76  -16.10   30.29          34.30  117.98           1.38    1.10    2.19    1.20            0.14    0.20    0.05           0.54     0.60
E4          4.64    6.80    0.80          31.35  -22.28   38.98          44.89  119.75           1.50    1.05    2.67    1.19            0.13    0.19    0.02           0.60     0.68
E5         26.35   30.20   16.47          61.83  -11.01   17.32          20.52  122.47           0.59    0.49    0.77    0.53            0.61    0.67    0.53           0.67     0.73
E6         23.83   29.59   10.23          61.30  -19.43   33.56          38.78  120.06           0.67    0.47    1.05    0.54            0.48    0.58    0.26           0.51     0.58
E7         21.23   28.94    5.60          60.73  -28.84   50.70          58.33  119.64           0.78    0.44    1.44    0.55            0.47    0.59    0.17           0.57     0.65
E8         20.37   29.46    3.54          61.19  -34.93   63.10          72.12  118.97           0.86    0.41    1.81    0.55            0.22    0.23    0.07           0.39     0.44
E9         46.37   50.49   35.07          76.37   -6.42    8.90          10.97  125.83           0.33    0.28    0.40    0.30            0.78    0.84    0.69           0.53     0.57
E10        44.07   50.15   27.74          76.16  -12.10   19.84          23.24  121.37           0.37    0.27    0.52    0.30            0.84    0.87    0.70           0.61     0.69
E11        41.75   49.67   21.78          75.86  -17.70   30.10          34.92  120.45           0.41    0.26    0.66    0.31            0.50    0.53    0.45           0.60     0.69
E12        40.23   49.45   18.27          75.73  -21.79   37.17          43.09  120.38           0.44    0.25    0.76    0.31            0.50    0.43    0.46           0.69     0.82
E13        45.80   54.76   56.04          78.90  -18.96  -12.17          22.53  212.70           0.49    0.19    0.17    0.29            0.48    0.41    0.46           0.46     0.53
E14        45.37   36.38   45.99          66.81   31.96  -21.81          38.69  325.69           0.21    0.57    0.23    0.41            0.57    0.63    0.52           0.70     0.79
E15        61.28   63.76   26.52          83.84   -0.45   35.15          35.15   90.74           0.14    0.20    0.55    0.18            0.48    0.40    0.48           0.55     0.64
E16        23.73   24.90   20.92          56.97   -1.21   -0.76           1.45  212.98           0.61    0.61    0.63    0.61            0.66    0.75    0.64           0.72     0.83
E17        39.71   32.57   20.11          63.81   27.99   12.69          30.73   24.38           0.22    0.63    0.64    0.45            0.52    0.59    0.54           0.62     0.75
E18        40.17   50.14   27.49          76.15  -23.78   20.25          31.24  139.59           0.48    0.23    0.53    0.32            0.47    0.42    0.54           0.54     0.69
E19        28.02   27.75   45.20          59.66    5.04  -33.19          33.58  278.64           0.63    0.56    0.24    0.58            0.50    0.57    0.49           0.58     0.71
E20         7.62    9.15    1.50          36.26  -10.70   37.49          38.99  105.93           1.12    1.00    2.14    1.04            0.22    0.27    0.05           0.57     0.71
E21        25.51   30.77    6.94          62.31  -16.57   47.41          50.22  109.26           0.61    0.46    1.29    0.51            0.48    0.59    0.17           0.58     0.67
E22         9.28   19.24   14.93          50.96  -59.50    2.33          59.55  177.76           1.88    0.50    0.85    0.80            0.21    0.31    0.42           0.64     0.76
F1          3.92    4.85    3.46          26.29  -10.42    3.44          10.98  161.72           1.45    1.28    1.51    1.34            0.14    0.16    0.12           0.51     0.57
F2          3.17    4.74    2.84          25.98  -20.79    7.36          22.05  160.50           1.68    1.22    1.64    1.37            0.12    0.17    0.10           0.54     0.60
F3          2.62    4.71    2.57          25.88  -30.20    9.30          31.60  162.89           1.94    1.17    1.72    1.39            0.09    0.14    0.08           0.46     0.51
F4          1.87    4.94    1.89          26.56  -49.18   16.54          51.89  161.41           2.67    1.05    1.99    1.39            0.04    0.11    0.06           0.44     0.49
F5         12.20   15.57   11.06          46.40  -17.95    5.25          18.71  163.70           1.02    0.74    0.95    0.83            0.28    0.34    0.27           0.56     0.62
F6          9.86   15.56    9.30          46.39  -35.13   10.98          36.80  162.65           1.30    0.67    1.07    0.85            0.24    0.34    0.24           0.49     0.56
F7          8.01   15.39    7.80          46.16  -49.77   16.09          52.30  162.09           1.63    0.62    1.19    0.87            0.22    0.35    0.23           0.51     0.59
F8          6.27   14.74    6.35          45.28  -63.04   20.59          66.32  161.91           2.09    0.59    1.34    0.91            0.10    0.17    0.15           0.44     0.49
F9         31.40   36.25   28.31          66.70  -12.49    2.58          12.76  168.31           0.56    0.40    0.50    0.45            0.77    0.88    0.67           0.67     0.76
F10        27.97   35.73   25.53          66.31  -23.81    6.65          24.72  164.41           0.68    0.37    0.56    0.47            0.52    0.65    0.47           0.59     0.72
F11        24.95   35.30   23.34          65.98  -34.75   10.07          36.18  163.83           0.83    0.34    0.61    0.49            0.41    0.52    0.46           0.49     0.59
F12        23.10   35.49   21.76          66.12  -43.44   13.35          45.44  162.92           0.94    0.31    0.66    0.49            0.36    0.37    0.47           0.60     0.72
F13        41.39   51.27   55.31          76.84  -22.99  -14.96          27.43  213.05           0.58    0.21    0.17    0.32            0.33    0.31    0.42           0.42     0.47
F14        40.72   30.45   43.00          62.04   38.74  -26.39          46.88  325.74           0.24    0.70    0.25    0.48            0.46    0.48    0.44           0.62     0.68
F15        59.94   62.28   20.93          83.06   -0.25   44.20          44.20   90.32           0.14    0.22    0.68    0.19            0.45    0.38    0.38           0.46     0.56
F16        16.72   17.67   14.89          49.09   -1.74   -0.79           1.93  204.93           0.76    0.76    0.79    0.76            0.47    0.53    0.45           0.67     0.77
F17        34.26   26.19   14.18          58.22   34.21   16.78          38.11   26.12           0.24    0.78    0.80    0.53            0.41    0.44    0.36           0.53     0.65
