targets/wolf_faust/transmissive/A060521.it8
IT8.7/1
ORIGINATOR "Wolf Faust"
DESCRIPTOR "Agfachrome RSX, RSX II and CT Precisa, Type 3, L* a* b* (light D50, viewing angle 2)"
MANUFACTURER "Wolf Faust - http://www.coloraid.de"
CREATED "December 05, 2006"
PROD_DATE "2006:05"
DIFFUSE_GEOMETRY "opal"
SERIAL "A060521 Batch Average Data"
MATERIAL "Agfachrome RSX II"
KEYWORD "MEAN_DE" # Mean Delta E of samples compared to batch average
NUMBER_OF_FIELDS 18
BEGIN_DATA_FORMAT
SAMPLE_ID  XYZ_X   XYZ_Y   XYZ_Z          LAB_L   LAB_A   LAB_B          LAB_C   LAB_H          D_RED  D_GREEN  D_BLUE  D_VIS          STDEV_X STDEV_Y STDEV_Z        MEAN_DE  STDEV_DE
END_DATA_FORMAT
NUMBER_OF_SETS 288
BEGIN_DATA
A1          1.84    1.57    1.20          13.05    8.32    1.22           8.41    8.28           1.56    1.98    1.97    1.78            0.04    0.03    0.02           0.36     0.41
A2          2.25    1.53    0.99          12.82   18.64    3.83          19.03   11.60           1.37    2.18    2.04    1.75            0.05    0.03    0.02           0.41     0.49 
A3          2.77    1.57    0.85          13.05   27.84    6.64          28.63   13.41           1.22    2.44    2.09    1.70            0.06    0.03    0.02           0.39     0.46
A4          3.63    1.64    0.65          13.49   40.45   10.98          41.92   15.18           1.02    3.26    2.13    1.63            0.08    0.04    0.01           0.45     0.52 
A5          8.49    7.44    5.53          32.78   12.18    2.85          12.51   13.15           0.92    1.26    1.25    1.10            0.14    0.11    0.08           0.36     0.40
A6         10.37    7.57    4.82          33.06   26.29    7.00          27.21   14.90           0.75    1.39    1.30    1.06            0.23    0.16    0.08           0.44     0.51 
A7         12.52    7.63    4.09          33.19   41.17   11.34          42.70   15.39           0.59    1.59    1.36    1.02            0.20    0.11    0.04           0.39     0.46
A8         15.69    8.20    3.55          34.40   55.74   16.80          58.22   16.77           0.43    1.85    1.40    0.96            0.04    0.03    0.03           0.15     0.16 
A9         26.17   25.79   20.38          57.84    5.46    1.83           5.76   18.61           0.52    0.63    0.64    0.58            0.29    0.23    0.22           0.37     0.40
A10        28.63   26.28   19.37          58.30   13.31    4.73          14.13   19.58           0.43    0.66    0.66    0.56            0.37    0.30    0.31           0.38     0.43
A11        31.04   26.35   18.27          58.37   22.11    7.24          23.27   18.13           0.35    0.70    0.69    0.55            0.40    0.36    0.40           0.43     0.50
A12        34.87   27.17   17.37          59.13   32.40   10.57          34.08   18.07           0.25    0.75    0.70    0.52            0.31    0.33    0.42           0.51     0.60 
A13        63.31   67.49   58.68          85.75   -3.99   -3.08           5.05  217.75           0.22    0.15    0.15    0.18            0.37    0.42    0.20           0.36     0.39
A14        68.46   69.40   58.40          86.70    3.38   -1.16           3.57  341.10           0.14    0.17    0.15    0.16            0.31    0.43    0.17           0.35     0.43 
A15        69.03   70.78   57.01          87.38    1.69    1.43           2.24   40.48           0.14    0.15    0.16    0.15            0.30    0.41    0.21           0.33     0.41
A16        66.08   69.12   57.39          86.56   -1.25   -0.36           1.33  197.71           0.18    0.15    0.16    0.16            0.32    0.41    0.15           0.36     0.44
A17        67.22   67.82   56.79          85.92    4.05   -0.86           4.15  348.13           0.14    0.18    0.16    0.17            0.26    0.38    0.18           0.33     0.41
A18        61.91   66.56   56.53          85.28   -5.19   -1.68           5.46  197.98           0.23    0.16    0.16    0.18            0.37    0.43    0.20           0.35     0.40 
A19        62.80   65.51   57.73          84.74   -0.83   -3.85           3.95  257.69           0.20    0.18    0.15    0.19            0.50    0.57    0.17           0.44     0.51
A20         5.57    2.64    1.77          18.52   44.45    3.98          44.63    5.12           0.86    2.71    1.68    1.44            0.14    0.06    0.05           0.46     0.53 
A21        25.10   17.58   13.59          48.98   39.16    2.42          39.23    3.54           0.36    1.04    0.80    0.69            0.30    0.24    0.32           0.41     0.49
A22        50.47   47.14   32.01          74.28   13.83    9.79          16.95   35.28           0.19    0.39    0.43    0.31            0.59    0.70    0.86           0.70     0.83
B1          2.73    2.49    1.60          17.89    6.29    4.73           7.87   36.93           1.42    1.72    1.86    1.58            0.05    0.04    0.02           0.34     0.38
B2          3.22    2.47    0.98          17.78   15.43   12.61          19.93   39.24           1.26    1.85    2.11    1.55            0.07    0.05    0.02           0.47     0.53
B3          3.81    2.53    0.57          18.06   23.43   20.45          31.09   41.12           1.13    1.97    2.41    1.51            0.07    0.04    0.01           0.35     0.40
B4          4.31    2.50    0.25          17.92   31.29   26.10          40.75   39.83           1.02    2.18    2.86    1.49            0.11    0.06    0.00           0.53     0.64
B5         10.92    9.90    5.86          37.66   10.62    9.68          14.37   42.32           0.82    1.11    1.24    0.98            0.19    0.15    0.06           0.43     0.51
B6         12.75    9.91    3.84          37.68   23.36   20.64          31.17   41.47           0.67    1.21    1.46    0.95            0.23    0.16    0.04           0.49     0.55
B7         15.25   10.13    2.40          38.08   37.32   31.75          49.00   40.39           0.52    1.35    1.69    0.91            0.19    0.12    0.02           0.43     0.48
B8         18.54   10.53    1.41          38.78   52.45   42.90          67.76   39.28           0.38    1.57    1.95    0.86            0.06    0.04    0.02           0.18     0.23
B9         31.38   31.71   23.56          63.10    2.96    4.69           5.56   57.74           0.45    0.52    0.58    0.49            0.26    0.20    0.22           0.35     0.40
B10        33.11   31.55   20.81          62.97    9.74    9.80          13.82   45.17           0.38    0.56    0.64    0.48            0.34    0.31    0.27           0.32     0.36
B11        35.46   32.20   18.89          63.51   15.51   14.74          21.40   43.54           0.32    0.58    0.68    0.47            0.32    0.33    0.33           0.31     0.39
B12        38.98   32.71   15.78          63.93   25.20   22.60          33.85   41.89           0.23    0.62    0.77    0.44            0.36    0.41    0.37           0.49     0.58
B13        57.22   62.56   57.02          83.21   -7.46   -5.77           9.43  217.75           0.29    0.18    0.16    0.21            0.45    0.45    0.28           0.40     0.43
B14        58.85   57.13   54.35          80.25    9.24   -8.05          12.26  318.92           0.19    0.27    0.17    0.24            0.49    0.60    0.31           0.43     0.54
B15        63.91   66.35   48.47          85.17   -0.15    6.94           6.95   91.18           0.17    0.18    0.24    0.18            0.52    0.54    0.83           0.61     0.71
B16        50.69   53.17   45.53          77.97   -1.52   -2.00           2.55  232.47           0.29    0.27    0.26    0.28            0.56    0.56    0.69           0.53     0.59
B17        57.37   56.37   45.18          79.82    7.49    1.60           7.67   12.02           0.19    0.28    0.27    0.24            0.48    0.55    0.76           0.51     0.61
B18        56.14   61.85   48.89          82.84   -8.50    2.44           8.85  164.07           0.28    0.18    0.24    0.22            0.45    0.44    0.61           0.48     0.55
B19        52.00   53.91   54.13          78.41    0.04  -11.00          11.00  270.15           0.30    0.26    0.18    0.27            0.71    0.80    0.29           0.63     0.73
B20         4.33    2.69    0.89          18.75   27.94   15.67          32.03   29.29           1.05    2.04    2.12    1.48            0.13    0.08    0.03           0.49     0.55
B21        15.55   10.38    3.87          38.52   37.13   21.90          43.11   30.53           0.52    1.34    1.43    0.90            0.36    0.24    0.09           0.48     0.56
B22        31.35   26.61   15.74          58.61   22.22   13.51          26.01   31.29           0.34    0.70    0.76    0.54            0.49    0.47    0.42           0.46     0.55
C1          5.36    5.36    3.17          27.74    2.34    7.89           8.23   73.51           1.17    1.33    1.55    1.26            0.08    0.06    0.04           0.38     0.41
C2          5.73    5.42    1.99          27.91    5.91   17.89          18.84   71.72           1.10    1.35    1.81    1.24            0.09    0.06    0.02           0.44     0.51
C3          6.09    5.31    1.06          27.60   11.22   28.35          30.49   68.42           1.03    1.40    2.20    1.23            0.11    0.08    0.02           0.49     0.56
C4          6.65    5.46    0.52          28.00   15.40   38.38          41.35   68.14           0.98    1.43    2.72    1.21            0.16    0.12    0.00           0.55     0.65
C5         21.31   20.89   10.83          52.83    5.61   17.04          17.94   71.79           0.57    0.73    0.96    0.66            0.34    0.31    0.11           0.49     0.56
C6         23.54   21.24    6.07          53.20   14.19   35.53          38.26   68.23           0.47    0.77    1.28    0.64            0.32    0.26    0.05           0.49     0.54
C7         25.67   21.42    2.96          53.41   22.49   53.68          58.20   67.27           0.39    0.82    1.72    0.62            0.29    0.23    0.02           0.45     0.53
C8         28.26   21.71    0.99          53.71   31.63   74.48          80.92   66.99           0.32    0.87    2.59    0.59            0.23    0.18    0.01           0.35     0.42
C9         37.39   38.17   26.52          68.15    1.92    8.09           8.32   76.61           0.38    0.44    0.52    0.41            0.29    0.25    0.26           0.35     0.40
C10        38.59   38.35   22.54          68.28    5.19   15.55          16.39   71.54           0.33    0.45    0.61    0.40            0.35    0.35    0.36           0.36     0.41
C11        40.24   38.82   18.47          68.62    8.93   24.47          26.05   69.94           0.29    0.46    0.71    0.39            0.42    0.44    0.37           0.41     0.46
C12        43.84   39.71   12.23          69.26   16.96   41.18          44.53   67.62           0.20    0.49    0.93    0.37            0.37    0.46    0.26           0.46     0.53
C13        50.66   58.09   56.36          80.79  -13.74   -9.25          16.56  213.97           0.39    0.19    0.16    0.25            0.50    0.47    0.25           0.46     0.50
C14        52.08   46.99   50.85          74.18   18.49  -14.71          23.62  321.50           0.21    0.39    0.20    0.32            0.48    0.57    0.32           0.49     0.59
C15        61.95   64.88   37.98          84.42   -1.40   18.73          18.79   94.28           0.17    0.19    0.36    0.18            0.69    0.79    0.98           0.87     0.97
C16        37.60   39.67   33.32          69.23   -2.10   -0.87           2.33  203.17           0.42    0.40    0.41    0.41            0.69    0.64    0.76           0.67     0.74
C17        48.91   45.16   32.80          73.00   15.15    6.41          16.46   22.90           0.20    0.41    0.41    0.33            0.49    0.55    0.70           0.60     0.68
C18        47.98   56.12   38.74          79.68  -16.20    9.53          18.80  149.56           0.38    0.20    0.36    0.26            0.62    0.58    0.80           0.70     0.78
C19        40.37   41.33   50.46          70.40    1.60  -20.78          20.84  274.39           0.43    0.38    0.20    0.40            0.72    0.77    0.31           0.69     0.83
C20        10.95    8.08    1.07          34.16   25.95   39.47          47.24   56.67           0.71    1.34    2.21    1.02            0.29    0.21    0.03           0.56     0.61
C21        19.61   18.47   10.31          50.05    9.33   13.92          16.76   56.18           0.59    0.81    0.98    0.71            0.50    0.45    0.26           0.55     0.60
C22        25.50   21.70   10.12          53.70   20.50   20.81          29.21   45.43           0.42    0.80    0.99    0.62            0.49    0.44    0.26           0.48     0.53
D1          3.54    3.81    2.21          23.03   -2.06    7.42           7.70  105.57           1.39    1.45    1.73    1.42            0.07    0.06    0.04           0.35     0.39
D2          3.50    3.80    1.35          23.02   -2.69   16.53          16.75   99.26           1.39    1.43    2.04    1.41            0.05    0.04    0.01           0.35     0.42
D3          3.55    3.89    0.79          23.30   -3.04   25.20          25.39   96.87           1.38    1.41    2.41    1.40            0.06    0.05    0.01           0.36     0.42
D4          3.48    3.79    0.53          22.96   -2.70   29.60          29.73   95.22           1.40    1.42    2.73    1.41            0.08    0.07    0.00           0.44     0.53
D5         15.46   16.62    8.71          47.77   -3.27   15.42          15.77  101.98           0.77    0.79    1.08    0.78            0.28    0.26    0.06           0.52     0.58
D6         15.29   16.51    4.69          47.63   -3.65   32.83          33.03   96.35           0.75    0.79    1.44    0.77            0.22    0.20    0.03           0.51     0.59
D7         15.46   16.75    2.38          47.94   -4.00   48.90          49.06   94.68           0.75    0.77    1.90    0.76            0.29    0.26    0.02           0.60     0.68
D8         15.21   16.57    1.14          47.71   -4.45   61.92          62.08   94.12           0.78    0.77    2.56    0.76            0.26    0.22    0.01           0.59     0.69
D9         43.59   46.21   22.97          73.68   -2.80   24.02          24.19   96.64           0.31    0.34    0.61    0.33            0.30    0.28    0.22           0.31     0.34
D10        43.91   46.54   13.29          73.89   -2.77   46.16          46.25   93.44           0.29    0.34    0.92    0.32            0.37    0.42    0.22           0.33     0.38
D11        43.63   46.70    6.81          74.00   -4.05   68.07          68.19   93.40           0.29    0.33    1.35    0.31            0.49    0.51    0.10           0.41     0.47
D12        43.65   47.06    3.78          74.23   -5.01   83.99          84.14   93.42           0.30    0.33    1.80    0.31            0.44    0.39    0.04           0.43     0.49
D13        45.27   54.11   55.59          78.53  -18.83  -12.34          22.52  213.25           0.49    0.20    0.17    0.29            0.52    0.50    0.27           0.48     0.53
D14        46.79   39.45   47.87          69.07   26.22  -20.12          33.05  322.50           0.23    0.51    0.22    0.39            0.41    0.46    0.32           0.43     0.50
D15        60.19   63.19   29.63          83.54   -1.74   29.48          29.53   93.37           0.17    0.20    0.49    0.19            0.51    0.54    0.61           0.58     0.66
D16        27.71   29.51   24.18          61.22   -2.91    0.30           2.94  174.39           0.55    0.53    0.56    0.53            0.58    0.55    0.53           0.55     0.64
D17        42.36   36.77   23.71          67.11   21.88   11.32          24.63   27.36           0.22    0.54    0.57    0.40            0.45    0.48    0.55           0.51     0.60
D18        41.23   50.92   30.21          76.63  -22.59   16.65          28.07  143.62           0.47    0.23    0.49    0.31            0.63    0.60    0.55           0.55     0.61
D19        31.41   31.72   47.09          63.11    3.04  -29.50          29.66  275.88           0.57    0.50    0.23    0.52            0.63    0.68    0.33           0.69     0.85
D20         2.61    2.65    1.04          18.57    1.07   13.02          13.07   85.29           1.47    1.63    2.14    1.56            0.08    0.08    0.03           0.39     0.45
D21        28.26   26.21    1.42          58.23   12.14   76.37          77.33   80.97           0.41    0.66    2.44    0.54            0.54    0.50    0.02           0.68     0.79
D22        36.83   41.11   51.40          70.25   -8.99  -22.10          23.86  247.84           0.56    0.34    0.20    0.41            0.74    0.82    0.29           0.78     0.90
E1          4.80    5.59    3.30          28.35   -7.26    8.05          10.85  132.06           1.31    1.24    1.55    1.26            0.05    0.05    0.02           0.33     0.37
E2          4.36    5.58    2.05          28.32  -12.83   18.02          22.12  125.45           1.40    1.20    1.85    1.27            0.06    0.05    0.01           0.34     0.39
E3          3.98    5.49    1.17          28.09  -17.28   27.58          32.55  122.08           1.49    1.17    2.25    1.28            0.06    0.06    0.01           0.35     0.38
E4          3.56    5.34    0.73          27.68  -21.77   33.95          40.33  122.67           1.63    1.15    2.67    1.30            0.07    0.09    0.01           0.44     0.51
E5         22.01   25.59   13.82          57.65  -11.89   16.73          20.53  125.39           0.67    0.56    0.86    0.60            0.35    0.36    0.11           0.51     0.57
E6         20.48   26.09    8.64          58.12  -21.16   33.55          39.67  122.25           0.75    0.52    1.14    0.59            0.32    0.35    0.04           0.53     0.62
E7         18.77   26.31    4.93          58.33  -30.60   49.96          58.59  121.49           0.86    0.48    1.52    0.60            0.31    0.34    0.04           0.62     0.74
E8         17.63   26.51    2.88          58.51  -37.41   63.08          73.34  120.67           0.97    0.45    1.97    0.60            0.21    0.22    0.02           0.41     0.48
E9         41.69   46.03   30.50          73.57   -7.98   10.89          13.50  126.24           0.38    0.32    0.47    0.34            0.30    0.24    0.28           0.39     0.42
E10        39.54   46.14   24.05          73.64  -14.89   21.95          26.53  124.16           0.43    0.30    0.60    0.34            0.53    0.52    0.37           0.42     0.46
E11        37.94   46.21   18.65          73.68  -20.17   32.79          38.50  121.59           0.46    0.28    0.74    0.34            0.55    0.54    0.30           0.45     0.50
E12        36.24   45.97   15.16          73.53  -25.06   40.66          47.77  121.64           0.51    0.27    0.86    0.35            0.48    0.49    0.26           0.47     0.51
E13        40.77   50.58   54.85          76.42  -23.09  -15.19          27.64  213.35           0.59    0.21    0.18    0.33            0.53    0.55    0.31           0.49     0.54
E14        41.72   32.65   44.69          63.87   33.89  -25.31          42.30  323.25           0.25    0.64    0.24    0.46            0.33    0.36    0.32           0.39     0.44
E15        58.97   61.87   23.63          82.84   -1.64   38.60          38.64   92.43           0.16    0.21    0.62    0.20            0.44    0.49    0.40           0.46     0.51
E16        19.85   21.18   17.56          53.14   -2.81   -0.20           2.82  183.95           0.69    0.68    0.71    0.68            0.49    0.45    0.36           0.54     0.61
E17        36.46   29.47   17.08          61.19   28.85   14.80          32.43   27.15           0.24    0.69    0.72    0.49            0.35    0.37    0.37           0.43     0.52
E18        35.76   46.42   24.08          73.82  -27.92   22.20          35.67  141.51           0.56    0.25    0.61    0.35            0.58    0.57    0.41           0.54     0.61
E19        24.13   23.72   43.57          55.80    5.58  -37.85          38.26  278.38           0.72    0.63    0.26    0.65            0.48    0.49    0.32           0.61     0.70
E20         6.33    7.72    1.32          33.40  -11.23   34.72          36.49  107.93           1.21    1.06    2.20    1.11            0.17    0.19    0.03           0.50     0.57
E21        22.23   27.01    6.03          58.98  -16.63   45.67          48.60  110.02           0.67    0.52    1.37    0.57            0.53    0.58    0.10           0.67     0.78
E22         8.07   17.38   12.79          48.73  -60.31    4.18          60.46  176.03           1.97    0.54    0.93    0.84            0.15    0.25    0.28           0.37     0.43
F1          3.12    3.93    2.95          23.45  -10.67    2.15          10.88  168.62           1.56    1.37    1.59    1.43            0.04    0.04    0.02           0.27     0.31
F2          2.50    3.90    2.50          23.33  -21.46    5.45          22.15  165.76           1.81    1.30    1.70    1.46            0.04    0.05    0.02           0.33     0.36
F3          2.13    3.91    2.11          23.36  -29.48    8.97          30.82  163.07           2.04    1.25    1.83    1.47            0.04    0.06    0.02           0.31     0.36
F4          1.49    4.01    1.49          23.70  -46.67   16.03          49.34  161.04           2.77    1.14    2.13    1.48            0.02    0.05    0.02           0.32     0.39
F5         10.41   13.36    9.44          43.29  -17.54    5.14          18.28  163.66           1.09    0.81    1.03    0.90            0.19    0.22    0.10           0.42     0.48
F6          8.27   13.22    7.76          43.09  -34.15   10.92          35.86  162.27           1.37    0.74    1.16    0.93            0.14    0.20    0.06           0.43     0.51
F7          6.73   13.39    6.61          43.35  -49.95   16.10          52.48  162.14           1.74    0.68    1.28    0.94            0.11    0.18    0.05           0.39     0.51
F8          5.64   13.64    5.73          43.71  -63.26   20.77          66.58  161.83           2.17    0.62    1.40    0.94            0.06    0.11    0.07           0.26     0.32
F9         26.96   31.79   23.92          63.17  -14.28    4.13          14.86  163.88           0.63    0.45    0.58    0.51            0.32    0.29    0.24           0.40     0.44
F10        24.17   31.85   21.92          63.21  -26.18    8.01          27.38  162.99           0.77    0.41    0.63    0.52            0.42    0.47    0.35           0.45     0.50
F11        21.71   31.82   20.05          63.19  -37.19   11.75          39.00  162.47           0.91    0.38    0.69    0.54            0.37    0.43    0.37           0.44     0.48
F12        19.93   32.18   18.43          63.49  -47.01   15.71          49.56  161.52           1.05    0.34    0.75    0.54            0.25    0.31    0.25           0.35     0.39
F13        37.05   47.49   54.14          74.50  -26.61  -17.74          31.98  213.69           0.68    0.23    0.18    0.36            0.44    0.48    0.28           0.43     0.48
F14        37.40   27.24   41.70          59.20   40.52  -29.66          50.21  323.80           0.27    0.77    0.26    0.53            0.33    0.33    0.34           0.37     0.41
F15        58.05   60.71   19.05          82.22   -1.18   46.66          46.67   91.45           0.16    0.23    0.73    0.20            0.40    0.45    0.33           0.45     0.51
F16        14.01   14.92   12.67          45.52   -2.36   -1.01           2.57  203.13           0.84    0.83    0.87    0.83            0.32    0.31    0.24           0.49     0.55
F17        31.50   23.66   12.24          55.75   35.10   17.83          39.37   26.93           0.27    0.85    0.88    0.57            0.22    0.23    0.21           0.34     0.39
