targets/wolf_faust/transmissive/A070525.it8
IT8.7/1
ORIGINATOR "Wolf Faust"
DESCRIPTOR "Agfachrome RSX, RSX II and CT Precisa, Type 3, L* a* b* (light D50, viewing angle 2)"
MANUFACTURER "Wolf Faust - http://www.coloraid.de"
CREATED "June 26, 2007"
PROD_DATE "2006:05"
DIFFUSE_GEOMETRY "opal"
SERIAL "A070525 Batch Average Data"
MATERIAL "Agfachrome RSX II"
KEYWORD "MEAN_DE" # Mean Delta E of samples compared to batch average
NUMBER_OF_FIELDS 18
BEGIN_DATA_FORMAT
SAMPLE_ID  XYZ_X   XYZ_Y   XYZ_Z          LAB_L   LAB_A   LAB_B          LAB_C   LAB_H          D_RED  D_GREEN  D_BLUE  D_VIS          STDEV_X STDEV_Y STDEV_Z        MEAN_DE  STDEV_DE
END_DATA_FORMAT
NUMBER_OF_SETS 288
BEGIN_DATA
A1          2.10    1.77    1.26          14.23    9.21    2.53           9.55   15.32           1.49    1.93    1.96    1.72            0.05    0.04    0.04           0.45     0.48
A2          2.51    1.67    1.08          13.66   20.28    4.03          20.68   11.24           1.32    2.17    2.00    1.70            0.06    0.04    0.04           0.50     0.54 
A3          3.05    1.73    0.88          14.03   28.70    7.68          29.71   14.99           1.17    2.39    2.07    1.65            0.07    0.04    0.04           0.50     0.54
A4          3.99    1.80    0.68          14.40   41.84   12.08          43.55   16.11           0.98    3.23    2.12    1.58            0.07    0.03    0.03           0.45     0.50 
A5          9.26    8.07    5.86          34.12   12.89    3.61          13.39   15.62           0.88    1.22    1.22    1.07            0.21    0.17    0.22           0.66     0.76
A6         10.99    7.92    4.89          33.81   27.75    7.92          28.86   15.92           0.71    1.38    1.30    1.04            0.17    0.13    0.15           0.57     0.67 
A7         13.50    8.22    4.34          34.45   42.22   12.03          43.90   15.90           0.55    1.56    1.33    0.99            0.22    0.14    0.14           0.55     0.67
A8         16.17    8.53    3.84          35.07   55.62   16.10          57.90   16.14           0.42    1.81    1.37    0.95            0.10    0.07    0.12           0.47     0.60 
A9         27.81   27.20   21.27          59.16    6.36    2.31           6.79   19.91           0.49    0.61    0.62    0.56            0.45    0.42    0.48           0.64     0.73
A10        29.96   27.25   19.99          59.20   14.51    4.99          15.35   18.95           0.41    0.65    0.65    0.54            0.42    0.39    0.50           0.65     0.76
A11        32.14   27.36   18.96          59.30   22.10    7.35          23.29   18.38           0.33    0.68    0.67    0.53            0.36    0.35    0.47           0.65     0.75
A12        35.37   27.59   17.86          59.52   32.42   10.15          33.98   17.37           0.25    0.74    0.69    0.51            0.34    0.33    0.51           0.59     0.75 
A13        63.74   67.67   58.06          85.84   -3.42   -2.29           4.14  214.00           0.21    0.15    0.15    0.17            0.43    0.49    0.22           0.49     0.56
A14        68.21   69.27   57.70          86.64    3.11   -0.56           3.17  320.61           0.14    0.17    0.15    0.16            0.30    0.48    0.24           0.59     0.68 
A15        68.60   70.47   55.07          87.22    1.42    3.20           3.60   64.27           0.14    0.15    0.18    0.15            0.27    0.44    0.62           0.86     1.03
A16        66.66   69.31   56.02          86.66   -0.38    1.22           1.33   94.36           0.16    0.16    0.17    0.16            0.38    0.51    0.52           0.79     0.93
A17        66.90   67.66   55.51          85.83    3.70    0.34           3.80  127.04           0.14    0.18    0.17    0.17            0.37    0.52    0.56           0.89     1.02
A18        61.74   66.33   54.71          85.16   -5.10    0.03           5.20  180.55           0.22    0.16    0.18    0.18            0.46    0.51    0.80           1.00     1.18 
A19        63.10   65.64   57.16          84.81   -0.44   -3.14           3.20  261.51           0.20    0.18    0.16    0.18            0.50    0.56    0.31           0.53     0.58
A20         6.15    2.91    1.84          19.69   45.96    5.24          46.26    6.50           0.81    2.66    1.66    1.39            0.15    0.07    0.06           0.59     0.66 
A21        25.89   18.23   13.87          49.78   39.04    3.06          39.17    4.47           0.34    1.01    0.79    0.68            0.40    0.34    0.51           0.78     0.91
A22        51.02   47.76   31.78          74.67   13.56   10.83          17.37   38.58           0.19    0.38    0.43    0.30            0.68    0.80    0.94           0.84     0.97
B1          3.07    2.77    1.59          19.09    7.29    6.90          10.04   43.39           1.35    1.68    1.87    1.53            0.07    0.06    0.05           0.45     0.49
B2          3.61    2.75    0.95          19.02   16.33   15.17          22.30   42.89           1.20    1.80    2.14    1.50            0.08    0.06    0.03           0.49     0.52
B3          4.15    2.71    0.57          18.86   24.89   21.68          33.01   41.06           1.08    1.96    2.41    1.48            0.09    0.06    0.02           0.44     0.48
B4          4.82    2.75    0.26          19.00   33.29   27.87          43.41   39.94           0.97    2.16    2.86    1.44            0.09    0.05    0.01           0.41     0.48
B5         11.96   10.77    6.19          39.18   11.47   10.80          15.76   43.26           0.78    1.07    1.22    0.94            0.24    0.20    0.19           0.57     0.64
B6         14.12   10.87    4.18          39.37   24.91   21.44          32.87   40.72           0.62    1.18    1.41    0.91            0.27    0.21    0.13           0.54     0.61
B7         16.46   11.01    2.54          39.60   37.70   33.20          50.24   41.37           0.49    1.31    1.67    0.87            0.22    0.16    0.08           0.46     0.53
B8         19.46   11.28    1.35          40.04   51.73   45.80          69.09   41.52           0.36    1.50    1.99    0.83            0.11    0.08    0.04           0.33     0.38
B9         32.92   32.84   24.15          64.03    4.48    5.22           6.90   49.13           0.42    0.51    0.56    0.48            0.46    0.44    0.53           0.70     0.79
B10        34.75   32.98   21.74          64.14   10.37    9.98          14.40   43.85           0.36    0.54    0.62    0.46            0.41    0.39    0.46           0.66     0.75
B11        36.48   33.01   19.35          64.17   16.06   14.91          21.92   42.85           0.30    0.57    0.67    0.45            0.37    0.38    0.49           0.65     0.75
B12        39.80   33.56   16.32          64.61   24.80   22.48          33.47   42.19           0.22    0.60    0.76    0.43            0.37    0.40    0.45           0.63     0.74
B13        57.81   62.88   55.95          83.38   -6.76   -4.36           8.06  212.79           0.27    0.18    0.17    0.21            0.57    0.59    0.34           0.57     0.65
B14        58.95   57.10   53.07          80.24    9.55   -6.70          11.67  324.98           0.18    0.27    0.18    0.24            0.53    0.63    0.50           0.59     0.66
B15        63.51   66.06   45.73          85.03   -0.42    9.92           9.94   92.15           0.17    0.18    0.27    0.18            0.52    0.60    0.90           0.99     1.20
B16        50.75   52.98   43.34          77.86   -0.90    0.47           1.24  161.46           0.28    0.27    0.29    0.28            0.86    0.89    1.06           0.90     1.00
B17        57.00   55.88   42.91          79.54    7.81    3.91           8.77   26.53           0.18    0.28    0.29    0.24            0.76    0.88    1.05           0.94     1.03
B18        56.02   61.65   46.16          82.73   -8.34    5.44           9.98  147.29           0.27    0.18    0.27    0.22            0.71    0.69    1.05           1.12     1.35
B19        52.44   54.07   53.02          78.50    0.79   -9.65           9.68  274.65           0.29    0.27    0.19    0.27            0.77    0.84    0.65           0.77     0.84
B20         4.55    2.75    0.95          19.02   29.72   15.31          33.43   27.24           1.02    2.07    2.09    1.46            0.13    0.08    0.04           0.57     0.64
B21        16.50   11.05    4.02          39.66   37.63   22.94          44.07   31.37           0.50    1.30    1.41    0.88            0.34    0.24    0.15           0.64     0.71
B22        32.40   27.62   16.31          59.54   21.98   13.77          25.94   32.05           0.32    0.68    0.75    0.52            0.67    0.67    0.68           0.92     1.05
C1          5.93    5.84    3.20          28.99    3.40    9.87          10.45   70.98           1.12    1.30    1.55    1.22            0.13    0.12    0.10           0.53     0.56
C2          6.36    5.92    2.06          29.22    7.13   19.52          20.78   69.94           1.05    1.32    1.80    1.20            0.12    0.11    0.07           0.48     0.53
C3          6.71    5.79    1.02          28.87   12.18   31.12          33.42   68.62           0.99    1.37    2.24    1.19            0.14    0.12    0.03           0.43     0.47
C4          7.21    5.90    0.54          29.17   15.98   40.05          43.12   68.24           0.94    1.39    2.72    1.17            0.11    0.08    0.01           0.38     0.44
C5         22.99   22.30   10.95          54.34    6.86   19.28          20.46   70.40           0.53    0.71    0.96    0.63            0.33    0.33    0.32           0.58     0.69
C6         24.73   22.36    6.37          54.41   14.18   36.27          38.94   68.65           0.45    0.74    1.26    0.61            0.32    0.32    0.17           0.55     0.61
C7         26.99   22.55    3.09          54.61   22.73   54.85          59.38   67.49           0.37    0.79    1.70    0.59            0.32    0.30    0.08           0.49     0.54
C8         29.31   22.66    1.02          54.72   31.38   75.68          81.93   67.48           0.31    0.85    2.58    0.58            0.19    0.19    0.01           0.34     0.38
C9         38.86   39.44   26.94          69.07    2.67    8.96           9.35   73.30           0.36    0.42    0.52    0.40            0.48    0.48    0.48           0.71     0.80
C10        40.04   39.65   23.17          69.22    5.72   15.97          16.97   70.25           0.32    0.44    0.60    0.39            0.39    0.38    0.48           0.67     0.79
C11        41.48   39.94   18.82          69.43    9.21   25.10          26.74   69.85           0.27    0.45    0.70    0.38            0.39    0.42    0.41           0.69     0.78
C12        44.63   40.58   12.60          69.88   16.60   41.18          44.40   68.04           0.19    0.48    0.92    0.36            0.38    0.44    0.32           0.65     0.75
C13        51.45   58.54   55.30          81.04  -12.74   -7.71          14.90  211.17           0.37    0.19    0.17    0.25            0.67    0.70    0.33           0.65     0.74
C14        52.37   47.25   49.56          74.35   18.53  -12.97          22.62  325.02           0.20    0.39    0.21    0.31            0.58    0.65    0.61           0.62     0.68
C15        61.61   64.49   36.65          84.22   -1.33   20.20          20.25   93.72           0.17    0.19    0.38    0.18            0.50    0.59    0.80           1.00     1.23
C16        38.21   39.99   32.48          69.46   -1.10    0.78           1.51  149.40           0.40    0.40    0.42    0.40            0.83    0.84    0.94           0.89     0.98
C17        48.88   44.98   31.82          72.88   15.59    7.69          17.40   26.20           0.20    0.41    0.43    0.33            0.78    0.89    1.02           0.95     1.07
C18        48.17   56.14   37.14          79.69  -15.74   11.73          19.63  143.39           0.37    0.21    0.38    0.26            0.74    0.70    0.98           1.12     1.34
C19        41.07   41.80   49.43          70.73    2.35  -19.06          19.21  277.04           0.41    0.38    0.21    0.39            0.82    0.89    0.71           0.86     0.93
C20        11.72    8.62    1.10          35.24   26.78   40.94          48.92   56.81           0.68    1.32    2.20    0.99            0.26    0.20    0.04           0.61     0.68
C21        20.99   19.59   10.71          51.37   10.36   14.91          18.16   55.19           0.55    0.78    0.96    0.69            0.51    0.50    0.38           0.80     0.87
C22        26.38   22.28   10.44          54.32   21.47   20.85          29.93   44.15           0.40    0.79    0.97    0.61            0.54    0.53    0.40           0.79     0.89
D1          3.89    4.14    2.31          24.12   -1.48    8.41           8.54   99.99           1.34    1.41    1.71    1.38            0.08    0.08    0.08           0.49     0.52
D2          3.84    4.12    1.41          24.07   -2.03   17.59          17.71   96.59           1.34    1.40    2.02    1.38            0.08    0.07    0.05           0.41     0.45
D3          3.87    4.18    0.82          24.27   -2.34   26.49          26.59   95.06           1.34    1.39    2.41    1.37            0.08    0.08    0.03           0.36     0.40
D4          3.88    4.15    0.55          24.17   -1.75   31.27          31.32   93.21           1.34    1.39    2.72    1.36            0.05    0.05    0.01           0.29     0.34
D5         16.67   17.71    9.00          49.14   -2.26   16.74          16.90   97.70           0.72    0.76    1.06    0.75            0.27    0.28    0.27           0.61     0.68
D6         16.51   17.62    4.91          49.03   -2.62   34.05          34.15   94.41           0.71    0.76    1.42    0.74            0.31    0.33    0.16           0.55     0.61
D7         16.44   17.52    2.32          48.91   -2.53   51.08          51.14   92.83           0.71    0.76    1.93    0.74            0.22    0.23    0.06           0.43     0.46
D8         16.21   17.37    1.16          48.72   -3.01   63.35          63.42   92.72           0.74    0.76    2.56    0.74            0.20    0.19    0.01           0.40     0.43
D9         44.60   46.90   23.48          74.12   -1.79   23.85          23.92   94.28           0.30    0.33    0.60    0.32            0.38    0.39    0.42           0.81     0.94
D10        44.83   47.36   13.74          74.42   -2.38   45.87          45.93   92.97           0.28    0.33    0.90    0.31            0.31    0.32    0.25           0.71     0.80
D11        44.55   47.37    6.90          74.42   -3.23   68.46          68.54   92.70           0.28    0.33    1.34    0.31            0.28    0.26    0.12           0.58     0.63
D12        44.35   47.38    3.79          74.43   -3.85   84.33          84.42   92.61           0.29    0.33    1.80    0.30            0.28    0.23    0.07           0.54     0.62
D13        46.55   54.97   54.69          79.02  -17.34  -10.53          20.30  211.26           0.46    0.20    0.18    0.28            0.60    0.61    0.38           0.63     0.71
D14        47.13   39.80   46.58          69.33   26.06  -18.16          31.77  325.13           0.22    0.50    0.23    0.38            0.54    0.57    0.62           0.57     0.60
D15        60.24   63.22   30.02          83.56   -1.69   28.88          28.94   93.32           0.17    0.20    0.49    0.19            0.43    0.52    0.74           1.04     1.28
D16        28.90   30.30   24.81          61.90   -1.21    0.34           1.44  164.13           0.52    0.52    0.55    0.52            0.72    0.75    0.84           0.90     1.00
D17        42.62   36.86   24.04          67.17   22.38   10.82          24.87   25.78           0.22    0.54    0.56    0.40            0.58    0.64    0.76           0.84     0.96
D18        42.14   51.52   30.47          76.99  -21.40   16.86          27.25  141.81           0.45    0.23    0.48    0.30            0.74    0.69    0.95           1.15     1.40
D19        32.48   32.54   46.25          63.78    3.99  -27.34          27.63  278.31           0.54    0.49    0.24    0.50            0.79    0.86    0.83           0.84     0.93
D20         2.76    2.71    0.98          18.85    2.69   14.49          14.74   79.47           1.43    1.64    2.18    1.55            0.08    0.08    0.04           0.51     0.56
D21        29.39   27.08    1.44          59.05   13.01   77.50          78.59   80.47           0.39    0.65    2.44    0.53            0.46    0.46    0.02           0.71     0.78
D22        38.19   42.25   51.02          71.04   -7.98  -20.31          21.82  248.56           0.52    0.34    0.20    0.40            0.72    0.81    0.54           0.70     0.77
E1          5.22    5.94    3.40          29.25   -5.92    8.92          10.71  123.58           1.26    1.22    1.53    1.23            0.12    0.13    0.11           0.52     0.55
E2          4.79    5.99    2.22          29.39  -11.88   18.38          21.89  122.89           1.34    1.17    1.81    1.23            0.11    0.14    0.08           0.48     0.51
E3          4.23    5.79    1.27          28.87  -17.01   27.55          32.38  121.69           1.46    1.15    2.20    1.25            0.07    0.10    0.03           0.35     0.40
E4          3.94    5.77    0.75          28.82  -21.00   35.48          41.23  120.62           1.56    1.12    2.67    1.26            0.06    0.09    0.01           0.41     0.46
E5         23.47   26.94   14.51          58.92  -10.76   17.13          20.24  122.16           0.64    0.54    0.84    0.57            0.36    0.40    0.45           0.66     0.77
E6         21.59   27.03    9.28          59.00  -19.64   32.77          38.21  120.94           0.71    0.51    1.10    0.58            0.34    0.40    0.27           0.58     0.65
E7         19.64   27.06    5.08          59.03  -29.22   50.40          58.26  120.10           0.82    0.47    1.51    0.58            0.26    0.28    0.11           0.48     0.52
E8         18.48   27.36    3.05          59.31  -36.29   63.23          72.91  119.86           0.93    0.44    1.93    0.58            0.13    0.12    0.06           0.47     0.52
E9         42.99   47.02   30.84          74.20   -6.83   11.47          13.35  120.81           0.36    0.31    0.46    0.33            0.42    0.42    0.49           0.73     0.86
E10        40.66   46.71   24.31          74.00  -12.98   22.10          25.63  120.44           0.40    0.30    0.59    0.33            0.33    0.33    0.52           0.81     0.96
E11        38.87   46.92   19.39          74.14  -19.17   32.00          37.31  120.93           0.45    0.28    0.72    0.34            0.33    0.34    0.45           0.81     0.95
E12        37.45   46.88   15.52          74.11  -23.60   40.77          47.11  120.07           0.48    0.26    0.85    0.34            0.33    0.32    0.36           0.83     0.95
E13        41.87   51.36   53.95          76.90  -21.79  -13.42          25.59  211.63           0.56    0.21    0.19    0.32            0.60    0.61    0.51           0.67     0.74
E14        42.42   33.51   43.64          64.57   33.01  -22.82          40.13  325.34           0.24    0.62    0.25    0.45            0.53    0.52    0.63           0.54     0.59
E15        59.00   61.91   23.90          82.86   -1.66   38.13          38.17   92.48           0.16    0.21    0.61    0.20            0.42    0.49    0.65           0.99     1.25
E16        21.10   22.31   18.24          54.35   -1.95    0.37           2.08  169.15           0.66    0.66    0.70    0.66            0.60    0.62    0.68           0.84     0.94
E17        37.11   30.10   17.39          61.74   28.61   15.03          32.32   27.70           0.24    0.68    0.71    0.48            0.52    0.53    0.61           0.78     0.93
E18        36.76   47.17   24.52          74.29  -26.66   22.23          34.71  140.21           0.54    0.25    0.60    0.34            0.63    0.59    0.75           1.12     1.28
E19        24.97   24.58   42.80          56.66    5.51  -35.41          35.84  278.84           0.69    0.62    0.27    0.63            0.58    0.62    0.65           0.74     0.81
E20         6.88    8.25    1.37          34.50  -10.28   36.10          37.53  105.91           1.16    1.04    2.19    1.08            0.16    0.19    0.03           0.62     0.67
E21        23.53   28.33    6.02          60.18  -15.94   47.80          50.39  108.44           0.64    0.50    1.37    0.55            0.49    0.59    0.21           0.75     0.82
E22         8.34   17.75   13.25          49.20  -59.86    3.70          59.98  176.47           1.94    0.53    0.91    0.83            0.14    0.21    0.36           0.74     0.88
F1          3.32    4.18    3.05          24.26  -10.92    2.78          11.27  165.72           1.53    1.34    1.57    1.41            0.09    0.10    0.11           0.47     0.50
F2          2.73    4.13    2.58          24.10  -20.40    6.14          21.31  163.26           1.75    1.28    1.69    1.43            0.07    0.10    0.09           0.51     0.54
F3          2.36    4.23    2.27          24.42  -29.06    9.28          30.51  162.29           1.97    1.22    1.79    1.43            0.06    0.11    0.10           0.52     0.56
F4          1.57    4.22    1.53          24.40  -47.37   16.71          50.23  160.57           2.75    1.12    2.12    1.46            0.03    0.08    0.05           0.43     0.51
F5         11.26   14.25    9.94          44.59  -16.76    5.69          17.71  161.25           1.04    0.78    1.01    0.87            0.22    0.27    0.33           0.61     0.72
F6          8.94   14.00    8.37          44.23  -33.32   10.57          34.96  162.40           1.32    0.72    1.12    0.90            0.17    0.24    0.26           0.55     0.65
F7          7.24   14.04    6.91          44.30  -48.94   16.48          51.64  161.39           1.67    0.66    1.26    0.92            0.14    0.23    0.17           0.45     0.51
F8          5.83   13.93    5.92          44.13  -62.96   20.57          66.23  161.91           2.14    0.61    1.38    0.93            0.05    0.09    0.14           0.50     0.59
F9         28.29   32.65   24.67          63.87  -12.06    3.99          12.72  161.74           0.60    0.45    0.56    0.50            0.40    0.40    0.51           0.67     0.77
F10        25.35   32.81   22.39          64.01  -24.55    8.48          25.98  160.97           0.73    0.40    0.62    0.51            0.38    0.39    0.55           0.75     0.84
F11        22.69   32.71   20.33          63.92  -35.81   12.43          37.91  160.86           0.87    0.37    0.68    0.52            0.31    0.34    0.50           0.73     0.85
F12        20.68   32.90   18.99          64.08  -45.89   15.51          48.45  161.34           1.02    0.34    0.73    0.53            0.18    0.20    0.47           0.84     1.00
F13        38.34   48.51   53.39          75.15  -25.19  -15.83          29.76  212.16           0.64    0.22    0.19    0.35            0.44    0.46    0.30           0.68     0.75
F14        38.03   28.01   40.63          59.90   39.53  -27.07          47.91  325.59           0.26    0.75    0.28    0.52            0.44    0.40    0.59           0.49     0.53
F15        57.98   60.66   18.99          82.20   -1.23   46.75          46.77   91.50           0.16    0.23    0.74    0.20            0.39    0.50    0.50           0.96     1.16
F16        15.12   15.91   12.97          46.85   -1.30    0.45           1.47  161.63           0.79    0.81    0.86    0.80            0.48    0.50    0.53           0.78     0.87
F17        32.29   24.43   12.46          56.52   34.63   18.54          39.29   28.16           0.26    0.82    0.87    0.56            0.42    0.42    0.46           0.75     0.86
