targets/wolf_faust/transmissive/A071128.it8
IT8.7/1
ORIGINATOR "Wolf Faust"
DESCRIPTOR "Agfachrome RSX, RSX II and CT Precisa, Type 3, L* a* b* (light D50, viewing angle 2)"
MANUFACTURER "Wolf Faust - http://www.coloraid.de"
CREATED "November 28, 2007"
PROD_DATE "2006:10"
DIFFUSE_GEOMETRY "opal"
SERIAL "A071128 Batch Average Data"
MATERIAL "Agfachrome RSX II"
KEYWORD "MEAN_DE" # Mean Delta E of samples compared to batch average
NUMBER_OF_FIELDS 18
BEGIN_DATA_FORMAT
SAMPLE_ID  XYZ_X   XYZ_Y   XYZ_Z          LAB_L   LAB_A   LAB_B          LAB_C   LAB_H          D_RED  D_GREEN  D_BLUE  D_VIS          STDEV_X STDEV_Y STDEV_Z        MEAN_DE  STDEV_DE
END_DATA_FORMAT
NUMBER_OF_SETS 288
BEGIN_DATA
A1          1.81    1.57    1.11          13.01    7.85    2.42           8.22   17.15           1.57    1.97    2.02    1.78            0.04    0.04    0.04           0.31     0.35
A2          2.48    1.72    0.95          13.95   18.40    6.52          19.52   19.51           1.34    2.11    2.08    1.70            0.05    0.03    0.03           0.33     0.38 
A3          2.84    1.58    0.75          13.13   28.88    8.40          30.08   16.22           1.20    2.48    2.15    1.69            0.05    0.03    0.03           0.38     0.44
A4          3.76    1.68    0.57          13.73   41.42   12.85          43.37   17.23           1.00    3.52    2.20    1.61            0.06    0.03    0.03           0.32     0.37 
A5          8.71    7.44    5.33          32.80   14.05    3.89          14.58   15.47           0.90    1.27    1.27    1.10            0.17    0.16    0.11           0.39     0.44
A6         10.68    7.63    4.64          33.19   28.11    8.21          29.29   16.27           0.72    1.40    1.32    1.06            0.21    0.15    0.11           0.43     0.49 
A7         12.87    7.70    3.91          33.34   42.81   12.70          44.66   16.53           0.57    1.62    1.38    1.02            0.20    0.13    0.09           0.43     0.49
A8         15.56    8.10    3.48          34.19   55.91   16.93          58.42   16.85           0.43    1.88    1.41    0.96            0.11    0.07    0.08           0.31     0.36 
A9         26.36   25.56   19.97          57.61    7.21    2.29           7.58   17.52           0.50    0.64    0.65    0.58            0.56    0.51    0.32           0.74     0.83
A10        28.76   25.99   19.47          58.02   14.99    4.04          15.53   15.05           0.42    0.67    0.66    0.56            0.57    0.49    0.26           0.69     0.78
A11        31.15   26.30   18.32          58.32   22.74    7.03          23.81   17.16           0.34    0.71    0.68    0.55            0.57    0.49    0.26           0.67     0.76
A12        34.39   26.56   17.17          58.56   33.20   10.05          34.69   16.85           0.25    0.77    0.71    0.53            0.42    0.45    0.32           0.61     0.69 
A13        62.95   66.82   58.33          85.41   -3.38   -3.31           4.74  224.32           0.21    0.16    0.15    0.18            0.57    0.48    0.19           0.52     0.60
A14        67.64   68.25   57.97          86.13    4.03   -1.70           4.40  337.44           0.14    0.17    0.15    0.16            0.44    0.51    0.23           0.51     0.57 
A15        68.20   69.72   55.78          86.86    2.14    1.82           2.86   39.28           0.14    0.16    0.17    0.15            0.36    0.37    0.40           0.60     0.67
A16        65.87   68.41   56.37          86.21   -0.21    0.09           0.51  159.94           0.17    0.16    0.16    0.17            0.42    0.38    0.29           0.49     0.57
A17        66.73   67.21   56.21          85.61    4.29   -0.78           4.37  349.84           0.14    0.18    0.16    0.17            0.39    0.44    0.29           0.38     0.45
A18        61.36   65.72   55.29          84.85   -4.65   -1.12           4.80  193.46           0.23    0.16    0.17    0.19            0.44    0.37    0.26           0.44     0.50 
A19        61.90   64.31   57.20          84.13   -0.25   -4.37           4.38  266.70           0.21    0.19    0.16    0.19            0.44    0.42    0.22           0.30     0.33
A20         5.72    2.66    1.60          18.63   45.69    6.03          46.09    7.52           0.84    2.83    1.72    1.43            0.09    0.04    0.03           0.31     0.35 
A21        24.65   17.13   13.23          48.42   39.67    2.41          39.74    3.48           0.36    1.05    0.81    0.70            0.35    0.27    0.25           0.50     0.55
A22        49.31   45.60   30.64          73.29   14.99   10.19          18.13   34.22           0.19    0.41    0.45    0.32            0.50    0.57    0.40           0.55     0.63
B1          2.79    2.52    1.40          18.00    7.02    7.23          10.08   45.83           1.39    1.73    1.94    1.57            0.04    0.04    0.03           0.26     0.29
B2          3.46    2.59    0.88          18.33   16.94   15.16          22.74   41.82           1.21    1.85    2.19    1.52            0.05    0.04    0.03           0.29     0.33
B3          3.90    2.54    0.53          18.09   24.76   21.21          32.60   40.58           1.11    2.00    2.46    1.51            0.06    0.05    0.02           0.27     0.31
B4          4.42    2.52    0.20          18.02   32.35   27.24          42.29   40.10           1.01    2.21    3.09    1.48            0.08    0.05    0.01           0.38     0.43
B5         11.11    9.85    5.83          37.58   12.34    9.72          15.71   38.21           0.80    1.12    1.24    0.98            0.19    0.17    0.11           0.46     0.50
B6         13.30   10.26    3.80          38.30   24.25   21.92          32.69   42.10           0.65    1.20    1.46    0.93            0.24    0.19    0.08           0.45     0.51
B7         15.55   10.21    2.23          38.22   38.44   33.44          50.95   41.02           0.51    1.36    1.73    0.90            0.25    0.18    0.05           0.41     0.46
B8         18.70   10.66    1.16          38.99   52.38   46.53          70.07   41.62           0.38    1.56    2.08    0.86            0.12    0.10    0.03           0.30     0.34
B9         31.29   31.09   23.03          62.58    4.89    4.78           6.85   44.16           0.44    0.54    0.59    0.50            0.67    0.65    0.32           0.74     0.85
B10        33.52   31.52   20.81          62.94   11.31    9.74          14.93   40.69           0.37    0.56    0.63    0.48            0.74    0.68    0.24           0.78     0.92
B11        35.32   31.66   18.63          63.06   16.96   14.53          22.34   40.58           0.31    0.59    0.69    0.47            0.60    0.57    0.24           0.74     0.84
B12        38.46   32.00   15.54          63.34   26.05   22.17          34.21   40.41           0.23    0.63    0.78    0.45            0.45    0.48    0.27           0.57     0.65
B13        56.47   61.42   55.97          82.60   -6.68   -5.72           8.80  220.43           0.29    0.19    0.17    0.22            0.73    0.71    0.35           0.67     0.78
B14        57.12   54.69   52.71          78.86   11.02   -8.68          14.03  321.86           0.19    0.30    0.19    0.26            0.55    0.69    0.45           0.81     0.99
B15        62.16   64.52   44.56          84.24   -0.14    9.96           9.96   90.73           0.17    0.19    0.28    0.19            0.58    0.59    0.47           0.78     0.89
B16        48.88   50.74   41.93          76.52   -0.12   -0.08           0.78  196.57           0.30    0.29    0.30    0.30            0.80    0.85    0.68           0.91     1.06
B17        55.24   53.68   41.59          78.27    8.90    3.39           9.55   20.79           0.19    0.30    0.30    0.26            0.66    0.75    0.63           0.74     0.86
B18        54.67   60.23   45.20          81.96   -8.42    5.27           9.95  148.09           0.28    0.19    0.28    0.23            0.57    0.55    0.57           0.71     0.85
B19        50.58   51.76   52.66          77.14    1.78  -11.60          11.74  278.74           0.30    0.29    0.19    0.29            0.63    0.67    0.36           0.53     0.58
B20         4.39    2.58    0.80          18.28   30.72   16.47          34.86   28.19           1.02    2.15    2.17    1.48            0.09    0.05    0.02           0.39     0.43
B21        15.53   10.24    3.63          38.27   38.10   22.96          44.49   31.07           0.52    1.36    1.46    0.91            0.24    0.16    0.05           0.41     0.46
B22        31.01   25.95   15.19          57.99   23.65   13.80          27.38   30.25           0.33    0.72    0.78    0.55            0.42    0.36    0.23           0.58     0.63
C1          5.69    5.60    2.94          28.38    3.32   10.72          11.22   72.81           1.14    1.32    1.59    1.24            0.10    0.10    0.06           0.32     0.35
C2          5.80    5.34    1.81          27.68    7.64   19.32          20.78   68.42           1.08    1.37    1.87    1.24            0.10    0.10    0.05           0.30     0.35
C3          6.44    5.50    0.96          28.12   12.75   30.78          33.31   67.50           1.00    1.40    2.28    1.21            0.12    0.12    0.04           0.38     0.43
C4          6.88    5.48    0.46          28.06   17.40   39.72          43.36   66.34           0.95    1.45    2.88    1.20            0.13    0.13    0.02           0.43     0.48
C5         21.45   20.59   10.44          52.50    7.68   17.70          19.30   66.53           0.56    0.75    0.98    0.67            0.31    0.28    0.15           0.54     0.59
C6         23.30   20.74    5.77          52.67   15.43   35.99          39.16   66.79           0.47    0.79    1.31    0.65            0.41    0.36    0.14           0.49     0.54
C7         25.30   20.86    2.74          52.79   23.56   54.30          59.19   66.55           0.39    0.83    1.77    0.63            0.39    0.34    0.07           0.43     0.48
C8         27.96   21.28    0.90          53.25   32.45   75.10          81.81   66.63           0.32    0.89    2.72    0.60            0.32    0.26    0.03           0.36     0.39
C9         36.81   37.23   25.84          67.45    3.03    8.07           8.62   69.35           0.38    0.45    0.54    0.42            0.78    0.76    0.36           0.80     0.95
C10        38.34   37.68   22.18          67.78    6.54   15.38          16.71   66.95           0.33    0.46    0.61    0.41            0.79    0.75    0.28           0.78     0.90
C11        39.68   37.85   18.38          67.91   10.22   23.44          25.57   66.42           0.29    0.48    0.71    0.40            0.67    0.67    0.25           0.78     0.89
C12        43.01   38.55   11.94          68.43   18.14   40.57          44.44   65.91           0.20    0.51    0.94    0.38            0.43    0.51    0.18           0.55     0.65
C13        50.38   57.30   55.29          80.34  -12.57   -8.90          15.41  215.25           0.38    0.20    0.17    0.26            0.71    0.70    0.37           0.68     0.80
C14        51.18   45.83   49.50          73.43   19.36  -14.48          24.18  323.23           0.21    0.41    0.21    0.33            0.55    0.63    0.54           0.82     0.96
C15        60.43   63.11   36.17          83.50   -1.01   19.62          19.65   92.93           0.17    0.20    0.39    0.19            0.55    0.55    0.32           0.53     0.60
C16        37.07   38.66   31.90          68.50   -0.67    0.00           0.91  183.36           0.42    0.41    0.43    0.41            0.64    0.66    0.46           0.73     0.84
C17        47.84   43.83   31.40          72.11   16.03    6.99          17.50   23.57           0.21    0.43    0.44    0.34            0.61    0.69    0.46           0.58     0.66
C18        47.24   55.05   36.85          79.07  -15.62   11.04          19.14  144.77           0.38    0.21    0.38    0.27            0.62    0.58    0.36           0.59     0.67
C19        40.05   40.55   49.24          69.85    2.98  -20.35          20.57  278.32           0.42    0.39    0.21    0.40            0.62    0.66    0.42           0.62     0.68
C20        10.95    7.95    0.95          33.87   27.17   40.81          49.03   56.35           0.70    1.37    2.29    1.03            0.21    0.15    0.03           0.47     0.52
C21        19.54   18.09   10.16          49.61   10.90   13.61          17.44   51.30           0.58    0.82    0.98    0.72            0.35    0.32    0.13           0.57     0.63
C22        25.21   21.16    9.81          53.12   21.79   20.82          30.14   43.70           0.41    0.81    1.00    0.63            0.40    0.33    0.14           0.52     0.59
D1          3.56    3.78    2.07          22.94   -1.45    8.63           8.76   99.54           1.38    1.45    1.77    1.42            0.07    0.07    0.05           0.27     0.31
D2          3.49    3.69    1.20          22.63   -1.14   17.78          17.82   93.66           1.37    1.46    2.11    1.42            0.06    0.07    0.04           0.31     0.35
D3          3.55    3.78    0.70          22.93   -1.47   26.38          26.42   93.20           1.37    1.44    2.52    1.41            0.09    0.10    0.03           0.39     0.42
D4          3.51    3.79    0.47          22.97   -2.19   30.67          30.75   94.09           1.39    1.43    2.89    1.41            0.09    0.10    0.02           0.41     0.45
D5         15.84   16.64    8.43          47.80   -1.20   16.51          16.56   94.18           0.74    0.80    1.09    0.77            0.24    0.23    0.12           0.46     0.51
D6         15.42   16.39    4.44          47.48   -2.26   33.95          34.02   93.81           0.74    0.80    1.47    0.77            0.23    0.23    0.09           0.42     0.46
D7         15.53   16.44    2.08          47.54   -1.84   50.93          50.96   92.07           0.74    0.79    2.00    0.76            0.21    0.20    0.05           0.39     0.42
D8         15.49   16.47    1.04          47.58   -2.27   63.07          63.11   92.06           0.76    0.79    2.70    0.76            0.23    0.23    0.03           0.36     0.40
D9         43.18   44.97   22.81          72.87   -0.52   22.95          22.95   91.30           0.31    0.36    0.61    0.34            0.91    0.94    0.38           0.77     0.91
D10        43.25   45.40   12.94          73.15   -1.55   45.86          45.89   91.93           0.29    0.35    0.93    0.33            0.77    0.77    0.20           0.73     0.85
D11        43.02   45.54    6.48          73.25   -2.62   68.23          68.28   92.20           0.29    0.35    1.37    0.32            0.71    0.70    0.11           0.60     0.71
D12        42.91   45.86    3.41          73.45   -3.85   85.07          85.16   92.60           0.31    0.34    1.89    0.32            0.58    0.49    0.06           0.51     0.60
D13        45.35   53.66   54.61          78.26  -17.47  -11.76          21.07  213.93           0.48    0.21    0.18    0.30            0.63    0.63    0.40           0.66     0.77
D14        45.75   38.17   46.17          68.14   27.29  -19.73          33.68  324.15           0.23    0.53    0.23    0.40            0.54    0.57    0.59           0.84     0.94
D15        58.93   61.70   29.45          82.75   -1.33   28.40          28.43   92.69           0.17    0.21    0.50    0.20            0.49    0.45    0.32           0.43     0.49
D16        27.53   28.64   24.01          60.46   -0.33   -0.70           0.88  220.67           0.54    0.55    0.56    0.55            0.53    0.54    0.40           0.68     0.76
D17        41.35   35.44   23.48          66.09   23.23    9.98          25.29   23.25           0.23    0.56    0.57    0.42            0.53    0.56    0.39           0.57     0.62
D18        40.90   50.19   29.97          76.18  -21.69   16.25          27.10  143.16           0.47    0.24    0.49    0.31            0.56    0.56    0.43           0.60     0.67
D19        31.25   31.02   45.70          62.52    4.98  -28.86          29.28  279.80           0.56    0.52    0.24    0.52            0.45    0.47    0.40           0.55     0.59
D20         2.49    2.50    0.86          17.90    1.63   14.82          14.91   83.72           1.49    1.66    2.26    1.59            0.06    0.06    0.03           0.37     0.41
D21        28.19   25.80    1.28          57.85   13.56   77.49          78.67   80.07           0.41    0.67    2.58    0.55            0.41    0.38    0.04           0.50     0.55
D22        36.20   39.82   50.32          69.34   -7.15  -22.46          23.57  252.34           0.55    0.36    0.21    0.42            0.53    0.61    0.36           0.65     0.71
E1          4.84    5.49    2.99          28.08   -5.62    9.84          11.33  119.74           1.29    1.26    1.60    1.27            0.09    0.10    0.07           0.32     0.36
E2          4.38    5.44    1.85          27.96  -11.04   19.36          22.28  119.69           1.37    1.22    1.91    1.27            0.07    0.09    0.05           0.31     0.36
E3          3.95    5.39    1.12          27.82  -16.55   27.84          32.39  120.73           1.49    1.18    2.29    1.28            0.08    0.10    0.04           0.35     0.41
E4          3.79    5.50    0.67          28.11  -20.15   35.92          41.18  119.30           1.57    1.14    2.83    1.28            0.07    0.10    0.03           0.35     0.38
E5         22.24   25.35   13.78          57.42   -9.83   16.45          19.16  120.88           0.66    0.57    0.86    0.60            0.31    0.34    0.14           0.48     0.56
E6         20.23   25.32    8.53          57.39  -19.24   32.66          37.90  120.51           0.74    0.54    1.14    0.61            0.32    0.37    0.17           0.48     0.53
E7         18.44   25.47    4.62          57.53  -28.87   50.25          57.95  119.88           0.85    0.49    1.56    0.61            0.26    0.35    0.11           0.45     0.49
E8         17.46   26.09    2.71          58.12  -36.60   63.75          73.51  119.86           0.97    0.45    2.03    0.60            0.24    0.26    0.05           0.37     0.43
E9         40.91   44.50   29.75          72.56   -6.03   10.35          11.99  120.31           0.38    0.34    0.48    0.35            0.77    0.79    0.44           0.75     0.90
E10        39.16   45.05   23.55          72.92  -13.04   21.64          25.26  121.08           0.42    0.31    0.61    0.35            0.74    0.80    0.28           0.74     0.88
E11        37.80   45.47   18.52          73.20  -18.53   32.26          37.20  119.88           0.45    0.29    0.74    0.35            0.71    0.75    0.30           0.64     0.74
E12        36.34   45.63   14.93          73.31  -23.77   40.87          47.28  120.18           0.49    0.27    0.87    0.35            0.48    0.46    0.15           0.55     0.65
E13        40.72   50.08   53.87          76.12  -21.94  -14.67          26.40  213.75           0.58    0.22    0.19    0.33            0.51    0.53    0.43           0.62     0.71
E14        41.07   32.00   43.18          63.35   34.20  -24.36          41.99  324.55           0.25    0.65    0.26    0.47            0.45    0.44    0.67           0.75     0.87
E15        57.68   60.36   23.23          82.03   -1.27   37.96          37.98   91.92           0.17    0.23    0.62    0.21            0.48    0.45    0.26           0.42     0.47
E16        19.96   20.96   17.33          52.91   -1.25   -0.07           1.33  180.80           0.68    0.69    0.72    0.68            0.37    0.38    0.28           0.56     0.65
E17        35.86   28.77   16.74          60.58   29.48   14.53          32.86   26.23           0.25    0.70    0.73    0.50            0.42    0.43    0.31           0.45     0.50
E18        35.38   45.70   23.66          73.35  -27.18   22.18          35.08  140.79           0.56    0.26    0.61    0.36            0.37    0.36    0.25           0.44     0.49
E19        24.09   23.45   42.28          55.53    6.58  -36.70          37.29  280.17           0.70    0.64    0.27    0.65            0.39    0.40    0.39           0.54     0.59
E20         6.31    7.53    1.12          32.99   -9.70   36.75          38.01  104.78           1.20    1.08    2.34    1.12            0.14    0.15    0.04           0.42     0.46
E21        22.13   26.53    5.71          58.54  -15.15   46.42          48.83  108.08           0.66    0.53    1.40    0.58            0.37    0.43    0.11           0.56     0.60
E22         8.11   17.39   12.42          48.75  -60.02    5.26          60.25  174.99           1.95    0.54    0.95    0.84            0.13    0.22    0.19           0.39     0.43
F1          3.00    3.75    2.73          22.84  -10.18    2.73          10.54  164.97           1.57    1.39    1.63    1.45            0.07    0.08    0.06           0.32     0.37
F2          2.63    3.98    2.33          23.60  -20.24    7.38          21.54  159.97           1.76    1.30    1.75    1.44            0.05    0.07    0.06           0.29     0.32
F3          2.11    3.94    1.95          23.46  -30.16   10.60          31.97  160.64           2.05    1.24    1.88    1.47            0.05    0.08    0.06           0.38     0.43
F4          1.43    3.91    1.45          23.38  -46.99   15.95          49.62  161.25           2.83    1.15    2.16    1.50            0.04    0.08    0.04           0.40     0.43
F5         10.22   13.02    9.21          42.79  -16.78    5.09          17.54  163.13           1.09    0.82    1.04    0.91            0.15    0.18    0.11           0.40     0.44
F6          8.24   13.05    7.79          42.83  -33.35   10.36          34.93  162.75           1.37    0.75    1.16    0.93            0.13    0.17    0.12           0.45     0.48
F7          6.61   13.05    6.36          42.84  -49.00   16.33          51.65  161.57           1.73    0.69    1.30    0.95            0.12    0.19    0.11           0.48     0.52
F8          5.51   13.38    5.51          43.33  -63.16   21.15          66.60  161.49           2.19    0.63    1.43    0.95            0.11    0.19    0.09           0.40     0.43
F9         26.94   31.00   23.46          62.50  -11.54    3.85          12.18  161.59           0.61    0.47    0.59    0.52            0.51    0.54    0.33           0.66     0.77
F10        23.99   31.11   21.50          62.60  -24.32    7.77          25.54  162.28           0.76    0.43    0.64    0.53            0.40    0.49    0.22           0.60     0.71
F11        21.54   31.19   19.69          62.66  -35.68   11.57          37.52  162.04           0.90    0.39    0.70    0.54            0.38    0.47    0.21           0.60     0.72
F12        19.68   31.70   18.30          63.10  -46.54   15.32          48.99  161.78           1.05    0.35    0.75    0.55            0.26    0.30    0.21           0.51     0.59
F13        36.82   46.88   53.13          74.11  -25.68  -17.34          30.99  214.01           0.67    0.24    0.19    0.37            0.47    0.49    0.48           0.58     0.65
F14        36.52   26.39   39.92          58.40   41.06  -28.72          50.11  325.03           0.27    0.79    0.28    0.54            0.43    0.38    0.70           0.71     0.80
F15        56.73   59.17   18.45          81.39   -0.80   46.51          46.52   90.99           0.17    0.24    0.75    0.21            0.52    0.47    0.23           0.40     0.44
F16        13.86   14.50   12.19          44.94   -0.76   -0.65           1.02  218.82           0.83    0.85    0.88    0.84            0.25    0.26    0.19           0.45     0.48
F17        30.79   22.89   11.71          54.95   35.92   18.01          40.18   26.62           0.27    0.87    0.90    0.58            0.29    0.29    0.21           0.35     0.40
