targets/wolf_faust/transmissive/A090301.it8
IT8.7/1
ORIGINATOR "Wolf Faust"
DESCRIPTOR "Agfachrome RSX, RSX II and CT Precisa, Type 3, L* a* b* (light D50, viewing angle 2)"
MANUFACTURER "Wolf Faust - http://www.coloraid.de"
CREATED "March 23, 2009"
PROD_DATE "2007:02"
DIFFUSE_GEOMETRY "opal"
SERIAL "A090301 Batch Average Data"
MATERIAL "Agfachrome RSX II"
KEYWORD "MEAN_DE" # Mean Delta E of samples compared to batch average
NUMBER_OF_FIELDS 18
BEGIN_DATA_FORMAT
SAMPLE_ID  XYZ_X   XYZ_Y   XYZ_Z          LAB_L   LAB_A   LAB_B          LAB_C   LAB_H          D_RED  D_GREEN  D_BLUE  D_VIS          STDEV_X STDEV_Y STDEV_Z        MEAN_DE  STDEV_DE
END_DATA_FORMAT
NUMBER_OF_SETS 288
BEGIN_DATA
A1          2.22    1.89    1.36          14.91    9.07    2.38           9.38   14.65           1.47    1.90    1.92    1.69            0.08    0.07    0.02           0.51     0.61
A2          2.78    1.89    1.13          14.90   20.11    5.47          20.84   15.20           1.28    2.09    1.99    1.65            0.11    0.07    0.03           0.55     0.64 
A3          3.11    1.77    0.94          14.20   29.03    7.02          29.87   13.58           1.16    2.39    2.04    1.65            0.12    0.07    0.03           0.53     0.64
A4          4.18    1.87    0.72          14.80   42.88   11.89          44.50   15.50           0.95    3.20    2.08    1.57            0.12    0.05    0.02           0.51     0.61 
A5          9.79    8.31    6.19          34.62   15.00    2.95          15.29   11.12           0.85    1.22    1.19    1.05            0.33    0.27    0.19           0.69     0.79
A6         11.75    8.49    5.35          34.97   28.12    7.55          29.12   15.03           0.69    1.34    1.25    1.01            0.42    0.32    0.20           0.67     0.78 
A7         14.30    8.57    4.59          35.13   44.25   11.79          45.79   14.93           0.52    1.56    1.30    0.97            0.40    0.26    0.17           0.57     0.65
A8         16.15    8.46    3.90          34.92   56.14   15.49          58.24   15.42           0.42    1.83    1.36    0.95            0.15    0.11    0.11           0.38     0.45 
A9         29.65   28.78   22.26          60.58    7.37    2.80           7.89   20.82           0.45    0.58    0.60    0.53            0.72    0.68    0.49           0.62     0.71
A10        31.74   28.82   21.00          60.61   14.98    5.36          15.91   19.68           0.38    0.62    0.62    0.52            0.77    0.73    0.55           0.63     0.72
A11        33.68   28.38   19.87          60.23   23.54    7.02          24.57   16.61           0.31    0.67    0.65    0.51            0.57    0.52    0.44           0.55     0.60
A12        36.12   28.30   18.75          60.15   32.19    9.27          33.50   16.06           0.24    0.73    0.67    0.50            0.35    0.37    0.43           0.63     0.69 
A13        64.43   68.03   58.32          86.02   -2.63   -2.25           3.47  220.73           0.20    0.15    0.15    0.17            0.37    0.31    0.12           0.34     0.39
A14        68.92   70.10   58.18          87.05    2.89   -0.34           2.91  353.33           0.14    0.16    0.15    0.15            0.30    0.29    0.21           0.21     0.23 
A15        68.82   70.41   56.10          87.20    2.02    2.06           2.89   45.62           0.14    0.16    0.17    0.15            0.27    0.28    0.26           0.25     0.27
A16        66.24   68.98   56.85          86.49   -0.61    0.08           0.63  173.15           0.17    0.16    0.16    0.16            0.33    0.30    0.17           0.28     0.31
A17        68.16   69.02   57.15          86.52    3.52   -0.20           3.53  324.09           0.14    0.17    0.16    0.16            0.20    0.24    0.12           0.19     0.22
A18        63.37   67.31   56.31          85.66   -3.46   -0.81           3.55  193.23           0.21    0.16    0.17    0.18            0.37    0.32    0.22           0.32     0.37 
A19        64.31   66.52   57.60          85.26    0.38   -2.82           2.85  277.84           0.18    0.17    0.15    0.18            0.41    0.38    0.17           0.32     0.35
A20         6.25    2.94    1.83          19.80   46.54    5.53          46.87    6.77           0.80    2.68    1.66    1.39            0.18    0.09    0.05           0.56     0.65 
A21        26.71   18.68   14.22          50.31   40.14    3.04          40.26    4.33           0.33    1.01    0.78    0.67            0.40    0.35    0.37           0.69     0.74
A22        52.43   49.51   33.16          75.77   12.55   10.64          16.46   40.27           0.18    0.36    0.42    0.29            0.57    0.65    0.75           0.69     0.75
B1          3.17    2.82    1.66          19.29    8.01    6.45          10.29   38.81           1.34    1.69    1.85    1.52            0.12    0.10    0.04           0.53     0.63
B2          3.80    2.87    1.01          19.50   17.06   15.10          22.78   41.49           1.18    1.79    2.11    1.48            0.12    0.09    0.02           0.52     0.63
B3          4.40    2.86    0.58          19.49   25.69   22.70          34.28   41.47           1.05    1.94    2.41    1.45            0.16    0.11    0.02           0.60     0.74
B4          4.98    2.90    0.29          19.62   32.62   28.39          43.24   41.03           0.96    2.10    2.82    1.43            0.18    0.11    0.01           0.73     0.89
B5         12.52   11.18    6.57          39.88   12.33   10.32          16.08   39.91           0.75    1.06    1.19    0.92            0.42    0.37    0.24           0.77     0.87
B6         14.63   11.23    4.33          39.97   25.45   21.63          33.40   40.37           0.60    1.17    1.40    0.89            0.46    0.37    0.16           0.66     0.77
B7         17.03   11.26    2.63          40.00   39.10   33.12          51.24   40.27           0.47    1.31    1.65    0.86            0.43    0.32    0.10           0.54     0.63
B8         19.64   11.36    1.43          40.18   52.05   45.10          68.87   40.91           0.36    1.50    1.96    0.83            0.17    0.15    0.04           0.36     0.41
B9         34.93   34.86   25.72          65.64    4.51    5.17           6.86   48.86           0.40    0.49    0.54    0.45            0.81    0.80    0.61           0.58     0.68
B10        36.92   34.94   22.67          65.70   10.92   10.85          15.40   44.80           0.33    0.51    0.60    0.44            0.73    0.72    0.55           0.62     0.70
B11        38.46   34.91   20.51          65.68   15.98   15.07          21.97   43.33           0.28    0.54    0.65    0.43            0.55    0.55    0.39           0.58     0.62
B12        40.87   34.75   17.23          65.55   24.05   21.96          32.57   42.40           0.21    0.58    0.73    0.42            0.44    0.52    0.36           0.65     0.71
B13        59.07   63.61   56.66          83.76   -5.36   -4.44           6.96  219.64           0.26    0.18    0.16    0.20            0.43    0.34    0.15           0.44     0.48
B14        60.14   58.77   54.31          81.16    8.38   -6.44          10.57  322.46           0.18    0.26    0.17    0.23            0.50    0.60    0.24           0.46     0.55
B15        63.83   66.00   46.48          85.00    0.43    8.97           8.98   87.22           0.16    0.18    0.26    0.18            0.37    0.35    0.43           0.39     0.46
B16        53.21   55.54   44.74          79.35   -0.87    1.32           1.58  123.01           0.26    0.25    0.27    0.26            0.65    0.64    0.55           0.50     0.54
B17        58.73   58.18   44.47          80.84    6.43    4.21           7.70   33.18           0.18    0.26    0.28    0.23            0.56    0.62    0.59           0.46     0.51
B18        57.79   62.75   47.43          83.31   -6.52    4.94           8.18  142.85           0.25    0.18    0.25    0.21            0.67    0.57    0.65           0.60     0.67
B19        55.12   56.91   54.53          80.13    0.63   -8.47           8.49  274.22           0.26    0.24    0.18    0.25            0.66    0.70    0.27           0.56     0.63
B20         4.81    2.89    0.93          19.58   30.63   16.45          34.77   28.24           0.99    2.06    2.10    1.44            0.16    0.10    0.02           0.56     0.67
B21        16.87   11.12    4.02          39.77   39.24   23.12          45.54   30.50           0.48    1.32    1.41    0.87            0.38    0.27    0.10           0.59     0.66
B22        33.85   28.69   16.69          60.50   22.97   14.51          27.17   32.27           0.30    0.67    0.74    0.51            0.72    0.71    0.54           0.81     0.86
C1          6.29    6.12    3.56          29.72    4.24    8.69           9.67   64.03           1.09    1.28    1.49    1.20            0.19    0.17    0.07           0.61     0.70
C2          6.65    6.08    2.15          29.61    8.46   19.37          21.14   66.41           1.02    1.32    1.78    1.19            0.19    0.16    0.04           0.57     0.68
C3          7.40    6.38    1.13          30.35   12.70   32.12          34.54   68.43           0.95    1.33    2.19    1.15            0.24    0.20    0.03           0.62     0.74
C4          7.60    6.12    0.57          29.72   17.28   40.45          43.99   66.86           0.91    1.39    2.67    1.15            0.22    0.17    0.01           0.68     0.83
C5         24.01   23.17   11.90          55.25    7.46   17.95          19.44   67.43           0.51    0.69    0.92    0.62            0.57    0.52    0.31           0.69     0.75
C6         26.00   23.32    6.84          55.39   15.27   35.91          39.02   66.96           0.42    0.73    1.22    0.60            0.64    0.61    0.24           0.63     0.70
C7         28.22   23.55    3.25          55.63   23.22   55.46          60.12   67.28           0.35    0.77    1.67    0.58            0.59    0.55    0.12           0.60     0.68
C8         30.48   23.47    1.07          55.55   32.18   76.38          82.88   67.16           0.29    0.84    2.54    0.56            0.44    0.41    0.02           0.54     0.62
C9         40.86   41.43   28.34          70.47    2.82    9.05           9.48   72.67           0.34    0.40    0.49    0.38            0.92    0.92    0.79           0.69     0.75
C10        42.04   41.45   23.96          70.49    6.34   16.69          17.85   69.19           0.29    0.42    0.58    0.37            0.84    0.88    0.65           0.72     0.78
C11        43.25   41.55   19.93          70.55    9.66   24.69          26.51   68.63           0.25    0.43    0.68    0.36            0.68    0.72    0.48           0.67     0.72
C12        45.55   41.64   13.68          70.62   16.06   39.47          42.62   67.85           0.19    0.46    0.88    0.35            0.45    0.55    0.24           0.60     0.66
C13        52.99   59.63   56.17          81.64  -11.30   -7.60          13.62  213.92           0.35    0.18    0.17    0.24            0.60    0.51    0.22           0.51     0.61
C14        53.70   48.97   51.07          75.43   17.27  -12.80          21.50  323.46           0.20    0.37    0.20    0.30            0.57    0.70    0.29           0.66     0.78
C15        62.11   64.64   37.94          84.30   -0.51   18.56          18.57   91.56           0.16    0.19    0.37    0.18            0.47    0.43    0.58           0.57     0.64
C16        41.05   42.91   34.62          71.49   -0.99    1.12           1.51  131.37           0.37    0.37    0.39    0.37            0.91    0.91    0.73           0.75     0.80
C17        50.95   47.56   34.21          74.55   13.95    6.99          15.61   26.61           0.19    0.38    0.40    0.30            0.62    0.73    0.68           0.70     0.76
C18        50.40   57.76   39.25          80.61  -13.65   10.45          17.19  142.56           0.34    0.20    0.35    0.25            0.74    0.60    0.68           0.82     0.91
C19        43.97   44.84   51.13          72.78    2.16  -17.43          17.57  277.05           0.38    0.35    0.20    0.36            0.83    0.87    0.41           0.78     0.91
C20        12.11    8.85    1.16          35.69   27.62   40.79          49.26   55.90           0.66    1.31    2.16    0.98            0.38    0.28    0.03           0.74     0.88
C21        21.87   20.40   10.96          52.28   10.61   15.69          18.94   55.90           0.53    0.77    0.95    0.67            0.63    0.59    0.34           0.87     0.94
C22        27.62   23.29   10.99          55.36   22.00   20.90          30.34   43.52           0.38    0.77    0.95    0.59            0.60    0.56    0.35           0.76     0.82
D1          4.21    4.43    2.45          25.04   -0.83    8.85           8.89   95.40           1.30    1.39    1.69    1.35            0.13    0.12    0.05           0.51     0.58
D2          4.12    4.33    1.47          24.72   -0.78   17.94          17.96   92.50           1.30    1.39    1.99    1.35            0.14    0.13    0.03           0.53     0.63
D3          4.14    4.40    0.88          24.95   -1.40   26.59          26.63   93.03           1.30    1.37    2.35    1.34            0.14    0.13    0.02           0.60     0.68
D4          4.05    4.33    0.59          24.74   -1.88   31.59          31.64   93.41           1.33    1.37    2.68    1.35            0.12    0.11    0.01           0.63     0.72
D5         17.82   18.81    9.58          50.46   -1.67   17.02          17.11   95.61           0.69    0.74    1.03    0.72            0.46    0.44    0.24           0.65     0.72
D6         17.71   18.78    5.28          50.42   -2.12   34.53          34.59   93.52           0.68    0.74    1.38    0.71            0.50    0.50    0.17           0.61     0.72
D7         17.41   18.57    2.49          50.18   -2.65   51.84          51.91   92.93           0.69    0.74    1.89    0.71            0.50    0.51    0.07           0.74     0.83
D8         17.24   18.40    1.23          49.98   -2.75   64.56          64.62   92.44           0.71    0.74    2.52    0.71            0.42    0.39    0.02           0.70     0.84
D9         47.37   49.58   25.17          75.81   -1.21   23.68          23.71   92.92           0.27    0.31    0.57    0.30            0.82    0.85    0.58           0.65     0.71
D10        46.83   49.34   14.46          75.66   -2.10   46.13          46.18   92.60           0.26    0.31    0.88    0.29            0.73    0.75    0.33           0.61     0.65
D11        46.39   49.23    7.24          75.59   -3.00   69.04          69.11   92.48           0.26    0.31    1.31    0.29            0.54    0.49    0.12           0.45     0.50
D12        45.70   48.44    3.98          75.10   -2.85   84.26          84.31   91.94           0.27    0.32    1.76    0.29            0.46    0.34    0.04           0.48     0.57
D13        47.39   55.63   55.47          79.40  -16.63  -10.71          19.78  212.79           0.45    0.20    0.17    0.28            0.56    0.48    0.20           0.55     0.66
D14        47.95   40.70   47.88          69.96   25.60  -18.60          31.65  324.01           0.22    0.49    0.22    0.37            0.61    0.73    0.33           0.79     0.92
D15        60.59   63.27   30.63          83.58   -0.98   27.97          27.99   92.01           0.16    0.20    0.48    0.19            0.45    0.41    0.60           0.68     0.78
D16        30.60   32.03   26.01          63.36   -1.03    0.72           1.31  151.22           0.50    0.50    0.53    0.50            0.76    0.77    0.64           0.85     0.91
D17        44.03   38.49   25.53          68.38   21.33   10.21          23.65   25.57           0.21    0.52    0.53    0.39            0.56    0.66    0.57           0.82     0.87
D18        43.70   52.79   31.86          77.75  -20.04   16.01          25.66  141.37           0.43    0.22    0.46    0.29            0.78    0.64    0.66           0.88     1.00
D19        34.38   34.49   47.77          65.34    3.92  -26.44          26.73  278.44           0.51    0.47    0.22    0.48            0.86    0.90    0.44           0.92     1.08
D20         2.94    2.94    1.07          19.81    1.86   14.76          14.88   82.82           1.41    1.59    2.14    1.51            0.12    0.11    0.03           0.53     0.65
D21        31.09   28.51    1.57          60.34   13.78   78.25          79.45   80.01           0.36    0.63    2.37    0.50            0.57    0.52    0.03           0.68     0.78
D22        40.37   44.40   52.14          72.49   -7.39  -19.05          20.44  248.78           0.49    0.32    0.19    0.37            0.77    0.84    0.29           0.78     0.91
E1          5.57    6.30    3.56          30.15   -5.66    9.40          10.98  121.10           1.23    1.20    1.51    1.21            0.17    0.17    0.07           0.55     0.62
E2          4.98    6.19    2.32          29.89  -11.56   18.28          21.63  122.31           1.32    1.16    1.78    1.22            0.16    0.17    0.05           0.59     0.65
E3          4.62    6.26    1.30          30.05  -16.92   29.27          33.81  120.03           1.42    1.12    2.20    1.22            0.14    0.16    0.03           0.57     0.65
E4          4.22    6.16    0.81          29.82  -21.34   36.25          42.07  120.48           1.54    1.09    2.63    1.23            0.12    0.14    0.01           0.60     0.67
E5         24.95   28.58   15.25          60.40  -10.70   17.82          20.78  120.99           0.61    0.52    0.81    0.55            0.55    0.58    0.40           0.70     0.75
E6         22.93   28.73    9.91          60.54  -20.16   33.29          38.92  121.19           0.69    0.48    1.07    0.55            0.61    0.70    0.32           0.61     0.70
E7         20.70   28.55    5.34          60.38  -29.85   51.38          59.42  120.15           0.80    0.45    1.48    0.56            0.46    0.52    0.14           0.56     0.64
E8         19.28   28.25    3.23          60.12  -35.74   63.32          72.71  119.44           0.90    0.43    1.89    0.57            0.29    0.31    0.06           0.46     0.52
E9         45.25   49.40   32.74          75.70   -6.70   11.15          13.01  121.01           0.34    0.29    0.43    0.31            0.87    0.89    0.69           0.69     0.75
E10        42.94   49.30   25.75          75.64  -13.18   22.35          25.95  120.52           0.38    0.27    0.56    0.31            0.86    0.84    0.58           0.82     0.88
E11        40.71   48.73   19.97          75.28  -18.37   32.76          37.56  119.29           0.42    0.26    0.71    0.32            0.62    0.57    0.34           0.73     0.79
E12        39.25   48.30   16.74          75.01  -21.75   39.40          45.01  118.89           0.45    0.26    0.81    0.32            0.73    0.74    0.39           0.73     0.82
E13        42.74   52.07   54.70          77.32  -21.01  -13.48          24.97  212.69           0.54    0.21    0.18    0.31            0.56    0.50    0.32           0.58     0.69
E14        43.02   34.06   44.85          65.01   32.87  -23.54          40.43  324.40           0.24    0.61    0.24    0.44            0.55    0.63    0.40           0.76     0.90
E15        59.33   61.94   24.49          82.88   -0.94   37.10          37.11   91.45           0.16    0.22    0.60    0.20            0.52    0.51    0.51           0.72     0.78
E16        22.32   23.43   18.85          55.51   -1.24    1.04           1.63  141.05           0.63    0.64    0.68    0.63            0.69    0.69    0.57           0.85     0.92
E17        38.30   31.39   18.52          62.83   27.75   14.37          31.26   27.38           0.23    0.65    0.68    0.46            0.54    0.61    0.45           0.81     0.87
E18        38.00   48.19   25.29          74.94  -25.42   21.96          33.59  139.17           0.51    0.24    0.58    0.33            0.73    0.63    0.60           0.90     1.01
E19        26.75   26.25   44.40          58.27    5.96  -34.62          35.13  279.77           0.65    0.59    0.25    0.60            0.73    0.76    0.43           0.89     1.07
E20         7.20    8.58    1.36          35.15   -9.94   37.31          38.61  104.92           1.14    1.03    2.21    1.06            0.23    0.25    0.03           0.63     0.76
E21        24.61   29.39    6.49          61.12  -15.26   47.27          49.67  107.89           0.61    0.49    1.33    0.53            0.58    0.62    0.14           0.71     0.79
E22         8.69   18.36   13.42          49.93  -59.99    4.50          60.16  175.71           1.90    0.52    0.91    0.82            0.15    0.21    0.32           0.68     0.75
F1          3.46    4.27    3.25          24.53   -9.73    1.85           9.91  169.21           1.51    1.34    1.54    1.39            0.11    0.11    0.07           0.51     0.58
F2          2.91    4.37    2.70          24.85  -20.48    6.46          21.48  162.49           1.72    1.26    1.67    1.40            0.09    0.11    0.05           0.49     0.56
F3          2.39    4.39    2.42          24.91  -30.50    8.90          31.77  163.73           2.00    1.20    1.76    1.42            0.09    0.12    0.06           0.49     0.54
F4          1.70    4.52    1.84          25.32  -48.11   14.97          50.39  162.72           2.71    1.09    2.00    1.43            0.03    0.07    0.03           0.31     0.34
F5         11.66   14.72   10.44          45.25  -16.78    5.21          17.57  162.74           1.03    0.77    0.98    0.86            0.31    0.34    0.25           0.61     0.67
F6          9.54   14.90    8.75          45.49  -33.79   11.37          35.65  161.41           1.29    0.70    1.10    0.87            0.30    0.39    0.26           0.52     0.61
F7          7.70   14.85    7.43          45.42  -49.45   16.28          52.06  161.77           1.64    0.64    1.22    0.89            0.21    0.31    0.22           0.47     0.53
F8          6.29   14.73    6.16          45.26  -62.77   21.41          66.32  161.17           2.07    0.59    1.36    0.91            0.15    0.24    0.14           0.39     0.43
F9         30.12   34.95   26.31          65.71  -12.96    4.26          13.64  161.82           0.58    0.42    0.53    0.47            0.74    0.77    0.61           0.69     0.77
F10        26.64   34.55   23.58          65.39  -25.19    8.60          26.62  161.17           0.71    0.38    0.60    0.49            0.66    0.71    0.54           0.75     0.81
F11        24.14   34.64   21.53          65.46  -36.04   12.66          38.20  160.65           0.84    0.34    0.66    0.50            0.49    0.53    0.39           0.71     0.76
F12        21.65   33.92   19.77          64.90  -44.78   15.27          47.31  161.18           0.98    0.33    0.71    0.51            0.36    0.36    0.37           0.71     0.78
F13        38.62   48.78   54.04          75.31  -25.01  -16.24          29.82  213.01           0.64    0.22    0.19    0.35            0.52    0.47    0.21           0.54     0.66
F14        38.59   28.41   41.86          60.26   39.77  -28.03          48.65  324.83           0.26    0.74    0.26    0.51            0.52    0.57    0.38           0.70     0.89
F15        58.36   60.79   19.72          82.26   -0.62   45.31          45.32   90.78           0.16    0.23    0.72    0.20            0.43    0.40    0.38           0.59     0.67
F16        15.82   16.57   13.63          47.71   -0.91    0.12           1.05  177.54           0.77    0.79    0.83    0.78            0.49    0.47    0.37           0.79     0.86
F17        33.01   25.11   13.24          57.18   34.36   17.49          38.56   26.97           0.26    0.81    0.84    0.55            0.46    0.50    0.35           0.75     0.84
