targets/wolf_faust/transmissive/A091201.it8
IT8.7/1
ORIGINATOR "Wolf Faust"
DESCRIPTOR "Agfachrome RSX, RSX II and CT Precisa, Type 3, L* a* b* (light D50, viewing angle 2)"
MANUFACTURER "Wolf Faust - http://www.coloraid.de"
CREATED "December 22, 2009"
PROD_DATE "2007:02"
DIFFUSE_GEOMETRY "opal"
SERIAL "A091201 Batch Average Data"
MATERIAL "Agfachrome RSX II"
KEYWORD "MEAN_DE" # Mean Delta E of samples compared to batch average
NUMBER_OF_FIELDS 18
BEGIN_DATA_FORMAT
SAMPLE_ID  XYZ_X   XYZ_Y   XYZ_Z          LAB_L   LAB_A   LAB_B          LAB_C   LAB_H          D_RED  D_GREEN  D_BLUE  D_VIS          STDEV_X STDEV_Y STDEV_Z        MEAN_DE  STDEV_DE
END_DATA_FORMAT
NUMBER_OF_SETS 288
BEGIN_DATA
A1          2.17    1.85    1.27          14.70    8.80    3.20           9.37   19.97           1.48    1.90    1.96    1.70            0.05    0.05    0.05           0.37     0.42
A2          2.67    1.83    1.10          14.54   19.59    5.22          20.27   14.91           1.30    2.10    2.00    1.67            0.06    0.04    0.04           0.34     0.37 
A3          3.24    1.82    0.92          14.53   29.68    7.96          30.73   15.01           1.14    2.39    2.05    1.63            0.06    0.04    0.02           0.31     0.33
A4          4.09    1.83    0.65          14.54   42.69   12.77          44.56   16.66           0.96    3.31    2.13    1.58            0.04    0.02    0.01           0.24     0.28 
A5          9.34    8.03    5.66          34.05   13.87    4.41          14.55   17.65           0.87    1.23    1.24    1.07            0.15    0.16    0.15           0.53     0.58
A6         11.35    8.13    5.03          34.24   28.46    7.94          29.55   15.58           0.70    1.37    1.28    1.03            0.19    0.16    0.14           0.50     0.54 
A7         13.54    8.18    4.22          34.35   42.85   12.60          44.67   16.38           0.55    1.57    1.35    0.99            0.21    0.14    0.12           0.47     0.51
A8         16.08    8.40    3.63          34.81   56.23   16.99          58.74   16.81           0.42    1.85    1.39    0.95            0.12    0.09    0.10           0.36     0.43 
A9         28.13   27.31   20.96          59.25    7.23    3.11           7.87   23.24           0.48    0.61    0.63    0.55            0.50    0.60    0.58           0.82     0.89
A10        30.12   27.34   19.89          59.29   14.73    5.36          15.68   19.98           0.40    0.65    0.65    0.54            0.50    0.58    0.58           0.81     0.88
A11        32.39   27.38   18.98          59.32   22.92    7.34          24.07   17.75           0.33    0.69    0.67    0.53            0.47    0.52    0.56           0.75     0.82
A12        35.61   27.77   17.74          59.68   32.51   10.68          34.23   18.19           0.24    0.74    0.70    0.51            0.41    0.45    0.45           0.63     0.73 
A13        64.03   67.79   58.34          85.90   -3.02   -2.48           3.91  219.54           0.20    0.16    0.15    0.17            0.41    0.52    0.31           0.40     0.45
A14        69.06   70.14   58.28          87.06    3.11   -0.42           3.14  352.61           0.13    0.16    0.15    0.15            0.43    0.55    0.33           0.39     0.44 
A15        68.96   70.56   56.17          87.27    2.01    2.12           2.95   46.38           0.14    0.16    0.17    0.15            0.46    0.56    0.76           0.58     0.62
A16        66.78   69.29   56.69          86.65   -0.07    0.51           0.59   85.50           0.16    0.16    0.16    0.16            0.51    0.57    0.67           0.48     0.51
A17        67.93   68.62   57.01          86.31    3.90   -0.40           3.92  354.18           0.14    0.17    0.16    0.16            0.47    0.59    0.46           0.41     0.46
A18        62.72   66.98   56.16          85.49   -4.23   -0.93           4.35  192.49           0.22    0.16    0.17    0.18            0.53    0.60    0.70           0.54     0.57 
A19        63.87   66.11   57.57          85.05    0.29   -3.15           3.18  274.98           0.19    0.18    0.15    0.18            0.47    0.55    0.31           0.45     0.49
A20         6.07    2.86    1.77          19.46   46.02    5.53          46.35    6.85           0.82    2.71    1.68    1.40            0.11    0.05    0.04           0.50     0.56 
A21        26.03   18.17   13.61          49.70   39.95    3.62          40.12    5.17           0.34    1.02    0.80    0.68            0.37    0.33    0.45           0.70     0.76
A22        51.21   47.95   31.84          74.79   13.55   10.95          17.43   38.94           0.19    0.38    0.43    0.30            0.65    0.78    0.77           0.69     0.80
B1          3.19    2.81    1.63          19.27    8.43    6.72          10.78   38.56           1.33    1.69    1.86    1.52            0.08    0.07    0.06           0.40     0.46
B2          3.69    2.79    0.99          19.19   16.76   14.82          22.37   41.48           1.19    1.80    2.12    1.49            0.05    0.05    0.03           0.36     0.40
B3          4.24    2.77    0.60          19.09   25.25   21.51          33.17   40.42           1.07    1.96    2.38    1.47            0.05    0.04    0.01           0.30     0.33
B4          4.88    2.79    0.26          19.20   33.25   28.14          43.56   40.24           0.96    2.15    2.87    1.44            0.05    0.03    0.01           0.23     0.27
B5         12.08   10.84    6.10          39.31   11.77   11.43          16.41   44.17           0.77    1.07    1.23    0.94            0.25    0.26    0.17           0.59     0.64
B6         14.23   10.93    4.05          39.46   25.18   22.41          33.71   41.67           0.61    1.18    1.43    0.90            0.26    0.24    0.12           0.53     0.57
B7         16.31   10.82    2.52          39.28   38.22   32.81          50.37   40.65           0.49    1.32    1.67    0.88            0.21    0.19    0.07           0.45     0.48
B8         19.58   11.28    1.30          40.04   52.31   46.43          69.94   41.59           0.36    1.51    2.02    0.83            0.12    0.11    0.03           0.28     0.33
B9         33.62   33.51   24.58          64.56    4.67    5.35           7.11   49.08           0.41    0.50    0.56    0.47            0.71    0.85    0.73           0.83     0.94
B10        35.48   33.55   21.66          64.60   10.87   10.92          15.41   45.15           0.35    0.53    0.62    0.46            0.65    0.77    0.69           0.83     0.92
B11        37.26   33.59   19.34          64.63   16.61   15.72          22.87   43.42           0.29    0.56    0.67    0.45            0.55    0.65    0.61           0.79     0.89
B12        40.13   33.84   16.50          64.83   24.88   22.43          33.50   42.04           0.22    0.60    0.75    0.43            0.53    0.65    0.45           0.76     0.87
B13        58.09   62.88   56.56          83.38   -6.07   -5.00           7.87  219.50           0.27    0.18    0.16    0.21            0.52    0.63    0.53           0.42     0.48
B14        59.63   58.05   54.17          80.76    8.91   -6.98          11.32  321.87           0.18    0.26    0.18    0.23            0.61    0.81    0.61           0.59     0.71
B15        63.84   65.99   47.02          84.99    0.49    8.33           8.35   86.52           0.16    0.18    0.26    0.18            0.77    0.80    1.63           1.13     1.36
B16        52.13   54.48   44.87          78.74   -1.05    0.13           1.40  172.47           0.27    0.26    0.27    0.27            0.94    1.05    1.57           0.96     1.15
B17        58.29   57.48   44.64          80.45    7.03    3.34           7.82   25.04           0.18    0.27    0.27    0.23            0.78    0.92    1.49           1.00     1.19
B18        56.96   62.24   47.74          83.04   -7.36    4.12           8.49  151.21           0.26    0.18    0.25    0.21            0.68    0.70    1.55           1.16     1.33
B19        53.63   55.43   54.17          79.29    0.47   -9.53           9.56  272.76           0.28    0.25    0.18    0.26            0.67    0.82    0.52           0.67     0.77
B20         4.72    2.84    0.92          19.38   30.37   16.39          34.51   28.36           1.00    2.07    2.11    1.45            0.08    0.05    0.03           0.41     0.45
B21        16.34   10.87    3.89          39.36   38.09   23.22          44.61   31.36           0.50    1.32    1.43    0.88            0.28    0.20    0.14           0.55     0.60
B22        32.92   27.82   16.03          59.72   23.06   14.73          27.37   32.57           0.31    0.69    0.76    0.52            0.49    0.50    0.45           0.62     0.72
C1          6.20    6.04    3.40          29.50    4.12    9.36          10.23   66.25           1.10    1.29    1.52    1.20            0.15    0.16    0.12           0.48     0.53
C2          6.46    5.92    2.09          29.20    8.22   19.16          20.85   66.78           1.03    1.33    1.79    1.20            0.10    0.11    0.06           0.41     0.46
C3          7.10    6.08    1.08          29.61   12.92   31.46          34.01   67.68           0.96    1.35    2.21    1.17            0.07    0.08    0.02           0.34     0.39
C4          7.43    5.99    0.55          29.40   17.12   40.37          43.85   67.02           0.92    1.40    2.71    1.16            0.05    0.06    0.01           0.33     0.36
C5         23.22   22.50   11.32          54.55    6.99   18.50          19.78   69.31           0.53    0.70    0.95    0.63            0.48    0.55    0.32           0.70     0.79
C6         25.15   22.47    6.35          54.52   15.51   36.54          39.70   67.00           0.43    0.75    1.26    0.61            0.46    0.51    0.17           0.68     0.75
C7         27.19   22.60    3.12          54.66   23.30   54.72          59.48   66.94           0.36    0.79    1.70    0.59            0.43    0.47    0.10           0.72     0.80
C8         29.82   22.93    1.03          55.00   32.11   76.09          82.58   67.12           0.30    0.85    2.58    0.57            0.27    0.29    0.02           0.51     0.58
C9         39.61   40.01   27.21          69.47    3.27    9.21           9.78   70.59           0.35    0.42    0.51    0.39            0.79    0.97    0.87           0.88     1.01
C10        40.69   40.14   23.04          69.56    6.23   16.81          17.94   69.70           0.31    0.43    0.60    0.38            0.81    0.99    0.78           0.91     1.01
C11        42.24   40.38   19.18          69.74   10.16   24.87          26.87   67.78           0.26    0.45    0.69    0.37            0.68    0.84    0.59           0.82     0.92
C12        44.71   40.54   12.82          69.85   16.95   40.50          43.90   67.30           0.19    0.48    0.91    0.36            0.53    0.72    0.35           0.77     0.88
C13        51.92   58.76   55.93          81.16  -12.02   -8.16          14.53  214.19           0.37    0.19    0.17    0.25            0.48    0.58    0.51           0.46     0.52
C14        53.01   48.06   50.72          74.86   17.97  -13.39          22.41  323.30           0.20    0.38    0.20    0.31            0.57    0.76    0.62           0.69     0.81
C15        62.04   64.57   37.58          84.26   -0.50   18.99          19.00   91.48           0.16    0.19    0.37    0.18            0.64    0.71    0.81           0.72     0.80
C16        39.85   41.65   33.81          70.62   -0.96    0.81           1.36  133.74           0.39    0.38    0.41    0.38            0.84    0.99    0.89           0.84     0.95
C17        50.08   46.45   33.27          73.84   14.69    7.14          16.33   25.95           0.20    0.40    0.41    0.31            0.71    0.91    0.84           0.81     0.97
C18        49.23   56.86   38.21          80.10  -14.60   10.97          18.27  143.11           0.35    0.20    0.36    0.25            0.63    0.69    0.92           0.79     0.85
C19        42.52   43.28   50.61          71.74    2.38  -18.64          18.80  277.24           0.40    0.37    0.20    0.37            0.72    0.89    0.57           0.88     1.00
C20        11.82    8.63    1.14          35.26   27.44   40.43          48.87   55.84           0.67    1.32    2.18    0.99            0.22    0.17    0.04           0.48     0.54
C21        21.00   19.44   10.54          51.19   11.20   15.13          18.83   53.48           0.55    0.79    0.97    0.69            0.47    0.46    0.40           0.79     0.87
C22        26.80   22.53   10.21          54.58   22.07   22.04          31.19   44.97           0.39    0.79    0.99    0.61            0.47    0.46    0.30           0.57     0.64
D1          4.02    4.20    2.35          24.33   -0.43    8.45           8.47   92.92           1.32    1.42    1.71    1.37            0.09    0.11    0.08           0.47     0.54
D2          3.95    4.20    1.44          24.31   -1.34   17.56          17.61   94.38           1.32    1.40    2.01    1.37            0.06    0.07    0.04           0.34     0.38
D3          4.01    4.29    0.86          24.61   -1.85   26.37          26.44   94.00           1.32    1.38    2.37    1.35            0.05    0.06    0.02           0.29     0.33
D4          4.02    4.28    0.56          24.57   -1.50   31.79          31.83   92.70           1.32    1.38    2.72    1.35            0.05    0.06    0.01           0.33     0.37
D5         17.26   18.11    9.21          49.63   -1.09   16.87          16.91   93.69           0.70    0.76    1.05    0.73            0.35    0.44    0.26           0.69     0.78
D6         16.96   17.99    5.05          49.48   -2.09   34.09          34.16   93.51           0.70    0.76    1.40    0.73            0.33    0.42    0.14           0.70     0.79
D7         16.95   18.08    2.41          49.59   -2.65   51.48          51.55   92.94           0.70    0.75    1.91    0.72            0.32    0.40    0.07           0.75     0.83
D8         16.85   17.98    1.18          49.47   -2.67   64.29          64.35   92.38           0.72    0.75    2.56    0.72            0.22    0.25    0.02           0.56     0.61
D9         45.89   48.07   23.80          74.87   -1.31   24.53          24.58   93.07           0.28    0.32    0.60    0.31            0.78    1.00    0.73           0.87     0.97
D10        45.79   48.16   13.89          74.92   -1.83   46.34          46.38   92.26           0.27    0.33    0.90    0.30            0.75    0.97    0.42           0.82     0.92
D11        45.22   48.21    7.05          74.96   -3.58   68.72          68.82   92.98           0.27    0.32    1.33    0.30            0.56    0.66    0.15           0.60     0.65
D12        45.33   48.19    3.90          74.95   -3.22   84.50          84.56   92.18           0.28    0.32    1.78    0.30            0.42    0.46    0.08           0.49     0.53
D13        46.75   55.09   55.30          79.09  -17.08  -11.07          20.35  212.96           0.46    0.20    0.17    0.28            0.45    0.49    0.45           0.49     0.54
D14        47.25   39.79   47.45          69.32   26.44  -19.22          32.69  323.99           0.22    0.50    0.22    0.38            0.62    0.77    0.69           0.78     0.92
D15        60.44   63.10   29.96          83.49   -0.95   28.87          28.88   91.87           0.16    0.21    0.49    0.19            0.66    0.74    0.68           0.71     0.77
D16        29.58   30.80   24.96          62.33   -0.43    0.81           1.11  111.70           0.51    0.52    0.55    0.51            0.57    0.72    0.61           0.84     0.93
D17        42.94   37.17   24.39          67.40   22.34   10.57          24.72   25.33           0.22    0.54    0.55    0.40            0.62    0.77    0.65           0.83     0.94
D18        42.79   52.05   30.73          77.31  -20.83   16.99          26.89  140.81           0.44    0.22    0.48    0.30            0.53    0.57    0.69           0.71     0.78
D19        33.04   32.89   46.97          64.06    4.78  -27.70          28.12  279.78           0.53    0.49    0.23    0.50            0.51    0.67    0.52           0.91     0.99
D20         2.86    2.81    1.03          19.27    2.69   14.46          14.71   79.49           1.42    1.62    2.16    1.53            0.06    0.05    0.03           0.34     0.37
D21        30.36   27.82    1.48          59.72   13.76   78.22          79.42   80.02           0.37    0.64    2.42    0.51            0.48    0.52    0.04           0.68     0.77
D22        38.86   42.74   51.52          71.37   -7.29  -20.29          21.57  250.22           0.51    0.33    0.20    0.39            0.62    0.77    0.35           0.83     0.96
E1          5.46    6.18    3.50          29.87   -5.71    9.35          10.96  121.40           1.24    1.21    1.52    1.22            0.12    0.14    0.12           0.49     0.56
E2          4.77    5.88    2.15          29.12  -10.86   18.49          21.45  120.43           1.33    1.19    1.82    1.24            0.09    0.12    0.06           0.40     0.44
E3          4.55    6.17    1.28          29.84  -16.93   29.20          33.75  120.10           1.42    1.12    2.21    1.22            0.06    0.09    0.02           0.38     0.41
E4          4.26    6.17    0.78          29.84  -20.83   36.72          42.22  119.56           1.52    1.09    2.66    1.23            0.05    0.07    0.01           0.37     0.42
E5         24.43   28.01   14.79          59.89  -10.75   18.10          21.06  120.67           0.62    0.52    0.83    0.56            0.44    0.60    0.37           0.76     0.87
E6         21.96   27.38    9.12          59.32  -19.30   33.88          38.99  119.67           0.70    0.50    1.11    0.57            0.41    0.59    0.25           0.73     0.82
E7         20.19   27.63    5.11          59.55  -28.73   51.14          58.66  119.33           0.81    0.46    1.51    0.57            0.29    0.46    0.13           0.63     0.71
E8         18.97   27.99    3.15          59.88  -36.29   63.53          73.16  119.74           0.92    0.43    1.91    0.57            0.13    0.16    0.05           0.39     0.43
E9         43.75   47.76   31.01          74.67   -6.60   12.01          13.71  118.77           0.35    0.31    0.46    0.32            0.78    0.97    0.89           0.79     0.90
E10        41.55   47.77   24.34          74.68  -13.19   23.21          26.70  119.61           0.39    0.29    0.59    0.32            0.61    0.76    0.55           0.71     0.80
E11        39.56   47.67   19.22          74.61  -19.04   33.19          38.26  119.84           0.44    0.27    0.73    0.33            0.57    0.69    0.49           0.66     0.72
E12        38.55   47.84   16.28          74.73  -22.71   40.00          46.00  119.58           0.46    0.26    0.83    0.33            0.40    0.41    0.28           0.62     0.67
E13        41.98   51.45   54.57          76.95  -21.67  -13.99          25.79  212.85           0.56    0.21    0.18    0.32            0.42    0.49    0.48           0.46     0.50
E14        42.11   32.94   44.19          64.11   34.03  -24.28          41.81  324.49           0.24    0.63    0.25    0.46            0.58    0.66    0.73           0.76     0.85
E15        59.30   61.88   24.17          82.85   -0.88   37.62          37.63   91.34           0.16    0.22    0.60    0.20            0.67    0.76    0.61           0.70     0.77
E16        21.42   22.33   18.28          54.37   -0.52    0.33           0.81  122.94           0.64    0.66    0.70    0.65            0.43    0.50    0.45           0.78     0.84
E17        37.20   30.06   17.79          61.70   29.09   14.06          32.31   25.79           0.24    0.68    0.70    0.48            0.50    0.59    0.52           0.78     0.87
E18        37.09   47.48   24.61          74.49  -26.42   22.41          34.65  139.70           0.53    0.25    0.60    0.34            0.44    0.49    0.53           0.64     0.71
E19        25.47   24.76   43.49          56.84    6.84  -35.96          36.61  280.76           0.67    0.62    0.26    0.63            0.43    0.54    0.48           0.84     0.93
E20         6.91    8.26    1.41          34.51  -10.03   35.64          37.02  105.72           1.16    1.04    2.18    1.08            0.14    0.18    0.05           0.48     0.55
E21        23.95   28.59    6.15          60.41  -15.09   47.59          49.93  107.59           0.63    0.50    1.36    0.54            0.55    0.66    0.20           0.73     0.81
E22         8.44   18.01   12.88          49.51  -60.38    5.27          60.61  175.01           1.93    0.52    0.93    0.83            0.11    0.16    0.27           0.49     0.55
F1          3.39    4.19    3.11          24.29   -9.88    2.45          10.19  166.06           1.51    1.35    1.56    1.40            0.08    0.10    0.10           0.48     0.53
F2          2.84    4.28    2.65          24.58  -20.44    6.39          21.41  162.64           1.73    1.27    1.68    1.41            0.05    0.08    0.07           0.41     0.46
F3          2.36    4.27    2.25          24.56  -29.65    9.70          31.20  161.88           1.98    1.21    1.80    1.43            0.03    0.06    0.04           0.37     0.42
F4          1.60    4.31    1.59          24.66  -47.84   16.46          50.59  161.02           2.75    1.11    2.10    1.45            0.03    0.07    0.03           0.33     0.38
F5         11.08   14.06   10.02          44.31  -16.85    4.94          17.56  163.66           1.05    0.79    1.00    0.88            0.16    0.24    0.19           0.56     0.62
F6          9.19   14.35    8.36          44.72  -33.34   11.45          35.25  161.04           1.31    0.71    1.13    0.89            0.15    0.27    0.17           0.62     0.68
F7          7.15   13.85    6.83          44.02  -48.62   16.33          51.29  161.44           1.67    0.67    1.27    0.92            0.14    0.27    0.17           0.58     0.64
F8          6.00   14.27    5.88          44.61  -63.17   21.62          66.76  161.11           2.12    0.60    1.39    0.92            0.06    0.10    0.13           0.42     0.48
F9         28.68   33.25   24.66          64.36  -12.60    4.85          13.51  158.90           0.59    0.44    0.57    0.49            0.53    0.70    0.69           0.80     0.90
F10        25.88   33.32   22.52          64.42  -24.11    8.93          25.71  159.66           0.72    0.40    0.62    0.50            0.48    0.66    0.61           0.76     0.84
F11        23.36   33.60   20.63          64.64  -35.89   13.04          38.19  160.02           0.86    0.36    0.68    0.51            0.36    0.51    0.49           0.62     0.69
F12        21.22   33.53   19.06          64.59  -45.49   16.24          48.30  160.35           1.00    0.33    0.73    0.52            0.21    0.23    0.34           0.56     0.63
F13        37.99   48.21   53.81          74.96  -25.51  -16.61          30.44  213.07           0.65    0.23    0.19    0.35            0.35    0.41    0.41           0.41     0.45
F14        37.89   27.64   41.35          59.56   40.53  -28.58          49.60  324.81           0.26    0.76    0.27    0.52            0.42    0.45    0.60           0.60     0.67
F15        58.27   60.64   19.03          82.18   -0.49   46.65          46.65   90.60           0.16    0.23    0.74    0.20            0.66    0.75    0.47           0.60     0.64
F16        15.20   15.89   12.83          46.83   -0.73    0.79           1.16  129.46           0.79    0.81    0.86    0.80            0.27    0.31    0.29           0.64     0.69
F17        32.31   24.36   12.45          56.45   35.03   18.43          39.58   27.75           0.26    0.83    0.87    0.56            0.35    0.41    0.29           0.62     0.69
