targets/wolf_faust/transmissive/A100610.it8
IT8.7/1
ORIGINATOR "Wolf Faust"
DESCRIPTOR "Agfachrome RSX, RSX II and CT Precisa, Type 3, L* a* b* (light D50, viewing angle 2)"
MANUFACTURER "Wolf Faust - http://www.coloraid.de"
CREATED "June 13, 2010"
PROD_DATE "2006:10"
DIFFUSE_GEOMETRY "opal"
SERIAL "A100610 Batch Average Data"
MATERIAL "Agfachrome RSX II"
KEYWORD "MEAN_DE" # Mean Delta E of samples compared to batch average
NUMBER_OF_FIELDS 18
BEGIN_DATA_FORMAT
SAMPLE_ID  XYZ_X   XYZ_Y   XYZ_Z          LAB_L   LAB_A   LAB_B          LAB_C   LAB_H          D_RED  D_GREEN  D_BLUE  D_VIS          STDEV_X STDEV_Y STDEV_Z        MEAN_DE  STDEV_DE
END_DATA_FORMAT
NUMBER_OF_SETS 288
BEGIN_DATA
A1          1.92    1.69    1.14          13.78    7.06    3.36           7.83   25.47           1.55    1.92    2.02    1.75            0.07    0.06    0.04           0.51     0.56
A2          2.40    1.68    1.00          13.74   17.78    5.38          18.57   16.84           1.36    2.11    2.06    1.71            0.07    0.05    0.03           0.47     0.52 
A3          2.81    1.62    0.79          13.37   27.25    8.20          28.46   16.75           1.21    2.39    2.14    1.69            0.09    0.05    0.03           0.54     0.60
A4          3.69    1.66    0.60          13.61   40.81   12.05          42.55   16.45           1.01    3.29    2.17    1.62            0.10    0.05    0.02           0.43     0.49 
A5          8.35    7.23    5.14          32.32   12.90    4.05          13.53   17.47           0.92    1.28    1.29    1.11            0.20    0.17    0.10           0.66     0.72
A6         10.39    7.55    4.60          33.02   26.62    8.13          27.84   16.99           0.74    1.39    1.33    1.06            0.20    0.14    0.06           0.73     0.80 
A7         12.53    7.60    3.88          33.13   41.51   12.49          43.35   16.74           0.58    1.60    1.39    1.02            0.26    0.15    0.06           0.75     0.84
A8         15.53    8.12    3.29          34.23   55.54   18.28          58.47   18.21           0.44    1.86    1.44    0.96            0.17    0.12    0.05           0.45     0.54 
A9         25.90   25.22   19.36          57.29    6.72    3.01           7.39   23.99           0.51    0.64    0.67    0.59            0.48    0.38    0.30           0.90     1.02
A10        28.16   25.50   18.40          57.55   14.70    5.54          15.72   20.65           0.43    0.68    0.69    0.57            0.62    0.53    0.35           0.85     0.97
A11        30.46   25.49   17.37          57.54   23.51    7.83          24.79   18.42           0.35    0.73    0.71    0.56            0.59    0.52    0.41           0.78     0.90
A12        33.60   25.77   16.17          57.81   33.68   11.11          35.47   18.25           0.26    0.79    0.74    0.54            0.35    0.37    0.32           0.72     0.79 
A13        61.90   65.96   56.83          84.98   -3.93   -2.52           4.68  212.75           0.22    0.16    0.16    0.19            0.49    0.46    0.23           0.51     0.56
A14        66.75   67.74   56.51          85.88    3.19   -0.64           3.26  349.09           0.15    0.18    0.16    0.17            0.47    0.58    0.29           0.44     0.53 
A15        66.77   68.64   52.39          86.32    1.31    4.52           4.72   73.68           0.15    0.17    0.20    0.16            0.73    0.84    0.54           0.46     0.58
A16        64.69   67.44   53.62          85.73   -0.76    2.16           2.30  109.36           0.18    0.17    0.19    0.17            0.35    0.31    0.42           0.40     0.48
A17        65.65   66.54   54.58          85.27    3.36    0.35           3.39   51.15           0.15    0.18    0.18    0.17            0.46    0.48    0.42           0.37     0.45
A18        59.80   64.39   51.98          84.17   -5.36    1.26           5.51  166.81           0.24    0.17    0.21    0.20            0.47    0.37    0.31           0.44     0.49 
A19        60.81   62.99   55.59          83.44    0.16   -3.88           3.89  272.32           0.21    0.20    0.17    0.20            0.50    0.53    0.20           0.43     0.51
A20         5.53    2.61    1.54          18.41   44.46    6.28          44.90    8.04           0.86    2.74    1.75    1.44            0.17    0.08    0.05           0.58     0.66 
A21        23.93   16.48   12.15          47.60   40.08    4.05          40.28    5.77           0.37    1.08    0.85    0.72            0.25    0.20    0.17           0.40     0.47
A22        47.93   44.10   29.06          72.30   15.50   11.00          19.01   35.36           0.20    0.42    0.48    0.33            0.49    0.59    0.43           0.62     0.69
B1          2.72    2.49    1.38          17.86    6.31    7.27           9.63   49.08           1.41    1.72    1.95    1.58            0.10    0.09    0.06           0.54     0.59
B2          3.35    2.57    0.89          18.22   15.68   14.78          21.54   43.31           1.24    1.83    2.18    1.53            0.11    0.09    0.03           0.52     0.58
B3          3.75    2.50    0.59          17.90   23.32   19.74          30.55   40.25           1.13    1.98    2.39    1.52            0.12    0.08    0.02           0.57     0.64
B4          4.43    2.59    0.24          18.30   31.25   27.12          41.37   40.95           1.01    2.15    2.95    1.47            0.12    0.07    0.01           0.66     0.73
B5         10.84    9.71    5.64          37.32   11.52   10.15          15.36   41.39           0.82    1.12    1.26    0.99            0.31    0.25    0.14           0.68     0.76
B6         13.10   10.10    3.69          38.02   24.17   22.17          32.80   42.53           0.65    1.21    1.48    0.94            0.24    0.15    0.06           0.67     0.74
B7         15.13   10.03    2.20          37.90   37.37   33.15          49.96   41.58           0.52    1.36    1.74    0.91            0.27    0.17    0.04           0.66     0.74
B8         18.86   10.82    1.33          39.27   52.00   44.74          68.59   40.71           0.37    1.54    2.00    0.85            0.19    0.15    0.03           0.35     0.44
B9         30.70   30.48   22.28          62.06    4.93    5.33           7.28   47.18           0.45    0.55    0.60    0.51            0.56    0.51    0.40           0.86     0.98
B10        33.04   31.10   19.84          62.59   11.15   11.13          15.77   44.94           0.37    0.57    0.66    0.49            0.61    0.54    0.44           0.86     0.96
B11        34.48   30.69   17.64          62.24   17.63   15.33          23.37   40.99           0.32    0.61    0.72    0.48            0.66    0.64    0.51           0.77     0.91
B12        37.85   31.34   14.85          62.79   26.47   22.95          35.04   40.92           0.23    0.65    0.80    0.46            0.52    0.59    0.30           0.74     0.87
B13        56.02   60.95   54.31          82.35   -6.71   -4.40           8.03  213.30           0.29    0.19    0.18    0.22            0.74    0.84    0.75           0.73     0.83
B14        56.90   54.92   50.81          78.99    9.92   -6.36          11.78  327.35           0.19    0.29    0.21    0.25            0.59    0.71    0.37           0.58     0.70
B15        61.23   63.65   42.95          83.78   -0.33   11.17          11.18   91.67           0.18    0.20    0.30    0.19            0.73    0.88    0.69           0.66     0.84
B16        48.50   50.55   40.38          76.40   -0.66    1.71           1.87  109.27           0.30    0.30    0.32    0.30            0.86    0.93    0.85           0.77     0.89
B17        54.73   53.42   39.99          78.12    8.29    5.19           9.79   32.03           0.19    0.30    0.33    0.26            0.61    0.71    0.64           0.66     0.75
B18        53.76   59.24   43.43          81.42   -8.41    6.50          10.64  142.28           0.29    0.20    0.30    0.23            0.63    0.70    0.51           0.56     0.63
B19        50.05   51.38   50.85          76.91    1.36  -10.01          10.10  277.72           0.30    0.29    0.21    0.29            0.67    0.71    0.30           0.64     0.71
B20         4.09    2.50    0.86          17.91   28.16   14.84          31.83   27.79           1.07    2.10    2.14    1.51            0.10    0.06    0.02           0.58     0.65
B21        14.89    9.81    3.56          37.49   37.70   22.10          43.70   30.37           0.53    1.38    1.47    0.92            0.22    0.15    0.06           0.55     0.62
B22        30.27   25.16   14.46          57.23   24.19   14.33          28.12   30.64           0.34    0.74    0.80    0.56            0.47    0.43    0.29           0.57     0.64
C1          5.41    5.31    2.90          27.61    3.40    9.67          10.26   70.65           1.16    1.34    1.60    1.26            0.15    0.14    0.07           0.56     0.63
C2          5.68    5.22    1.76          27.34    7.67   19.25          20.73   68.29           1.09    1.38    1.88    1.25            0.19    0.17    0.06           0.57     0.64
C3          6.22    5.39    0.97          27.81   11.69   30.11          32.30   68.79           1.02    1.40    2.27    1.22            0.19    0.17    0.04           0.66     0.75
C4          6.46    5.24    0.47          27.39   16.03   38.31          41.53   67.29           0.98    1.45    2.80    1.22            0.17    0.13    0.01           0.67     0.76
C5         21.05   20.23   10.34          52.10    7.53   17.34          18.91   66.53           0.57    0.75    0.99    0.67            0.47    0.45    0.19           0.75     0.84
C6         23.27   20.77    5.76          52.70   15.20   36.12          39.19   67.18           0.47    0.79    1.31    0.64            0.45    0.37    0.11           0.67     0.74
C7         25.05   20.70    2.73          52.62   23.28   54.12          58.92   66.72           0.40    0.84    1.77    0.63            0.43    0.37    0.05           0.65     0.72
C8         27.77   21.04    0.90          52.99   32.82   74.61          81.51   66.25           0.32    0.90    2.66    0.61            0.31    0.26    0.01           0.47     0.53
C9         36.68   36.82   25.21          67.14    3.90    8.65           9.50   65.67           0.37    0.46    0.55    0.43            0.60    0.56    0.54           0.82     0.92
C10        37.79   37.03   21.08          67.30    6.85   16.73          18.09   67.73           0.33    0.47    0.64    0.42            0.63    0.59    0.49           0.87     0.97
C11        39.45   37.25   17.44          67.46   11.42   24.77          27.27   65.25           0.28    0.49    0.74    0.41            0.67    0.69    0.51           0.81     0.95
C12        42.14   37.48   11.33          67.63   18.93   41.01          45.18   65.22           0.21    0.52    0.97    0.39            0.50    0.62    0.32           0.70     0.89
C13        49.90   56.80   53.77          80.07  -12.64   -7.76          14.84  211.53           0.38    0.20    0.19    0.26            0.69    0.76    0.72           0.81     0.90
C14        50.71   45.56   47.65          73.25   18.87  -12.65          22.72  326.17           0.21    0.41    0.23    0.33            0.62    0.70    0.77           0.61     0.75
C15        59.50   62.22   34.80          83.03   -1.17   20.76          20.79   93.21           0.18    0.21    0.41    0.20            0.67    0.81    0.63           0.69     0.91
C16        36.68   38.13   30.75          68.12   -0.29    1.11           1.21  102.39           0.41    0.42    0.45    0.42            0.76    0.83    0.60           0.81     0.93
C17        47.26   43.27   30.22          71.73   16.05    8.18          18.02   27.02           0.21    0.43    0.46    0.34            0.65    0.77    0.59           0.75     0.89
C18        46.50   54.22   35.51          78.59  -15.64   12.09          19.77  142.27           0.38    0.22    0.40    0.28            0.62    0.65    0.56           0.65     0.72
C19        39.15   39.54   47.24          69.14    3.27  -19.28          19.55  279.62           0.43    0.41    0.23    0.41            0.65    0.68    0.31           0.70     0.77
C20        10.46    7.63    1.00          33.19   26.40   38.92          47.03   55.84           0.72    1.38    2.25    1.04            0.21    0.16    0.01           0.61     0.70
C21        19.01   17.60    9.55          49.00   10.80   14.61          18.17   53.50           0.59    0.84    1.02    0.73            0.39    0.35    0.15           0.64     0.73
C22        24.40   20.22    9.30          52.08   22.81   20.77          30.85   42.32           0.42    0.84    1.03    0.65            0.42    0.38    0.20           0.60     0.67
D1          3.39    3.61    2.08          22.32   -1.40    7.43           7.57  100.61           1.40    1.48    1.77    1.44            0.10    0.11    0.05           0.62     0.70
D2          3.30    3.52    1.25          22.00   -1.45   15.98          16.05   95.19           1.40    1.48    2.07    1.45            0.13    0.14    0.05           0.67     0.73
D3          3.34    3.58    0.70          22.23   -1.75   25.17          25.23   93.99           1.40    1.46    2.49    1.43            0.11    0.12    0.03           0.59     0.67
D4          3.42    3.72    0.49          22.73   -2.74   29.90          30.03   95.23           1.41    1.43    2.80    1.41            0.10    0.11    0.01           0.66     0.75
D5         15.28   16.14    8.19          47.15   -1.65   16.28          16.37   95.79           0.76    0.81    1.11    0.79            0.42    0.43    0.18           0.76     0.86
D6         15.33   16.24    4.44          47.29   -1.91   33.59          33.65   93.26           0.74    0.80    1.47    0.78            0.35    0.34    0.07           0.71     0.79
D7         15.07   16.07    2.18          47.07   -2.56   49.20          49.27   92.98           0.75    0.80    1.96    0.78            0.40    0.39    0.05           0.81     0.90
D8         14.67   15.90    1.05          46.84   -3.98   61.66          61.79   93.70           0.79    0.79    2.64    0.78            0.32    0.33    0.02           0.75     0.84
D9         42.90   44.79   22.12          72.75   -0.83   24.07          24.09   91.97           0.31    0.36    0.63    0.34            0.60    0.59    0.55           0.94     1.05
D10        42.77   44.90   12.62          72.83   -1.55   46.22          46.24   91.92           0.29    0.36    0.95    0.33            0.57    0.57    0.32           0.87     0.99
D11        42.48   45.10    6.35          72.96   -3.00   68.31          68.38   92.51           0.30    0.35    1.39    0.33            0.62    0.56    0.09           0.94     1.04
D12        42.72   46.08    3.97          73.59   -5.02   81.73          81.88   93.51           0.31    0.33    1.76    0.32            0.52    0.46    0.08           0.85     0.93
D13        44.45   52.83   53.07          77.77  -17.96  -10.96          21.04  211.38           0.49    0.21    0.19    0.30            0.63    0.71    0.73           0.81     0.88
D14        45.00   37.52   44.28          67.67   27.19  -18.27          32.76  326.11           0.23    0.54    0.25    0.40            0.49    0.53    0.62           0.57     0.70
D15        58.12   60.95   28.16          82.35   -1.56   29.81          29.86   92.99           0.18    0.22    0.52    0.21            0.62    0.76    0.50           0.68     0.86
D16        26.87   28.01   22.84          59.90   -0.56    0.53           0.97  136.77           0.55    0.56    0.59    0.55            0.64    0.63    0.60           0.90     1.00
D17        40.72   34.78   22.23          65.58   23.49   11.50          26.16   26.07           0.23    0.58    0.60    0.43            0.47    0.55    0.52           0.74     0.86
D18        39.77   49.06   28.43          75.49  -22.18   17.53          28.28  141.68           0.48    0.24    0.52    0.32            0.61    0.53    0.44           0.79     0.86
D19        30.28   30.10   43.84          61.74    4.78  -27.95          28.36  279.70           0.57    0.53    0.26    0.54            0.65    0.70    0.47           0.75     0.87
D20         2.35    2.39    0.90          17.40    1.09   13.29          13.34   85.34           1.52    1.68    2.22    1.61            0.05    0.05    0.01           0.52     0.56
D21        27.23   24.88    1.28          56.95   13.59   75.86          77.07   79.84           0.42    0.69    2.52    0.56            0.35    0.31    0.01           0.54     0.66
D22        35.63   38.85   48.71          68.64   -6.04  -21.84          22.66  254.53           0.55    0.38    0.22    0.43            0.47    0.53    0.25           0.56     0.63
E1          4.69    5.46    3.02          28.00   -7.13    9.46          11.85  127.02           1.32    1.25    1.60    1.27            0.17    0.20    0.09           0.70     0.79
E2          4.14    5.16    1.98          27.18  -11.03   16.78          20.08  123.32           1.40    1.24    1.86    1.30            0.16    0.18    0.05           0.68     0.76
E3          3.78    5.23    1.12          27.37  -17.04   27.14          32.05  122.13           1.51    1.19    2.28    1.30            0.14    0.18    0.04           0.66     0.74
E4          3.60    5.32    0.68          27.63  -21.02   34.80          40.66  121.13           1.61    1.15    2.75    1.29            0.11    0.15    0.01           0.62     0.71
E5         21.58   24.73   13.28          56.81  -10.27   16.77          19.67  121.51           0.67    0.58    0.88    0.61            0.62    0.66    0.41           0.91     1.02
E6         19.89   25.05    8.26          57.12  -19.76   33.21          38.65  120.75           0.75    0.54    1.17    0.61            0.51    0.57    0.17           0.82     0.92
E7         17.84   24.95    4.54          57.03  -29.89   49.85          58.12  120.95           0.88    0.50    1.58    0.62            0.41    0.47    0.09           0.69     0.76
E8         17.07   25.79    2.94          57.84  -37.52   61.54          72.07  121.37           0.98    0.46    1.96    0.61            0.26    0.27    0.07           0.66     0.73
E9         40.46   44.31   29.01          72.43   -6.87   11.33          13.27  121.26           0.39    0.34    0.49    0.36            0.71    0.67    0.65           1.01     1.11
E10        38.66   44.66   22.95          72.67  -13.51   22.33          26.11  121.20           0.43    0.31    0.62    0.35            0.74    0.80    0.48           1.09     1.21
E11        36.79   44.59   18.16          72.62  -19.34   32.05          37.44  121.12           0.47    0.30    0.75    0.36            0.62    0.68    0.38           1.06     1.18
E12        35.82   45.14   15.15          72.98  -24.12   39.75          46.50  121.26           0.50    0.28    0.86    0.35            0.62    0.61    0.30           0.96     1.05
E13        40.08   49.46   52.44          75.73  -22.24  -13.78          26.17  211.78           0.58    0.23    0.20    0.34            0.63    0.69    0.65           0.76     0.83
E14        40.22   31.25   41.20          62.72   34.30  -22.95          41.27  326.22           0.25    0.66    0.28    0.48            0.51    0.52    0.63           0.61     0.73
E15        57.09   59.86   22.76          81.76   -1.55   38.38          38.42   92.32           0.18    0.23    0.64    0.21            0.57    0.70    0.44           0.71     0.88
E16        19.50   20.30   16.80          52.17   -0.34   -0.12           0.72  187.68           0.68    0.71    0.73    0.69            0.56    0.55    0.51           0.90     0.98
E17        35.17   28.00   16.08          59.88   30.16   14.90          33.64   26.28           0.25    0.72    0.75    0.51            0.48    0.51    0.35           0.73     0.81
E18        34.76   45.07   23.14          72.94  -27.51   22.44          35.50  140.80           0.57    0.26    0.63    0.37            0.73    0.72    0.52           0.81     0.88
E19        23.32   22.59   40.45          54.64    7.03  -35.89          36.58  281.08           0.71    0.66    0.29    0.67            0.54    0.56    0.45           0.74     0.84
E20         5.77    6.93    1.21          31.65   -9.83   33.17          34.60  106.51           1.24    1.12    2.25    1.16            0.14    0.15    0.02           0.67     0.74
E21        21.21   25.57    5.45          57.63  -15.56   46.09          48.65  108.65           0.68    0.54    1.43    0.59            0.36    0.38    0.08           0.69     0.76
E22         7.40   16.24   12.05          47.28  -60.27    3.80          60.39  176.39           2.04    0.56    0.96    0.87            0.12    0.21    0.22           0.47     0.55
F1          2.89    3.64    2.64          22.45  -10.51    2.82          10.88  164.98           1.59    1.40    1.65    1.47            0.10    0.12    0.06           0.64     0.72
F2          2.41    3.69    2.23          22.61  -20.23    6.59          21.28  161.97           1.80    1.33    1.77    1.48            0.09    0.13    0.06           0.61     0.69
F3          1.94    3.58    1.93          22.21  -28.84    8.70          30.13  163.21           2.08    1.29    1.88    1.51            0.09    0.15    0.08           0.61     0.70
F4          1.32    3.65    1.40          22.49  -46.30   15.02          48.68  162.03           2.85    1.18    2.17    1.53            0.04    0.10    0.03           0.51     0.59
F5          9.82   12.54    8.92          42.05  -16.78    4.81          17.46  164.02           1.10    0.84    1.06    0.93            0.31    0.35    0.27           0.74     0.84
F6          7.76   12.45    7.52          41.92  -33.76    9.88          35.18  163.69           1.40    0.77    1.18    0.95            0.21    0.30    0.16           0.65     0.75
F7          6.34   12.66    6.18          42.24  -49.24   16.10          51.81  161.90           1.76    0.70    1.32    0.96            0.19    0.31    0.16           0.63     0.72
F8          5.34   13.02    5.31          42.79  -62.81   21.21          66.30  161.34           2.19    0.64    1.45    0.96            0.08    0.15    0.11           0.42     0.49
F9         26.02   30.23   22.84          61.85  -12.45    3.89          13.07  162.68           0.64    0.48    0.60    0.53            0.68    0.67    0.58           1.04     1.13
F10        23.14   30.35   20.85          61.95  -25.28    7.97          26.52  162.51           0.78    0.43    0.66    0.54            0.60    0.64    0.50           1.02     1.12
F11        20.77   30.42   19.13          62.01  -36.52   11.63          38.33  162.34           0.93    0.40    0.71    0.55            0.42    0.54    0.42           0.92     1.01
F12        19.14   31.08   17.79          62.57  -46.99   15.54          49.50  161.70           1.07    0.35    0.76    0.55            0.32    0.39    0.33           0.69     0.75
F13        36.19   46.30   51.82          73.74  -26.14  -16.54          30.94  212.32           0.68    0.24    0.21    0.37            0.58    0.64    0.59           0.69     0.76
F14        36.21   26.26   38.39          58.28   40.55  -26.89          48.66  326.45           0.27    0.79    0.30    0.54            0.39    0.39    0.50           0.52     0.64
F15        56.12   58.67   18.09          81.11   -1.13   46.85          46.87   91.38           0.17    0.24    0.76    0.22            0.56    0.67    0.31           0.67     0.79
F16        13.67   14.34   11.88          44.71   -0.95   -0.14           1.09  189.49           0.84    0.86    0.90    0.85            0.39    0.39    0.31           0.81     0.89
F17        30.81   22.95   11.44          55.02   35.72   18.95          40.44   27.95           0.27    0.87    0.91    0.58            0.29    0.30    0.24           0.60     0.70
