targets/wolf_faust/transmissive/A101211.it8
IT8.7/1
ORIGINATOR "Wolf Faust"
DESCRIPTOR "Agfachrome RSX, RSX II and CT Precisa, Type 3, L* a* b* (light D50, viewing angle 2)"
MANUFACTURER "Wolf Faust - http://www.coloraid.de"
CREATED "December 12, 2010"
PROD_DATE "2007:02"
DIFFUSE_GEOMETRY "opal"
SERIAL "A101211 Batch Average Data"
MATERIAL "Agfachrome RSX II"
KEYWORD "MEAN_DE" # Mean Delta E of samples compared to batch average
NUMBER_OF_FIELDS 18
BEGIN_DATA_FORMAT
SAMPLE_ID  XYZ_X   XYZ_Y   XYZ_Z          LAB_L   LAB_A   LAB_B          LAB_C   LAB_H          D_RED  D_GREEN  D_BLUE  D_VIS          STDEV_X STDEV_Y STDEV_Z        MEAN_DE  STDEV_DE
END_DATA_FORMAT
NUMBER_OF_SETS 288
BEGIN_DATA
A1          2.32    2.01    1.34          15.53    8.43    3.69           9.20   23.65           1.46    1.86    1.94    1.67            0.05    0.04    0.04           0.38     0.44
A2          2.83    1.94    1.03          15.18   19.90    7.43          21.25   20.46           1.27    2.07    2.05    1.64            0.07    0.04    0.03           0.39     0.45 
A3          3.41    1.93    0.86          15.13   29.86    9.96          31.48   18.44           1.12    2.34    2.09    1.61            0.09    0.05    0.02           0.45     0.51
A4          4.27    1.90    0.68          14.98   43.35   13.08          45.28   16.79           0.94    3.26    2.11    1.56            0.11    0.05    0.02           0.43     0.51 
A5          9.89    8.44    5.97          34.89   14.66    4.40          15.31   16.68           0.84    1.21    1.22    1.04            0.20    0.15    0.07           0.56     0.64
A6         11.77    8.42    5.06          34.84   28.90    8.78          30.21   16.90           0.68    1.36    1.28    1.01            0.24    0.16    0.08           0.60     0.68 
A7         13.87    8.40    4.30          34.81   42.99   12.88          44.88   16.68           0.54    1.56    1.34    0.98            0.27    0.15    0.07           0.52     0.58
A8         16.23    8.52    3.72          35.04   56.08   16.84          58.56   16.72           0.42    1.83    1.38    0.94            0.08    0.06    0.04           0.23     0.26 
A9         28.84   27.91   21.51          59.80    7.62    2.95           8.19   20.93           0.46    0.60    0.62    0.54            0.49    0.43    0.32           0.77     0.88
A10        30.82   27.71   20.44          59.62   15.91    4.79          16.62   16.71           0.39    0.64    0.64    0.53            0.48    0.41    0.26           0.79     0.89
A11        33.16   28.04   19.50          59.92   23.05    7.25          24.17   17.45           0.32    0.68    0.66    0.52            0.45    0.40    0.25           0.71     0.78
A12        36.03   28.16   18.52          60.04   32.39    9.55          33.77   16.42           0.24    0.73    0.67    0.50            0.21    0.22    0.21           0.47     0.53 
A13        64.29   67.82   57.89          85.91   -2.47   -1.99           3.17  218.89           0.20    0.16    0.15    0.17            0.31    0.25    0.21           0.30     0.34
A14        69.10   70.08   57.91          87.04    3.33   -0.09           3.33  260.34           0.13    0.16    0.15    0.15            0.12    0.12    0.15           0.13     0.16 
A15        68.93   70.39   55.57          87.19    2.29    2.61           3.48   48.35           0.13    0.16    0.17    0.15            0.19    0.17    0.45           0.36     0.42
A16        66.30   68.91   56.27          86.46   -0.31    0.62           0.74  121.47           0.17    0.16    0.17    0.16            0.27    0.26    0.34           0.31     0.35
A17        68.69   69.63   57.17          86.81    3.39    0.30           3.41    5.06           0.13    0.16    0.16    0.15            0.17    0.18    0.18           0.18     0.21
A18        63.08   67.01   55.62          85.51   -3.50   -0.33           3.53  185.12           0.21    0.16    0.17    0.18            0.31    0.25    0.43           0.43     0.48 
A19        64.20   66.15   57.17          85.07    0.95   -2.70           2.87  289.51           0.18    0.18    0.16    0.18            0.24    0.22    0.12           0.21     0.25
A20         6.43    3.03    1.78          20.16   46.93    6.71          47.41    8.13           0.79    2.67    1.68    1.37            0.11    0.05    0.04           0.42     0.45 
A21        26.48   18.45   14.46          50.04   40.35    1.95          40.40    2.76           0.33    1.02    0.77    0.67            0.24    0.19    0.16           0.43     0.48
A22        51.76   48.36   32.96          75.05   13.91    9.70          16.97   34.87           0.18    0.37    0.42    0.30            0.43    0.51    0.48           0.56     0.66
B1          3.29    2.92    1.70          19.73    8.21    6.81          10.67   39.67           1.32    1.67    1.84    1.51            0.08    0.07    0.05           0.41     0.46
B2          3.94    2.97    1.04          19.93   17.37   15.44          23.25   41.64           1.16    1.78    2.10    1.47            0.09    0.06    0.03           0.42     0.48
B3          4.53    2.95    0.63          19.82   26.04   22.26          34.26   40.52           1.04    1.93    2.36    1.44            0.10    0.06    0.01           0.39     0.46
B4          5.18    3.00    0.28          20.06   33.21   29.23          44.24   41.35           0.94    2.09    2.83    1.41            0.14    0.08    0.01           0.54     0.67
B5         12.54   11.11    6.18          39.76   12.99   11.82          17.56   42.33           0.75    1.07    1.22    0.92            0.24    0.18    0.09           0.58     0.68
B6         14.66   11.24    4.18          39.98   25.56   22.54          34.08   41.41           0.60    1.17    1.42    0.89            0.27    0.17    0.07           0.57     0.65
B7         16.90   11.22    2.52          39.94   38.69   33.93          51.47   41.25           0.48    1.31    1.68    0.86            0.27    0.16    0.06           0.44     0.50
B8         19.27   11.02    1.30          39.61   52.65   45.78          69.77   41.01           0.36    1.53    2.01    0.84            0.11    0.08    0.03           0.22     0.26
B9         34.44   34.09   24.90          65.03    5.47    5.57           7.82   45.33           0.40    0.50    0.55    0.46            0.58    0.52    0.38           0.79     0.92
B10        36.32   34.18   22.41          65.10   11.51   10.32          15.46   41.84           0.33    0.53    0.60    0.45            0.50    0.48    0.34           0.82     0.93
B11        37.52   33.65   20.07          64.68   17.29   14.27          22.42   39.52           0.29    0.56    0.65    0.45            0.51    0.48    0.27           0.74     0.80
B12        40.45   34.13   17.10          65.06   24.89   21.41          32.83   40.70           0.21    0.60    0.73    0.43            0.32    0.33    0.24           0.49     0.55
B13        58.74   63.26   56.26          83.58   -5.38   -4.33           6.91  218.78           0.26    0.18    0.17    0.21            0.53    0.47    0.23           0.46     0.52
B14        59.78   57.90   53.70          80.68    9.62   -6.62          11.68  325.50           0.18    0.27    0.18    0.23            0.50    0.53    0.29           0.45     0.51
B15        64.05   66.04   45.92          85.02    0.85    9.67           9.71   84.95           0.16    0.18    0.27    0.18            0.41    0.37    0.50           0.66     0.77
B16        52.61   54.62   44.19          78.82   -0.14    1.07           1.19  113.41           0.26    0.26    0.28    0.26            0.80    0.86    0.46           0.84     0.95
B17        58.31   57.24   43.81          80.31    7.68    4.11           8.73   28.12           0.17    0.27    0.28    0.23            0.64    0.70    0.50           0.69     0.78
B18        57.50   62.50   46.86          83.18   -6.63    5.38           8.56  141.04           0.25    0.18    0.26    0.21            0.52    0.45    0.60           0.68     0.76
B19        54.24   55.65   53.81          79.41    1.49   -8.93           9.06  279.49           0.27    0.25    0.18    0.26            0.51    0.51    0.27           0.47     0.53
B20         4.97    3.00    0.90          20.03   30.72   17.72          35.46   29.98           0.97    2.03    2.12    1.42            0.12    0.07    0.04           0.41     0.45
B21        16.90   11.19    4.12          39.89   38.90   22.71          45.05   30.28           0.48    1.31    1.40    0.87            0.26    0.17    0.09           0.47     0.51
B22        33.54   28.33   16.89          60.18   23.25   13.48          26.88   30.09           0.30    0.68    0.73    0.51            0.46    0.40    0.27           0.62     0.68
C1          6.37    6.21    3.39          29.93    4.16   10.15          10.98   67.74           1.08    1.28    1.52    1.19            0.13    0.11    0.06           0.48     0.56
C2          6.70    6.13    2.08          29.74    8.40   20.22          21.90   67.44           1.02    1.31    1.80    1.18            0.11    0.09    0.04           0.41     0.47
C3          7.38    6.23    1.03          30.00   14.03   32.90          35.77   66.90           0.94    1.35    2.24    1.16            0.14    0.10    0.02           0.40     0.48
C4          7.63    6.11    0.56          29.68   17.72   40.66          44.36   66.45           0.91    1.40    2.69    1.15            0.19    0.14    0.01           0.62     0.73
C5         23.81   22.80   11.44          54.87    8.22   18.67          20.40   66.27           0.51    0.70    0.94    0.62            0.47    0.39    0.15           0.81     0.93
C6         25.55   22.78    6.46          54.84   15.77   36.61          39.86   66.70           0.43    0.75    1.25    0.60            0.35    0.24    0.07           0.69     0.75
C7         27.38   22.65    3.05          54.71   23.85   55.27          60.19   66.66           0.36    0.80    1.71    0.59            0.30    0.24    0.05           0.49     0.54
C8         29.96   22.88    1.03          54.95   32.83   75.91          82.71   66.61           0.29    0.85    2.56    0.57            0.27    0.22    0.01           0.43     0.49
C9         40.18   40.52   27.52          69.83    3.48    9.31           9.94   69.50           0.34    0.41    0.51    0.38            0.67    0.66    0.40           0.84     0.95
C10        41.48   40.75   23.91          70.00    6.76   15.93          17.30   67.01           0.30    0.43    0.58    0.38            0.52    0.46    0.27           0.76     0.83
C11        42.66   40.79   19.85          70.02   10.20   23.93          26.02   66.92           0.26    0.44    0.68    0.37            0.41    0.39    0.27           0.65     0.71
C12        45.10   40.93   13.27          70.13   16.90   39.73          43.17   66.96           0.19    0.47    0.89    0.35            0.28    0.31    0.14           0.42     0.47
C13        52.62   59.18   55.66          81.39  -11.21   -7.48          13.47  213.69           0.35    0.19    0.17    0.24            0.57    0.48    0.19           0.55     0.63
C14        53.24   48.17   50.37          74.93   18.25  -12.87          22.34  324.82           0.19    0.38    0.20    0.30            0.44    0.48    0.27           0.50     0.56
C15        62.28   64.60   37.83          84.28   -0.01   18.68          18.68   90.04           0.16    0.19    0.37    0.18            0.35    0.32    0.42           0.53     0.60
C16        40.64   42.08   34.37          70.93    0.19    0.51           0.83  145.97           0.37    0.38    0.40    0.38            0.82    0.83    0.42           0.86     0.97
C17        50.37   46.58   33.77          73.92   15.11    6.55          16.48   23.42           0.19    0.40    0.40    0.31            0.53    0.61    0.33           0.65     0.76
C18        50.11   57.40   38.90          80.40  -13.54   10.56          17.18  142.05           0.34    0.20    0.35    0.25            0.53    0.45    0.44           0.66     0.72
C19        43.55   44.01   50.46          72.23    3.31  -17.64          17.95  280.64           0.38    0.36    0.20    0.36            0.72    0.72    0.46           0.66     0.74
C20        12.60    9.15    1.11          36.26   28.44   42.55          51.19   56.24           0.64    1.30    2.20    0.96            0.24    0.17    0.03           0.46     0.52
C21        21.97   20.23   11.17          52.09   11.90   14.70          18.91   51.01           0.53    0.78    0.94    0.67            0.44    0.34    0.16           0.71     0.76
C22        27.32   22.84   10.79          54.91   22.76   20.74          30.80   42.35           0.38    0.78    0.96    0.60            0.41    0.32    0.16           0.63     0.68
D1          4.15    4.35    2.35          24.78   -0.59    9.25           9.27   93.65           1.30    1.40    1.71    1.36            0.08    0.08    0.04           0.38     0.44
D2          4.16    4.37    1.50          24.85   -0.75   17.81          17.82   92.42           1.29    1.39    1.98    1.35            0.08    0.08    0.02           0.36     0.41
D3          4.09    4.27    0.86          24.53   -0.38   26.12          26.12   90.83           1.30    1.40    2.36    1.35            0.06    0.06    0.01           0.29     0.34
D4          4.08    4.32    0.57          24.69   -1.20   31.76          31.78   92.16           1.31    1.38    2.69    1.35            0.09    0.08    0.01           0.45     0.54
D5         17.37   18.05    9.21          49.56   -0.23   16.73          16.74   90.80           0.69    0.76    1.05    0.74            0.29    0.26    0.12           0.70     0.81
D6         17.36   18.16    5.02          49.69   -0.79   34.57          34.59   91.32           0.68    0.76    1.41    0.73            0.26    0.21    0.07           0.60     0.67
D7         17.53   18.39    2.33          49.96   -1.06   52.84          52.85   91.15           0.68    0.75    1.94    0.71            0.26    0.24    0.04           0.55     0.62
D8         17.32   18.26    1.20          49.81   -1.56   64.65          64.67   91.38           0.70    0.75    2.54    0.72            0.30    0.27    0.01           0.69     0.78
D9         46.18   47.95   24.34          74.79   -0.16   23.41          23.41   90.40           0.28    0.33    0.58    0.31            0.53    0.51    0.15           0.68     0.76
D10        46.06   48.19   14.06          74.94   -1.15   45.93          45.95   91.44           0.26    0.33    0.89    0.30            0.49    0.43    0.08           0.53     0.61
D11        45.71   48.29    7.07          75.01   -2.41   68.75          68.79   92.01           0.26    0.32    1.32    0.30            0.38    0.32    0.05           0.40     0.43
D12        45.58   48.20    3.78          74.95   -2.53   85.23          85.27   91.70           0.27    0.32    1.80    0.29            0.28    0.19    0.03           0.35     0.39
D13        47.30   55.44   55.00          79.30  -16.42  -10.40          19.43  212.34           0.45    0.20    0.18    0.28            0.50    0.43    0.21           0.50     0.59
D14        47.79   40.41   47.32          69.76   26.05  -18.30          31.83  324.92           0.21    0.50    0.22    0.37            0.33    0.35    0.32           0.44     0.48
D15        60.98   63.43   30.99          83.67   -0.43   27.55          27.56   90.89           0.16    0.20    0.47    0.19            0.32    0.27    0.23           0.36     0.41
D16        30.55   31.72   26.30          63.10   -0.10   -0.22           0.71  179.80           0.49    0.51    0.52    0.50            0.66    0.65    0.35           0.84     0.93
D17        43.78   38.02   25.63          68.04   22.07    9.45          24.01   23.19           0.21    0.52    0.53    0.39            0.38    0.42    0.21           0.48     0.56
D18        43.68   52.68   31.98          77.68  -19.80   15.71          25.28  141.57           0.43    0.22    0.46    0.29            0.57    0.50    0.34           0.63     0.72
D19        34.15   34.05   47.05          65.00    4.61  -26.19          26.59  280.00           0.51    0.48    0.23    0.48            0.51    0.49    0.32           0.60     0.65
D20         3.02    2.97    1.08          19.94    2.73   14.78          15.03   79.53           1.39    1.59    2.13    1.51            0.06    0.06    0.04           0.30     0.32
D21        30.75   27.92    1.51          59.81   14.83   78.04          79.44   79.24           0.36    0.64    2.39    0.51            0.36    0.31    0.02           0.47     0.51
D22        40.16   43.91   51.44          72.17   -6.64  -18.83          19.97  250.58           0.48    0.33    0.20    0.38            0.48    0.51    0.22           0.56     0.61
E1          5.33    5.98    3.41          29.36   -5.05    9.04          10.36  119.18           1.24    1.22    1.53    1.23            0.11    0.10    0.05           0.45     0.53
E2          4.97    6.05    2.21          29.54  -10.26   18.72          21.35  118.73           1.31    1.18    1.81    1.23            0.09    0.10    0.04           0.45     0.50
E3          4.54    6.02    1.27          29.45  -15.31   28.62          32.46  118.14           1.40    1.14    2.21    1.23            0.08    0.10    0.03           0.34     0.38
E4          4.34    6.27    0.80          30.08  -20.73   36.82          42.26  119.38           1.51    1.09    2.64    1.22            0.07    0.09    0.01           0.40     0.47
E5         24.41   27.67   14.83          59.59   -9.50   17.47          19.90  118.57           0.61    0.53    0.83    0.56            0.41    0.42    0.17           0.86     0.96
E6         22.56   27.80    9.36          59.71  -18.22   33.72          38.33  118.39           0.68    0.50    1.10    0.56            0.37    0.39    0.11           0.69     0.75
E7         20.18   27.65    5.22          59.57  -28.89   50.62          58.29  119.72           0.81    0.46    1.49    0.57            0.28    0.32    0.08           0.48     0.53
E8         18.92   27.77    3.02          59.68  -35.67   64.12          73.37  119.09           0.91    0.43    1.94    0.57            0.17    0.18    0.02           0.30     0.33
E9         44.13   47.95   31.98          74.79   -6.02   10.73          12.31  119.39           0.35    0.31    0.44    0.32            0.61    0.58    0.22           0.78     0.90
E10        42.40   48.19   25.14          74.94  -11.78   22.22          25.16  117.94           0.38    0.29    0.57    0.32            0.54    0.50    0.25           0.72     0.83
E11        40.50   48.33   19.98          75.03  -17.93   32.29          36.94  119.04           0.42    0.27    0.71    0.32            0.57    0.49    0.16           0.69     0.79
E12        39.08   48.18   16.65          74.94  -21.95   39.49          45.18  119.07           0.45    0.26    0.81    0.32            0.44    0.35    0.14           0.61     0.70
E13        42.81   52.04   54.32          77.31  -20.74  -13.11          24.53  212.29           0.54    0.21    0.18    0.31            0.54    0.49    0.21           0.56     0.64
E14        42.72   33.64   44.16          64.67   33.44  -23.29          40.75  325.15           0.23    0.62    0.25    0.45            0.29    0.30    0.36           0.44     0.47
E15        59.74   62.17   24.79          83.00   -0.50   36.75          36.75   90.78           0.15    0.22    0.59    0.19            0.31    0.27    0.22           0.39     0.44
E16        22.50   23.29   19.16          55.37    0.19    0.13           0.70  146.67           0.62    0.65    0.67    0.63            0.51    0.48    0.28           0.80     0.88
E17        37.91   30.80   18.62          62.33   28.66   13.30          31.59   24.89           0.23    0.66    0.68    0.47            0.35    0.36    0.23           0.47     0.56
E18        38.31   48.40   25.63          75.07  -24.98   21.58          33.01  139.18           0.51    0.24    0.57    0.33            0.49    0.44    0.38           0.68     0.76
E19        26.65   25.91   43.66          57.95    6.92  -34.26          34.95  281.42           0.64    0.60    0.26    0.61            0.43    0.39    0.32           0.59     0.64
E20         7.20    8.53    1.36          35.05   -9.48   37.11          38.30  104.34           1.13    1.03    2.20    1.07            0.13    0.14    0.04           0.34     0.39
E21        24.63   29.24    6.44          60.99  -14.62   47.26          49.48  107.19           0.61    0.49    1.33    0.53            0.44    0.46    0.14           0.52     0.57
E22         8.67   18.24   14.01          49.79  -59.59    2.69          59.65  177.42           1.92    0.52    0.88    0.82            0.09    0.16    0.16           0.34     0.38
F1          3.50    4.24    3.16          24.46   -8.87    2.37           9.19  165.03           1.49    1.35    1.55    1.39            0.08    0.08    0.05           0.41     0.45
F2          2.93    4.34    2.60          24.75  -19.58    7.10          20.83  160.06           1.69    1.27    1.69    1.40            0.06    0.07    0.05           0.37     0.42
F3          2.38    4.32    2.20          24.70  -29.83   10.47          31.61  160.66           1.97    1.21    1.82    1.42            0.04    0.07    0.04           0.36     0.40
F4          1.59    4.26    1.62          24.53  -47.51   15.98          50.12  161.41           2.73    1.12    2.09    1.46            0.02    0.06    0.03           0.31     0.36
F5         11.37   14.29    9.94          44.64  -16.19    5.79          17.20  160.30           1.03    0.79    1.01    0.87            0.20    0.21    0.09           0.62     0.69
F6          9.03   13.99    8.14          44.22  -32.50   11.41          34.44  160.66           1.30    0.73    1.14    0.90            0.13    0.18    0.09           0.54     0.57
F7          7.30   14.08    6.96          44.34  -48.56   16.34          51.24  161.41           1.66    0.66    1.26    0.91            0.14    0.25    0.09           0.51     0.56
F8          6.02   14.28    6.04          44.63  -62.96   20.90          66.34  161.64           2.11    0.60    1.37    0.92            0.05    0.10    0.06           0.23     0.25
F9         29.55   33.88   25.30          64.87  -11.47    4.57          12.37  158.27           0.57    0.43    0.55    0.48            0.50    0.50    0.32           0.84     0.95
F10        26.47   33.85   23.31          64.84  -23.50    8.17          24.89  160.84           0.70    0.39    0.60    0.49            0.50    0.53    0.21           0.78     0.89
F11        23.86   33.92   21.44          64.90  -34.81   11.88          36.79  161.16           0.84    0.36    0.66    0.50            0.35    0.41    0.19           0.71     0.80
F12        21.66   33.90   19.43          64.88  -44.67   15.96          47.44  160.34           0.98    0.33    0.72    0.51            0.30    0.33    0.13           0.49     0.55
F13        38.42   48.50   53.55          75.14  -24.92  -16.01          29.62  212.72           0.64    0.22    0.19    0.35            0.48    0.44    0.17           0.58     0.65
F14        38.00   27.73   40.95          59.64   40.54  -27.93          49.23  325.44           0.26    0.76    0.27    0.52            0.21    0.19    0.32           0.37     0.41
F15        58.61   60.86   19.51          82.30   -0.16   45.81          45.81   90.20           0.15    0.23    0.72    0.20            0.34    0.30    0.17           0.36     0.40
F16        15.64   16.15   13.38          47.17    0.38   -0.14           0.66  229.84           0.77    0.81    0.84    0.79            0.32    0.28    0.12           0.62     0.71
F17        32.53   24.51   12.92          56.59   35.17   17.35          39.22   26.26           0.26    0.83    0.85    0.55            0.27    0.25    0.15           0.37     0.43
