targets/wolf_faust/transmissive/A110611.it8
IT8.7/1
ORIGINATOR "Wolf Faust"
DESCRIPTOR "Agfachrome RSX, RSX II and CT Precisa, Type 3, L* a* b* (light D50, viewing angle 2)"
MANUFACTURER "Wolf Faust - http://www.coloraid.de"
CREATED "June 18, 2011"
PROD_DATE "2007:02"
DIFFUSE_GEOMETRY "opal"
SERIAL "A110611 Batch Average Data"
MATERIAL "Agfachrome RSX II"
KEYWORD "MEAN_DE" # Mean Delta E of samples compared to batch average
NUMBER_OF_FIELDS 18
BEGIN_DATA_FORMAT
SAMPLE_ID  XYZ_X   XYZ_Y   XYZ_Z          LAB_L   LAB_A   LAB_B          LAB_C   LAB_H          D_RED  D_GREEN  D_BLUE  D_VIS          STDEV_X STDEV_Y STDEV_Z        MEAN_DE  STDEV_DE
END_DATA_FORMAT
NUMBER_OF_SETS 288
BEGIN_DATA
A1          2.13    1.85    1.33          14.69    8.01    2.35           8.36   16.39           1.50    1.89    1.94    1.71            0.06    0.05    0.03           0.49     0.54
A2          2.61    1.81    1.10          14.45   18.79    5.04          19.46   15.00           1.32    2.09    2.00    1.68            0.05    0.04    0.03           0.40     0.44 
A3          3.26    1.86    0.88          14.72   29.21    8.90          30.54   16.94           1.14    2.35    2.08    1.62            0.07    0.04    0.03           0.48     0.54
A4          4.15    1.86    0.67          14.75   42.60   12.83          44.49   16.75           0.96    3.24    2.13    1.57            0.07    0.03    0.02           0.40     0.45 
A5          9.44    8.22    5.80          34.43   13.07    4.44          13.80   18.77           0.87    1.21    1.23    1.06            0.21    0.20    0.15           0.58     0.65
A6         11.42    8.23    5.04          34.46   28.01    8.25          29.21   16.41           0.70    1.36    1.29    1.02            0.21    0.18    0.14           0.53     0.62 
A7         13.68    8.33    4.20          34.66   42.39   13.21          44.40   17.31           0.55    1.55    1.35    0.99            0.29    0.20    0.12           0.48     0.55
A8         15.86    8.34    3.67          34.69   55.46   16.57          57.88   16.64           0.43    1.83    1.39    0.95            0.21    0.14    0.12           0.43     0.51 
A9         27.77   27.19   21.06          59.14    6.28    2.72           6.86   23.55           0.49    0.61    0.63    0.56            0.86    0.94    0.80           0.88     1.05
A10        29.86   27.16   20.00          59.11   14.48    4.83          15.27   18.46           0.41    0.65    0.65    0.55            0.73    0.77    0.67           0.81     0.95
A11        32.29   27.44   18.99          59.38   22.30    7.40          23.51   18.36           0.33    0.69    0.67    0.53            0.70    0.73    0.64           0.81     0.93
A12        35.63   28.07   18.15          59.95   31.42   10.24          33.05   18.05           0.25    0.73    0.69    0.51            0.64    0.66    0.63           0.80     0.93 
A13        63.04   67.06   57.10          85.53   -3.69   -1.84           4.13  206.51           0.21    0.16    0.16    0.18            0.76    0.83    0.44           0.56     0.63
A14        67.64   68.59   56.77          86.30    3.33   -0.18           3.35  259.15           0.14    0.17    0.16    0.16            0.82    0.96    0.49           0.60     0.70 
A15        67.95   69.79   54.02          86.89    1.45    3.74           4.03   68.80           0.14    0.16    0.19    0.15            0.83    0.92    0.77           0.52     0.58
A16        65.90   68.70   55.59          86.35   -0.76    1.15           1.40  122.48           0.17    0.16    0.17    0.16            0.81    0.88    0.57           0.54     0.60
A17        66.88   67.73   55.44          85.87    3.50    0.48           3.54    8.06           0.14    0.18    0.17    0.17            0.92    1.05    0.63           0.60     0.69
A18        61.57   66.07   54.15          85.03   -4.92    0.40           4.94  175.36           0.22    0.16    0.19    0.18            0.96    1.00    0.87           0.60     0.66 
A19        62.65   65.00   56.22          84.48   -0.07   -2.74           2.76  268.08           0.20    0.18    0.17    0.19            0.95    1.06    0.53           0.66     0.76
A20         6.19    2.91    1.84          19.69   46.29    5.22          46.59    6.43           0.81    2.68    1.66    1.39            0.13    0.06    0.07           0.44     0.54 
A21        25.86   18.17   14.27          49.69   39.26    1.85          39.31    2.70           0.35    1.02    0.78    0.68            0.53    0.46    0.54           0.67     0.80
A22        51.20   48.20   32.92          74.95   12.86    9.58          16.04   36.73           0.19    0.37    0.42    0.30            1.03    1.23    0.99           0.86     1.05
B1          3.10    2.78    1.63          19.16    7.37    6.61           9.91   41.88           1.35    1.68    1.86    1.53            0.06    0.05    0.04           0.52     0.56
B2          3.61    2.74    1.01          18.97   16.49   14.23          21.79   40.78           1.20    1.81    2.11    1.50            0.09    0.07    0.03           0.52     0.57
B3          4.25    2.78    0.58          19.12   25.27   22.02          33.52   41.07           1.07    1.95    2.41    1.47            0.08    0.05    0.01           0.46     0.51
B4          4.92    2.82    0.25          19.32   33.19   28.62          43.82   40.78           0.96    2.14    2.91    1.43            0.09    0.05    0.00           0.46     0.52
B5         12.07   10.80    6.22          39.24   11.99   10.75          16.11   41.89           0.77    1.07    1.22    0.94            0.27    0.25    0.15           0.65     0.72
B6         14.06   10.81    4.09          39.25   25.02   21.80          33.18   41.06           0.62    1.18    1.43    0.91            0.33    0.28    0.12           0.63     0.71
B7         16.57   11.12    2.38          39.78   37.51   34.81          51.17   42.87           0.49    1.30    1.71    0.87            0.35    0.27    0.08           0.57     0.65
B8         19.24   11.14    1.40          39.81   51.58   44.86          68.36   41.01           0.37    1.50    1.98    0.84            0.28    0.23    0.05           0.48     0.55
B9         32.98   32.98   24.35          64.14    4.23    5.03           6.60   50.03           0.42    0.51    0.56    0.47            0.96    1.09    0.90           0.91     1.08
B10        34.80   33.07   21.62          64.21   10.23   10.35          14.57   45.32           0.36    0.54    0.62    0.46            0.90    1.00    0.77           0.95     1.08
B11        36.65   33.38   19.67          64.46   15.34   14.74          21.28   43.86           0.30    0.56    0.67    0.45            0.85    0.95    0.69           0.91     1.07
B12        39.78   33.75   16.29          64.76   24.11   22.79          33.18   43.39           0.22    0.60    0.76    0.43            0.74    0.84    0.61           0.91     1.05
B13        57.63   62.16   54.81          83.00   -5.55   -3.81           6.75  214.47           0.27    0.19    0.18    0.21            0.91    1.03    0.58           0.66     0.75
B14        58.60   57.23   52.40          80.30    8.40   -5.86          10.24  325.13           0.19    0.27    0.19    0.24            1.04    1.29    0.69           0.91     1.09
B15        62.25   64.63   45.18          84.29   -0.15    9.31           9.31   90.89           0.17    0.19    0.28    0.19            1.03    1.12    0.95           0.61     0.70
B16        51.48   53.60   43.20          78.22   -0.52    1.28           1.43  109.68           0.27    0.27    0.29    0.27            1.20    1.41    1.11           0.80     0.97
B17        56.98   56.34   43.00          79.80    6.63    4.24           7.88   32.75           0.19    0.27    0.29    0.24            1.21    1.44    1.13           0.84     1.01
B18        56.34   61.39   45.87          82.58   -6.94    5.54           8.88  141.42           0.26    0.19    0.27    0.22            1.08    1.14    1.05           0.66     0.75
B19        53.34   54.93   52.53          79.00    0.97   -8.25           8.33  276.50           0.27    0.26    0.19    0.26            1.22    1.47    0.78           1.00     1.20
B20         4.77    2.89    0.97          19.60   30.07   15.93          34.03   27.92           1.00    2.04    2.08    1.44            0.11    0.08    0.04           0.33     0.39
B21        16.56   10.99    4.09          39.56   38.43   22.36          44.46   30.19           0.49    1.32    1.40    0.88            0.34    0.26    0.15           0.45     0.52
B22        32.78   28.00   16.72          59.88   21.87   13.38          25.64   31.46           0.32    0.68    0.74    0.52            0.74    0.78    0.57           0.75     0.90
C1          6.03    5.98    3.22          29.37    2.92   10.36          10.77   74.22           1.11    1.28    1.55    1.21            0.12    0.10    0.08           0.55     0.59
C2          6.50    6.04    2.02          29.50    7.38   20.38          21.68   70.09           1.04    1.31    1.82    1.19            0.13    0.11    0.05           0.53     0.58
C3          6.81    5.89    1.11          29.13   12.15   30.24          32.59   68.10           0.98    1.36    2.19    1.19            0.13    0.11    0.03           0.53     0.60
C4          7.35    6.00    0.52          29.40   16.27   40.80          43.93   68.26           0.93    1.39    2.75    1.17            0.12    0.09    0.01           0.44     0.51
C5         22.84   22.17   11.08          54.21    6.74   18.65          19.84   70.12           0.53    0.71    0.96    0.64            0.45    0.49    0.31           0.70     0.81
C6         24.96   22.44    6.23          54.49   14.83   37.03          39.89   68.17           0.44    0.75    1.28    0.61            0.56    0.58    0.18           0.74     0.90
C7         26.73   22.31    3.13          54.35   22.76   54.09          58.68   67.18           0.37    0.80    1.69    0.60            0.56    0.55    0.10           0.73     0.88
C8         29.53   22.71    0.98          54.76   31.98   76.44          82.86   67.29           0.30    0.85    2.62    0.58            0.50    0.49    0.02           0.66     0.80
C9         39.20   39.85   27.34          69.36    2.45    8.81           9.15   74.53           0.35    0.42    0.51    0.39            1.21    1.38    1.14           0.96     1.17
C10        40.04   39.56   23.05          69.14    6.01   16.08          17.17   69.50           0.31    0.44    0.60    0.39            1.11    1.30    0.88           1.03     1.22
C11        41.36   39.61   18.85          69.19    9.89   24.62          26.55   68.11           0.27    0.46    0.70    0.38            1.03    1.21    0.72           1.01     1.21
C12        44.09   40.04   12.99          69.49   16.69   39.42          42.82   67.05           0.20    0.48    0.90    0.36            0.90    1.10    0.49           1.03     1.21
C13        51.33   58.02   54.27          80.75  -11.78   -7.12          13.77  211.14           0.36    0.19    0.18    0.25            0.92    1.03    0.60           0.71     0.80
C14        52.73   48.33   49.35          75.02   16.51  -11.56          20.16  325.01           0.20    0.37    0.21    0.30            1.02    1.23    0.72           1.00     1.19
C15        60.71   63.42   37.57          83.66   -1.02   17.97          18.00   93.25           0.17    0.20    0.37    0.19            1.03    1.10    0.93           0.68     0.78
C16        39.68   41.56   33.98          70.56   -1.21    0.46           1.33  159.27           0.39    0.38    0.40    0.38            1.16    1.38    1.12           0.98     1.16
C17        49.78   46.51   33.56          73.87   13.71    6.78          15.30   26.34           0.20    0.39    0.41    0.31            1.12    1.31    1.09           0.94     1.12
C18        48.84   56.27   38.52          79.77  -14.23    9.97          17.37  144.97           0.36    0.21    0.36    0.26            1.02    1.07    0.97           0.69     0.81
C19        42.54   43.53   49.33          71.91    1.72  -16.91          17.01  275.74           0.39    0.36    0.22    0.37            1.07    1.31    0.77           1.08     1.29
C20        11.89    8.68    1.13          35.37   27.48   40.73          49.14   55.99           0.67    1.32    2.18    0.99            0.27    0.23    0.03           0.58     0.67
C21        21.29   19.89   11.03          51.71   10.35   14.49          17.82   54.49           0.55    0.78    0.95    0.68            0.52    0.57    0.43           0.79     0.92
C22        26.97   22.95   10.53          55.02   20.85   21.77          30.15   46.24           0.39    0.77    0.97    0.60            0.61    0.62    0.35           0.68     0.81
D1          3.92    4.16    2.24          24.19   -1.24    9.16           9.25   97.71           1.33    1.41    1.74    1.38            0.08    0.08    0.07           0.50     0.54
D2          3.96    4.23    1.47          24.41   -1.71   17.39          17.48   95.61           1.32    1.40    2.00    1.37            0.08    0.08    0.04           0.51     0.56
D3          3.83    4.13    0.82          24.10   -2.21   26.09          26.19   94.85           1.34    1.39    2.40    1.37            0.08    0.08    0.02           0.50     0.54
D4          3.81    4.11    0.53          24.02   -2.17   31.41          31.48   93.95           1.35    1.39    2.75    1.37            0.06    0.06    0.01           0.37     0.44
D5         16.72   17.62    8.92          49.02   -1.45   16.84          16.90   94.90           0.72    0.77    1.07    0.75            0.37    0.41    0.23           0.70     0.79
D6         16.47   17.53    4.85          48.91   -2.41   34.19          34.27   94.02           0.71    0.77    1.43    0.74            0.42    0.49    0.13           0.76     0.91
D7         16.47   17.70    2.34          49.12   -3.31   51.27          51.38   93.69           0.72    0.75    1.93    0.74            0.43    0.51    0.07           0.87     1.03
D8         16.71   18.04    1.15          49.54   -3.74   64.83          64.94   93.30           0.73    0.74    2.59    0.72            0.34    0.44    0.04           0.84     0.94
D9         44.66   47.02   24.05          74.20   -1.94   22.93          23.02   94.82           0.30    0.33    0.59    0.32            1.19    1.40    0.86           0.94     1.12
D10        44.79   47.46   13.71          74.48   -2.79   46.07          46.15   93.46           0.28    0.33    0.91    0.31            1.02    1.24    0.48           0.91     1.09
D11        44.79   47.32    6.85          74.39   -2.39   68.60          68.65   91.99           0.27    0.33    1.34    0.31            0.89    1.04    0.19           0.82     0.96
D12        45.19   48.14    4.25          74.91   -3.50   82.31          82.39   92.43           0.28    0.32    1.71    0.30            0.77    0.77    0.08           0.61     0.71
D13        45.99   54.21   53.64          78.58  -17.02  -10.17          19.83  210.87           0.46    0.21    0.19    0.29            0.79    0.91    0.55           0.68     0.77
D14        47.20   40.38   46.21          69.73   24.49  -17.03          29.83  325.18           0.22    0.49    0.24    0.38            0.93    1.08    0.73           0.97     1.16
D15        59.23   62.08   30.39          82.95   -1.49   27.27          27.31   93.13           0.17    0.21    0.48    0.20            0.99    1.07    0.84           0.72     0.82
D16        29.65   31.14   25.44          62.62   -1.40    0.45           1.52  163.40           0.51    0.51    0.54    0.51            0.88    1.03    0.93           0.95     1.11
D17        43.10   37.78   24.92          67.85   20.83   10.41          23.29   26.55           0.22    0.52    0.55    0.39            0.97    1.09    0.92           0.95     1.12
D18        42.26   51.35   31.17          76.89  -20.59   15.59          25.83  142.86           0.45    0.23    0.47    0.30            0.93    1.00    0.90           0.73     0.85
D19        33.22   33.49   45.93          64.55    3.29  -25.63          25.85  277.30           0.52    0.48    0.24    0.49            0.83    1.01    0.69           1.01     1.20
D20         2.77    2.80    1.09          19.21    1.34   13.36          13.43   84.25           1.44    1.61    2.12    1.54            0.07    0.09    0.04           0.46     0.53
D21        29.97   27.76    1.48          59.67   12.53   78.07          79.07   80.88           0.39    0.64    2.42    0.52            0.68    0.77    0.05           0.92     1.09
D22        39.27   42.97   50.47          71.53   -6.66  -18.86          20.01  250.52           0.49    0.34    0.21    0.39            0.90    1.15    0.62           1.00     1.20
E1          5.16    5.89    3.37          29.13   -6.17    8.92          10.85  124.65           1.27    1.22    1.54    1.24            0.09    0.09    0.09           0.51     0.57
E2          4.62    5.76    2.14          28.81  -11.53   18.03          21.41  122.61           1.35    1.19    1.82    1.25            0.07    0.07    0.05           0.44     0.50
E3          4.41    6.00    1.22          29.40  -16.88   29.19          33.72  120.05           1.44    1.13    2.24    1.24            0.07    0.09    0.03           0.48     0.54
E4          4.03    6.02    0.75          29.45  -22.41   36.63          42.94  121.46           1.57    1.09    2.70    1.24            0.08    0.09    0.01           0.37     0.44
E5         23.38   26.74   14.49          58.73  -10.36   16.87          19.80  121.55           0.64    0.55    0.84    0.58            0.50    0.62    0.37           0.80     0.93
E6         21.65   27.41    9.26          59.35  -20.90   33.46          39.45  121.99           0.72    0.50    1.11    0.57            0.52    0.69    0.25           0.83     0.97
E7         19.66   27.16    5.12          59.12  -29.51   50.36          58.37  120.37           0.83    0.47    1.51    0.58            0.42    0.58    0.10           0.77     0.90
E8         18.22   27.01    3.02          58.98  -36.28   62.84          72.56  120.00           0.94    0.44    1.94    0.59            0.28    0.34    0.03           0.51     0.60
E9         43.21   47.24   31.24          74.33   -6.78   11.08          13.00  121.44           0.36    0.31    0.46    0.33            1.21    1.42    1.02           0.90     1.06
E10        40.75   46.79   24.38          74.05  -12.95   22.06          25.58  120.40           0.40    0.30    0.59    0.33            1.03    1.23    0.83           0.90     1.03
E11        38.60   46.46   19.13          73.84  -18.75   32.06          37.14  120.32           0.45    0.28    0.73    0.34            0.83    0.99    0.62           0.77     0.91
E12        37.95   47.12   16.47          74.26  -22.65   38.75          44.88  120.30           0.47    0.26    0.82    0.33            0.73    0.81    0.51           0.67     0.77
E13        41.52   50.81   53.03          76.56  -21.42  -13.00          25.06  211.25           0.55    0.22    0.20    0.32            0.68    0.79    0.49           0.63     0.72
E14        42.11   33.54   43.02          64.59   31.96  -22.01          38.80  325.44           0.24    0.62    0.26    0.45            0.77    0.85    0.66           0.87     1.03
E15        58.02   60.84   24.49          82.29   -1.54   36.06          36.10   92.45           0.17    0.22    0.60    0.20            0.90    0.99    0.73           0.74     0.84
E16        21.64   22.68   18.70          54.74   -1.10    0.04           1.15  176.87           0.64    0.65    0.69    0.65            0.62    0.74    0.75           0.87     1.02
E17        37.23   30.46   18.16          62.04   27.69   13.82          30.95   26.51           0.24    0.67    0.69    0.47            0.78    0.85    0.73           0.93     1.08
E18        36.77   46.92   25.03          74.14  -25.96   21.04          33.41  140.98           0.53    0.25    0.59    0.35            0.79    0.91    0.87           0.78     0.91
E19        25.74   25.34   42.49          57.40    5.53  -33.75          34.20  279.29           0.66    0.61    0.27    0.62            0.63    0.77    0.69           0.92     1.09
E20         6.77    8.09    1.30          34.17  -10.05   36.34          37.70  105.45           1.17    1.05    2.23    1.09            0.16    0.22    0.04           0.65     0.79
E21        24.20   29.27    6.25          61.01  -16.55   48.18          50.95  108.96           0.63    0.48    1.36    0.53            0.57    0.80    0.19           0.94     1.08
E22         8.12   17.36   13.33          48.71  -59.76    2.66          59.82  177.45           1.97    0.54    0.91    0.84            0.19    0.33    0.40           0.56     0.68
F1          3.39    4.26    3.06          24.51  -10.81    3.20          11.28  163.54           1.52    1.33    1.58    1.40            0.07    0.07    0.08           0.40     0.48
F2          2.72    4.13    2.50          24.08  -20.60    6.78          21.69  161.79           1.75    1.28    1.71    1.43            0.05    0.07    0.06           0.42     0.48
F3          2.25    4.07    2.20          23.91  -29.25    9.12          30.63  162.69           2.00    1.23    1.81    1.45            0.04    0.06    0.05           0.47     0.53
F4          1.49    4.12    1.61          24.07  -48.25   15.19          50.59  162.53           2.81    1.13    2.09    1.48            0.02    0.05    0.04           0.39     0.43
F5         10.95   14.06    9.70          44.32  -17.87    6.02          18.86  161.39           1.06    0.79    1.02    0.88            0.22    0.30    0.23           0.59     0.71
F6          8.63   13.79    8.05          43.92  -34.66   11.23          36.43  162.05           1.35    0.72    1.15    0.91            0.21    0.37    0.22           0.74     0.88
F7          7.13   14.05    6.91          44.31  -50.09   16.48          52.73  161.79           1.70    0.66    1.26    0.92            0.15    0.30    0.15           0.62     0.73
F8          5.73   13.72    5.72          43.82  -62.76   20.97          66.17  161.53           2.13    0.62    1.41    0.94            0.08    0.18    0.11           0.46     0.52
F9         28.24   32.57   24.56          63.81  -11.98    4.07          12.66  161.22           0.60    0.45    0.57    0.50            0.76    0.97    0.77           0.85     1.04
F10        25.34   32.72   22.43          63.93  -24.29    8.26          25.66  161.22           0.73    0.41    0.62    0.51            0.61    0.84    0.64           0.82     0.97
F11        22.65   32.70   20.58          63.91  -35.94   11.91          37.86  161.67           0.88    0.37    0.68    0.52            0.59    0.85    0.72           0.88     1.03
F12        20.54   32.63   19.22          63.86  -45.64   14.66          47.94  162.20           1.02    0.34    0.72    0.53            0.38    0.51    0.54           0.63     0.75
F13        37.31   47.41   52.32          74.45  -25.52  -15.88          30.06  211.88           0.66    0.23    0.20    0.36            0.58    0.71    0.51           0.58     0.66
F14        37.57   27.80   39.91          59.70   38.88  -26.46          47.03  325.77           0.27    0.75    0.29    0.52            0.63    0.64    0.60           0.72     0.85
F15        57.00   59.62   19.35          81.63   -1.20   45.02          45.03   91.53           0.17    0.23    0.73    0.21            0.87    0.98    0.63           0.74     0.86
F16        15.07   15.86   13.13          46.78   -1.30   -0.13           1.39  186.20           0.80    0.81    0.85    0.80            0.44    0.53    0.57           0.86     0.99
F17        32.14   24.44   12.72          56.52   34.08   17.84          38.46   27.62           0.27    0.82    0.86    0.56            0.66    0.69    0.58           0.91     1.06
