targets/wolf_faust/transmissive/A111011.it8
IT8.7/1
ORIGINATOR "Wolf Faust"
DESCRIPTOR "Agfachrome RSX, RSX II and CT Precisa, Type 3, L* a* b* (light D50, viewing angle 2)"
MANUFACTURER "Wolf Faust - http://www.coloraid.de"
CREATED "October 19, 2011"
PROD_DATE "2007:02"
DIFFUSE_GEOMETRY "opal"
SERIAL "A111011 Batch Average Data"
MATERIAL "Agfachrome RSX II"
KEYWORD "MEAN_DE" # Mean Delta E of samples compared to batch average
NUMBER_OF_FIELDS 18
BEGIN_DATA_FORMAT
SAMPLE_ID  XYZ_X   XYZ_Y   XYZ_Z          LAB_L   LAB_A   LAB_B          LAB_C   LAB_H          D_RED  D_GREEN  D_BLUE  D_VIS          STDEV_X STDEV_Y STDEV_Z        MEAN_DE  STDEV_DE
END_DATA_FORMAT
NUMBER_OF_SETS 288
BEGIN_DATA
A1          2.25    1.85    1.37          14.68   10.56    1.83          10.71    9.80           1.45    1.93    1.91    1.70            0.08    0.06    0.04           0.49     0.54
A2          2.84    1.95    1.18          15.22   19.89    5.25          20.57   14.78           1.27    2.06    1.97    1.64            0.09    0.06    0.04           0.50     0.56 
A3          3.41    1.94    0.89          15.16   29.74    9.50          31.22   17.71           1.12    2.33    2.08    1.60            0.13    0.08    0.04           0.62     0.70
A4          4.32    1.93    0.70          15.10   43.57   12.74          45.40   16.30           0.94    3.25    2.09    1.55            0.11    0.05    0.03           0.60     0.66 
A5         10.04    8.59    6.31          35.19   14.58    3.36          14.97   12.95           0.84    1.20    1.19    1.04            0.26    0.22    0.20           0.82     0.88
A6         12.11    8.76    5.40          35.51   28.33    8.25          29.51   16.23           0.67    1.33    1.25    1.00            0.34    0.25    0.21           0.79     0.82 
A7         14.07    8.54    4.50          35.07   43.07   12.24          44.78   15.87           0.53    1.54    1.32    0.97            0.34    0.22    0.15           0.66     0.70
A8         16.34    8.59    3.86          35.18   56.08   16.21          58.38   16.12           0.42    1.82    1.37    0.94            0.19    0.13    0.12           0.39     0.44 
A9         29.63   28.73   22.52          60.54    7.47    2.24           7.81   16.78           0.45    0.59    0.59    0.53            0.60    0.58    0.51           0.73     0.79
A10        31.64   28.76   21.43          60.57   14.81    4.43          15.46   16.68           0.38    0.62    0.61    0.52            0.66    0.64    0.55           0.75     0.81
A11        33.57   28.57   20.24          60.39   22.45    6.53          23.39   16.22           0.32    0.67    0.64    0.51            0.56    0.53    0.47           0.64     0.70
A12        36.48   28.68   19.06          60.50   31.89    9.19          33.19   16.08           0.24    0.72    0.66    0.50            0.39    0.42    0.44           0.67     0.77 
A13        64.59   68.22   58.32          86.11   -2.67   -2.08           3.40  218.39           0.20    0.15    0.15    0.17            0.37    0.43    0.24           0.45     0.51
A14        69.36   70.42   58.28          87.20    3.17   -0.18           3.17  334.59           0.13    0.16    0.15    0.15            0.38    0.51    0.28           0.39     0.46 
A15        69.31   70.86   56.17          87.42    2.13    2.38           3.23   48.10           0.13    0.15    0.17    0.15            0.41    0.53    0.54           0.55     0.59
A16        66.66   69.42   56.94          86.71   -0.60    0.36           0.73  151.07           0.17    0.15    0.16    0.16            0.47    0.58    0.44           0.53     0.58
A17        68.98   70.04   57.63          87.02    3.15    0.17           3.16  161.23           0.13    0.16    0.15    0.15            0.45    0.62    0.40           0.51     0.57
A18        63.70   67.71   56.53          85.86   -3.58   -0.69           3.66  191.23           0.20    0.16    0.17    0.17            0.52    0.64    0.47           0.60     0.66 
A19        64.31   66.46   57.58          85.23    0.53   -2.85           2.94  279.81           0.18    0.18    0.15    0.18            0.53    0.66    0.35           0.57     0.64
A20         6.42    3.02    1.79          20.14   46.88    6.52          47.34    7.91           0.79    2.67    1.68    1.37            0.18    0.08    0.07           0.62     0.70 
A21        26.62   18.81   14.60          50.46   39.12    2.31          39.19    3.38           0.33    1.00    0.77    0.67            0.42    0.35    0.43           0.63     0.70
A22        52.22   49.15   33.24          75.54   12.98   10.13          16.48   37.98           0.18    0.36    0.41    0.29            0.67    0.80    0.79           0.84     0.94
B1          3.44    3.13    1.79          20.54    7.06    7.25          10.12   45.76           1.31    1.62    1.82    1.48            0.12    0.10    0.06           0.52     0.58
B2          3.95    3.00    1.07          20.03   17.03   15.15          22.80   41.65           1.16    1.77    2.08    1.46            0.13    0.09    0.03           0.59     0.65
B3          4.66    3.09    0.67          20.40   25.19   22.45          33.74   41.71           1.04    1.88    2.33    1.42            0.18    0.13    0.03           0.74     0.82
B4          5.35    3.11    0.29          20.48   33.47   29.88          44.87   41.76           0.93    2.07    2.83    1.39            0.20    0.12    0.01           0.83     0.95
B5         12.83   11.46    6.50          40.34   12.38   11.40          16.83   42.62           0.74    1.05    1.19    0.91            0.33    0.28    0.22           0.77     0.83
B6         14.87   11.45    4.33          40.32   25.35   22.23          33.72   41.24           0.60    1.16    1.40    0.88            0.40    0.32    0.16           0.75     0.81
B7         16.94   11.31    2.72          40.10   38.20   32.64          50.25   40.51           0.48    1.30    1.64    0.86            0.36    0.27    0.10           0.57     0.61
B8         19.84   11.50    1.39          40.41   52.03   46.03          69.47   41.50           0.36    1.49    1.99    0.83            0.21    0.17    0.04           0.32     0.38
B9         34.76   34.64   25.64          65.46    4.70    5.01           6.89   46.82           0.40    0.49    0.54    0.45            0.71    0.72    0.63           0.73     0.82
B10        36.54   34.60   23.02          65.43   10.80    9.72          14.54   42.00           0.34    0.52    0.59    0.44            0.85    0.89    0.67           0.85     0.93
B11        38.02   34.47   20.55          65.33   16.10   14.40          21.61   41.81           0.29    0.55    0.64    0.44            0.69    0.72    0.49           0.75     0.84
B12        41.00   34.86   17.47          65.63   24.11   21.55          32.34   41.80           0.21    0.58    0.72    0.42            0.44    0.52    0.42           0.70     0.79
B13        59.18   63.68   56.41          83.80   -5.25   -4.12           6.68  218.19           0.25    0.18    0.17    0.20            0.61    0.63    0.40           0.50     0.56
B14        60.41   58.98   54.14          81.28    8.53   -6.07          10.47  324.55           0.18    0.25    0.18    0.22            0.58    0.75    0.46           0.59     0.71
B15        64.29   66.37   46.76          85.18    0.67    8.95           8.99   85.50           0.16    0.18    0.26    0.17            0.66    0.78    0.89           0.86     1.00
B16        53.37   55.59   45.05          79.38   -0.58    0.99           1.17  126.04           0.26    0.25    0.27    0.26            0.84    0.89    0.88           0.76     0.88
B17        58.80   58.10   44.74          80.79    6.79    3.81           7.82   29.30           0.17    0.26    0.27    0.23            0.73    0.86    0.97           0.86     0.98
B18        58.00   62.98   47.84          83.43   -6.50    4.68           8.02  144.53           0.25    0.18    0.25    0.21            0.76    0.76    1.02           0.94     1.07
B19        54.72   56.39   54.08          79.83    0.88   -8.49           8.55  275.89           0.26    0.25    0.18    0.25            0.81    0.89    0.48           0.65     0.75
B20         5.06    3.04    1.05          20.22   31.09   15.71          34.83   26.80           0.97    2.03    2.03    1.42            0.18    0.10    0.04           0.69     0.80
B21        16.99   11.35    4.17          40.16   38.22   22.91          44.56   30.94           0.48    1.29    1.39    0.86            0.36    0.26    0.14           0.60     0.66
B22        33.44   28.50   16.88          60.34   22.26   13.79          26.19   31.77           0.31    0.67    0.73    0.51            0.55    0.53    0.49           0.67     0.74
C1          6.42    6.31    3.48          30.18    3.58   10.03          10.65   70.40           1.08    1.26    1.51    1.19            0.18    0.17    0.09           0.59     0.63
C2          6.87    6.29    2.14          30.13    8.43   20.34          22.02   67.49           1.01    1.30    1.78    1.17            0.19    0.17    0.05           0.64     0.71
C3          7.40    6.38    1.25          30.34   12.68   30.42          32.95   67.38           0.94    1.33    2.12    1.15            0.23    0.19    0.03           0.73     0.80
C4          7.87    6.33    0.57          30.23   17.56   41.37          44.94   67.00           0.89    1.37    2.69    1.14            0.26    0.19    0.01           0.84     0.94
C5         23.95   23.10   12.03          55.17    7.51   17.47          19.01   66.74           0.51    0.69    0.91    0.62            0.52    0.50    0.37           0.82     0.87
C6         26.12   23.44    6.68          55.52   15.23   36.78          39.81   67.51           0.42    0.73    1.24    0.59            0.56    0.53    0.20           0.69     0.74
C7         27.89   23.32    3.32          55.40   22.92   54.56          59.18   67.21           0.35    0.78    1.66    0.58            0.52    0.51    0.11           0.58     0.65
C8         30.13   23.17    1.05          55.25   32.21   76.16          82.69   67.07           0.29    0.84    2.56    0.57            0.37    0.34    0.02           0.49     0.59
C9         40.81   41.21   28.76          70.32    3.31    8.09           8.76   67.66           0.33    0.41    0.49    0.38            0.73    0.81    0.68           0.79     0.86
C10        41.94   41.46   24.53          70.49    6.03   15.65          16.79   68.90           0.30    0.42    0.57    0.37            0.80    0.91    0.66           0.88     0.96
C11        43.05   41.38   20.21          70.44    9.55   23.90          25.75   68.21           0.26    0.43    0.67    0.36            0.81    0.91    0.55           0.87     0.97
C12        45.51   41.53   13.59          70.54   16.27   39.58          42.80   67.66           0.19    0.46    0.88    0.35            0.59    0.73    0.35           0.81     0.90
C13        52.98   59.57   55.84          81.60  -11.19   -7.30          13.37  213.15           0.35    0.18    0.17    0.24            0.75    0.75    0.45           0.64     0.71
C14        53.87   49.19   50.82          75.57   17.12  -12.29          21.08  324.33           0.19    0.37    0.20    0.30            0.67    0.81    0.53           0.67     0.81
C15        62.58   65.01   38.35          84.49   -0.22   18.34          18.34   90.65           0.16    0.19    0.36    0.18            0.64    0.76    0.62           0.74     0.83
C16        41.22   42.94   34.83          71.51   -0.54    0.85           1.04  122.04           0.37    0.37    0.39    0.37            0.92    0.95    0.81           0.81     0.92
C17        51.02   47.59   34.36          74.56   14.05    6.80          15.62   25.82           0.19    0.38    0.40    0.30            0.69    0.80    0.80           0.81     0.89
C18        50.56   57.90   39.46          80.68  -13.52   10.30          17.00  142.73           0.34    0.20    0.35    0.25            0.81    0.86    0.76           0.78     0.90
C19        43.82   44.62   50.75          72.63    2.36  -17.26          17.43  277.79           0.38    0.35    0.20    0.36            0.89    0.95    0.54           0.84     0.96
C20        12.65    9.21    1.14          36.38   28.30   42.35          50.94   56.25           0.64    1.30    2.19    0.96            0.36    0.26    0.04           0.76     0.86
C21        22.10   20.61   11.34          52.51   10.64   14.93          18.34   54.52           0.53    0.76    0.94    0.66            0.53    0.46    0.32           0.75     0.81
C22        27.70   23.41   11.12          55.48   21.78   20.72          30.06   43.58           0.38    0.76    0.94    0.59            0.56    0.49    0.34           0.67     0.73
D1          4.29    4.49    2.52          25.23   -0.52    8.58           8.60   93.50           1.29    1.38    1.67    1.34            0.12    0.12    0.07           0.57     0.62
D2          4.30    4.57    1.56          25.47   -1.42   18.18          18.24   94.47           1.28    1.36    1.97    1.33            0.11    0.11    0.04           0.56     0.61
D3          4.26    4.55    0.85          25.41   -1.71   27.80          27.86   93.52           1.29    1.35    2.39    1.33            0.12    0.12    0.02           0.59     0.64
D4          4.22    4.49    0.58          25.22   -1.43   32.48          32.51   92.52           1.30    1.36    2.70    1.33            0.13    0.12    0.01           0.64     0.72
D5         17.97   18.83    9.65          50.48   -0.99   16.85          16.88   93.40           0.68    0.74    1.03    0.72            0.44    0.45    0.30           0.83     0.88
D6         17.82   18.83    5.37          50.48   -1.79   34.20          34.25   93.00           0.67    0.74    1.37    0.71            0.46    0.49    0.17           0.74     0.81
D7         17.53   18.61    2.55          50.22   -2.22   51.45          51.50   92.48           0.68    0.74    1.87    0.71            0.44    0.47    0.08           0.78     0.83
D8         17.50   18.61    1.22          50.22   -2.38   65.12          65.16   92.10           0.70    0.73    2.54    0.71            0.45    0.45    0.02           0.82     0.95
D9         46.80   48.98   25.22          75.44   -1.20   22.95          22.98   92.97           0.28    0.32    0.57    0.30            0.80    0.93    0.59           0.82     0.90
D10        46.59   48.98   14.60          75.43   -1.78   45.39          45.43   92.24           0.26    0.32    0.87    0.30            0.87    1.01    0.40           0.82     0.90
D11        46.21   48.92    7.36          75.40   -2.67   68.24          68.29   92.24           0.26    0.32    1.30    0.29            0.67    0.72    0.16           0.58     0.65
D12        45.73   48.48    3.91          75.12   -2.85   84.76          84.81   91.92           0.27    0.32    1.78    0.29            0.55    0.50    0.06           0.59     0.64
D13        47.54   55.71   55.17          79.45  -16.43  -10.31          19.40  212.13           0.44    0.20    0.18    0.28            0.75    0.76    0.47           0.73     0.80
D14        48.33   41.25   47.76          70.35   24.97  -17.79          30.66  324.52           0.21    0.48    0.22    0.37            0.62    0.73    0.55           0.68     0.80
D15        61.10   63.68   31.11          83.80   -0.71   27.58          27.60   91.45           0.16    0.20    0.47    0.19            0.67    0.81    0.55           0.80     0.88
D16        31.17   32.61   26.40          63.84   -1.00    0.88           1.36  137.10           0.49    0.49    0.52    0.49            0.85    0.87    0.72           0.89     0.98
D17        44.20   38.73   25.69          68.55   21.07   10.24          23.43   25.93           0.21    0.51    0.53    0.38            0.65    0.75    0.62           0.81     0.90
D18        43.99   53.02   32.15          77.88  -19.78   15.80          25.32  141.39           0.42    0.22    0.45    0.29            0.84    0.88    0.74           0.90     1.01
D19        34.46   34.63   47.42          65.46    3.71  -25.83          26.10  278.17           0.51    0.46    0.23    0.47            0.84    0.88    0.57           0.96     1.06
D20         3.04    3.05    1.12          20.24    1.76   14.85          14.95   83.28           1.40    1.57    2.12    1.50            0.10    0.09    0.04           0.58     0.64
D21        31.29   28.84    1.51          60.64   13.23   79.45          80.55   80.55           0.36    0.62    2.42    0.50            0.50    0.45    0.03           0.75     0.81
D22        40.18   44.11   51.59          72.30   -7.13  -18.78          20.10  249.22           0.49    0.32    0.20    0.38            0.82    0.93    0.48           0.98     1.10
E1          5.72    6.50    3.70          30.65   -6.09    9.37          11.18  123.03           1.22    1.18    1.49    1.19            0.15    0.17    0.09           0.56     0.61
E2          5.14    6.39    2.31          30.37  -11.68   19.22          22.49  121.30           1.31    1.15    1.79    1.21            0.12    0.14    0.05           0.51     0.55
E3          4.75    6.45    1.44          30.52  -17.20   28.30          33.12  121.29           1.40    1.10    2.13    1.21            0.12    0.14    0.03           0.51     0.57
E4          4.35    6.33    0.80          30.24  -21.25   37.00          42.67  119.88           1.51    1.08    2.64    1.22            0.12    0.15    0.01           0.56     0.63
E5         25.11   28.54   15.57          60.37   -9.90   16.98          19.66  120.26           0.60    0.52    0.80    0.55            0.53    0.58    0.46           0.84     0.90
E6         22.81   28.38    9.66          60.23  -19.35   33.61          38.79  119.93           0.68    0.49    1.08    0.56            0.50    0.60    0.29           0.75     0.80
E7         20.58   28.23    5.39          60.10  -29.18   50.66          58.47  119.94           0.80    0.45    1.47    0.56            0.39    0.51    0.14           0.66     0.72
E8         19.41   28.32    3.11          60.18  -35.34   64.26          73.34  118.80           0.89    0.43    1.92    0.56            0.26    0.33    0.07           0.50     0.55
E9         44.83   48.74   32.53          75.28   -6.14   10.75          12.38  119.71           0.34    0.30    0.44    0.31            0.85    0.96    0.71           0.84     0.91
E10        42.66   48.75   25.74          75.29  -12.53   21.77          25.12  119.91           0.38    0.28    0.56    0.32            0.84    0.95    0.60           0.87     0.95
E11        40.77   48.63   20.31          75.22  -17.92   31.95          36.63  119.28           0.42    0.27    0.70    0.32            0.62    0.67    0.40           0.78     0.87
E12        39.39   48.52   17.02          75.15  -21.90   38.99          44.72  119.32           0.45    0.25    0.80    0.32            0.54    0.57    0.25           0.70     0.78
E13        42.81   52.11   54.45          77.34  -20.92  -13.17          24.72  212.21           0.54    0.21    0.18    0.31            0.63    0.64    0.41           0.71     0.78
E14        43.28   34.47   44.63          65.33   32.27  -22.72          39.47  324.85           0.23    0.60    0.24    0.44            0.59    0.65    0.60           0.69     0.79
E15        59.89   62.40   25.20          83.13   -0.67   36.23          36.23   91.05           0.15    0.21    0.58    0.19            0.67    0.77    0.58           0.79     0.89
E16        22.67   23.81   19.43          55.90   -1.31    0.47           1.42  162.23           0.62    0.63    0.67    0.63            0.65    0.66    0.52           0.88     0.96
E17        38.40   31.51   18.86          62.93   27.64   13.82          30.90   26.56           0.23    0.65    0.68    0.46            0.50    0.55    0.49           0.73     0.81
E18        38.24   48.44   25.90          75.10  -25.31   21.16          32.99  140.12           0.51    0.24    0.57    0.33            0.68    0.75    0.56           0.85     0.95
E19        26.77   26.41   44.06          58.42    5.40  -33.94          34.37  279.04           0.65    0.59    0.26    0.60            0.66    0.67    0.54           0.89     0.97
E20         7.32    8.71    1.40          35.42   -9.96   37.24          38.55  104.98           1.13    1.02    2.19    1.06            0.20    0.21    0.04           0.68     0.75
E21        24.78   29.50    6.50          61.22  -14.96   47.41          49.71  107.51           0.61    0.49    1.33    0.53            0.53    0.61    0.17           0.85     0.92
E22         8.68   18.29   13.84          49.84  -59.72    3.22          59.81  176.91           1.91    0.52    0.89    0.82            0.16    0.28    0.33           0.62     0.69
F1          3.59    4.42    3.26          25.01   -9.90    2.62          10.24  165.18           1.48    1.32    1.54    1.38            0.10    0.11    0.09           0.54     0.59
F2          3.09    4.58    2.81          25.49  -20.04    6.70          21.14  161.51           1.68    1.24    1.65    1.38            0.08    0.11    0.07           0.47     0.51
F3          2.50    4.51    2.28          25.28  -29.95   10.67          31.79  160.38           1.94    1.19    1.80    1.40            0.06    0.10    0.05           0.46     0.49
F4          1.63    4.41    1.68          24.97  -48.22   16.03          50.82  161.61           2.73    1.10    2.07    1.44            0.03    0.09    0.04           0.38     0.46
F5         11.78   14.77   10.66          45.31  -16.21    4.62          16.86  164.11           1.02    0.77    0.97    0.85            0.27    0.32    0.32           0.71     0.78
F6          9.40   14.68    8.88          45.19  -33.60   10.36          35.17  162.87           1.30    0.70    1.09    0.88            0.22    0.32    0.25           0.64     0.69
F7          7.70   14.85    7.34          45.42  -49.45   16.63          52.17  161.42           1.64    0.64    1.23    0.89            0.18    0.31    0.20           0.56     0.61
F8          6.06   14.35    6.17          44.72  -62.98   20.44          66.22  162.02           2.10    0.60    1.36    0.92            0.09    0.18    0.14           0.43     0.50
F9         30.24   34.67   26.17          65.49  -11.53    4.12          12.24  160.37           0.56    0.42    0.54    0.47            0.69    0.74    0.62           0.85     0.92
F10        26.58   34.13   23.67          65.06  -24.01    7.86          25.26  161.88           0.70    0.39    0.60    0.49            0.59    0.72    0.54           0.85     0.92
F11        24.05   34.18   21.71          65.11  -34.86   11.70          36.77  161.46           0.84    0.35    0.65    0.50            0.42    0.52    0.40           0.73     0.80
F12        21.81   34.07   20.07          65.02  -44.55   14.85          46.96  161.57           0.98    0.33    0.70    0.51            0.31    0.35    0.34           0.63     0.72
F13        38.75   48.83   53.70          75.35  -24.77  -15.82          29.39  212.58           0.63    0.22    0.19    0.35            0.52    0.55    0.37           0.65     0.73
F14        38.57   28.48   41.46          60.32   39.46  -27.42          48.05  325.21           0.26    0.74    0.27    0.51            0.46    0.47    0.59           0.60     0.67
F15        58.87   61.23   20.07          82.50   -0.41   45.00          45.00   90.51           0.15    0.22    0.71    0.20            0.65    0.80    0.37           0.78     0.85
F16        16.08   16.76   13.87          47.95   -0.50   -0.09           0.66  196.06           0.76    0.79    0.83    0.78            0.51    0.52    0.41           0.80     0.88
F17        33.00   25.10   13.33          57.17   34.37   17.24          38.45   26.64           0.26    0.81    0.84    0.55            0.40    0.41    0.36           0.63     0.71
