targets/wolf_faust/transmissive/A120115.it8
IT8.7/1
ORIGINATOR "Wolf Faust"
DESCRIPTOR "Agfachrome RSX, RSX II and CT Precisa, Type 3, L* a* b* (light D50, viewing angle 2)"
MANUFACTURER "Wolf Faust - http://www.coloraid.de"
CREATED "January 18, 2012"
PROD_DATE "2006:03"
DIFFUSE_GEOMETRY "opal"
SERIAL "A120115 Batch Average Data"
MATERIAL "Agfachrome RSX II"
KEYWORD "MEAN_DE" # Mean Delta E of samples compared to batch average
NUMBER_OF_FIELDS 18
BEGIN_DATA_FORMAT
SAMPLE_ID  XYZ_X   XYZ_Y   XYZ_Z          LAB_L   LAB_A   LAB_B          LAB_C   LAB_H          D_RED  D_GREEN  D_BLUE  D_VIS          STDEV_X STDEV_Y STDEV_Z        MEAN_DE  STDEV_DE
END_DATA_FORMAT
NUMBER_OF_SETS 288
BEGIN_DATA
A1          1.74    1.56    1.17          12.99    6.32    1.59           6.52   14.10           1.60    1.95    2.00    1.79            0.03    0.03    0.03           0.25     0.27
A2          2.19    1.54    1.02          12.85   17.30    3.46          17.64   11.30           1.39    2.15    2.03    1.75            0.03    0.03    0.03           0.29     0.34 
A3          2.66    1.52    0.85          12.75   27.08    5.99          27.73   12.47           1.23    2.43    2.09    1.71            0.03    0.02    0.01           0.21     0.25
A4          3.66    1.64    0.64          13.47   41.06   11.19          42.55   15.24           1.01    3.29    2.14    1.62            0.04    0.02    0.01           0.23     0.25 
A5          8.33    7.53    5.37          32.98    9.94    4.03          10.73   22.05           0.94    1.23    1.27    1.10            0.13    0.12    0.12           0.43     0.49
A6         10.13    7.51    4.82          32.95   24.96    6.81          25.88   15.25           0.76    1.37    1.31    1.07            0.13    0.10    0.12           0.37     0.41 
A7         12.29    7.54    3.92          33.01   40.35   12.09          42.12   16.68           0.60    1.58    1.39    1.03            0.18    0.12    0.11           0.39     0.43
A8         16.07    8.41    3.32          34.82   56.14   19.06          59.29   18.75           0.42    1.84    1.44    0.95            0.07    0.05    0.05           0.26     0.29 
A9         26.52   26.59   20.48          58.59    3.63    2.92           4.67   38.72           0.52    0.60    0.64    0.57            0.41    0.42    0.41           0.51     0.57
A10        28.76   26.67   19.22          58.66   12.23    5.67          13.48   24.87           0.43    0.64    0.67    0.56            0.43    0.41    0.35           0.45     0.51
A11        31.58   27.14   18.32          59.10   20.93    8.38          22.55   21.83           0.34    0.68    0.69    0.54            0.42    0.39    0.37           0.42     0.48
A12        35.48   27.60   16.72          59.52   32.76   12.75          35.15   21.27           0.24    0.75    0.73    0.51            0.35    0.38    0.35           0.49     0.59 
A13        64.74   68.58   56.82          86.29   -3.10   -0.24           3.12  184.54           0.19    0.15    0.16    0.17            0.36    0.39    0.19           0.33     0.36
A14        68.43   69.42   56.27          86.71    3.27    1.05           3.45   18.19           0.13    0.17    0.17    0.16            0.40    0.58    0.31           0.45     0.54 
A15        69.23   71.13   54.37          87.55    1.39    4.50           4.71   72.82           0.13    0.15    0.18    0.14            0.32    0.41    0.42           0.35     0.38
A16        65.65   68.96   54.63          86.48   -1.87    2.39           3.04  127.98           0.18    0.15    0.18    0.16            0.53    0.54    0.45           0.32     0.34
A17        67.17   67.99   53.86          86.00    3.58    2.38           4.32   33.93           0.14    0.18    0.19    0.16            0.45    0.65    0.46           0.54     0.62
A18        63.03   67.43   54.02          85.72   -4.50    1.72           4.82  159.04           0.21    0.16    0.19    0.17            0.63    0.59    0.48           0.39     0.43 
A19        64.23   66.72   55.91          85.36   -0.25   -0.89           0.98  250.59           0.18    0.17    0.17    0.18            0.70    0.79    0.34           0.51     0.59
A20         5.33    2.51    1.63          17.98   44.02    4.55          44.26    5.90           0.87    2.74    1.72    1.46            0.12    0.05    0.05           0.45     0.51 
A21        25.27   17.83   12.70          49.29   38.54    5.39          38.92    7.96           0.35    1.02    0.84    0.69            0.45    0.36    0.46           0.66     0.78
A22        51.31   47.94   30.93          74.78   13.86   12.33          18.55   41.68           0.18    0.38    0.45    0.30            0.75    0.94    0.90           0.78     0.94
B1          2.73    2.61    1.59          18.40    4.04    5.66           6.95   54.47           1.43    1.67    1.87    1.57            0.05    0.05    0.04           0.26     0.30
B2          3.27    2.60    0.93          18.36   13.82   14.41          19.97   46.21           1.26    1.79    2.16    1.53            0.04    0.04    0.02           0.22     0.25
B3          3.78    2.55    0.54          18.16   22.57   21.10          30.89   43.07           1.13    1.94    2.45    1.51            0.04    0.03    0.01           0.21     0.23
B4          4.11    2.43    0.24          17.58   29.97   25.76          39.52   40.68           1.05    2.15    2.92    1.50            0.04    0.02    0.00           0.20     0.24
B5         10.93   10.18    5.92          38.16    8.53   10.29          13.37   50.31           0.83    1.08    1.24    0.97            0.15    0.14    0.14           0.43     0.47
B6         12.80   10.21    3.84          38.22   21.34   21.56          30.34   45.29           0.68    1.18    1.46    0.94            0.18    0.15    0.08           0.35     0.41
B7         15.23   10.36    2.35          38.48   35.47   32.89          48.37   42.83           0.53    1.31    1.72    0.90            0.20    0.15    0.05           0.34     0.39
B8         18.99   10.76    1.21          39.18   53.08   46.18          70.36   41.03           0.37    1.56    2.05    0.85            0.10    0.07    0.02           0.21     0.23
B9         31.96   32.55   23.63          63.79    2.12    5.74           6.12   69.75           0.45    0.51    0.58    0.48            0.54    0.54    0.46           0.51     0.58
B10        34.12   32.82   20.95          64.01    8.76   11.32          14.32   52.26           0.37    0.53    0.64    0.47            0.61    0.62    0.49           0.56     0.64
B11        36.23   33.18   18.78          64.30   14.66   16.36          21.96   48.14           0.31    0.56    0.69    0.45            0.59    0.62    0.39           0.51     0.60
B12        40.29   34.00   15.26          64.96   24.82   25.64          35.69   45.94           0.21    0.60    0.79    0.43            0.47    0.56    0.37           0.60     0.73
B13        57.72   63.33   55.15          83.61   -7.99   -3.11           8.58  201.26           0.28    0.17    0.18    0.21            0.55    0.55    0.22           0.43     0.51
B14        59.63   57.62   51.97          80.53    9.92   -5.01          11.12  333.26           0.17    0.27    0.20    0.23            0.55    0.76    0.34           0.71     0.88
B15        64.43   66.97   43.90          85.49   -0.32   12.92          12.93   91.44           0.15    0.18    0.29    0.17            0.53    0.62    0.78           0.55     0.64
B16        49.85   52.39   41.79          77.51   -1.78    1.82           2.55  134.50           0.29    0.28    0.31    0.28            1.04    1.15    0.91           0.65     0.76
B17        57.31   55.88   41.21          79.54    8.56    6.06          10.49   35.32           0.17    0.29    0.31    0.24            0.78    0.98    0.94           0.67     0.80
B18        55.52   61.67   44.65          82.73   -9.62    7.26          12.05  142.96           0.28    0.18    0.28    0.22            0.81    0.75    0.87           0.56     0.66
B19        51.56   53.60   51.85          78.22   -0.32   -8.84           8.86  267.76           0.30    0.27    0.20    0.28            1.03    1.20    0.48           0.81     1.06
B20         4.15    2.60    0.92          18.37   27.02   14.58          30.70   28.35           1.07    2.04    2.11    1.49            0.09    0.07    0.03           0.38     0.42
B21        15.27   10.40    3.69          38.55   35.41   23.08          42.26   33.09           0.53    1.31    1.46    0.91            0.30    0.22    0.12           0.48     0.53
B22        31.74   27.51   15.21          59.44   20.05   16.26          25.81   39.03           0.34    0.67    0.79    0.53            0.65    0.61    0.56           0.67     0.78
C1          5.45    5.70    3.19          28.64   -0.53    9.34           9.36   93.22           1.19    1.28    1.56    1.24            0.09    0.09    0.07           0.30     0.35
C2          5.79    5.62    1.95          28.44    4.20   19.28          19.73   77.71           1.11    1.32    1.84    1.23            0.07    0.07    0.03           0.25     0.28
C3          6.08    5.50    1.05          28.10    8.93   29.41          30.74   73.10           1.05    1.36    2.23    1.22            0.05    0.05    0.01           0.18     0.20
C4          6.57    5.54    0.51          28.22   13.66   39.02          41.34   70.71           0.99    1.40    2.77    1.20            0.06    0.05    0.00           0.22     0.28
C5         21.86   21.99   10.93          54.02    3.07   18.78          19.03   80.72           0.57    0.69    0.97    0.64            0.30    0.32    0.24           0.46     0.52
C6         23.52   21.69    6.12          53.70   11.97   36.14          38.07   71.68           0.48    0.75    1.29    0.63            0.22    0.23    0.10           0.31     0.34
C7         25.74   21.76    2.96          53.77   21.19   54.33          58.32   68.70           0.39    0.80    1.73    0.61            0.24    0.23    0.04           0.34     0.40
C8         29.22   22.36    0.95          54.41   32.38   76.19          82.79   66.98           0.30    0.86    2.64    0.58            0.18    0.15    0.01           0.27     0.31
C9         38.32   39.40   26.69          69.03    1.09    9.33           9.40   83.37           0.37    0.42    0.52    0.40            0.59    0.64    0.48           0.55     0.60
C10        39.70   39.91   22.54          69.40    3.83   17.49          17.90   77.64           0.33    0.43    0.61    0.39            0.60    0.63    0.40           0.50     0.56
C11        41.08   39.78   18.73          69.31    8.50   25.09          26.49   71.27           0.28    0.45    0.71    0.38            0.53    0.59    0.31           0.46     0.56
C12        44.28   39.82   11.29          69.34   17.91   44.09          47.60   67.89           0.19    0.49    0.98    0.36            0.43    0.55    0.20           0.53     0.66
C13        51.52   59.09   54.55          81.34  -13.85   -6.40          15.26  204.79           0.38    0.18    0.18    0.25            0.55    0.53    0.20           0.50     0.59
C14        53.31   48.16   48.77          74.93   18.46  -11.07          21.53  329.05           0.19    0.38    0.22    0.30            0.64    0.82    0.41           0.74     0.92
C15        62.61   65.43   35.72          84.70   -1.09   22.34          22.36   92.80           0.16    0.19    0.40    0.18            0.49    0.59    0.72           0.58     0.69
C16        37.38   39.56   31.84          69.15   -2.46    1.21           2.76  153.71           0.42    0.40    0.44    0.41            0.88    0.96    0.79           0.67     0.77
C17        49.44   45.33   31.15          73.10   16.13    9.09          18.52   29.41           0.19    0.41    0.44    0.32            0.80    0.97    0.95           0.78     0.96
C18        47.94   56.27   36.65          79.77  -16.69   12.53          20.87  143.10           0.37    0.20    0.39    0.26            0.84    0.78    0.90           0.66     0.81
C19        40.26   41.57   48.35          70.57    0.55  -18.10          18.12  271.69           0.43    0.38    0.23    0.39            1.02    1.18    0.52           0.99     1.23
C20        10.54    8.00    1.10          33.99   23.61   38.80          45.42   58.68           0.74    1.32    2.20    1.03            0.23    0.19    0.03           0.46     0.55
C21        19.76   19.07   10.24          50.77    6.99   15.37          16.88   65.55           0.59    0.78    0.99    0.70            0.50    0.51    0.38           0.65     0.73
C22        25.49   21.90    9.65          53.91   19.55   22.73          29.99   49.30           0.42    0.78    1.02    0.62            0.50    0.46    0.29           0.51     0.60
D1          3.62    4.00    2.23          23.67   -3.62    8.40           9.15  113.29           1.39    1.41    1.74    1.40            0.05    0.06    0.04           0.28     0.31
D2          3.53    3.95    1.36          23.49   -4.18   17.24          17.74  103.64           1.39    1.40    2.04    1.40            0.03    0.04    0.02           0.22     0.25
D3          3.48    3.95    0.82          23.51   -5.14   25.09          25.61  101.59           1.41    1.39    2.40    1.40            0.04    0.04    0.01           0.20     0.24
D4          3.56    4.08    0.53          23.94   -5.58   31.21          31.70  100.14           1.42    1.36    2.78    1.38            0.04    0.04    0.01           0.25     0.30
D5         15.74   17.29    8.80          48.63   -5.33   16.59          17.43  107.82           0.77    0.76    1.08    0.76            0.16    0.18    0.17           0.37     0.41
D6         15.49   16.97    4.72          48.22   -5.03   33.67          34.05   98.50           0.75    0.77    1.44    0.76            0.21    0.24    0.07           0.38     0.43
D7         15.25   16.93    2.22          48.16   -6.19   50.74          51.12   96.95           0.77    0.76    1.97    0.76            0.21    0.22    0.03           0.35     0.41
D8         15.13   16.93    1.12          48.18   -6.94   62.97          63.35   96.29           0.80    0.75    2.61    0.76            0.17    0.17    0.01           0.34     0.41
D9         44.20   47.04   23.32          74.22   -3.33   24.30          24.53   97.80           0.31    0.33    0.61    0.32            0.60    0.67    0.42           0.48     0.53
D10        44.32   47.22   13.50          74.33   -3.48   46.36          46.50   94.29           0.29    0.33    0.92    0.31            0.55    0.61    0.21           0.45     0.51
D11        43.91   47.05    6.86          74.22   -4.20   68.26          68.39   93.52           0.29    0.33    1.34    0.31            0.45    0.47    0.08           0.41     0.46
D12        43.60   47.29    4.08          74.38   -5.77   82.44          82.64   94.01           0.31    0.32    1.74    0.31            0.40    0.38    0.05           0.38     0.45
D13        46.01   55.02   53.83          79.05  -18.98   -9.57          21.26  206.75           0.47    0.19    0.19    0.28            0.54    0.56    0.27           0.49     0.58
D14        48.09   40.79   45.86          70.02   25.71  -16.12          30.34  327.92           0.21    0.49    0.24    0.37            0.57    0.70    0.39           0.69     0.85
D15        61.03   63.91   28.59          83.92   -1.39   31.81          31.84   92.51           0.15    0.20    0.52    0.18            0.52    0.61    0.71           0.67     0.78
D16        27.44   29.59   23.74          61.29   -4.30    1.25           4.50  163.80           0.56    0.52    0.58    0.53            0.71    0.78    0.71           0.68     0.78
D17        43.08   37.23   22.89          67.44   22.56   13.44          26.26   30.77           0.21    0.54    0.59    0.40            0.69    0.80    0.80           0.79     0.96
D18        41.22   51.09   29.41          76.73  -23.05   18.10          29.31  141.87           0.47    0.23    0.50    0.31            0.90    0.90    0.90           0.76     0.91
D19        31.03   31.99   45.07          63.33    0.69  -26.71          26.72  271.46           0.58    0.49    0.25    0.51            0.83    0.96    0.50           0.95     1.18
D20         2.43    2.55    0.92          18.15   -0.65   14.17          14.19   92.62           1.52    1.63    2.22    1.58            0.06    0.07    0.02           0.39     0.43
D21        28.27   26.46    1.30          58.47   11.18   78.32          79.11   81.87           0.42    0.65    2.55    0.54            0.55    0.55    0.03           0.61     0.79
D22        37.68   41.97   49.65          70.84   -8.80  -19.11          21.05  245.23           0.53    0.34    0.22    0.40            0.85    1.01    0.40           0.83     1.07
E1          4.66    5.61    3.22          28.41   -9.34    8.77          12.82  136.82           1.34    1.22    1.57    1.27            0.07    0.09    0.06           0.33     0.38
E2          4.31    5.63    2.07          28.46  -14.21   18.13          23.04  128.09           1.41    1.18    1.85    1.27            0.06    0.08    0.04           0.30     0.33
E3          3.94    5.63    1.30          28.47  -19.50   26.51          32.91  126.34           1.52    1.15    2.19    1.27            0.06    0.08    0.02           0.30     0.34
E4          3.63    5.70    0.73          28.64  -24.82   35.55          43.36  124.92           1.66    1.10    2.72    1.27            0.05    0.07    0.01           0.35     0.42
E5         22.34   26.49   14.10          58.50  -14.04   17.47          22.42  128.80           0.68    0.54    0.85    0.59            0.27    0.33    0.23           0.40     0.45
E6         20.42   26.55    8.83          58.55  -23.33   33.60          40.90  124.77           0.76    0.50    1.13    0.59            0.32    0.41    0.17           0.40     0.47
E7         18.55   26.43    4.95          58.44  -32.23   50.07          59.55  122.77           0.88    0.47    1.53    0.60            0.22    0.28    0.07           0.32     0.36
E8         18.61   27.73    3.27          59.64  -37.10   62.23          72.45  120.80           0.93    0.43    1.87    0.58            0.11    0.14    0.03           0.29     0.34
E9         42.35   46.94   31.02          74.15   -8.51   11.09          13.98  127.51           0.38    0.31    0.46    0.33            0.74    0.83    0.54           0.57     0.63
E10        40.02   46.69   24.28          73.99  -14.93   22.13          26.69  124.01           0.42    0.29    0.59    0.34            0.62    0.67    0.38           0.51     0.57
E11        38.26   46.67   19.10          73.98  -20.42   32.33          38.24  122.28           0.46    0.28    0.73    0.34            0.55    0.56    0.29           0.49     0.55
E12        36.95   46.75   15.89          74.03  -24.88   39.73          46.88  122.06           0.50    0.26    0.84    0.34            0.45    0.43    0.24           0.43     0.49
E13        41.91   51.82   53.23          77.17  -22.85  -12.16          25.89  208.02           0.56    0.21    0.20    0.32            0.43    0.44    0.21           0.47     0.55
E14        42.94   33.90   42.78          64.88   33.18  -21.21          39.38  327.42           0.23    0.62    0.26    0.44            0.44    0.49    0.34           0.53     0.65
E15        59.78   62.55   22.85          83.21   -1.28   40.69          40.71   91.80           0.15    0.21    0.64    0.19            0.45    0.56    0.54           0.60     0.70
E16        19.72   21.28   17.16          53.25   -3.92    0.93           4.05  166.64           0.70    0.67    0.73    0.68            0.50    0.55    0.56           0.67     0.76
E17        37.13   29.89   16.41          61.55   29.48   16.99          34.03   29.95           0.23    0.69    0.74    0.48            0.56    0.62    0.59           0.70     0.89
E18        36.02   46.70   23.41          74.00  -27.84   23.77          36.61  139.51           0.55    0.25    0.62    0.35            0.74    0.74    0.70           0.73     0.89
E19        23.95   24.09   41.67          56.17    3.22  -34.84          34.99  275.28           0.72    0.62    0.28    0.65            0.59    0.68    0.45           0.79     1.00
E20         5.96    7.39    1.22          32.68  -12.10   34.83          36.87  109.16           1.24    1.07    2.27    1.13            0.14    0.18    0.03           0.48     0.58
E21        22.08   27.26    5.92          59.21  -18.31   46.59          50.06  111.45           0.68    0.51    1.38    0.57            0.52    0.65    0.17           0.60     0.73
E22         7.61   16.77   12.19          47.97  -61.28    4.58          61.46  175.73           2.04    0.55    0.96    0.86            0.09    0.15    0.32           0.54     0.69
F1          3.05    4.04    2.99          23.81  -13.41    2.48          13.64  169.50           1.60    1.34    1.59    1.43            0.04    0.06    0.06           0.33     0.38
F2          2.51    4.00    2.47          23.66  -22.83    6.24          23.67  164.71           1.83    1.28    1.72    1.45            0.04    0.06    0.04           0.31     0.34
F3          2.14    4.16    2.17          24.20  -32.80    9.81          34.23  163.35           2.10    1.21    1.83    1.45            0.04    0.05    0.03           0.35     0.37
F4          1.57    4.26    1.58          24.50  -47.89   16.37          50.62  161.13           2.75    1.12    2.10    1.46            0.03    0.06    0.02           0.27     0.32
F5         10.24   13.57    9.54          43.61  -20.19    5.36          20.89  165.14           1.12    0.79    1.03    0.90            0.12    0.15    0.14           0.40     0.46
F6          8.31   13.67    7.89          43.75  -36.70   11.55          38.47  162.52           1.40    0.72    1.16    0.91            0.11    0.16    0.14           0.39     0.43
F7          6.74   13.76    6.77          43.88  -52.18   16.33          54.67  162.62           1.78    0.66    1.27    0.93            0.12    0.20    0.13           0.37     0.40
F8          5.50   13.40    5.61          43.36  -63.40   20.74          66.70  161.89           2.20    0.63    1.41    0.95            0.05    0.08    0.06           0.25     0.28
F9         27.38   32.38   24.41          63.65  -14.72    4.08          15.27  164.50           0.63    0.44    0.57    0.51            0.43    0.48    0.36           0.44     0.49
F10        23.91   31.84   21.96          63.21  -27.29    7.94          28.42  163.78           0.78    0.41    0.64    0.53            0.37    0.47    0.36           0.47     0.53
F11        21.87   32.22   20.30          63.52  -37.85   11.80          39.64  162.68           0.91    0.37    0.69    0.53            0.32    0.42    0.34           0.43     0.48
F12        20.83   33.22   19.19          64.34  -46.28   15.53          48.82  161.46           1.02    0.33    0.73    0.52            0.26    0.34    0.35           0.46     0.51
F13        37.84   48.47   52.52          75.12  -26.68  -14.93          30.57  209.24           0.66    0.22    0.20    0.35            0.37    0.40    0.18           0.45     0.52
F14        38.48   28.32   39.85          60.17   39.77  -25.57          47.28  327.26           0.25    0.75    0.29    0.51            0.39    0.42    0.33           0.50     0.62
F15        58.63   61.11   17.96          82.44   -0.71   49.43          49.43   90.83           0.15    0.22    0.77    0.20            0.50    0.65    0.46           0.61     0.72
F16        13.61   14.87   11.98          45.46   -4.60    0.86           4.70  169.29           0.86    0.82    0.90    0.84            0.32    0.38    0.43           0.65     0.75
F17        32.17   24.13   11.41          56.21   35.53   21.09          41.32   30.68           0.26    0.84    0.92    0.56            0.45    0.47    0.46           0.71     0.89
