targets/wolf_faust/transmissive/A120828.it8
IT8.7/1
ORIGINATOR "Wolf Faust"
DESCRIPTOR "Agfachrome RSX, RSX II and CT Precisa, Type 3, L* a* b* (light D50, viewing angle 2)"
MANUFACTURER "Wolf Faust - http://www.coloraid.de"
CREATED "August 28, 2012"
PROD_DATE "2012:08"
DIFFUSE_GEOMETRY "opal"
SERIAL "A120828 Batch Average Data"
MATERIAL "Agfachrome RSX II"
KEYWORD "MEAN_DE" # Mean Delta E of samples compared to batch average
NUMBER_OF_FIELDS 18
BEGIN_DATA_FORMAT
SAMPLE_ID  XYZ_X   XYZ_Y   XYZ_Z          LAB_L   LAB_A   LAB_B          LAB_C   LAB_H          D_RED  D_GREEN  D_BLUE  D_VIS          STDEV_X STDEV_Y STDEV_Z        MEAN_DE  STDEV_DE
END_DATA_FORMAT
NUMBER_OF_SETS 288
BEGIN_DATA
A1          2.31    1.99    1.33          15.44    8.64    3.72           9.41   23.32           1.46    1.87    1.94    1.67            0.06    0.05    0.04           0.44     0.48
A2          2.85    1.99    1.12          15.41   19.12    6.49          20.19   18.75           1.28    2.04    2.00    1.64            0.08    0.05    0.03           0.47     0.52 
A3          3.44    1.95    0.96          15.22   30.05    8.56          31.25   15.90           1.12    2.35    2.03    1.60            0.09    0.05    0.03           0.47     0.56
A4          4.06    1.95    0.80          15.22   39.32   11.21          40.89   15.91           0.99    2.83    2.07    1.57            0.11    0.05    0.03           0.53     0.59 
A5          9.89    8.53    5.88          35.06   13.98    5.10          14.88   20.01           0.85    1.21    1.22    1.04            0.24    0.18    0.13           0.63     0.71
A6         11.79    8.53    5.21          35.06   28.09    8.40          29.32   16.65           0.69    1.34    1.27    1.01            0.29    0.19    0.13           0.64     0.71 
A7         13.72    8.41    4.45          34.82   41.96   12.08          43.67   16.06           0.55    1.54    1.32    0.98            0.23    0.13    0.10           0.53     0.60
A8         15.91    8.42    3.74          34.84   55.10   16.36          57.48   16.54           0.43    1.82    1.38    0.95            0.07    0.05    0.08           0.41     0.46 
A9         29.42   28.43   21.94          60.27    7.82    2.91           8.36   20.40           0.46    0.59    0.60    0.54            0.65    0.60    0.59           0.72     0.79
A10        31.50   28.70   21.05          60.51   14.54    5.08          15.41   19.27           0.39    0.62    0.62    0.52            0.59    0.53    0.55           0.67     0.75
A11        34.02   28.81   20.18          60.61   23.10    7.01          24.14   16.89           0.31    0.67    0.64    0.51            0.55    0.51    0.57           0.65     0.75
A12        35.80   28.36   18.57          60.21   30.85    9.77          32.37   17.56           0.25    0.72    0.67    0.50            0.39    0.41    0.51           0.67     0.77 
A13        63.69   67.37   56.83          85.69   -2.89   -1.29           3.18  203.58           0.20    0.16    0.16    0.17            0.42    0.35    0.34           0.48     0.53
A14        68.55   69.69   56.63          86.84    2.95    0.90           3.09   17.09           0.13    0.16    0.16    0.15            0.28    0.31    0.29           0.28     0.31 
A15        68.24   69.90   53.47          86.95    1.84    4.43           4.80   67.31           0.13    0.16    0.19    0.15            0.29    0.28    0.52           0.34     0.41
A16        66.31   68.93   56.66          86.47   -0.35    0.23           0.48  149.81           0.17    0.16    0.16    0.16            0.22    0.21    0.23           0.26     0.29
A17        68.11   69.26   55.51          86.63    2.92    1.71           3.39   30.43           0.14    0.17    0.17    0.16            0.20    0.24    0.23           0.19     0.22
A18        62.45   66.51   53.21          85.25   -3.84    1.80           4.25  154.86           0.21    0.16    0.19    0.18            0.41    0.32    0.37           0.41     0.46 
A19        62.86   65.08   55.68          84.53    0.25   -2.10           2.12  277.73           0.19    0.18    0.17    0.19            0.46    0.44    0.24           0.47     0.53
A20         6.33    3.03    1.87          20.16   45.79    5.75          46.15    7.16           0.80    2.61    1.66    1.38            0.13    0.06    0.06           0.48     0.56 
A21        26.24   18.25   13.94          49.80   40.39    2.90          40.50    4.11           0.34    1.03    0.79    0.68            0.28    0.24    0.44           0.71     0.80
A22        51.70   48.48   32.41          75.12   13.43   10.65          17.14   38.39           0.18    0.37    0.42    0.30            0.69    0.68    0.88           0.75     0.84
B1          3.31    2.96    1.68          19.90    7.72    7.26          10.60   43.22           1.32    1.66    1.85    1.50            0.08    0.07    0.04           0.43     0.50
B2          3.86    2.90    0.98          19.65   17.39   15.78          23.48   42.21           1.17    1.79    2.13    1.48            0.10    0.07    0.02           0.48     0.55
B3          4.69    3.04    0.57          20.19   26.52   24.00          35.77   42.15           1.03    1.93    2.42    1.43            0.11    0.07    0.01           0.48     0.58
B4          5.17    2.98    0.30          19.96   33.46   28.72          44.10   40.64           0.94    2.11    2.78    1.41            0.15    0.08    0.01           0.63     0.74
B5         12.78   11.37    6.26          40.19   12.74   12.23          17.66   43.85           0.74    1.06    1.21    0.92            0.26    0.21    0.13           0.62     0.68
B6         14.76   11.53    4.31          40.46   24.09   22.60          33.03   43.18           0.61    1.14    1.40    0.88            0.32    0.22    0.08           0.65     0.72
B7         16.54   11.13    2.59          39.79   37.33   33.14          49.92   41.59           0.49    1.30    1.66    0.87            0.29    0.19    0.05           0.50     0.56
B8         19.13   11.12    1.41          39.77   51.23   44.62          67.94   41.05           0.37    1.50    1.97    0.84            0.09    0.07    0.02           0.30     0.34
B9         35.28   35.10   25.75          65.82    4.94    5.43           7.35   47.73           0.39    0.48    0.53    0.45            0.74    0.72    0.64           0.69     0.77
B10        36.74   34.71   22.34          65.52   11.12   11.17          15.76   45.12           0.33    0.52    0.60    0.44            0.63    0.63    0.56           0.64     0.74
B11        38.31   34.67   20.15          65.49   16.35   15.50          22.53   43.47           0.28    0.55    0.65    0.43            0.59    0.59    0.55           0.63     0.72
B12        40.21   34.24   17.20          65.15   23.76   21.35          31.95   41.93           0.22    0.59    0.73    0.43            0.47    0.51    0.46           0.61     0.71
B13        58.97   63.17   54.46          83.53   -4.60   -2.52           5.26  208.52           0.25    0.18    0.18    0.21            0.78    0.70    0.48           0.59     0.66
B14        60.11   58.81   52.16          81.19    8.20   -4.08           9.17  333.61           0.18    0.26    0.19    0.22            0.88    0.84    0.59           0.67     0.74
B15        63.73   65.71   46.99          84.85    0.84    8.11           8.15   84.05           0.16    0.19    0.25    0.18            0.62    0.59    0.78           0.52     0.58
B16        53.63   55.80   45.50          79.50   -0.44    0.66           0.83  128.15           0.26    0.25    0.27    0.25            0.92    0.92    0.79           0.61     0.66
B17        59.00   58.23   44.81          80.87    6.94    3.84           7.94   28.95           0.17    0.26    0.27    0.23            0.84    0.79    0.72           0.54     0.59
B18        57.75   62.35   47.44          83.10   -5.69    4.56           7.30  141.28           0.25    0.19    0.25    0.21            0.72    0.62    0.64           0.57     0.61
B19        54.71   56.50   52.19          79.89    0.58   -6.33           6.36  275.28           0.26    0.25    0.20    0.25            0.63    0.64    0.33           0.52     0.59
B20         4.98    3.04    1.01          20.18   30.26   16.29          34.37   28.29           0.98    2.02    2.06    1.42            0.12    0.08    0.03           0.46     0.54
B21        16.73   11.24    3.98          39.99   37.57   23.72          44.43   32.27           0.49    1.30    1.42    0.87            0.28    0.20    0.11           0.48     0.52
B22        33.48   28.40   16.41          60.24   22.77   14.72          27.12   32.88           0.31    0.67    0.74    0.51            0.44    0.40    0.52           0.67     0.78
C1          6.23    6.06    3.20          29.55    4.22   10.84          11.63   68.73           1.09    1.29    1.55    1.20            0.12    0.11    0.07           0.46     0.52
C2          6.70    6.11    1.98          29.69    8.61   21.12          22.81   67.81           1.02    1.32    1.83    1.18            0.16    0.14    0.04           0.50     0.59
C3          7.21    6.15    1.06          29.79   13.28   32.11          34.75   67.54           0.95    1.35    2.22    1.16            0.15    0.13    0.02           0.54     0.62
C4          7.73    6.23    0.61          30.00   17.33   40.29          43.86   66.72           0.90    1.38    2.63    1.15            0.18    0.14    0.01           0.61     0.72
C5         24.15   23.24   11.45          55.32    7.74   19.44          20.93   68.28           0.51    0.69    0.94    0.61            0.56    0.53    0.31           0.72     0.82
C6         25.89   23.34    6.47          55.42   14.72   37.52          40.31   68.58           0.43    0.73    1.25    0.60            0.44    0.37    0.12           0.60     0.68
C7         27.83   23.23    3.10          55.31   23.06   56.00          60.56   67.61           0.36    0.78    1.70    0.58            0.44    0.39    0.07           0.47     0.57
C8         29.86   22.97    1.10          55.04   32.07   75.05          81.61   66.86           0.30    0.85    2.50    0.57            0.23    0.22    0.02           0.40     0.46
C9         41.33   41.71   28.33          70.67    3.42    9.39          10.00   69.96           0.33    0.40    0.49    0.37            0.79    0.83    0.68           0.66     0.74
C10        42.38   41.78   24.33          70.72    6.36   16.41          17.60   68.83           0.29    0.42    0.57    0.36            0.74    0.78    0.64           0.60     0.70
C11        43.37   41.56   19.69          70.56    9.99   25.20          27.11   68.37           0.25    0.44    0.68    0.36            0.66    0.70    0.57           0.66     0.73
C12        45.08   41.06   13.39          70.21   16.46   39.57          42.86   67.42           0.19    0.47    0.89    0.35            0.52    0.58    0.37           0.56     0.65
C13        52.80   59.09   53.91          81.34  -10.52   -5.72          11.97  208.48           0.34    0.19    0.19    0.24            0.79    0.72    0.48           0.68     0.75
C14        53.51   49.20   48.99          75.57   16.15  -10.20          19.11  327.75           0.20    0.36    0.22    0.30            0.78    0.74    0.60           0.68     0.75
C15        62.18   64.53   38.80          84.24   -0.11   17.32          17.32   90.34           0.16    0.19    0.35    0.18            0.57    0.54    0.74           0.56     0.64
C16        41.06   42.69   35.00          71.34   -0.30    0.32           0.59  139.53           0.37    0.37    0.39    0.37            0.60    0.57    0.60           0.61     0.67
C17        51.10   47.82   34.76          74.71   13.61    6.48          15.08   25.43           0.19    0.38    0.39    0.30            0.83    0.80    0.83           0.63     0.69
C18        50.43   57.44   39.59          80.43  -12.80    9.69          16.06  142.86           0.33    0.20    0.34    0.25            0.74    0.63    0.65           0.65     0.70
C19        43.48   44.28   48.67          72.41    2.32  -15.29          15.46  278.64           0.38    0.36    0.22    0.36            0.70    0.70    0.37           0.64     0.73
C20        12.00    8.83    1.19          35.65   26.98   40.40          48.58   56.27           0.67    1.31    2.15    0.98            0.26    0.17    0.03           0.52     0.64
C21        22.03   20.33   11.16          52.20   11.65   14.93          18.95   52.02           0.53    0.77    0.94    0.67            0.44    0.38    0.31           0.66     0.74
C22        27.10   22.92   10.52          54.99   21.53   21.75          30.61   45.28           0.39    0.78    0.97    0.60            0.45    0.40    0.31           0.55     0.62
D1          4.23    4.42    2.36          25.02   -0.48    9.60           9.62   92.88           1.30    1.39    1.71    1.35            0.09    0.07    0.05           0.46     0.50
D2          4.10    4.33    1.42          24.73   -1.00   18.55          18.58   93.09           1.30    1.39    2.02    1.35            0.10    0.10    0.04           0.46     0.51
D3          4.19    4.40    0.83          24.96   -0.82   27.49          27.50   91.71           1.29    1.38    2.40    1.34            0.08    0.08    0.02           0.42     0.51
D4          4.03    4.26    0.61          24.51   -1.05   30.77          30.79   91.96           1.32    1.39    2.64    1.35            0.08    0.07    0.01           0.55     0.61
D5         18.11   19.02    9.39          50.71   -1.23   18.10          18.15   93.87           0.68    0.74    1.04    0.71            0.39    0.38    0.22           0.70     0.77
D6         17.87   18.76    5.07          50.40   -1.15   35.57          35.60   91.85           0.67    0.74    1.40    0.71            0.37    0.35    0.13           0.72     0.81
D7         17.52   18.39    2.20          49.97   -1.17   54.00          54.02   91.24           0.68    0.75    1.98    0.71            0.37    0.35    0.04           0.77     0.85
D8         17.55   18.55    1.27          50.15   -1.79   64.26          64.29   91.59           0.70    0.74    2.48    0.71            0.31    0.32    0.03           0.73     0.85
D9         47.21   49.23   24.95          75.59   -0.72   23.69          23.70   91.73           0.27    0.32    0.57    0.30            0.83    0.91    0.66           0.64     0.71
D10        46.92   49.29   13.84          75.63   -1.69   47.70          47.73   92.03           0.25    0.32    0.90    0.29            0.73    0.80    0.39           0.56     0.64
D11        46.13   48.88    6.98          75.37   -2.80   69.76          69.82   92.30           0.26    0.32    1.33    0.29            0.61    0.56    0.15           0.45     0.53
D12        45.72   48.64    4.31          75.22   -3.31   82.50          82.57   92.30           0.27    0.32    1.70    0.29            0.63    0.51    0.09           0.57     0.63
D13        47.37   55.26   53.37          79.19  -15.79   -8.83          18.10  209.18           0.43    0.20    0.19    0.28            0.78    0.71    0.45           0.75     0.83
D14        48.22   41.81   46.12          70.74   23.00  -15.19          27.56  326.57           0.22    0.47    0.24    0.36            0.67    0.71    0.56           0.72     0.82
D15        60.81   63.36   31.58          83.63   -0.67   26.57          26.58   91.44           0.16    0.20    0.46    0.19            0.47    0.45    0.67           0.60     0.70
D16        31.27   32.66   26.69          63.88   -0.83    0.45           1.00  153.95           0.49    0.49    0.52    0.49            0.69    0.66    0.67           0.68     0.75
D17        44.50   39.51   26.30          69.12   19.50   10.16          21.99   27.49           0.22    0.50    0.52    0.38            0.62    0.62    0.77           0.77     0.84
D18        43.57   52.40   32.09          77.52  -19.45   15.27          24.73  141.86           0.43    0.22    0.45    0.29            0.75    0.66    0.80           0.78     0.86
D19        34.25   34.48   45.37          65.34    3.50  -23.60          23.86  278.43           0.50    0.47    0.25    0.48            0.66    0.65    0.44           0.65     0.75
D20         2.92    2.84    0.98          19.40    3.20   15.47          15.80   78.30           1.41    1.62    2.19    1.53            0.08    0.07    0.02           0.39     0.43
D21        31.33   28.59    1.52          60.41   14.36   78.95          80.24   79.69           0.36    0.63    2.39    0.50            0.41    0.35    0.01           0.56     0.61
D22        40.80   44.72   50.44          72.70   -6.97  -16.79          18.18  247.45           0.47    0.32    0.21    0.37            0.70    0.74    0.32           0.69     0.76
E1          5.50    6.20    3.41          29.91   -5.44   10.04          11.43  118.39           1.23    1.21    1.53    1.21            0.11    0.09    0.07           0.44     0.49
E2          5.06    6.23    2.16          29.98  -11.04   19.87          22.74  119.05           1.31    1.16    1.82    1.21            0.10    0.09    0.04           0.44     0.51
E3          4.69    6.29    1.21          30.13  -16.34   30.60          34.69  118.11           1.41    1.12    2.25    1.21            0.08    0.08    0.01           0.46     0.51
E4          4.19    6.03    0.83          29.47  -20.24   35.21          40.62  119.89           1.52    1.11    2.58    1.24            0.08    0.08    0.01           0.54     0.60
E5         25.46   29.03   15.13          60.81  -10.29   18.81          21.45  118.66           0.60    0.51    0.82    0.54            0.53    0.56    0.34           0.75     0.82
E6         23.54   28.92    9.39          60.71  -18.18   35.36          39.76  117.20           0.66    0.48    1.10    0.54            0.50    0.53    0.22           0.74     0.83
E7         20.93   28.44    5.12          60.28  -28.34   52.36          59.54  118.42           0.79    0.45    1.51    0.56            0.45    0.50    0.12           0.64     0.73
E8         19.21   27.80    2.84          59.71  -34.32   65.45          73.91  117.67           0.89    0.44    1.99    0.57            0.22    0.22    0.03           0.40     0.47
E9         45.83   49.87   32.68          75.98   -6.30   11.73          13.31  118.22           0.33    0.29    0.43    0.30            0.91    0.95    0.69           0.64     0.72
E10        43.01   49.09   25.53          75.50  -12.42   22.52          25.71  118.87           0.38    0.28    0.57    0.31            0.99    1.02    0.75           0.70     0.80
E11        41.08   48.97   19.84          75.43  -17.87   33.28          37.77  118.23           0.41    0.26    0.71    0.31            0.80    0.75    0.46           0.71     0.77
E12        40.06   48.92   17.59          75.40  -20.88   38.12          43.47  118.71           0.44    0.25    0.78    0.32            0.72    0.63    0.42           0.71     0.79
E13        42.52   51.60   52.72          77.04  -20.46  -11.84          23.64  210.04           0.53    0.21    0.20    0.32            0.72    0.68    0.47           0.75     0.82
E14        42.73   34.52   42.72          65.37   30.45  -20.30          36.60  326.32           0.24    0.60    0.26    0.44            0.53    0.56    0.54           0.66     0.74
E15        59.45   62.00   24.99          82.91   -0.79   36.23          36.24   91.25           0.16    0.22    0.58    0.19            0.55    0.53    0.60           0.63     0.71
E16        22.74   23.69   19.26          55.77   -0.47    0.61           0.84  139.93           0.62    0.64    0.67    0.63            0.61    0.57    0.56           0.76     0.83
E17        38.05   31.58   18.62          62.99   26.27   14.45          29.99   28.80           0.24    0.64    0.68    0.46            0.53    0.54    0.66           0.82     0.96
E18        37.96   48.00   25.58          74.82  -25.02   21.24          32.82  139.69           0.51    0.25    0.57    0.34            0.67    0.60    0.71           0.84     0.94
E19        26.38   25.91   41.78          57.95    5.83  -31.91          32.44  280.36           0.64    0.60    0.28    0.61            0.59    0.56    0.46           0.65     0.73
E20         7.13    8.44    1.33          34.88   -9.51   37.17          38.37  104.36           1.14    1.04    2.22    1.07            0.14    0.14    0.03           0.42     0.49
E21        25.27   29.66    6.47          61.35  -13.45   47.76          49.62  105.72           0.59    0.49    1.33    0.52            0.45    0.44    0.16           0.50     0.58
E22         8.73   18.37   13.43          49.94  -59.68    4.49          59.85  175.70           1.89    0.52    0.90    0.82            0.13    0.18    0.38           0.63     0.78
F1          3.57    4.38    2.98          24.88   -9.55    4.40          10.51  155.27           1.48    1.33    1.59    1.38            0.06    0.05    0.06           0.44     0.48
F2          2.94    4.38    2.62          24.87  -19.97    7.13          21.21  160.35           1.70    1.26    1.69    1.40            0.07    0.09    0.06           0.44     0.50
F3          2.55    4.52    2.24          25.32  -29.08   11.13          31.14  159.06           1.92    1.19    1.81    1.40            0.05    0.06    0.04           0.39     0.44
F4          1.67    4.35    1.47          24.80  -46.46   18.14          49.88  158.68           2.65    1.11    2.16    1.44            0.02    0.04    0.01           0.26     0.31
F5         11.76   14.75    9.96          45.29  -16.26    6.84          17.64  157.17           1.01    0.77    1.01    0.85            0.29    0.33    0.25           0.68     0.74
F6          9.52   14.86    8.50          45.44  -33.78   12.19          35.91  160.15           1.29    0.70    1.12    0.87            0.18    0.22    0.15           0.51     0.55
F7          7.47   14.27    7.11          44.61  -48.07   16.18          50.73  161.40           1.64    0.66    1.24    0.91            0.14    0.21    0.15           0.50     0.54
F8          6.28   14.64    5.95          45.13  -62.31   22.17          66.14  160.41           2.04    0.60    1.38    0.91            0.06    0.10    0.07           0.32     0.36
F9         30.32   34.91   25.81          65.67  -12.03    5.06          13.06  157.16           0.56    0.42    0.54    0.47            0.67    0.70    0.54           0.76     0.83
F10        26.99   34.52   23.52          65.37  -23.67    8.68          25.22  159.85           0.69    0.39    0.60    0.49            0.61    0.64    0.53           0.71     0.78
F11        24.35   34.71   21.18          65.52  -35.38   13.46          37.86  159.17           0.83    0.35    0.66    0.49            0.51    0.57    0.49           0.67     0.73
F12        21.81   33.94   19.66          64.91  -44.12   15.51          46.78  160.63           0.97    0.33    0.71    0.51            0.31    0.31    0.44           0.75     0.88
F13        37.96   47.93   52.06          74.78  -24.85  -15.02          29.04  211.14           0.64    0.23    0.20    0.36            0.59    0.57    0.44           0.74     0.80
F14        38.05   28.66   39.52          60.48   37.10  -24.62          44.53  326.44           0.27    0.73    0.29    0.51            0.39    0.41    0.43           0.60     0.66
F15        58.38   60.76   19.74          82.25   -0.49   45.24          45.24   90.63           0.16    0.23    0.71    0.20            0.44    0.43    0.48           0.66     0.74
F16        16.02   16.76   13.64          47.95   -0.78    0.52           1.04  153.92           0.77    0.79    0.83    0.78            0.44    0.40    0.43           0.76     0.83
F17        32.79   25.38   13.07          57.44   32.43   18.42          37.30   29.58           0.27    0.79    0.85    0.54            0.46    0.48    0.53           0.81     0.97
