targets/wolf_faust/transmissive/A130603.it8
IT8.7/1
ORIGINATOR "Wolf Faust"
DESCRIPTOR "Agfachrome RSX, RSX II and CT Precisa, Type 3, L* a* b* (light D50, viewing angle 2)"
MANUFACTURER "Wolf Faust - http://www.coloraid.de"
CREATED "November 16, 2013"
PROD_DATE "2012:08"
DIFFUSE_GEOMETRY "opal"
SERIAL "A130603 Batch Average Data"
MATERIAL "Agfachrome RSX II"
KEYWORD "MEAN_DE" # Mean Delta E of samples compared to batch average
NUMBER_OF_FIELDS 18
BEGIN_DATA_FORMAT
SAMPLE_ID  XYZ_X   XYZ_Y   XYZ_Z          LAB_L   LAB_A   LAB_B          LAB_C   LAB_H          D_RED  D_GREEN  D_BLUE  D_VIS          STDEV_X STDEV_Y STDEV_Z        MEAN_DE  STDEV_DE
END_DATA_FORMAT
NUMBER_OF_SETS 288
BEGIN_DATA
A1          2.42    2.10    1.38          16.02    8.28    4.08           9.24   26.20           1.44    1.83    1.93    1.65            0.11    0.10    0.05           0.58     0.71
A2          2.96    2.09    1.16          15.92   19.01    6.76          20.18   19.57           1.26    2.01    1.99    1.62            0.13    0.10    0.05           0.56     0.67 
A3          3.61    2.05    0.99          15.76   30.30    8.99          31.61   16.52           1.10    2.31    2.02    1.58            0.15    0.09    0.04           0.57     0.68
A4          4.27    2.06    0.83          15.81   39.76   11.67          41.44   16.36           0.97    2.77    2.06    1.54            0.14    0.07    0.03           0.53     0.61 
A5         10.11    8.72    5.83          35.43   14.05    5.98          15.28   23.03           0.83    1.20    1.23    1.03            0.33    0.28    0.18           0.70     0.79
A6         12.04    8.71    5.15          35.42   28.24    9.33          29.74   18.27           0.68    1.33    1.28    1.00            0.34    0.26    0.16           0.69     0.76 
A7         13.98    8.59    4.43          35.18   42.06   12.81          43.97   16.94           0.54    1.53    1.33    0.97            0.33    0.23    0.14           0.59     0.66
A8         16.11    8.57    3.74          35.15   54.94   16.89          57.47   17.09           0.43    1.79    1.38    0.94            0.22    0.16    0.14           0.52     0.60 
A9         29.21   28.12   21.67          59.99    8.25    2.96           8.78   19.63           0.46    0.60    0.61    0.54            0.51    0.49    0.48           0.70     0.76
A10        31.26   28.42   20.83          60.27   14.76    5.11          15.62   19.08           0.39    0.63    0.63    0.53            0.49    0.45    0.50           0.59     0.65
A11        33.75   28.58   19.94          60.40   23.04    7.18          24.13   17.29           0.31    0.67    0.64    0.51            0.36    0.33    0.41           0.61     0.67
A12        35.56   28.19   18.37          60.06   30.70    9.94          32.28   17.92           0.25    0.72    0.68    0.51            0.33    0.35    0.44           0.59     0.70 
A13        62.69   66.53   55.77          85.27   -3.35   -0.91           3.49  195.12           0.21    0.16    0.17    0.18            0.38    0.40    0.25           0.38     0.44
A14        67.94   69.08   55.69          86.54    2.94    1.37           3.25   24.95           0.14    0.17    0.17    0.16            0.31    0.36    0.31           0.28     0.32 
A15        67.68   69.34   52.61          86.67    1.81    4.89           5.22   69.54           0.14    0.16    0.20    0.16            0.27    0.31    0.45           0.39     0.45
A16        65.46   68.20   55.79          86.10   -0.65    0.51           0.85  143.45           0.17    0.16    0.17    0.17            0.37    0.39    0.24           0.31     0.38
A17        67.41   68.52   54.62          86.27    2.96    2.03           3.59   34.46           0.14    0.17    0.18    0.16            0.38    0.45    0.36           0.33     0.37
A18        61.39   65.59   52.56          84.79   -4.29    1.69           4.63  158.55           0.22    0.17    0.20    0.19            0.37    0.38    0.51           0.43     0.55 
A19        61.42   63.77   54.57          83.84   -0.14   -2.10           2.14  266.17           0.20    0.19    0.18    0.20            0.58    0.64    0.32           0.54     0.61
A20         6.55    3.15    1.90          20.62   46.13    6.24          46.56    7.71           0.79    2.57    1.66    1.36            0.10    0.05    0.07           0.43     0.52 
A21        26.37   18.42   14.03          50.00   40.06    3.02          40.18    4.30           0.33    1.02    0.79    0.67            0.30    0.29    0.47           0.69     0.85
A22        50.85   47.65   32.11          74.60   13.43   10.21          16.87   37.23           0.19    0.38    0.43    0.30            0.43    0.59    0.69           0.83     0.96
B1          3.42    3.09    1.72          20.39    7.39    7.67          10.65   46.04           1.31    1.63    1.84    1.49            0.12    0.11    0.05           0.52     0.65
B2          4.02    3.04    1.02          20.20   17.29   16.16          23.67   43.06           1.15    1.77    2.11    1.46            0.16    0.13    0.04           0.60     0.71
B3          4.90    3.18    0.59          20.76   26.73   24.59          36.32   42.61           1.01    1.90    2.41    1.41            0.21    0.14    0.02           0.64     0.86
B4          5.44    3.15    0.31          20.62   33.91   29.62          45.03   41.13           0.92    2.08    2.76    1.39            0.20    0.12    0.01           0.68     0.88
B5         13.05   11.57    6.21          40.52   13.08   13.01          18.45   44.84           0.73    1.05    1.22    0.91            0.38    0.33    0.21           0.71     0.80
B6         15.06   11.73    4.27          40.79   24.45   23.38          33.84   43.72           0.60    1.14    1.41    0.88            0.41    0.32    0.14           0.76     0.85
B7         16.86   11.34    2.60          40.15   37.56   33.67          50.44   41.87           0.48    1.29    1.66    0.86            0.34    0.26    0.07           0.51     0.60
B8         19.36   11.30    1.45          40.07   51.06   44.69          67.86   41.19           0.37    1.49    1.96    0.83            0.25    0.21    0.07           0.47     0.53
B9         34.85   34.48   25.34          65.34    5.54    5.32           7.69   43.66           0.39    0.50    0.54    0.45            0.60    0.60    0.57           0.76     0.82
B10        36.44   34.31   22.22          65.21   11.45   10.87          15.79   43.49           0.33    0.53    0.61    0.45            0.50    0.49    0.47           0.60     0.66
B11        37.85   34.17   19.93          65.10   16.54   15.28          22.52   42.71           0.29    0.55    0.66    0.44            0.46    0.47    0.49           0.72     0.78
B12        39.89   33.99   17.03          64.96   23.60   21.41          31.86   42.21           0.23    0.59    0.74    0.43            0.39    0.44    0.47           0.68     0.77
B13        57.98   62.21   53.35          83.03   -4.81   -2.21           5.30  204.50           0.26    0.19    0.19    0.21            0.51    0.54    0.44           0.46     0.52
B14        58.84   57.72   50.93          80.58    7.81   -3.76           8.68  334.26           0.19    0.26    0.21    0.23            0.69    0.80    0.92           0.78     0.89
B15        62.77   64.74   46.30          84.35    0.80    8.07           8.11   84.36           0.17    0.19    0.26    0.18            0.52    0.55    0.80           0.71     0.80
B16        52.51   54.50   44.51          78.75   -0.10    0.57           0.70  136.86           0.26    0.26    0.28    0.26            0.69    0.76    0.81           0.64     0.71
B17        57.83   57.14   44.32          80.26    6.75    3.40           7.57   26.80           0.18    0.27    0.28    0.23            0.63    0.71    0.79           0.87     0.96
B18        56.81   61.42   46.86          82.60   -5.83    4.39           7.32  143.18           0.25    0.19    0.26    0.22            0.59    0.63    0.89           0.56     0.71
B19        53.46   55.10   50.87          79.09    0.86   -6.25           6.32  277.72           0.27    0.26    0.21    0.26            0.74    0.87    0.57           0.66     0.73
B20         5.17    3.15    1.04          20.65   30.58   16.67          34.83   28.60           0.96    2.00    2.05    1.40            0.13    0.09    0.04           0.41     0.46
B21        16.98   11.43    3.98          40.29   37.62   24.26          44.77   32.82           0.48    1.29    1.42    0.86            0.23    0.20    0.13           0.42     0.52
B22        33.31   28.22   16.42          60.09   22.86   14.44          27.04   32.26           0.31    0.68    0.75    0.51            0.42    0.44    0.52           0.69     0.87
C1          6.39    6.25    3.24          30.03    3.96   11.42          12.09   70.87           1.08    1.27    1.55    1.19            0.20    0.19    0.08           0.56     0.70
C2          6.91    6.33    2.02          30.22    8.49   21.65          23.25   68.58           1.00    1.30    1.82    1.17            0.22    0.20    0.06           0.58     0.69
C3          7.45    6.37    1.09          30.32   13.26   32.61          35.20   67.87           0.94    1.34    2.21    1.15            0.26    0.22    0.04           0.59     0.74
C4          8.02    6.48    0.62          30.58   17.46   41.02          44.58   66.94           0.89    1.37    2.62    1.13            0.30    0.24    0.02           0.74     0.98
C5         24.16   23.15   11.27          55.22    8.20   19.80          21.43   67.49           0.50    0.70    0.95    0.61            0.49    0.47    0.33           0.75     0.82
C6         25.94   23.29    6.37          55.37   15.14   37.91          40.83   68.23           0.42    0.73    1.26    0.60            0.57    0.54    0.20           0.77     0.85
C7         27.93   23.26    3.10          55.34   23.32   56.03          60.69   67.40           0.35    0.78    1.70    0.58            0.49    0.46    0.09           0.60     0.68
C8         29.98   23.05    1.11          55.12   32.17   75.07          81.67   66.80           0.29    0.85    2.48    0.57            0.43    0.41    0.05           0.63     0.76
C9         40.70   40.88   27.85          70.09    4.00    9.20          10.03   66.49           0.33    0.41    0.50    0.38            0.66    0.70    0.68           0.78     0.85
C10        41.76   41.03   23.97          70.20    6.74   16.17          17.52   67.35           0.29    0.43    0.58    0.37            0.51    0.53    0.51           0.69     0.76
C11        42.69   40.77   19.41          70.01   10.33   24.85          26.91   67.42           0.26    0.45    0.69    0.37            0.45    0.48    0.49           0.73     0.82
C12        44.36   40.43   13.19          69.77   16.29   39.36          42.60   67.52           0.20    0.48    0.89    0.36            0.45    0.54    0.43           0.83     0.92
C13        51.90   58.17   52.75          80.83  -10.66   -5.33          11.92  206.52           0.35    0.20    0.20    0.25            0.60    0.61    0.50           0.55     0.64
C14        52.62   48.50   47.96          75.14   15.76   -9.77          18.54  328.20           0.21    0.37    0.23    0.30            0.49    0.56    0.53           0.57     0.70
C15        61.17   63.50   38.24          83.70   -0.12   17.14          17.15   90.44           0.17    0.20    0.36    0.19            0.51    0.54    0.75           0.73     0.90
C16        40.65   42.07   34.56          70.91    0.28    0.22           0.49  156.62           0.37    0.38    0.39    0.38            0.61    0.69    0.63           0.57     0.64
C17        50.07   46.89   34.28          74.12   13.45    6.15          14.79   24.56           0.20    0.39    0.40    0.31            0.60    0.67    0.66           0.59     0.69
C18        49.56   56.53   39.00          79.92  -12.92    9.59          16.09  143.45           0.34    0.21    0.35    0.26            0.57    0.59    0.77           0.57     0.71
C19        42.62   43.25   47.40          71.72    2.77  -15.01          15.26  280.43           0.38    0.37    0.24    0.37            0.71    0.82    0.56           0.73     0.80
C20        12.30    9.04    1.21          36.06   27.26   40.80          49.07   56.25           0.66    1.30    2.14    0.97            0.24    0.20    0.04           0.49     0.56
C21        22.14   20.36   11.07          52.24   12.03   15.28          19.45   51.77           0.52    0.78    0.95    0.67            0.35    0.37    0.35           0.59     0.71
C22        27.09   22.85   10.45          54.92   21.79   21.84          30.85   45.05           0.39    0.78    0.97    0.60            0.33    0.36    0.34           0.61     0.74
D1          4.33    4.55    2.39          25.41   -0.82    9.96          10.00   94.68           1.29    1.38    1.70    1.34            0.14    0.15    0.07           0.53     0.69
D2          4.21    4.47    1.47          25.17   -1.40   18.77          18.83   94.26           1.29    1.37    2.00    1.34            0.15    0.16    0.05           0.50     0.64
D3          4.27    4.52    0.85          25.33   -1.22   27.70          27.73   92.52           1.29    1.36    2.39    1.33            0.14    0.15    0.03           0.51     0.63
D4          4.14    4.38    0.62          24.89   -1.15   31.20          31.22   92.11           1.31    1.37    2.62    1.34            0.15    0.15    0.02           0.63     0.82
D5         18.21   19.02    9.28          50.71   -0.70   18.47          18.49   92.17           0.68    0.74    1.05    0.71            0.51    0.52    0.31           0.80     0.86
D6         18.01   18.77    4.99          50.41   -0.49   35.99          35.99   90.79           0.66    0.75    1.41    0.71            0.51    0.51    0.15           0.81     0.89
D7         17.81   18.56    2.22          50.16   -0.46   54.16          54.16   90.48           0.67    0.75    1.97    0.71            0.56    0.55    0.07           0.77     0.93
D8         17.92   18.79    1.29          50.43   -1.06   64.59          64.60   90.94           0.68    0.74    2.46    0.70            0.59    0.57    0.05           0.86     1.05
D9         46.39   48.20   24.61          74.95   -0.25   23.20          23.20   90.63           0.28    0.33    0.58    0.31            0.61    0.65    0.64           0.81     0.90
D10        46.17   48.38   13.67          75.06   -1.35   47.18          47.20   91.64           0.26    0.33    0.91    0.30            0.57    0.60    0.34           0.68     0.77
D11        45.53   48.19    6.90          74.94   -2.65   69.33          69.39   92.19           0.27    0.32    1.34    0.30            0.56    0.56    0.18           0.64     0.73
D12        45.37   48.34    4.35          75.04   -3.53   82.01          82.08   92.47           0.28    0.32    1.69    0.29            0.43    0.41    0.16           0.60     0.72
D13        46.47   54.32   52.13          78.65  -15.95   -8.42          18.04  207.82           0.44    0.21    0.20    0.29            0.61    0.62    0.49           0.61     0.71
D14        47.25   40.94   44.90          70.13   22.93  -14.77          27.28  327.22           0.23    0.48    0.25    0.37            0.49    0.57    0.50           0.65     0.79
D15        59.79   62.32   31.09          83.08   -0.71   26.40          26.41   91.56           0.17    0.21    0.47    0.20            0.43    0.48    0.76           0.86     1.07
D16        30.79   31.97   26.16          63.32   -0.16    0.39           0.59  111.74           0.49    0.50    0.53    0.50            0.55    0.61    0.62           0.59     0.71
D17        43.67   38.69   25.82          68.52   19.66    9.96          22.04   26.87           0.22    0.51    0.53    0.39            0.49    0.58    0.63           0.66     0.80
D18        43.00   51.74   31.79          77.13  -19.41   15.04          24.56  142.23           0.43    0.23    0.46    0.30            0.52    0.55    0.69           0.64     0.78
D19        33.58   33.67   44.16          64.70    3.93  -23.24          23.57  279.60           0.51    0.48    0.26    0.48            0.61    0.71    0.53           0.73     0.85
D20         2.97    2.90    0.99          19.63    3.08   15.59          15.89   78.83           1.40    1.61    2.18    1.52            0.09    0.09    0.04           0.46     0.51
D21        31.36   28.47    1.50          60.31   14.96   78.93          80.34   79.27           0.36    0.64    2.40    0.50            0.31    0.33    0.02           0.40     0.48
D22        39.88   43.48   49.15          71.88   -6.27  -16.75          17.90  249.46           0.48    0.33    0.22    0.38            0.47    0.63    0.40           0.65     0.75
E1          5.61    6.33    3.42          30.24   -5.60   10.51          11.92  118.09           1.22    1.20    1.54    1.20            0.18    0.20    0.09           0.59     0.74
E2          5.15    6.35    2.20          30.29  -11.23   20.05          22.99  119.26           1.30    1.15    1.82    1.21            0.16    0.19    0.06           0.52     0.63
E3          4.75    6.39    1.23          30.37  -16.56   30.80          34.97  118.26           1.40    1.11    2.25    1.21            0.16    0.20    0.04           0.52     0.65
E4          4.27    6.14    0.84          29.75  -20.36   35.52          40.95  119.83           1.51    1.10    2.58    1.23            0.16    0.20    0.02           0.65     0.83
E5         25.42   28.79   14.95          60.59   -9.55   18.89          21.17  116.85           0.59    0.52    0.82    0.54            0.66    0.71    0.48           0.91     0.99
E6         23.43   28.59    9.25          60.41  -17.38   35.32          39.36  116.21           0.66    0.49    1.11    0.55            0.63    0.72    0.31           0.88     0.95
E7         20.73   28.03    5.08          59.91  -27.67   51.94          58.85  118.04           0.79    0.46    1.51    0.56            0.56    0.66    0.15           0.75     0.86
E8         19.20   27.81    2.88          59.71  -34.38   65.21          73.72  117.80           0.89    0.44    1.98    0.57            0.41    0.42    0.09           0.54     0.67
E9         45.11   48.93   32.27          75.41   -5.85   11.35          12.78  117.29           0.34    0.30    0.44    0.31            0.77    0.80    0.67           0.71     0.82
E10        42.56   48.40   25.35          75.08  -11.87   22.08          25.07  118.28           0.38    0.29    0.57    0.32            0.68    0.69    0.53           0.70     0.82
E11        40.64   48.35   19.61          75.04  -17.57   33.10          37.47  117.96           0.42    0.27    0.72    0.32            0.69    0.70    0.45           0.76     0.85
E12        39.66   48.46   17.38          75.11  -20.89   38.11          43.46  118.73           0.44    0.26    0.79    0.32            0.62    0.60    0.46           0.78     0.85
E13        41.85   50.85   51.53          76.59  -20.54  -11.31          23.45  208.83           0.54    0.22    0.21    0.32            0.65    0.67    0.50           0.64     0.75
E14        42.09   34.01   41.66          64.97   30.28  -19.65          36.10  327.03           0.25    0.60    0.28    0.44            0.46    0.50    0.50           0.61     0.72
E15        58.46   61.02   24.60          82.39   -0.89   36.03          36.05   91.42           0.17    0.22    0.59    0.20            0.48    0.53    0.70           0.97     1.17
E16        22.49   23.32   18.86          55.39    0.03    0.82           0.92  100.68           0.62    0.65    0.68    0.63            0.48    0.50    0.52           0.67     0.77
E17        37.67   31.23   18.53          62.70   26.27   14.13          29.83   28.28           0.25    0.65    0.68    0.47            0.41    0.47    0.51           0.67     0.81
E18        37.28   47.23   25.13          74.33  -25.13   21.19          32.88  139.87           0.52    0.25    0.58    0.34            0.55    0.57    0.67           0.71     0.87
E19        25.91   25.37   40.65          57.43    6.13  -31.35          31.95  281.07           0.64    0.61    0.29    0.61            0.48    0.53    0.42           0.71     0.83
E20         7.15    8.47    1.34          34.93   -9.48   37.20          38.39  104.29           1.14    1.03    2.22    1.07            0.16    0.18    0.03           0.50     0.55
E21        25.29   29.44    6.43          61.17  -12.54   47.64          49.27  104.75           0.58    0.50    1.33    0.53            0.37    0.46    0.17           0.58     0.65
E22         8.57   18.12   13.26          49.64  -59.79    4.44          59.96  175.75           1.91    0.52    0.91    0.82            0.13    0.20    0.40           0.62     0.77
F1          3.64    4.49    3.01          25.23   -9.99    4.75          11.06  154.58           1.47    1.32    1.59    1.37            0.14    0.17    0.09           0.57     0.73
F2          3.00    4.49    2.66          25.22  -20.49    7.45          21.80  160.03           1.70    1.25    1.68    1.39            0.10    0.14    0.06           0.47     0.62
F3          2.58    4.59    2.26          25.52  -29.37   11.34          31.48  158.89           1.92    1.19    1.81    1.39            0.11    0.18    0.08           0.52     0.69
F4          1.64    4.32    1.47          24.70  -46.84   17.90          50.14  159.08           2.68    1.11    2.15    1.45            0.07    0.15    0.06           0.60     0.74
F5         11.83   14.79    9.90          45.34  -16.01    7.12          17.52  156.04           1.01    0.77    1.01    0.85            0.40    0.48    0.35           0.78     0.86
F6          9.39   14.64    8.36          45.13  -33.52   12.19          35.67  160.01           1.29    0.70    1.13    0.88            0.31    0.46    0.28           0.81     0.91
F7          7.35   14.02    6.99          44.25  -47.74   16.04          50.36  161.43           1.64    0.67    1.25    0.91            0.28    0.47    0.25           0.77     0.86
F8          6.17   14.45    5.90          44.87  -62.40   21.92          66.14  160.64           2.06    0.60    1.39    0.92            0.15    0.25    0.19           0.54     0.59
F9         30.08   34.40   25.53          65.28  -11.24    4.88          12.26  156.54           0.56    0.43    0.55    0.47            0.77    0.83    0.67           0.78     0.90
F10        26.75   33.96   23.24          64.93  -22.76    8.45          24.28  159.63           0.69    0.40    0.61    0.49            0.58    0.66    0.49           0.62     0.71
F11        23.97   34.07   20.79          65.01  -34.83   13.37          37.31  159.00           0.83    0.36    0.67    0.50            0.53    0.62    0.53           0.72     0.81
F12        21.55   33.61   19.38          64.65  -44.22   15.67          46.92  160.49           0.98    0.33    0.72    0.52            0.47    0.55    0.55           0.78     0.87
F13        37.52   47.40   50.86          74.44  -24.80  -14.26          28.61  209.89           0.64    0.24    0.22    0.36            0.52    0.56    0.44           0.56     0.65
F14        37.61   28.39   38.55          60.23   36.74  -23.75          43.75  327.13           0.27    0.73    0.31    0.51            0.39    0.42    0.42           0.64     0.76
F15        57.39   59.76   19.38          81.71   -0.57   45.09          45.09   90.74           0.16    0.23    0.72    0.21            0.40    0.45    0.58           0.99     1.15
F16        15.93   16.59   13.34          47.74   -0.41    0.96           1.11  116.79           0.77    0.80    0.85    0.78            0.40    0.42    0.43           0.69     0.79
F17        32.64   25.29   13.02          57.35   32.27   18.40          37.15   29.69           0.27    0.79    0.85    0.54            0.38    0.42    0.45           0.81     0.95
