targets/wolf_faust/transmissive/A140201.it8
IT8.7/1
ORIGINATOR "Wolf Faust"
DESCRIPTOR "Agfachrome RSX, RSX II and CT Precisa, Type 3, L* a* b* (light D50, viewing angle 2)"
MANUFACTURER "Wolf Faust - http://www.coloraid.de"
CREATED "February 22, 2014"
PROD_DATE "2013:01"
DIFFUSE_GEOMETRY "opal"
SERIAL "A140201 Batch Average Data"
MATERIAL "Agfachrome RSX II"
KEYWORD "MEAN_DE" # Mean Delta E of samples compared to batch average
NUMBER_OF_FIELDS 18
BEGIN_DATA_FORMAT
SAMPLE_ID  XYZ_X   XYZ_Y   XYZ_Z          LAB_L   LAB_A   LAB_B          LAB_C   LAB_H          D_RED  D_GREEN  D_BLUE  D_VIS          STDEV_X STDEV_Y STDEV_Z        MEAN_DE  STDEV_DE
END_DATA_FORMAT
NUMBER_OF_SETS 288
BEGIN_DATA
A1          2.18    1.81    1.51          14.45   10.17   -0.16          10.18  239.09           1.48    1.94    1.86    1.71            0.05    0.04    0.04           0.39     0.44
A2          2.65    1.78    1.22          14.30   20.28    3.21          20.53    9.00           1.30    2.13    1.94    1.68            0.05    0.03    0.03           0.38     0.41 
A3          3.29    1.88    1.00          14.84   29.25    7.27          30.14   13.95           1.14    2.35    2.02    1.62            0.07    0.04    0.03           0.39     0.46
A4          4.01    1.93    0.84          15.14   39.01   10.26          40.34   14.74           1.00    2.81    2.05    1.57            0.07    0.04    0.02           0.32     0.38 
A5          9.80    8.44    6.38          34.89   14.01    2.54          14.24   10.29           0.85    1.21    1.18    1.05            0.18    0.16    0.14           0.38     0.43
A6         11.98    8.61    5.52          35.21   28.73    7.11          29.60   13.90           0.68    1.34    1.24    1.00            0.19    0.15    0.11           0.35     0.41 
A7         14.36    8.66    4.79          35.32   43.84   11.04          45.21   14.14           0.53    1.55    1.28    0.97            0.21    0.14    0.11           0.41     0.47
A8         15.95    8.48    4.07          34.96   54.85   14.54          56.75   14.85           0.43    1.80    1.34    0.95            0.11    0.08    0.11           0.44     0.51 
A9         28.35   27.21   23.02          59.16    8.49   -1.08           8.58  352.71           0.48    0.61    0.58    0.56            0.47    0.48    0.67           0.65     0.77
A10        30.60   27.57   21.99          59.50   15.63    1.47          15.71    5.33           0.40    0.65    0.60    0.54            0.40    0.39    0.57           0.70     0.81
A11        32.77   27.65   20.92          59.57   23.20    3.72          23.51    9.10           0.33    0.69    0.62    0.53            0.38    0.38    0.57           0.79     0.90
A12        34.93   27.44   19.69          59.37   31.54    5.91          32.10   10.60           0.26    0.74    0.64    0.52            0.31    0.33    0.56           0.79     0.92 
A13        61.29   65.24   55.20          84.61   -3.73   -1.46           4.01  201.31           0.22    0.17    0.18    0.19            0.33    0.28    0.24           0.27     0.33
A14        67.01   68.10   55.10          86.05    2.99    1.15           3.21   21.02           0.14    0.17    0.18    0.16            0.28    0.28    0.19           0.22     0.26 
A15        66.94   68.51   52.56          86.26    1.96    4.23           4.68   64.70           0.14    0.17    0.20    0.16            0.34    0.35    0.72           0.64     0.72
A16        65.62   68.01   55.54          86.01    0.08    0.61           0.64   84.04           0.17    0.17    0.17    0.17            0.33    0.27    0.27           0.29     0.33
A17        66.67   67.72   54.18          85.86    3.06    1.79           3.56   30.20           0.14    0.18    0.18    0.17            0.21    0.21    0.34           0.29     0.33
A18        60.77   64.89   52.83          84.43   -4.18    0.78           4.29  169.74           0.22    0.17    0.20    0.19            0.47    0.39    0.65           0.62     0.72 
A19        59.72   62.20   53.86          83.02   -0.60   -2.77           2.84  257.72           0.22    0.20    0.19    0.21            0.36    0.34    0.24           0.26     0.30
A20         6.64    3.15    2.02          20.62   47.09    5.07          47.36    6.15           0.78    2.62    1.62    1.36            0.10    0.05    0.07           0.46     0.52 
A21        26.09   18.20   15.36          49.74   40.03   -0.84          40.05  318.80           0.34    1.02    0.74    0.68            0.25    0.22    0.48           0.73     0.83
A22        50.15   46.92   33.10          74.14   13.59    7.91          15.74   30.13           0.20    0.39    0.41    0.31            0.41    0.52    0.87           0.87     0.99
B1          3.45    3.08    1.84          20.35    8.05    6.38          10.27   38.42           1.30    1.64    1.80    1.49            0.07    0.06    0.05           0.43     0.46
B2          3.91    3.01    1.16          20.10   16.20   13.94          21.37   40.71           1.17    1.76    2.04    1.47            0.06    0.05    0.03           0.39     0.43
B3          4.48    2.96    0.76          19.88   25.07   19.88          31.99   38.42           1.05    1.91    2.25    1.44            0.09    0.06    0.02           0.40     0.45
B4          5.22    3.07    0.31          20.33   32.52   29.14          43.67   41.86           0.95    2.06    2.78    1.40            0.10    0.06    0.01           0.40     0.49
B5         12.41   11.07    6.82          39.70   12.38    8.93          15.26   35.79           0.76    1.07    1.17    0.93            0.25    0.24    0.17           0.49     0.54
B6         14.88   11.34    4.50          40.14   26.21   20.98          33.57   38.68           0.59    1.17    1.37    0.89            0.25    0.21    0.13           0.45     0.51
B7         17.05   11.36    2.76          40.18   38.47   32.40          50.29   40.11           0.48    1.30    1.62    0.86            0.21    0.16    0.07           0.34     0.38
B8         19.21   11.23    1.54          39.97   50.77   43.42          66.81   40.54           0.37    1.49    1.92    0.84            0.15    0.12    0.05           0.38     0.41
B9         33.39   32.89   26.34          64.07    5.96    1.38           6.16   12.84           0.42    0.52    0.52    0.48            0.55    0.57    0.81           0.75     0.89
B10        35.45   33.12   23.91          64.25   12.25    6.04          13.67   26.19           0.35    0.54    0.57    0.46            0.53    0.54    0.61           0.72     0.82
B11        37.07   33.28   21.41          64.38   17.09   11.04          20.35   32.82           0.30    0.57    0.62    0.45            0.56    0.57    0.57           0.86     0.96
B12        39.24   33.26   18.10          64.37   24.11   17.96          30.07   36.67           0.23    0.60    0.70    0.44            0.43    0.48    0.50           0.81     0.94
B13        56.56   60.82   52.80          82.28   -5.10   -2.89           5.87  209.41           0.27    0.20    0.20    0.22            0.41    0.40    0.46           0.45     0.53
B14        57.09   55.59   50.36          79.38    8.73   -5.19          10.17  329.26           0.20    0.28    0.21    0.25            0.50    0.54    0.50           0.49     0.57
B15        61.93   63.81   47.05          83.86    0.95    6.34           6.42   81.13           0.18    0.20    0.25    0.19            0.46    0.47    1.01           1.10     1.27
B16        50.92   52.37   44.93          77.50    1.12   -2.10           2.42  301.15           0.28    0.29    0.27    0.28            0.63    0.67    1.04           0.87     0.98
B17        56.29   55.13   45.04          79.11    7.90    0.55           7.96  123.94           0.19    0.29    0.27    0.25            0.61    0.67    0.82           0.89     0.99
B18        56.04   60.57   47.99          82.14   -5.78    2.29           6.27  158.92           0.26    0.20    0.24    0.22            0.58    0.56    0.87           0.97     1.07
B19        51.77   52.99   50.14          77.87    1.79   -7.55           7.76  283.33           0.28    0.28    0.21    0.28            0.57    0.62    0.51           0.48     0.54
B20         4.94    2.96    1.08          19.86   31.11   14.66          34.39   25.23           0.98    2.06    2.01    1.43            0.12    0.07    0.03           0.42     0.47
B21        16.97   11.39    4.43          40.23   37.81   21.53          43.51   29.66           0.49    1.29    1.36    0.86            0.27    0.20    0.16           0.51     0.56
B22        32.73   27.61   17.75          59.54   23.21   10.41          25.44   24.13           0.32    0.69    0.70    0.52            0.47    0.47    0.65           0.80     0.93
C1          6.27    6.17    3.63          29.84    3.53    8.42           9.13   67.29           1.10    1.27    1.48    1.20            0.09    0.10    0.07           0.37     0.40
C2          6.63    6.14    2.31          29.75    7.62   18.17          19.70   67.25           1.03    1.31    1.74    1.18            0.14    0.14    0.07           0.48     0.52
C3          7.26    6.18    1.20          29.86   13.49   30.19          33.07   65.93           0.95    1.35    2.13    1.16            0.14    0.12    0.02           0.47     0.54
C4          7.63    6.18    0.60          29.87   16.91   40.25          43.66   67.21           0.91    1.38    2.64    1.15            0.14    0.12    0.01           0.47     0.54
C5         23.43   22.43   12.35          54.48    8.19   15.34          17.39   61.90           0.52    0.71    0.90    0.63            0.38    0.39    0.26           0.51     0.56
C6         25.06   22.45    6.97          54.50   15.22   33.81          37.08   65.77           0.44    0.75    1.21    0.61            0.36    0.38    0.16           0.56     0.67
C7         26.86   22.42    3.37          54.47   22.80   52.66          57.38   66.59           0.37    0.80    1.64    0.60            0.34    0.33    0.07           0.50     0.57
C8         28.98   22.17    1.06          54.20   32.31   74.25          80.98   66.48           0.31    0.87    2.52    0.59            0.29    0.28    0.01           0.42     0.49
C9         39.20   39.23   29.24          68.92    4.37    4.90           6.58   47.82           0.35    0.43    0.47    0.40            0.65    0.69    0.97           0.86     1.02
C10        40.11   39.34   25.14          69.00    6.87   11.99          13.82   60.11           0.32    0.44    0.55    0.39            0.68    0.72    0.68           0.89     1.00
C11        41.36   39.44   20.94          69.07   10.39   20.05          22.58   62.58           0.27    0.46    0.65    0.38            0.61    0.64    0.57           0.88     1.00
C12        43.57   39.62   14.37          69.20   16.45   35.22          38.88   64.97           0.21    0.49    0.84    0.37            0.52    0.61    0.40           0.85     0.97
C13        50.75   56.95   52.27          80.15  -10.77   -5.98          12.32  209.04           0.36    0.21    0.20    0.26            0.44    0.41    0.45           0.49     0.56
C14        51.24   46.91   47.25          74.13   16.51  -10.68          19.67  327.10           0.21    0.39    0.23    0.32            0.48    0.54    0.54           0.54     0.65
C15        60.36   62.58   39.22          83.22    0.04   15.00          15.01   89.82           0.18    0.21    0.35    0.20            0.39    0.40    0.85           0.96     1.10
C16        39.55   40.65   35.36          69.92    1.14   -2.63           2.89  294.68           0.39    0.40    0.38    0.39            0.67    0.70    0.76           0.85     0.92
C17        49.18   45.72   35.27          73.36   14.32    3.43          14.74   13.43           0.21    0.40    0.38    0.32            0.59    0.64    0.72           0.81     0.88
C18        49.03   55.86   40.38          79.53  -12.71    7.12          14.59  150.88           0.35    0.22    0.33    0.26            0.62    0.58    0.94           1.02     1.14
C19        41.57   42.01   46.90          70.87    3.27  -15.89          16.22  281.62           0.39    0.38    0.24    0.38            0.63    0.69    0.54           0.57     0.65
C20        12.61    9.18    1.22          36.32   28.25   41.13          49.90   55.51           0.64    1.30    2.14    0.96            0.27    0.21    0.03           0.50     0.56
C21        21.58   19.88   11.71          51.70   11.75   12.40          17.09   46.52           0.54    0.78    0.91    0.68            0.38    0.37    0.37           0.56     0.66
C22        26.93   22.65   11.54          54.71   22.05   18.11          28.54   39.40           0.39    0.78    0.92    0.61            0.41    0.38    0.39           0.65     0.74
D1          4.19    4.41    2.53          24.98   -0.93    8.09           8.15   96.55           1.31    1.39    1.67    1.35            0.07    0.08    0.06           0.36     0.40
D2          4.15    4.38    1.70          24.88   -0.93   15.62          15.65   93.39           1.30    1.39    1.91    1.35            0.09    0.10    0.05           0.43     0.47
D3          4.01    4.29    0.92          24.59   -1.74   25.31          25.37   93.94           1.32    1.38    2.32    1.35            0.08    0.08    0.02           0.38     0.43
D4          4.07    4.32    0.60          24.69   -1.36   31.21          31.24   92.49           1.32    1.38    2.65    1.35            0.07    0.08    0.01           0.33     0.39
D5         17.28   18.03   10.07          49.53   -0.56   13.80          13.81   92.31           0.70    0.76    1.00    0.74            0.28    0.31    0.17           0.48     0.53
D6         16.98   17.88    5.28          49.35   -1.41   32.68          32.71   92.48           0.69    0.76    1.37    0.73            0.25    0.28    0.11           0.42     0.49
D7         16.98   18.00    2.65          49.49   -2.07   49.33          49.37   92.40           0.70    0.75    1.83    0.73            0.27    0.30    0.04           0.47     0.57
D8         16.86   17.72    1.22          49.15   -1.24   63.22          63.24   91.12           0.71    0.76    2.49    0.73            0.24    0.26    0.02           0.47     0.54
D9         44.56   46.25   25.81          73.71   -0.10   18.92          18.92   90.33           0.30    0.35    0.55    0.33            0.69    0.78    0.84           0.88     0.99
D10        44.46   46.61   14.80          73.94   -1.40   42.29          42.32   91.90           0.28    0.34    0.86    0.32            0.54    0.63    0.45           0.71     0.80
D11        44.21   46.85    7.36          74.09   -2.79   65.99          66.05   92.42           0.28    0.34    1.29    0.31            0.51    0.56    0.22           0.62     0.69
D12        44.16   47.15    4.13          74.29   -3.77   81.97          82.06   92.63           0.29    0.33    1.72    0.31            0.41    0.39    0.11           0.48     0.56
D13        45.70   53.39   51.69          78.11  -15.79   -8.87          18.12  209.31           0.45    0.22    0.21    0.29            0.38    0.37    0.48           0.47     0.53
D14        45.88   39.31   44.08          68.97   24.09  -15.77          28.80  326.79           0.23    0.50    0.26    0.39            0.41    0.45    0.56           0.51     0.61
D15        59.01   61.46   32.03          82.62   -0.59   24.16          24.17   91.40           0.17    0.22    0.45    0.20            0.38    0.41    0.68           0.83     0.99
D16        30.00   30.75   26.69          62.29    1.31   -2.28           2.66  300.81           0.50    0.53    0.51    0.51            0.66    0.66    0.67           0.71     0.81
D17        42.62   37.32   26.29          67.51   20.90    7.40          22.18   19.48           0.23    0.53    0.52    0.40            0.50    0.54    0.68           0.68     0.84
D18        42.80   51.33   32.84          76.88  -18.93   13.03          22.99  145.50           0.44    0.23    0.44    0.30            0.58    0.55    0.86           0.94     1.10
D19        32.71   32.45   43.47          63.71    5.12  -24.09          24.63  282.00           0.51    0.50    0.27    0.50            0.58    0.61    0.54           0.59     0.66
D20         2.94    2.97    1.21          19.92    1.35   13.04          13.11   84.09           1.42    1.58    2.07    1.51            0.09    0.09    0.04           0.39     0.44
D21        30.01   27.35    1.49          59.29   14.29   77.41          78.71   79.54           0.38    0.65    2.39    0.52            0.39    0.40    0.03           0.45     0.52
D22        38.45   41.79   48.27          70.72   -5.80  -17.74          18.67  251.90           0.49    0.35    0.23    0.40            0.43    0.46    0.23           0.45     0.53
E1          5.38    6.10    3.61          29.67   -5.74    8.29          10.09  124.71           1.25    1.21    1.50    1.22            0.08    0.10    0.07           0.38     0.42
E2          4.97    6.15    2.40          29.78  -11.21   17.39          20.69  122.82           1.32    1.17    1.76    1.22            0.09    0.12    0.05           0.38     0.42
E3          4.47    6.07    1.48          29.58  -16.81   26.18          31.12  122.71           1.43    1.13    2.09    1.23            0.08    0.10    0.02           0.40     0.43
E4          4.19    6.00    0.81          29.40  -19.92   35.43          40.65  119.35           1.52    1.11    2.60    1.24            0.08    0.11    0.02           0.35     0.44
E5         24.03   26.99   15.99          58.97   -8.48   13.51          15.95  122.10           0.62    0.55    0.78    0.57            0.26    0.32    0.24           0.40     0.46
E6         21.99   27.16    9.81          59.12  -18.33   31.20          36.19  120.44           0.70    0.51    1.07    0.57            0.37    0.46    0.19           0.50     0.58
E7         19.86   27.07    5.46          59.04  -28.16   48.47          56.06  120.16           0.81    0.47    1.45    0.58            0.27    0.35    0.10           0.44     0.50
E8         18.55   27.50    3.37          59.43  -36.52   61.19          71.27  120.83           0.93    0.43    1.84    0.58            0.20    0.23    0.06           0.34     0.38
E9         42.77   46.03   33.00          73.56   -4.74    7.08           8.53  123.97           0.36    0.33    0.42    0.34            0.55    0.60    0.83           0.76     0.87
E10        40.93   46.25   26.27          73.71  -10.91   18.12          21.15  121.09           0.40    0.31    0.55    0.34            0.62    0.67    0.76           0.81     0.92
E11        39.52   47.11   20.95          74.26  -17.63   28.98          33.93  121.32           0.43    0.28    0.68    0.33            0.50    0.54    0.35           0.69     0.81
E12        38.42   47.33   18.13          74.40  -21.73   35.19          41.36  121.70           0.46    0.27    0.76    0.33            0.50    0.49    0.37           0.70     0.84
E13        41.13   49.96   51.06          76.04  -20.36  -11.72          23.49  209.94           0.55    0.23    0.21    0.33            0.30    0.30    0.38           0.45     0.49
E14        41.27   33.12   41.15          64.26   30.87  -20.22          36.90  326.77           0.25    0.62    0.28    0.45            0.37    0.40    0.53           0.53     0.61
E15        57.82   60.31   26.16          82.01   -0.81   32.62          32.63   91.42           0.17    0.23    0.56    0.21            0.40    0.43    0.47           0.66     0.79
E16        22.18   22.74   20.07          54.80    1.15   -2.77           3.01  292.87           0.63    0.66    0.65    0.64            0.46    0.45    0.52           0.67     0.76
E17        36.97   30.37   19.46          61.97   27.16   10.88          29.27   21.82           0.25    0.66    0.66    0.48            0.46    0.48    0.58           0.74     0.85
E18        37.25   47.02   26.89          74.20  -24.65   17.90          30.47  144.04           0.53    0.26    0.55    0.35            0.52    0.49    0.74           0.92     1.07
E19        25.51   24.83   40.28          56.90    6.74  -31.78          32.48  281.98           0.65    0.62    0.30    0.62            0.41    0.41    0.35           0.58     0.67
E20         6.91    8.22    1.39          34.44   -9.71   35.74          37.04  105.20           1.16    1.05    2.18    1.08            0.18    0.21    0.04           0.47     0.53
E21        23.72   28.19    6.51          60.06  -14.57   45.39          47.67  107.80           0.63    0.51    1.32    0.55            0.43    0.49    0.18           0.50     0.60
E22         8.66   18.09   14.32          49.60  -58.90    1.55          58.92  178.50           1.92    0.53    0.87    0.82            0.19    0.26    0.46           0.71     0.87
F1          3.52    4.35    3.35          24.79   -9.96    1.63          10.10  170.68           1.50    1.33    1.53    1.39            0.07    0.08    0.08           0.44     0.49
F2          2.91    4.39    2.81          24.91  -20.76    5.70          21.53  164.64           1.73    1.26    1.65    1.40            0.06    0.08    0.07           0.43     0.48
F3          2.41    4.36    2.47          24.81  -29.67    8.29          30.81  164.39           1.98    1.21    1.74    1.42            0.04    0.07    0.04           0.38     0.42
F4          1.62    4.30    1.90          24.63  -47.08   13.12          48.88  164.43           2.74    1.12    1.97    1.46            0.03    0.07    0.04           0.45     0.49
F5         11.40   14.22   10.78          44.55  -15.55    2.93          15.83  169.34           1.03    0.79    0.96    0.87            0.20    0.26    0.20           0.47     0.53
F6          8.91   13.82    8.79          43.97  -32.51    8.60          33.63  165.18           1.32    0.73    1.09    0.91            0.18    0.26    0.18           0.47     0.53
F7          7.20   14.03    7.34          44.27  -49.27   14.64          51.40  163.45           1.69    0.66    1.22    0.92            0.12    0.21    0.13           0.49     0.53
F8          6.04   14.22    6.23          44.54  -62.36   19.87          65.45  162.33           2.10    0.61    1.35    0.92            0.08    0.14    0.09           0.35     0.39
F9         29.00   32.93   26.77          64.10  -10.28    0.68          10.32  176.20           0.58    0.45    0.52    0.50            0.48    0.56    0.65           0.65     0.75
F10        25.83   32.73   24.23          63.94  -22.25    4.91          22.79  167.57           0.71    0.41    0.58    0.51            0.50    0.60    0.59           0.66     0.75
F11        23.45   33.06   22.48          64.21  -33.66    8.66          34.76  165.58           0.85    0.37    0.63    0.52            0.44    0.54    0.56           0.72     0.81
F12        21.40   33.32   20.94          64.42  -43.94   12.04          45.56  164.68           0.99    0.34    0.68    0.52            0.31    0.36    0.43           0.75     0.85
F13        36.96   46.65   50.39          73.97  -24.59  -14.56          28.58  210.63           0.65    0.24    0.22    0.37            0.34    0.34    0.36           0.44     0.50
F14        36.84   27.58   38.03          59.51   37.36  -24.30          44.56  326.96           0.28    0.75    0.31    0.53            0.30    0.32    0.46           0.47     0.54
F15        56.67   59.04   20.43          81.31   -0.63   42.20          42.21   90.85           0.17    0.24    0.69    0.21            0.34    0.36    0.32           0.52     0.63
F16        15.71   16.15   14.09          47.16    0.82   -2.05           2.22  292.20           0.77    0.81    0.81    0.79            0.35    0.34    0.35           0.55     0.63
F17        31.99   24.56   13.62          56.64   33.01   15.55          36.49   25.22           0.28    0.81    0.83    0.56            0.40    0.41    0.41           0.70     0.79
