targets/wolf_faust/transmissive/A141112.it8
IT8.7/1
ORIGINATOR "Wolf Faust"
DESCRIPTOR "Agfachrome RSX, RSX II and CT Precisa, Type 3, L* a* b* (light D50, viewing angle 2)"
MANUFACTURER "Wolf Faust - http://www.coloraid.de"
CREATED "January 12, 2015"
PROD_DATE "2013:01"
DIFFUSE_GEOMETRY "opal"
SERIAL "A141112 Batch Average Data"
MATERIAL "Agfachrome RSX II"
KEYWORD "MEAN_DE" # Mean Delta E of samples compared to batch average
NUMBER_OF_FIELDS 18
BEGIN_DATA_FORMAT
SAMPLE_ID  XYZ_X   XYZ_Y   XYZ_Z          LAB_L   LAB_A   LAB_B          LAB_C   LAB_H          D_RED  D_GREEN  D_BLUE  D_VIS          STDEV_X STDEV_Y STDEV_Z        MEAN_DE  STDEV_DE
END_DATA_FORMAT
NUMBER_OF_SETS 288
BEGIN_DATA
A1          2.27    1.88    1.48          14.86   10.30    0.84          10.34    4.65           1.46    1.92    1.87    1.69            0.07    0.06    0.06           0.49     0.54
A2          2.79    1.87    1.19          14.79   20.73    4.43          21.20   12.06           1.28    2.11    1.96    1.66            0.09    0.06    0.05           0.53     0.58 
A3          3.52    2.02    1.00          15.57   29.79    8.58          31.00   16.06           1.11    2.31    2.02    1.59            0.09    0.05    0.04           0.49     0.54
A4          4.25    2.04    0.83          15.70   39.96   11.50          41.58   16.05           0.97    2.79    2.05    1.55            0.10    0.05    0.04           0.53     0.58 
A5         10.31    8.86    6.41          35.70   14.44    3.84          14.94   14.88           0.83    1.19    1.18    1.02            0.33    0.29    0.29           0.69     0.75
A6         12.65    9.07    5.52          36.12   29.38    8.69          30.64   16.48           0.65    1.32    1.24    0.98            0.37    0.28    0.25           0.68     0.73 
A7         15.08    9.09    4.77          36.15   44.59   12.59          46.34   15.77           0.50    1.53    1.29    0.95            0.35    0.23    0.23           0.66     0.72
A8         16.38    8.74    4.11          35.47   55.05   15.15          57.10   15.39           0.42    1.78    1.34    0.94            0.19    0.13    0.18           0.68     0.76 
A9         29.61   28.42   23.57          60.26    8.59   -0.21           8.62  194.99           0.46    0.60    0.57    0.54            0.80    0.78    0.83           0.86     0.93
A10        31.72   28.59   22.13          60.42   15.78    2.79          16.03   10.01           0.38    0.63    0.60    0.52            0.68    0.66    0.70           0.74     0.84
A11        33.85   28.59   20.98          60.42   23.34    5.05          23.88   12.22           0.31    0.67    0.62    0.51            0.60    0.58    0.62           0.71     0.82
A12        35.79   28.20   19.81          60.07   31.44    6.87          32.19   12.32           0.25    0.73    0.64    0.51            0.50    0.50    0.55           0.71     0.79 
A13        63.22   66.95   56.08          85.48   -3.03   -0.88           3.17  195.80           0.20    0.16    0.17    0.18            0.52    0.40    0.22           0.43     0.49
A14        68.45   69.55   55.96          86.77    3.04    1.49           3.39   26.01           0.13    0.17    0.17    0.15            0.30    0.30    0.24           0.22     0.24 
A15        68.42   69.93   54.20          86.96    2.17    3.67           4.27   59.16           0.13    0.16    0.19    0.15            0.25    0.22    0.38           0.37     0.42
A16        66.95   69.23   56.18          86.62    0.45    0.99           1.09   65.74           0.16    0.16    0.17    0.16            0.36    0.29    0.17           0.30     0.33
A17        67.93   69.00   55.02          86.50    3.08    2.01           3.68   33.06           0.14    0.17    0.18    0.16            0.29    0.29    0.25           0.23     0.26
A18        62.34   66.28   53.71          85.14   -3.59    1.05           3.77  163.64           0.21    0.17    0.19    0.18            0.49    0.39    0.36           0.54     0.58 
A19        61.37   63.83   54.61          83.88   -0.41   -2.09           2.14  259.64           0.21    0.19    0.18    0.20            0.47    0.40    0.14           0.39     0.45
A20         6.88    3.26    1.97          21.04   47.78    6.23          48.19    7.43           0.76    2.62    1.63    1.34            0.12    0.05    0.05           0.50     0.56 
A21        26.70   18.62   15.30          50.24   40.37    0.18          40.37  163.89           0.33    1.01    0.74    0.67            0.36    0.31    0.42           0.60     0.67
A22        51.77   48.35   33.73          75.04   13.94    8.56          16.36   31.53           0.18    0.37    0.41    0.30            0.71    0.70    0.65           0.60     0.68
B1          3.59    3.20    1.82          20.84    8.16    7.46          11.06   42.41           1.28    1.63    1.81    1.47            0.10    0.09    0.06           0.45     0.49
B2          4.10    3.15    1.15          20.65   16.56   15.14          22.44   42.44           1.15    1.74    2.05    1.44            0.12    0.09    0.06           0.49     0.52
B3          4.71    3.10    0.75          20.45   25.60   21.17          33.22   39.59           1.03    1.89    2.27    1.42            0.12    0.08    0.04           0.45     0.49
B4          5.48    3.22    0.32          20.91   33.10   30.09          44.73   42.27           0.92    2.04    2.78    1.38            0.13    0.08    0.01           0.48     0.54
B5         13.08   11.62    6.79          40.60   12.94   10.61          16.74   39.34           0.73    1.05    1.17    0.91            0.43    0.39    0.33           0.71     0.78
B6         15.57   11.84    4.47          40.95   26.79   22.52          35.00   40.05           0.57    1.15    1.38    0.87            0.36    0.30    0.20           0.58     0.65
B7         17.79   11.83    2.73          40.95   39.15   33.96          51.83   40.94           0.46    1.28    1.63    0.84            0.37    0.29    0.13           0.56     0.61
B8         19.68   11.56    1.54          40.50   50.83   44.38          67.48   41.13           0.36    1.47    1.93    0.83            0.23    0.18    0.07           0.48     0.53
B9         34.57   34.09   26.77          65.03    5.91    2.30           6.38   21.06           0.40    0.50    0.51    0.46            0.80    0.82    0.97           0.92     1.02
B10        36.65   34.25   24.10          65.16   12.36    7.25          14.34   30.32           0.33    0.53    0.56    0.45            0.72    0.73    0.86           0.87     0.97
B11        38.27   34.40   21.52          65.28   17.10   12.36          21.10   35.85           0.28    0.55    0.62    0.44            0.70    0.73    0.72           0.80     0.90
B12        40.27   34.31   18.15          65.20   23.73   19.29          30.59   39.10           0.22    0.59    0.70    0.43            0.61    0.66    0.61           0.81     0.91
B13        58.24   62.48   53.95          83.17   -4.80   -2.61           5.47  208.46           0.25    0.19    0.19    0.21            0.57    0.52    0.40           0.43     0.48
B14        58.97   57.53   51.68          80.47    8.57   -4.78           9.82  330.88           0.18    0.27    0.20    0.23            0.67    0.68    0.38           0.56     0.64
B15        63.85   65.64   49.12          84.81    1.28    5.58           5.73   76.81           0.16    0.19    0.23    0.18            0.55    0.50    0.91           0.78     0.87
B16        52.78   54.26   46.67          78.61    1.18   -2.26           2.56  298.73           0.26    0.27    0.25    0.27            0.73    0.75    0.77           0.69     0.78
B17        58.13   56.90   46.43          80.12    8.06    0.61           8.11   69.74           0.18    0.27    0.25    0.24            0.80    0.75    0.78           0.70     0.77
B18        57.57   62.01   49.20          82.92   -5.36    2.22           5.83  157.68           0.25    0.19    0.23    0.21            0.70    0.64    0.76           0.67     0.73
B19        53.33   54.62   51.24          78.82    1.71   -7.14           7.35  283.53           0.27    0.27    0.21    0.26            0.60    0.64    0.25           0.52     0.60
B20         5.11    3.05    1.04          20.23   31.59   15.87          35.36   26.67           0.96    2.05    2.04    1.41            0.14    0.08    0.04           0.48     0.55
B21        17.48   11.69    4.33          40.72   38.46   22.93          44.78   30.80           0.47    1.28    1.38    0.85            0.33    0.24    0.15           0.54     0.59
B22        33.50   28.21   17.56          60.07   23.57   11.76          26.34   26.51           0.31    0.68    0.71    0.51            0.45    0.45    0.48           0.62     0.73
C1          6.52    6.41    3.60          30.42    3.61    9.62          10.27   69.43           1.08    1.26    1.49    1.18            0.19    0.20    0.14           0.52     0.58
C2          6.94    6.42    2.29          30.44    7.85   19.57          21.08   68.14           1.01    1.29    1.75    1.16            0.18    0.18    0.10           0.51     0.56
C3          7.62    6.47    1.19          30.57   13.86   31.65          34.55   66.35           0.93    1.33    2.15    1.14            0.19    0.18    0.06           0.51     0.55
C4          8.00    6.48    0.61          30.59   17.22   41.21          44.67   67.32           0.89    1.36    2.64    1.13            0.22    0.20    0.02           0.62     0.69
C5         24.57   23.48   12.35          55.56    8.52   17.21          19.21   63.64           0.50    0.69    0.90    0.61            0.70    0.73    0.58           0.84     0.95
C6         26.17   23.41    6.95          55.48   15.57   35.58          38.84   66.36           0.42    0.73    1.21    0.59            0.61    0.62    0.30           0.71     0.80
C7         27.95   23.31    3.35          55.39   23.17   54.36          59.09   66.91           0.35    0.78    1.65    0.58            0.51    0.52    0.15           0.69     0.75
C8         29.92   22.95    1.09          55.02   32.38   75.20          81.88   66.71           0.29    0.85    2.51    0.57            0.50    0.48    0.03           0.67     0.77
C9         40.56   40.65   29.92          69.93    4.25    5.55           7.01   52.21           0.34    0.42    0.47    0.38            0.84    0.89    1.08           0.95     1.06
C10        41.50   40.76   25.44          70.00    6.79   13.19          14.83   62.73           0.30    0.43    0.55    0.38            0.80    0.85    0.86           0.86     0.96
C11        42.74   40.85   21.07          70.07   10.24   21.54          23.85   64.55           0.26    0.44    0.65    0.37            0.69    0.75    0.69           0.82     0.89
C12        44.77   40.86   14.35          70.07   16.16   36.79          40.18   66.29           0.20    0.47    0.85    0.36            0.62    0.69    0.42           0.71     0.81
C13        52.32   58.55   53.44          81.04  -10.47   -5.71          11.94  208.59           0.34    0.20    0.19    0.25            0.61    0.57    0.43           0.48     0.54
C14        52.96   48.65   48.71          75.23   16.22  -10.47          19.30  327.18           0.20    0.37    0.22    0.30            0.68    0.80    0.53           0.70     0.82
C15        62.32   64.48   41.32          84.21    0.33   13.97          13.98   88.63           0.16    0.20    0.32    0.18            0.52    0.48    0.89           0.82     0.96
C16        41.26   42.40   36.53          71.14    1.15   -2.17           2.47  298.67           0.37    0.38    0.37    0.37            0.77    0.80    0.76           0.66     0.76
C17        50.74   47.27   36.22          74.36   14.18    3.81          14.69   15.02           0.20    0.38    0.37    0.31            0.72    0.73    0.84           0.65     0.74
C18        50.39   57.19   41.24          80.28  -12.29    7.29          14.30  149.35           0.34    0.21    0.32    0.25            0.69    0.59    0.82           0.81     0.89
C19        42.91   43.38   48.00          71.81    3.23  -15.55          15.88  281.75           0.38    0.37    0.23    0.37            0.57    0.61    0.21           0.66     0.76
C20        13.00    9.42    1.19          36.78   28.86   42.39          51.29   55.75           0.63    1.29    2.16    0.95            0.33    0.24    0.04           0.51     0.58
C21        22.17   20.39   11.54          52.27   12.05   13.90          18.40   49.07           0.52    0.78    0.92    0.67            0.52    0.47    0.37           0.69     0.75
C22        27.77   23.30   11.48          55.38   22.52   19.45          29.75   40.81           0.37    0.77    0.92    0.59            0.55    0.50    0.35           0.61     0.67
D1          4.31    4.54    2.49          25.38   -0.90    9.07           9.11   95.66           1.29    1.38    1.68    1.34            0.12    0.13    0.10           0.48     0.55
D2          4.33    4.55    1.68          25.41   -0.83   16.80          16.82   92.85           1.28    1.37    1.92    1.33            0.13    0.14    0.08           0.50     0.54
D3          4.18    4.46    0.91          25.15   -1.72   26.36          26.42   93.72           1.30    1.37    2.33    1.34            0.12    0.14    0.04           0.48     0.53
D4          4.22    4.48    0.61          25.19   -1.35   31.84          31.87   92.43           1.30    1.36    2.65    1.33            0.16    0.17    0.02           0.64     0.74
D5         18.08   18.83   10.04          50.47   -0.39   15.52          15.53   91.46           0.68    0.75    1.01    0.72            0.62    0.68    0.53           0.86     0.96
D6         17.81   18.71    5.28          50.34   -1.21   34.40          34.42   92.01           0.67    0.75    1.38    0.71            0.46    0.50    0.23           0.65     0.72
D7         17.68   18.70    2.62          50.32   -1.82   51.01          51.04   92.04           0.68    0.74    1.85    0.71            0.46    0.51    0.11           0.65     0.73
D8         17.54   18.45    1.25          50.03   -1.33   64.32          64.33   91.18           0.69    0.75    2.49    0.71            0.53    0.57    0.04           0.86     1.00
D9         46.19   48.02   26.18          74.84   -0.33   20.22          20.23   90.93           0.28    0.33    0.55    0.31            0.81    0.87    0.99           1.03     1.13
D10        46.04   48.34   14.98          75.04   -1.61   43.72          43.75   92.11           0.26    0.33    0.86    0.30            0.90    1.00    0.55           0.75     0.82
D11        45.63   48.29    7.32          75.00   -2.62   67.73          67.78   92.22           0.27    0.32    1.30    0.30            0.56    0.59    0.20           0.52     0.57
D12        45.29   48.10    4.04          74.89   -3.08   83.54          83.60   92.11           0.28    0.32    1.75    0.30            0.48    0.42    0.08           0.47     0.53
D13        46.96   54.71   52.74          78.87  -15.56   -8.70          17.83  209.21           0.44    0.21    0.20    0.28            0.65    0.62    0.44           0.54     0.61
D14        47.36   40.73   45.53          69.99   23.88  -15.78          28.62  326.55           0.22    0.49    0.24    0.37            0.63    0.72    0.55           0.72     0.84
D15        60.73   63.15   33.09          83.52   -0.39   24.12          24.12   90.91           0.16    0.21    0.44    0.19            0.50    0.46    0.72           0.67     0.80
D16        31.11   31.90   27.20          63.26    1.31   -1.50           2.01  312.10           0.48    0.51    0.51    0.50            0.66    0.67    0.60           0.62     0.71
D17        43.90   38.63   26.80          68.48   20.53    8.19          22.10   21.74           0.22    0.51    0.51    0.39            0.67    0.74    0.73           0.69     0.79
D18        43.71   52.30   33.07          77.46  -18.76   13.69          23.23  143.91           0.42    0.23    0.44    0.29            0.69    0.61    0.67           0.82     0.91
D19        33.84   33.59   44.59          64.63    5.12  -23.88          24.42  282.10           0.50    0.49    0.26    0.48            0.65    0.68    0.29           0.77     0.93
D20         3.06    3.09    1.19          20.38    1.55   14.05          14.14   83.70           1.40    1.57    2.08    1.50            0.10    0.10    0.05           0.46     0.51
D21        30.96   28.21    1.51          60.07   14.49   78.45          79.77   79.53           0.36    0.64    2.39    0.51            0.64    0.62    0.04           0.69     0.80
D22        39.64   43.18   49.10          71.67   -6.13  -17.06          18.13  250.23           0.48    0.34    0.22    0.38            0.57    0.57    0.22           0.57     0.69
E1          5.54    6.28    3.57          30.11   -5.85    9.33          11.02  122.09           1.23    1.20    1.51    1.21            0.16    0.19    0.14           0.54     0.61
E2          5.13    6.32    2.36          30.21  -11.18   18.51          21.63  121.14           1.31    1.16    1.77    1.21            0.16    0.20    0.11           0.57     0.65
E3          4.66    6.29    1.46          30.13  -16.75   27.45          32.16  121.38           1.41    1.12    2.12    1.22            0.14    0.19    0.06           0.57     0.65
E4          4.32    6.17    0.83          29.83  -19.97   35.91          41.09  119.07           1.50    1.10    2.60    1.23            0.15    0.22    0.03           0.68     0.82
E5         25.10   28.18   16.05          60.04   -8.53   15.26          17.49  119.22           0.60    0.53    0.78    0.55            0.82    0.93    0.79           0.97     1.06
E6         23.03   28.42    9.82          60.26  -18.54   33.14          37.98  119.22           0.68    0.49    1.07    0.55            0.66    0.82    0.44           0.82     0.91
E7         20.63   28.05    5.44          59.93  -28.25   50.14          57.55  119.40           0.79    0.46    1.46    0.57            0.55    0.70    0.24           0.72     0.79
E8         18.89   27.89    3.28          59.78  -36.26   62.41          72.18  120.16           0.92    0.43    1.87    0.57            0.37    0.44    0.11           0.47     0.52
E9         44.40   47.78   34.18          74.68   -4.77    7.28           8.71  123.47           0.35    0.31    0.41    0.32            1.09    1.15    1.27           1.01     1.12
E10        42.44   47.93   26.85          74.78  -10.97   18.97          21.92  120.07           0.38    0.29    0.54    0.32            0.92    0.98    0.99           0.93     1.01
E11        40.87   48.60   21.17          75.20  -17.53   30.18          34.90  120.15           0.42    0.27    0.67    0.32            0.83    0.83    0.71           0.86     0.92
E12        39.41   48.34   17.99          75.04  -21.36   36.61          42.39  120.26           0.45    0.26    0.77    0.32            0.67    0.63    0.52           0.81     0.89
E13        42.22   51.15   52.10          76.77  -20.17  -11.63          23.29  209.96           0.53    0.22    0.20    0.32            0.58    0.56    0.41           0.55     0.62
E14        42.52   34.25   42.47          65.16   30.76  -20.34          36.88  326.52           0.24    0.60    0.27    0.44            0.58    0.63    0.56           0.72     0.81
E15        59.46   61.95   26.78          82.88   -0.66   33.06          33.07   91.14           0.16    0.22    0.55    0.20            0.52    0.51    0.63           0.62     0.74
E16        23.04   23.64   20.31          55.72    1.08   -1.67           2.00  303.94           0.61    0.64    0.64    0.63            0.52    0.52    0.48           0.61     0.69
E17        38.03   31.41   19.81          62.85   26.80   11.65          29.23   23.49           0.24    0.65    0.65    0.46            0.51    0.53    0.52           0.62     0.72
E18        38.04   47.90   26.82          74.76  -24.53   18.98          31.02  142.27           0.51    0.25    0.55    0.34            0.66    0.60    0.57           0.74     0.84
E19        26.35   25.64   41.23          57.69    6.80  -31.64          32.36  282.14           0.63    0.61    0.29    0.61            0.50    0.52    0.26           0.72     0.85
E20         7.16    8.49    1.37          34.97   -9.60   36.83          38.06  104.61           1.14    1.03    2.20    1.07            0.21    0.24    0.05           0.50     0.57
E21        24.58   29.14    6.44          60.91  -14.46   47.15          49.32  107.05           0.61    0.50    1.33    0.53            0.57    0.61    0.20           0.67     0.73
E22         8.74   18.34   14.15          49.90  -59.43    2.51          59.49  177.58           1.91    0.52    0.88    0.82            0.17    0.26    0.37           0.61     0.67
F1          3.62    4.47    3.30          25.17  -10.12    2.60          10.45  165.61           1.49    1.32    1.54    1.37            0.10    0.12    0.12           0.52     0.57
F2          3.00    4.53    2.79          25.33  -20.96    6.62          21.98  162.46           1.71    1.24    1.66    1.39            0.12    0.17    0.13           0.58     0.64
F3          2.48    4.47    2.41          25.15  -29.86    9.39          31.30  162.55           1.96    1.20    1.76    1.41            0.09    0.16    0.10           0.55     0.64
F4          1.66    4.40    1.86          24.95  -47.50   14.08          49.54  163.49           2.72    1.11    1.99    1.44            0.06    0.15    0.09           0.64     0.75
F5         11.84   14.78   10.83          45.32  -15.85    4.12          16.38  165.44           1.01    0.77    0.97    0.85            0.46    0.58    0.53           0.90     1.00
F6          9.37   14.56    8.90          45.02  -33.19   10.05          34.68  163.16           1.30    0.71    1.09    0.88            0.31    0.47    0.39           0.77     0.85
F7          7.56   14.73    7.41          45.26  -50.04   16.08          52.57  162.18           1.67    0.64    1.22    0.90            0.27    0.48    0.35           0.81     0.88
F8          6.11   14.39    6.12          44.79  -62.67   20.78          66.03  161.66           2.09    0.60    1.36    0.92            0.15    0.27    0.25           0.63     0.71
F9         30.17   34.26   27.32          65.16  -10.43    1.59          10.57  171.35           0.56    0.43    0.51    0.48            0.93    1.03    1.17           1.02     1.10
F10        26.85   34.06   24.60          65.00  -22.66    6.07          23.46  165.03           0.70    0.39    0.58    0.49            0.70    0.81    0.83           0.91     0.99
F11        24.26   34.22   22.69          65.13  -34.07    9.85          35.47  163.88           0.83    0.36    0.63    0.50            0.55    0.66    0.72           0.83     0.90
F12        21.73   33.81   20.87          64.81  -44.06   12.86          45.91  163.74           0.98    0.33    0.68    0.51            0.38    0.41    0.60           0.86     0.92
F13        37.95   47.76   51.40          74.67  -24.41  -14.47          28.38  210.65           0.63    0.23    0.21    0.36            0.49    0.48    0.35           0.50     0.56
F14        37.93   28.50   39.30          60.33   37.32  -24.58          44.69  326.64           0.27    0.73    0.30    0.51            0.46    0.48    0.53           0.63     0.70
F15        58.16   60.53   20.70          82.12   -0.49   43.05          43.05   90.66           0.16    0.23    0.69    0.20            0.40    0.40    0.40           0.48     0.56
F16        16.31   16.76   14.16          47.96    0.84   -0.87           1.23  316.04           0.75    0.80    0.81    0.78            0.38    0.38    0.36           0.55     0.62
F17        32.78   25.29   13.71          57.35   32.81   16.53          36.74   26.74           0.27    0.80    0.82    0.54            0.44    0.44    0.43           0.65     0.72
