targets/wolf_faust/transmissive/A160425.it8
IT8.7/1
ORIGINATOR "Wolf Faust"
DESCRIPTOR "Agfachrome RSX, RSX II and CT Precisa, Type 3, L* a* b* (light D50, viewing angle 2)"
MANUFACTURER "Wolf Faust - http://www.coloraid.de"
CREATED "April 02, 2016"
PROD_DATE "2013:01"
DIFFUSE_GEOMETRY "opal"
SERIAL "A160425 Batch Average Data"
MATERIAL "Agfachrome RSX II"
KEYWORD "MEAN_DE" # Mean Delta E of samples compared to batch average
NUMBER_OF_FIELDS 18
BEGIN_DATA_FORMAT
SAMPLE_ID  XYZ_X   XYZ_Y   XYZ_Z          LAB_L   LAB_A   LAB_B          LAB_C   LAB_H          D_RED  D_GREEN  D_BLUE  D_VIS          STDEV_X STDEV_Y STDEV_Z        MEAN_DE  STDEV_DE
END_DATA_FORMAT
NUMBER_OF_SETS 288
BEGIN_DATA
A1          2.27    1.89    1.49          14.87   10.26    0.71          10.29    3.94           1.46    1.92    1.87    1.69            0.08    0.06    0.05           0.46     0.50
A2          2.79    1.87    1.20          14.80   20.69    4.28          21.13   11.69           1.28    2.11    1.95    1.66            0.09    0.06    0.04           0.51     0.56 
A3          3.50    2.01    0.99          15.52   29.70    8.49          30.89   15.96           1.12    2.31    2.02    1.59            0.09    0.05    0.04           0.46     0.52
A4          4.25    2.04    0.83          15.69   39.97   11.38          41.56   15.90           0.97    2.80    2.05    1.55            0.10    0.05    0.03           0.48     0.52 
A5         10.25    8.81    6.39          35.62   14.35    3.74          14.83   14.62           0.83    1.19    1.18    1.03            0.34    0.30    0.27           0.70     0.77
A6         12.63    9.07    5.53          36.11   29.30    8.62          30.54   16.40           0.65    1.32    1.24    0.98            0.39    0.30    0.24           0.65     0.71 
A7         15.09    9.10    4.80          36.18   44.54   12.51          46.27   15.69           0.50    1.53    1.29    0.95            0.35    0.24    0.22           0.67     0.73
A8         16.38    8.74    4.14          35.48   54.99   15.02          57.01   15.28           0.42    1.77    1.33    0.94            0.19    0.13    0.17           0.61     0.68 
A9         29.55   28.39   23.57          60.23    8.47   -0.25           8.50  214.33           0.46    0.60    0.57    0.54            0.78    0.76    0.78           0.82     0.90
A10        31.81   28.72   22.20          60.53   15.61    2.85          15.88   10.35           0.38    0.63    0.60    0.52            0.78    0.75    0.77           0.70     0.79
A11        33.76   28.53   20.94          60.36   23.24    5.04          23.78   12.24           0.32    0.67    0.62    0.51            0.62    0.60    0.61           0.68     0.78
A12        35.69   28.14   19.76          60.01   31.38    6.86          32.12   12.33           0.25    0.73    0.64    0.51            0.49    0.50    0.54           0.65     0.74 
A13        62.92   66.72   55.68          85.36   -3.24   -0.65           3.31  191.19           0.21    0.16    0.17    0.18            0.45    0.34    0.27           0.39     0.45
A14        68.30   69.45   55.63          86.73    2.92    1.75           3.41   30.93           0.13    0.17    0.17    0.15            0.35    0.35    0.29           0.23     0.25 
A15        68.28   69.84   53.87          86.92    2.04    3.95           4.45   62.50           0.13    0.16    0.19    0.15            0.30    0.27    0.45           0.37     0.42
A16        66.71   69.05   55.86          86.53    0.28    1.17           1.21   77.42           0.16    0.16    0.17    0.16            0.35    0.27    0.22           0.30     0.34
A17        67.81   68.94   54.73          86.47    2.94    2.27           3.72   37.55           0.14    0.17    0.18    0.16            0.34    0.34    0.29           0.25     0.28
A18        62.19   66.18   53.40          85.09   -3.72    1.30           3.97  160.58           0.21    0.17    0.19    0.18            0.52    0.41    0.46           0.55     0.60 
A19        61.18   63.68   54.23          83.80   -0.53   -1.81           1.90  254.68           0.21    0.19    0.18    0.20            0.48    0.41    0.18           0.41     0.47
A20         6.88    3.25    1.97          21.00   47.83    6.25          48.24    7.45           0.76    2.63    1.63    1.34            0.12    0.05    0.05           0.50     0.55 
A21        26.67   18.61   15.29          50.23   40.29    0.18          40.30  144.25           0.33    1.01    0.74    0.67            0.34    0.29    0.40           0.55     0.64
A22        51.68   48.31   33.62          75.02   13.84    8.66          16.33   32.04           0.18    0.38    0.41    0.30            0.73    0.70    0.73           0.62     0.69
B1          3.59    3.21    1.84          20.85    8.06    7.29          10.87   42.15           1.28    1.62    1.80    1.47            0.10    0.09    0.06           0.43     0.47
B2          4.10    3.16    1.15          20.65   16.44   15.03          22.28   42.43           1.15    1.73    2.05    1.44            0.12    0.09    0.05           0.49     0.52
B3          4.67    3.09    0.75          20.39   25.40   21.00          32.96   39.58           1.03    1.89    2.26    1.42            0.12    0.08    0.03           0.45     0.50
B4          5.47    3.22    0.32          20.90   33.00   30.05          44.64   42.32           0.93    2.04    2.77    1.38            0.14    0.09    0.01           0.52     0.61
B5         13.05   11.60    6.81          40.57   12.83   10.47          16.56   39.21           0.74    1.05    1.17    0.91            0.44    0.41    0.33           0.71     0.78
B6         15.53   11.81    4.48          40.92   26.70   22.40          34.85   40.00           0.57    1.15    1.38    0.87            0.34    0.29    0.19           0.60     0.66
B7         17.85   11.89    2.76          41.04   39.10   33.90          51.75   40.93           0.46    1.28    1.63    0.84            0.42    0.33    0.14           0.55     0.60
B8         19.64   11.53    1.53          40.46   50.81   44.40          67.47   41.15           0.37    1.47    1.93    0.83            0.20    0.16    0.07           0.44     0.49
B9         34.78   34.35   27.08          65.23    5.77    2.12           6.18   19.98           0.40    0.50    0.51    0.46            0.92    0.95    0.98           0.89     1.00
B10        36.84   34.47   24.40          65.33   12.24    7.00          14.11   29.73           0.33    0.53    0.56    0.44            0.80    0.82    0.87           0.84     0.95
B11        38.43   34.58   21.77          65.42   16.99   12.12          20.87   35.48           0.28    0.55    0.61    0.44            0.72    0.74    0.71           0.78     0.85
B12        40.22   34.28   18.16          65.18   23.66   19.24          30.49   39.11           0.23    0.59    0.70    0.43            0.61    0.66    0.59           0.76     0.86
B13        58.01   62.29   53.60          83.07   -4.94   -2.39           5.49  205.76           0.26    0.19    0.19    0.21            0.45    0.39    0.37           0.42     0.47
B14        58.89   57.49   51.43          80.46    8.46   -4.53           9.61  331.88           0.18    0.27    0.20    0.23            0.70    0.71    0.39           0.57     0.64
B15        63.78   65.62   48.90          84.80    1.16    5.81           5.93   78.55           0.16    0.19    0.24    0.18            0.57    0.51    0.94           0.76     0.85
B16        52.74   54.27   46.50          78.62    1.06   -2.05           2.32  298.73           0.26    0.27    0.25    0.27            0.74    0.76    0.81           0.70     0.79
B17        58.06   56.86   46.20          80.10    7.98    0.86           8.05   78.06           0.18    0.27    0.26    0.24            0.82    0.76    0.84           0.74     0.81
B18        57.51   62.01   49.01          82.92   -5.49    2.44           6.03  156.23           0.25    0.19    0.24    0.21            0.65    0.57    0.75           0.67     0.74
B19        53.17   54.51   50.89          78.76    1.59   -6.86           7.04  283.06           0.27    0.27    0.21    0.27            0.50    0.54    0.19           0.48     0.56
B20         5.10    3.05    1.05          20.23   31.55   15.80          35.29   26.60           0.96    2.05    2.03    1.41            0.14    0.09    0.04           0.50     0.56
B21        17.57   11.77    4.40          40.85   38.44   22.77          44.68   30.64           0.47    1.28    1.37    0.85            0.38    0.27    0.15           0.54     0.60
B22        33.47   28.21   17.56          60.08   23.48   11.76          26.26   26.60           0.31    0.68    0.71    0.51            0.43    0.43    0.47           0.63     0.74
C1          6.46    6.35    3.58          30.28    3.55    9.51          10.15   69.53           1.08    1.26    1.49    1.18            0.17    0.18    0.12           0.47     0.54
C2          6.93    6.42    2.31          30.45    7.68   19.40          20.87   68.39           1.01    1.29    1.74    1.16            0.19    0.19    0.10           0.50     0.54
C3          7.58    6.45    1.19          30.52   13.72   31.48          34.34   66.45           0.93    1.33    2.15    1.14            0.18    0.17    0.05           0.44     0.50
C4          7.98    6.48    0.61          30.58   17.11   41.19          44.60   67.44           0.89    1.36    2.64    1.13            0.23    0.20    0.02           0.61     0.69
C5         24.49   23.42   12.35          55.50    8.43   17.11          19.07   63.75           0.50    0.69    0.90    0.61            0.72    0.74    0.61           0.85     0.97
C6         26.12   23.38    6.98          55.46   15.48   35.43          38.67   66.39           0.42    0.73    1.21    0.59            0.62    0.63    0.30           0.73     0.81
C7         27.93   23.32    3.37          55.40   23.07   54.22          58.92   66.95           0.35    0.78    1.65    0.58            0.50    0.52    0.15           0.70     0.76
C8         29.85   22.91    1.08          54.98   32.29   75.19          81.83   66.76           0.30    0.85    2.52    0.57            0.51    0.49    0.02           0.70     0.79
C9         40.75   40.87   30.19          70.08    4.16    5.39           6.82   52.13           0.34    0.41    0.46    0.38            0.93    0.98    1.03           0.91     1.01
C10        41.65   40.94   25.61          70.13    6.70   13.11          14.72   62.91           0.30    0.43    0.55    0.37            0.86    0.93    0.95           0.84     0.93
C11        42.43   40.57   20.96          69.87   10.17   21.42          23.71   64.60           0.26    0.45    0.65    0.37            0.83    0.87    0.69           0.82     0.91
C12        44.63   40.74   14.35          69.99   16.11   36.62          40.01   66.25           0.20    0.47    0.85    0.36            0.65    0.71    0.41           0.64     0.73
C13        52.08   58.35   53.09          80.93  -10.63   -5.53          11.98  207.46           0.35    0.20    0.20    0.25            0.60    0.56    0.41           0.47     0.53
C14        52.83   48.58   48.40          75.18   16.09  -10.20          19.06  327.65           0.20    0.37    0.22    0.30            0.70    0.82    0.53           0.67     0.81
C15        62.14   64.34   41.15          84.14    0.23   14.07          14.07   89.06           0.16    0.20    0.32    0.19            0.63    0.58    0.97           0.88     1.00
C16        41.19   42.36   36.42          71.11    1.05   -2.06           2.32  297.71           0.37    0.38    0.37    0.37            0.79    0.83    0.78           0.68     0.77
C17        50.66   47.22   36.08          74.33   14.09    3.96          14.65   15.67           0.20    0.38    0.37    0.31            0.76    0.78    0.91           0.69     0.78
C18        50.27   57.09   41.06          80.23  -12.38    7.43          14.45  149.05           0.34    0.21    0.33    0.25            0.70    0.61    0.83           0.78     0.87
C19        42.80   43.32   47.68          71.77    3.09  -15.25          15.56  281.45           0.38    0.37    0.23    0.37            0.59    0.64    0.22           0.63     0.73
C20        13.08    9.49    1.19          36.90   28.84   42.48          51.35   55.83           0.63    1.29    2.16    0.95            0.28    0.22    0.04           0.46     0.54
C21        22.28   20.51   11.68          52.40   11.97   13.71          18.20   48.84           0.52    0.77    0.92    0.66            0.54    0.51    0.36           0.66     0.73
C22        27.76   23.31   11.50          55.39   22.45   19.41          29.68   40.84           0.38    0.77    0.92    0.59            0.52    0.49    0.34           0.61     0.67
D1          4.34    4.58    2.53          25.50   -1.04    9.00           9.06   96.58           1.29    1.37    1.67    1.34            0.13    0.14    0.10           0.46     0.51
D2          4.31    4.55    1.69          25.40   -0.98   16.62          16.65   93.38           1.28    1.37    1.91    1.33            0.13    0.14    0.07           0.50     0.53
D3          4.17    4.47    0.92          25.15   -1.85   26.25          26.32   94.02           1.30    1.36    2.33    1.34            0.12    0.14    0.04           0.51     0.56
D4          4.16    4.42    0.61          25.00   -1.41   31.65          31.68   92.55           1.31    1.37    2.66    1.34            0.12    0.14    0.02           0.54     0.66
D5         18.00   18.78   10.07          50.42   -0.53   15.35          15.36   91.98           0.68    0.75    1.01    0.72            0.63    0.69    0.53           0.87     0.96
D6         17.74   18.65    5.30          50.27   -1.32   34.19          34.22   92.21           0.67    0.75    1.38    0.71            0.45    0.50    0.22           0.66     0.72
D7         17.62   18.65    2.63          50.27   -1.95   50.84          50.87   92.20           0.68    0.74    1.85    0.71            0.46    0.51    0.10           0.67     0.75
D8         17.49   18.42    1.25          49.99   -1.43   64.24          64.26   91.27           0.70    0.75    2.49    0.71            0.53    0.58    0.03           0.92     1.06
D9         46.09   47.94   26.19          74.78   -0.38   20.11          20.11   91.09           0.28    0.33    0.55    0.31            0.84    0.90    0.96           0.98     1.07
D10        45.81   48.12   14.92          74.90   -1.67   43.65          43.68   92.19           0.27    0.33    0.86    0.30            0.74    0.82    0.47           0.69     0.76
D11        45.52   48.19    7.35          74.94   -2.69   67.50          67.56   92.28           0.27    0.32    1.30    0.30            0.57    0.61    0.18           0.45     0.49
D12        45.12   47.96    4.05          74.80   -3.19   83.31          83.37   92.20           0.28    0.32    1.74    0.30            0.49    0.43    0.07           0.38     0.44
D13        46.73   54.51   52.42          78.76  -15.71   -8.55          17.89  208.54           0.44    0.21    0.20    0.28            0.70    0.66    0.41           0.59     0.66
D14        47.26   40.67   45.26          69.94   23.77  -15.53          28.40  326.85           0.22    0.49    0.25    0.37            0.66    0.75    0.57           0.72     0.84
D15        60.60   63.05   33.02          83.47   -0.47   24.13          24.13   91.11           0.16    0.21    0.44    0.19            0.50    0.45    0.75           0.73     0.85
D16        31.03   31.83   27.12          63.20    1.26   -1.47           1.96  311.56           0.48    0.51    0.51    0.50            0.63    0.63    0.53           0.61     0.69
D17        43.82   38.58   26.73          68.45   20.42    8.25          22.03   21.99           0.22    0.51    0.51    0.39            0.68    0.74    0.76           0.72     0.82
D18        43.62   52.23   32.98          77.41  -18.81   13.74          23.30  143.87           0.43    0.23    0.44    0.30            0.69    0.62    0.70           0.80     0.89
D19        33.76   33.54   44.29          64.59    4.99  -23.57          24.10  281.95           0.50    0.49    0.26    0.49            0.65    0.67    0.29           0.71     0.86
D20         3.06    3.09    1.20          20.39    1.45   14.00          14.08   84.07           1.40    1.57    2.08    1.50            0.10    0.10    0.05           0.42     0.49
D21        30.95   28.21    1.51          60.08   14.40   78.44          79.76   79.59           0.36    0.64    2.40    0.51            0.64    0.61    0.03           0.74     0.85
D22        39.50   43.07   48.79          71.60   -6.26  -16.83          17.96  249.59           0.48    0.34    0.23    0.38            0.59    0.60    0.23           0.58     0.69
E1          5.52    6.27    3.58          30.08   -5.95    9.16          10.93  122.99           1.24    1.20    1.51    1.21            0.17    0.20    0.13           0.52     0.60
E2          5.10    6.30    2.38          30.16  -11.28   18.29          21.49  121.66           1.31    1.16    1.77    1.21            0.16    0.20    0.10           0.52     0.59
E3          4.64    6.28    1.47          30.10  -16.86   27.30          32.09  121.70           1.41    1.12    2.11    1.22            0.14    0.19    0.05           0.55     0.64
E4          4.29    6.14    0.82          29.75  -20.07   35.81          41.05  119.27           1.51    1.10    2.60    1.23            0.15    0.22    0.02           0.69     0.83
E5         25.02   28.12   16.07          59.99   -8.65   15.12          17.42  119.79           0.60    0.53    0.78    0.55            0.89    1.01    0.84           1.02     1.11
E6         22.92   28.32    9.83          60.17  -18.63   32.94          37.84  119.49           0.68    0.49    1.07    0.56            0.68    0.84    0.45           0.82     0.91
E7         20.54   27.96    5.46          59.84  -28.32   49.90          57.38  119.58           0.79    0.46    1.46    0.57            0.58    0.75    0.24           0.75     0.83
E8         18.79   27.77    3.29          59.67  -36.34   62.15          71.99  120.31           0.92    0.43    1.87    0.58            0.38    0.45    0.09           0.44     0.50
E9         44.29   47.70   34.14          74.63   -4.88    7.25           8.74  124.16           0.35    0.31    0.41    0.32            1.09    1.16    1.28           1.02     1.15
E10        42.34   47.85   26.87          74.73  -11.06   18.85          21.86  120.42           0.38    0.29    0.54    0.32            0.88    0.93    0.94           0.88     0.98
E11        40.71   48.45   21.18          75.11  -17.61   29.99          34.78  120.43           0.42    0.27    0.67    0.32            0.87    0.87    0.71           0.82     0.90
E12        39.33   48.28   18.13          75.00  -21.44   36.21          42.09  120.63           0.45    0.26    0.76    0.32            0.72    0.67    0.54           0.76     0.85
E13        42.05   51.00   51.81          76.68  -20.31  -11.46          23.32  209.42           0.53    0.22    0.21    0.32            0.62    0.59    0.42           0.59     0.65
E14        42.42   34.19   42.18          65.11   30.64  -20.05          36.62  326.79           0.24    0.60    0.27    0.44            0.57    0.62    0.55           0.69     0.77
E15        59.32   61.83   26.73          82.82   -0.72   33.04          33.05   91.25           0.16    0.22    0.55    0.20            0.51    0.50    0.64           0.64     0.75
E16        23.14   23.75   20.39          55.83    1.05   -1.64           1.96  303.29           0.61    0.64    0.64    0.63            0.57    0.57    0.51           0.61     0.67
E17        37.98   31.40   19.77          62.84   26.70   11.72          29.16   23.70           0.24    0.65    0.65    0.46            0.56    0.58    0.54           0.65     0.74
E18        37.89   47.74   26.74          74.66  -24.57   18.94          31.02  142.38           0.52    0.25    0.55    0.34            0.69    0.64    0.57           0.74     0.83
E19        26.27   25.61   40.92          57.66    6.62  -31.30          32.00  281.95           0.63    0.61    0.29    0.61            0.51    0.53    0.28           0.70     0.82
E20         7.16    8.50    1.37          34.99   -9.70   36.86          38.11  104.75           1.14    1.03    2.20    1.07            0.19    0.22    0.05           0.48     0.56
E21        24.58   29.17    6.47          60.93  -14.55   47.02          49.22  107.19           0.61    0.49    1.33    0.53            0.52    0.55    0.18           0.65     0.71
E22         8.71   18.28   14.18          49.83  -59.38    2.33          59.43  177.76           1.91    0.52    0.88    0.82            0.17    0.26    0.32           0.50     0.59
F1          3.61    4.47    3.31          25.16  -10.21    2.49          10.51  166.28           1.49    1.32    1.53    1.37            0.09    0.12    0.10           0.46     0.51
F2          2.96    4.47    2.76          25.18  -20.99    6.54          21.98  162.70           1.72    1.25    1.66    1.39            0.11    0.16    0.11           0.52     0.59
F3          2.47    4.46    2.42          25.12  -29.90    9.23          31.29  162.85           1.96    1.20    1.76    1.41            0.09    0.16    0.10           0.56     0.63
F4          1.64    4.37    1.86          24.86  -47.50   13.94          49.50  163.64           2.73    1.11    1.99    1.45            0.06    0.16    0.08           0.67     0.77
F5         11.78   14.72   10.82          45.24  -15.90    4.00          16.40  165.88           1.02    0.78    0.97    0.86            0.49    0.61    0.56           0.93     1.03
F6          9.33   14.52    8.91          44.96  -33.25    9.90          34.69  163.42           1.30    0.71    1.09    0.88            0.32    0.48    0.39           0.79     0.87
F7          7.54   14.69    7.45          45.20  -50.05   15.81          52.49  162.47           1.67    0.64    1.22    0.90            0.27    0.48    0.32           0.81     0.87
F8          6.11   14.39    6.21          44.78  -62.64   20.38          65.88  161.98           2.09    0.60    1.36    0.92            0.16    0.29    0.25           0.63     0.69
F9         30.05   34.17   27.29          65.09  -10.56    1.52          10.69  171.83           0.57    0.43    0.51    0.48            0.92    1.02    1.13           0.99     1.07
F10        26.72   33.94   24.56          64.91  -22.77    5.97          23.55  165.32           0.70    0.40    0.58    0.49            0.72    0.85    0.84           0.91     1.00
F11        24.16   34.11   22.68          65.04  -34.13    9.71          35.49  164.12           0.83    0.36    0.63    0.50            0.58    0.70    0.71           0.81     0.87
F12        21.63   33.69   20.87          64.71  -44.09   12.70          45.89  163.94           0.98    0.33    0.68    0.52            0.39    0.44    0.61           0.87     0.93
F13        37.77   47.59   51.07          74.57  -24.55  -14.28          28.40  210.19           0.63    0.24    0.21    0.36            0.48    0.46    0.33           0.52     0.58
F14        37.84   28.46   39.03          60.30   37.19  -24.26          44.41  326.88           0.27    0.73    0.30    0.51            0.49    0.51    0.51           0.63     0.70
F15        57.96   60.35   20.66          82.03   -0.55   42.97          42.97   90.73           0.16    0.23    0.69    0.20            0.40    0.39    0.40           0.48     0.56
F16        16.28   16.74   14.16          47.93    0.79   -0.91           1.23  312.57           0.75    0.80    0.81    0.78            0.39    0.40    0.34           0.55     0.61
F17        32.76   25.29   13.74          57.35   32.71   16.46          36.62   26.71           0.27    0.80    0.82    0.54            0.44    0.45    0.42           0.65     0.73
