targets/wolf_faust/transmissive/E020429.it8
IT8.7/1
ORIGINATOR "Wolf Faust"
DESCRIPTOR "Ektachrome Type 3, L* a* b* (light D50, viewing angle 2)"
MANUFACTURER "Wolf Faust - http://www.coloraid.de"
CREATED "May 3, 2002"
PROD_DATE "2002:02"
SERIAL "E020429 Batch Average Data with Statstical Data"
MATERIAL "For Kodak Ektachrome Product Family"
KEYWORD "MEAN_DE" # Mean Delta E of samples compared to batch average
NUMBER_OF_FIELDS 17
BEGIN_DATA_FORMAT
SAMPLE_ID   XYZ_X   XYZ_Y   XYZ_Z          LAB_L   LAB_A   LAB_B          LAB_C   LAB_H          STDEV_X  STDEV_Y  STDEV_Z          STDEV_L  STDEV_A  STDEV_B        MEAN_DE  STDEV_DE
END_DATA_FORMAT
NUMBER_OF_SETS 288
BEGIN_DATA
A1           2.01    1.72    1.21          13.93    8.69    2.60           9.07   16.64            0.05     0.05     0.04            0.30     0.30     0.19           0.42    0.47
A2           2.57    1.76    0.98          14.15   19.41    6.36          20.43   18.13            0.06     0.05     0.04            0.28     0.21     0.19           0.36    0.40
A3           3.17    1.82    0.92          14.51   28.63    7.97          29.72   15.57            0.07     0.05     0.03            0.24     0.17     0.23           0.35    0.37
A4           3.91    1.77    0.64          14.25   41.32   12.58          43.19   16.92            0.07     0.03     0.02            0.17     0.25     0.24           0.35    0.39
A5           8.95    7.78    5.48          33.52   12.91    4.38          13.64   18.75            0.23     0.23     0.17            0.49     0.33     0.23           0.57    0.63
A6          10.78    7.81    4.63          33.58   27.16    8.92          28.59   18.18            0.27     0.23     0.14            0.49     0.29     0.30           0.58    0.64
A7          13.26    8.14    4.10          34.28   41.36   13.19          43.41   17.68            0.30     0.22     0.14            0.45     0.21     0.14           0.46    0.52
A8          15.89    8.14    3.46          34.27   57.44   17.22          59.96   16.69            0.19     0.13     0.12            0.28     0.15     0.37           0.42    0.48
A9          27.81   27.68   21.44          59.60    4.51    2.72           5.27   31.25            0.62     0.71     0.56            0.65     0.44     0.22           0.74    0.81
A10         30.05   28.01   20.12          59.89   11.87    5.90          13.26   26.46            0.64     0.71     0.53            0.64     0.45     0.26           0.75    0.82
A11         31.69   27.73   18.78          59.64   18.98    8.31          20.73   23.65            0.61     0.65     0.50            0.59     0.40     0.27           0.70    0.76
A12         36.95   28.92   16.98          60.70   32.56   14.17          35.51   23.52            0.47     0.55     0.31            0.49     0.59     0.38           0.78    0.85
A13         76.50   79.81   64.85          91.60   -0.91    0.95           1.32   134.05            0.18     0.17     0.14            0.08     0.06     0.12           0.13    0.15
A14         76.93   79.51   64.74          91.46    0.54    0.82           0.99   56.16            0.13     0.13     0.17            0.06     0.04     0.13           0.13    0.14
A15         77.73   80.74   64.85          92.01   -0.23    1.67           1.68   97.97            0.14     0.13     0.17            0.06     0.05     0.11           0.12    0.13
A16         76.03   78.97   64.80          91.22   -0.23    0.35           0.43   124.34            0.17     0.16     0.17            0.07     0.05     0.09           0.11    0.12
A17         76.97   79.55   64.79          91.48    0.54    0.81           0.97   55.73            0.13     0.14     0.14            0.06     0.03     0.08           0.10    0.11
A18         76.78   80.12   65.17          91.74   -0.94    0.89           1.29   136.89            0.13     0.13     0.16            0.06     0.07     0.13           0.14    0.16
A19         76.12   79.05   65.27          91.26   -0.22   -0.03           0.25   186.50            0.13     0.14     0.18            0.06     0.03     0.12           0.12    0.14
A20          1.92    1.20    0.40          10.56   21.01   10.75          23.61   27.09            0.03     0.02     0.02            0.17     0.14     0.22           0.28    0.31
A21          5.33    2.81    0.33          19.25   38.51   26.95          47.00   34.99            0.07     0.04     0.01            0.18     0.15     0.24           0.31    0.34
A22          9.48    4.51    0.26          25.29   52.80   38.62          65.42   36.18            0.11     0.06     0.01            0.19     0.11     0.24           0.28    0.32
B1           3.05    2.73    1.50          18.91    7.57    7.58          10.72   45.06            0.08     0.09     0.05            0.37     0.32     0.24           0.49    0.54
B2           3.44    2.53    0.91          18.05   17.81   14.18          22.77   38.53            0.08     0.07     0.03            0.33     0.22     0.19           0.40    0.44
B3           4.19    2.72    0.58          18.87   25.43   21.61          33.37   40.35            0.09     0.07     0.02            0.31     0.23     0.21           0.39    0.44
B4           4.91    2.65    0.09          18.58   36.24   30.31          47.24   39.91            0.09     0.05     0.01            0.24     0.15     0.41           0.46    0.50
B5          11.52   10.35    5.77          38.45   11.57   11.50          16.32   44.83            0.30     0.31     0.19            0.54     0.33     0.20           0.59    0.66
B6          13.15   10.10    3.56          38.01   24.58   22.99          33.65   43.08            0.30     0.27     0.12            0.49     0.27     0.24           0.55    0.61
B7          15.91   10.63    2.28          38.94   37.40   34.30          50.75   42.52            0.34     0.28     0.09            0.48     0.26     0.15           0.51    0.57
B8          19.18   10.76    1.06          39.18   54.01   48.36          72.50   41.84            0.22     0.18     0.04            0.30     0.20     0.23           0.38    0.43
B9          33.34   34.00   25.05          64.95    2.00    5.17           5.56   68.98            0.72     0.85     0.65            0.67     0.49     0.18           0.77    0.85
B10         34.43   33.58   21.35          64.62    7.19   11.57          13.63   58.16            0.72     0.81     0.59            0.65     0.45     0.33           0.79    0.86
B11         36.21   33.63   18.91          64.66   13.05   16.69          21.19   51.97            0.67     0.75     0.46            0.60     0.47     0.22           0.72    0.79
B12         40.91   34.13   14.77          65.06   26.30   27.06          37.73   45.82            0.57     0.70     0.41            0.55     0.64     0.38           0.84    0.93
B13         66.82   73.08   65.03          88.49   -7.92   -4.58           9.15   210.04            0.27     0.22     0.11            0.11     0.17     0.14           0.22    0.25
B14         70.31   69.32   61.35          86.66    7.53   -4.18           8.61   330.98            0.42     0.55     0.34            0.27     0.29     0.16           0.38    0.43
B15         75.34   78.89   51.60          91.18   -1.46   13.78          13.85   96.06            0.20     0.18     0.48            0.08     0.07     0.42           0.38    0.43
B16         60.78   63.41   51.91          83.66   -0.86    0.47           1.01   150.05            0.51     0.60     0.56            0.32     0.28     0.17           0.41    0.45
B17         67.73   67.11   51.91          85.56    6.70    3.73           7.67   29.16            0.43     0.54     0.47            0.27     0.27     0.10           0.34    0.40
B18         65.59   72.18   54.06          88.05   -8.78    5.71          10.47   146.97            0.31     0.26     0.36            0.12     0.19     0.26           0.30    0.34
B19         62.37   65.94   61.71          84.97   -2.78   -7.45           7.96   249.56            0.42     0.50     0.29            0.26     0.25     0.19           0.35    0.41
B20          3.50    2.20    0.45          16.51   25.40   19.99          32.32   38.20            0.06     0.05     0.01            0.24     0.16     0.28           0.36    0.40
B21          8.83    4.28    0.30          24.58   50.43   36.79          62.42   36.11            0.09     0.05     0.01            0.17     0.12     0.25           0.28    0.32
B22         31.59   28.60   15.34          60.42   15.26   17.64          23.33   49.15            0.53     0.63     0.39            0.56     0.52     0.31           0.74    0.82
C1           5.62    5.64    3.11          28.47    2.12    9.61           9.85   77.58            0.15     0.17     0.10            0.46     0.31     0.21           0.52    0.59
C2           5.96    5.55    1.79          28.24    6.95   20.48          21.63   71.26            0.14     0.16     0.06            0.42     0.40     0.25           0.56    0.63
C3           6.97    6.02    1.04          29.45   12.39   31.78          34.11   68.70            0.16     0.17     0.04            0.41     0.34     0.21           0.52    0.58
C4           7.09    5.73    0.26          28.72   16.64   44.59          47.59   69.53            0.13     0.13     0.00            0.35     0.25     0.52           0.58    0.67
C5          22.19   22.14   10.70          54.17    3.90   19.76          20.14   78.83            0.51     0.60     0.37            0.63     0.43     0.30           0.75    0.82
C6          24.14   21.89    5.55          53.90   13.82   39.22          41.59   70.59            0.52     0.58     0.18            0.61     0.46     0.27           0.72    0.81
C7          26.00   21.96    2.71          53.98   21.38   56.61          60.51   69.31            0.49     0.53     0.10            0.56     0.43     0.34           0.69    0.78
C8          27.56   20.95    0.54          52.89   32.40   81.00          87.24   68.20            0.48     0.46     0.01            0.51     0.34     0.65           0.77    0.89
C9          39.22   40.36   27.65          69.72    0.93    8.89           8.95   84.02            0.78     0.91     0.70            0.65     0.43     0.29           0.76    0.83
C10         39.83   40.20   22.86          69.61    3.39   17.22          17.56   78.87            0.74     0.87     0.59            0.62     0.46     0.24           0.73    0.80
C11         41.84   40.49   18.83          69.81    8.64   25.75          27.16   71.45            0.74     0.89     0.54            0.63     0.52     0.38           0.83    0.90
C12         45.60   40.49   11.13          69.82   19.64   45.39          49.46   66.60            0.59     0.76     0.27            0.53     0.64     0.35           0.81    0.91
C13         61.63   69.26   64.57          86.64  -11.68   -7.34          13.80   212.14            0.32     0.26     0.16            0.13     0.22     0.15           0.25    0.29
C14         62.20   57.99   56.45          80.73   15.09   -9.44          17.80   327.96            0.59     0.80     0.39            0.44     0.55     0.37           0.66    0.80
C15         73.15   76.91   40.76          90.28   -2.08   25.14          25.23   94.73            0.16     0.15     0.51            0.07     0.05     0.56           0.48    0.56
C16         44.96   47.02   38.25          74.20   -1.07    0.73           1.32   143.07            0.72     0.87     0.66            0.55     0.43     0.13           0.62    0.71
C17         55.53   51.40   37.83          76.92   15.47    5.99          16.59   21.19            0.65     0.83     0.62            0.50     0.53     0.18           0.63    0.75
C18         58.73   66.92   43.17          85.47  -13.51   13.78          19.30   134.42            0.38     0.31     0.56            0.16     0.25     0.48           0.48    0.56
C19         49.60   52.29   56.53          77.45   -2.18  -15.18          15.34   261.79            0.55     0.71     0.39            0.42     0.42     0.36           0.59    0.69
C20          2.42    1.91    0.76          14.98   12.81   11.52          17.23   41.95            0.05     0.04     0.03            0.23     0.27     0.26           0.39    0.44
C21         24.79   20.13    6.66          51.98   24.87   30.79          39.58   51.08            0.42     0.44     0.17            0.49     0.41     0.24           0.63    0.69
C22         37.87   37.01   22.20          67.29    7.17   14.50          16.18   63.68            0.69     0.81     0.55            0.61     0.48     0.32           0.76    0.83
D1           3.55    3.86    2.08          23.18   -2.52    8.89           9.25   105.83            0.10     0.12     0.07            0.42     0.35     0.17           0.51    0.57
D2           3.86    4.10    1.42          24.00   -1.43   17.34          17.40   94.70            0.09     0.12     0.05            0.38     0.41     0.32           0.58    0.64
D3           3.67    3.91    0.79          23.36   -1.57   25.42          25.47   93.52            0.08     0.11     0.03            0.35     0.34     0.19           0.46    0.52
D4           3.50    3.83    0.27          23.12   -3.13   34.86          35.00   95.13            0.08     0.10     0.01            0.33     0.25     0.45           0.53    0.61
D5          16.28   17.60    8.28          49.00   -3.83   19.13          19.52   101.31            0.39     0.49     0.26            0.60     0.46     0.25           0.72    0.80
D6          16.97   18.09    4.19          49.60   -2.60   39.03          39.12   93.81            0.37     0.46     0.13            0.56     0.45     0.24           0.66    0.76
D7          16.07   17.50    2.19          48.88   -4.49   52.23          52.43   94.91            0.34     0.43     0.07            0.53     0.42     0.32           0.65    0.75
D8          15.33   16.05    0.62          47.03   -0.84   69.37          69.37   90.69            0.33     0.38     0.02            0.49     0.29     0.59           0.73    0.82
D9          44.33   46.29   23.32          73.73   -0.88   23.46          23.48   92.14            0.75     0.91     0.63            0.59     0.43     0.29           0.70    0.78
D10         44.93   47.39   13.04          74.44   -2.17   47.81          47.86   92.60            0.69     0.84     0.36            0.54     0.41     0.16           0.63    0.69
D11         44.07   47.59    6.19          74.56   -5.22   71.83          72.02   94.16            0.51     0.62     0.17            0.39     0.33     0.15           0.48    0.54
D12         43.26   46.40    2.16          73.80   -4.29   95.44          95.53   92.58            0.34     0.32     0.05            0.21     0.24     0.26           0.37    0.41
D13         58.12   66.63   64.13          85.32  -14.35   -9.19          17.04   212.64            0.32     0.26     0.13            0.13     0.23     0.16           0.28    0.31
D14         57.43   51.46   53.67          76.95   20.02  -13.01          23.88   326.98            0.54     0.72     0.35            0.44     0.57     0.40           0.69    0.82
D15         71.41   75.15   32.84          89.47   -2.22   34.73          34.80   93.65            0.14     0.14     0.54            0.06     0.03     0.71           0.60    0.72
D16         32.35   33.88   27.40          64.86   -1.10    0.94           1.50   137.16            0.66     0.80     0.63            0.64     0.52     0.30           0.78    0.87
D17         47.69   41.83   27.64          70.75   21.49   10.69          24.00   26.45            0.61     0.75     0.58            0.52     0.57     0.32           0.72    0.83
D18         53.66   62.80   34.98          83.34  -16.91   21.03          26.99   128.81            0.43     0.35     0.52            0.19     0.30     0.50           0.53    0.61
D19         40.61   43.21   53.21          71.69   -3.21  -21.59          21.83   261.53            0.56     0.74     0.39            0.50     0.48     0.45           0.71    0.83
D20         16.28   13.36    4.62          43.29   20.77   25.74          33.08   51.10            0.30     0.31     0.13            0.45     0.32     0.20           0.53    0.59
D21         25.04   25.21   15.70          57.28    3.15   11.32          11.75   74.45            0.53     0.61     0.41            0.59     0.39     0.35           0.71    0.78
D22         41.81   42.04   25.98          70.90    3.88   13.78          14.32   74.28            0.74     0.87     0.63            0.60     0.43     0.31           0.72    0.80
E1           4.84    5.63    3.06          28.46   -7.18    9.94          12.27   125.84            0.13     0.17     0.09            0.45     0.39     0.20           0.56    0.62
E2           4.50    5.74    2.05          28.73  -12.75   18.79          22.71   124.16            0.13     0.18     0.07            0.48     0.38     0.26           0.59    0.66
E3           4.54    6.09    1.26          29.64  -16.17   29.15          33.33   119.02            0.11     0.16     0.04            0.41     0.41     0.35           0.60    0.67
E4           3.77    5.68    0.41          28.59  -22.44   41.63          47.29   118.32            0.08     0.13     0.01            0.33     0.33     0.36           0.51    0.59
E5          23.74   27.39   14.08          59.33  -11.34   18.96          22.10   120.88            0.54     0.69     0.41            0.64     0.45     0.27           0.76    0.83
E6          20.39   26.00    8.00          58.04  -21.25   35.76          41.60   120.72            0.47     0.64     0.24            0.60     0.46     0.32           0.74    0.82
E7          18.50   25.18    4.40          57.25  -27.33   51.00          57.86   118.19            0.38     0.54     0.14            0.53     0.41     0.27           0.66    0.72
E8          18.99   28.09    2.66          59.97  -36.53   67.35          76.62   118.47            0.29     0.33     0.07            0.30     0.25     0.21           0.40    0.44
E9          42.00   46.03   31.09          73.56   -7.04    9.98          12.22   125.18            0.72     0.85     0.73            0.55     0.39     0.28           0.65    0.73
E10         39.42   45.91   23.84          73.48  -14.64   22.08          26.50   123.54            0.62     0.79     0.61            0.51     0.38     0.36           0.65    0.73
E11         37.27   45.67   18.74          73.33  -20.85   32.01          38.20   123.08            0.56     0.67     0.46            0.44     0.31     0.30           0.56    0.62
E12         35.87   46.70   12.40          74.00  -28.30   48.84          56.45   120.09            0.43     0.41     0.26            0.26     0.34     0.39           0.53    0.58
E13         55.11   64.28   63.67          84.12  -16.58  -10.83          19.80   213.15            0.36     0.32     0.22            0.16     0.23     0.15           0.30    0.32
E14         52.99   45.57   50.92          73.27   24.77  -16.36          29.69   326.55            0.57     0.72     0.40            0.47     0.57     0.38           0.70    0.83
E15         69.89   73.47   26.67          88.67   -2.03   43.21          43.26   92.69            0.19     0.19     0.50            0.09     0.03     0.73           0.57    0.74
E16         23.98   25.19   20.17          57.26   -1.34    1.26           1.87   135.58            0.57     0.67     0.54            0.65     0.48     0.28           0.76    0.86
E17         41.07   33.95   19.84          64.92   27.41   15.16          31.32   28.95            0.56     0.66     0.48            0.53     0.57     0.32           0.72    0.84
E18         49.18   58.98   28.18          81.28  -19.82   27.93          34.25   125.36            0.54     0.49     0.51            0.27     0.32     0.48           0.55    0.64
E19         32.94   35.27   49.82          65.96   -3.75  -27.73          27.99   262.29            0.56     0.72     0.43            0.55     0.51     0.51           0.80    0.91
E20         23.59   16.51    1.13          47.64   38.41   61.96          72.90   58.20            0.38     0.35     0.04            0.45     0.31     0.42           0.61    0.69
E21         19.76   17.37    3.96          48.73   15.80   38.94          42.03   67.91            0.44     0.45     0.13            0.56     0.35     0.29           0.65    0.72
E22         31.95   29.23   10.34          60.98   14.20   32.65          35.61   66.50            0.65     0.75     0.35            0.65     0.53     0.24           0.77    0.87
F1           3.21    4.05    2.71          23.83  -10.88    4.62          11.82   156.98            0.09     0.13     0.09            0.42     0.39     0.16           0.53    0.59
F2           2.40    3.80    2.41          22.99  -22.05    5.64          22.76   165.64            0.06     0.10     0.08            0.36     0.39     0.22           0.51    0.57
F3           2.02    3.76    2.12          22.85  -29.57    8.01          30.64   164.84            0.06     0.11     0.08            0.39     0.37     0.26           0.53    0.59
F4           1.54    4.10    1.46          23.99  -46.57   16.82          49.52   160.15            0.03     0.09     0.04            0.29     0.43     0.21           0.50    0.56
F5          10.81   13.99    9.39          44.21  -18.41    6.90          19.66   159.46            0.29     0.41     0.29            0.58     0.42     0.18           0.67    0.74
F6           9.00   14.00    7.63          44.24  -32.86   13.42          35.49   157.79            0.24     0.39     0.25            0.55     0.44     0.27           0.68    0.76
F7           6.93   13.34    6.35          43.27  -47.56   17.14          50.56   160.18            0.18     0.34     0.19            0.50     0.37     0.16           0.54    0.64
F8           6.13   14.18    5.61          44.49  -61.22   22.66          65.28   159.69            0.09     0.19     0.12            0.26     0.16     0.21           0.34    0.37
F9          28.41   33.46   25.48          64.53  -14.38    3.66          14.84   165.70            0.57     0.75     0.58            0.60     0.48     0.25           0.73    0.81
F10         24.47   31.25   21.52          62.71  -22.76    7.95          24.11   160.74            0.54     0.73     0.54            0.61     0.42     0.20           0.70    0.77
F11         21.38   30.49   18.81          62.07  -33.88   12.45          36.09   159.82            0.43     0.62     0.42            0.52     0.36     0.23           0.61    0.68
F12         23.30   36.58   20.92          66.96  -46.17   16.46          49.02   160.38            0.35     0.37     0.41            0.28     0.37     0.41           0.54    0.62
F13         52.65   62.36   63.36          83.10  -18.50  -12.28          22.20   213.57            0.35     0.29     0.16            0.15     0.28     0.16           0.33    0.36
F14         49.07   40.48   48.42          69.81   29.32  -19.48          35.20   326.39            0.56     0.70     0.41            0.50     0.61     0.39           0.73    0.88
F15         68.66   71.97   21.69          87.95   -1.59   51.13          51.15   91.78            0.18     0.21     0.44            0.10     0.05     0.69           0.56    0.70
F16         16.58   17.43   14.11          48.80   -1.26    0.71           1.48   148.68            0.40     0.48     0.42            0.60     0.47     0.22           0.69    0.79
F17         35.48   27.48   13.99          59.41   33.23   19.33          38.45   30.18            0.53     0.59     0.43            0.54     0.56     0.40           0.77    0.87
F18         45.32   55.56   22.84          79.36  -22.29   34.07          40.72   123.19            0.52     0.46     0.41            0.26     0.36     0.39           0.50    0.60
F19         26.56   28.47   46.36          60.31   -3.57  -33.46          33.66   263.89            0.48     0.61     0.39            0.54     0.53     0.54           0.83    0.93
