targets/wolf_faust/transmissive/E040701.it8
IT8.7/1
ORIGINATOR "Wolf Faust"
DESCRIPTOR "Ektachrome, Type 3, L* a* b* (light D50, viewing angle 2)"
MANUFACTURER "Wolf Faust - http://www.coloraid.de"
CREATED "November 24, 2004"
PROD_DATE "2004:06"
DIFFUSE_GEOMETRY "opal"
SERIAL "E040701 Batch Average Data"
MATERIAL "For Kodak Ektachrome Product Family"
KEYWORD "MEAN_DE" # Mean Delta E of samples compared to batch average
NUMBER_OF_FIELDS 17
BEGIN_DATA_FORMAT
SAMPLE_ID   XYZ_X   XYZ_Y   XYZ_Z          LAB_L   LAB_A   LAB_B          LAB_C   LAB_H          STDEV_X  STDEV_Y  STDEV_Z          STDEV_L  STDEV_A  STDEV_B        MEAN_DE  STDEV_DE
END_DATA_FORMAT
NUMBER_OF_SETS 288
BEGIN_DATA
A1           2.47    2.08    1.50          15.91    9.81    2.46          10.12   14.08            0.08     0.07     0.06            0.36     0.10     0.28           0.39    0.46
A2           2.97    2.03    1.26          15.63   20.45    4.98          21.05   13.68            0.08     0.06     0.04            0.31     0.12     0.27           0.37    0.43 
A3           3.78    2.20    1.09          16.52   29.63    8.73          30.89   16.43            0.09     0.05     0.03            0.27     0.15     0.27           0.37    0.41
A4           4.54    2.05    0.81          15.74   43.65   11.92          45.25   15.28            0.08     0.04     0.03            0.19     0.26     0.33           0.41    0.46 
A5          10.73    9.19    6.58          36.34   14.88    4.19          15.46   15.71            0.26     0.25     0.21            0.48     0.15     0.36           0.57    0.62
A6          12.95    9.34    5.77          36.62   29.21    8.32          30.38   15.89            0.30     0.25     0.19            0.46     0.10     0.38           0.56    0.61 
A7          14.90    9.12    4.93          36.22   43.24   11.88          44.84   15.36            0.25     0.18     0.16            0.35     0.13     0.42           0.51    0.56
A8          16.86    8.63    4.00          35.25   58.67   15.43          60.67   14.73            0.12     0.09     0.12            0.17     0.12     0.57           0.53    0.61 
A9          30.38   29.29   22.85          61.03    8.16    2.47           8.54   16.85            0.57     0.60     0.55            0.53     0.19     0.38           0.61    0.68
A10         32.47   29.44   21.86          61.16   15.26    4.60          15.94   16.79            0.55     0.58     0.52            0.51     0.25     0.38           0.61    0.68
A11         34.20   29.09   20.75          60.86   22.65    6.28          23.51   15.50            0.52     0.53     0.50            0.47     0.26     0.42           0.60    0.68
A12         37.68   28.83   18.90          60.63   35.24    9.77          36.57   15.48            0.37     0.43     0.47            0.38     0.46     0.57           0.74    0.82 
A13         71.35   73.80   62.21          88.83    0.41   -1.29           1.35   287.96            0.17     0.13     0.07            0.06     0.09     0.06           0.10    0.13
A14         72.11   71.96   60.91          87.95    5.78   -1.52           5.98   345.26            0.22     0.28     0.15            0.14     0.32     0.11           0.31    0.36 
A15         74.38   75.73   59.99          89.74    2.81    2.47           3.74   41.22            0.17     0.12     0.28            0.06     0.17     0.22           0.25    0.29
A16         71.30   73.77   61.20          88.81    0.37   -0.32           0.50   318.53            0.16     0.13     0.15            0.06     0.09     0.09           0.11    0.14
A17         73.34   73.97   60.63          88.91    4.23    0.41           4.26    5.50            0.24     0.20     0.22            0.10     0.29     0.11           0.29    0.32
A18         70.74   73.35   55.94          88.61    0.04    4.68           4.68   89.46            0.20     0.15     0.39            0.07     0.13     0.32           0.30    0.35 
A19         69.74   71.00   60.91          87.48    2.77   -2.33           3.62   319.98            0.19     0.19     0.14            0.09     0.10     0.10           0.15    0.17
A20          6.63    3.13    2.01          20.55   47.26    5.04          47.53    6.08            0.09     0.04     0.05            0.17     0.20     0.39           0.38    0.47 
A21         27.56   19.52   15.36          51.29   39.34    1.82          39.38    2.66            0.30     0.27     0.38            0.31     0.19     0.66           0.65    0.75
A22         53.12   48.74   32.51          75.29   16.40   10.79          19.64   33.32            0.44     0.53     0.66            0.33     0.33     0.57           0.63    0.74
B1           3.64    3.24    1.91          20.98    8.31    6.75          10.71   39.09            0.07     0.07     0.05            0.28     0.11     0.31           0.39    0.43
B2           4.27    3.28    1.21          21.13   16.87   15.06          22.62   41.75            0.08     0.07     0.03            0.27     0.07     0.22           0.33    0.36
B3           4.98    3.31    0.75          21.22   25.74   22.49          34.18   41.14            0.09     0.07     0.02            0.26     0.07     0.31           0.37    0.41
B4           5.91    3.22    0.12          20.89   38.15   33.68          50.89   41.44            0.11     0.07     0.00            0.27     0.17     0.41           0.45    0.52
B5          13.44   12.00    6.96          41.22   12.58   10.95          16.68   41.04            0.31     0.31     0.22            0.49     0.13     0.33           0.56    0.61
B6          15.14   11.77    4.54          40.85   24.67   21.95          33.02   41.66            0.31     0.29     0.14            0.47     0.18     0.27           0.51    0.57
B7          17.73   11.92    2.86          41.08   38.28   33.25          50.70   40.98            0.28     0.23     0.07            0.37     0.16     0.40           0.52    0.57
B8          20.57   11.64    1.28          40.64   54.63   47.82          72.61   41.19            0.15     0.13     0.04            0.21     0.24     0.35           0.43    0.48
B9          35.73   35.30   26.57          65.98    5.76    4.28           7.18   36.62            0.65     0.70     0.63            0.54     0.18     0.29           0.57    0.64
B10         37.25   35.12   23.42          65.84   11.40    9.68          14.96   40.33            0.59     0.65     0.57            0.50     0.27     0.41           0.63    0.70
B11         38.93   35.20   21.28          65.90   16.53   13.91          21.60   40.07            0.53     0.59     0.47            0.46     0.31     0.42           0.63    0.69
B12         42.11   34.76   16.28          65.56   27.79   24.20          36.85   41.05            0.39     0.48     0.38            0.38     0.47     0.40           0.63    0.73
B13         60.49   65.28   55.59          84.63   -5.70   -1.82           5.99   197.74            0.30     0.27     0.39            0.14     0.12     0.25           0.27    0.31
B14         65.10   62.67   53.33          83.27   10.77   -1.76          10.92   350.71            0.41     0.49     0.61            0.26     0.33     0.28           0.46    0.50
B15         69.69   70.67   48.97          87.32    3.35   10.09          10.63   71.61            0.28     0.29     0.64            0.14     0.29     0.52           0.56    0.61
B16         56.54   58.52   48.11          81.03    0.27    0.21           0.47   147.33            0.44     0.47     0.63            0.26     0.10     0.38           0.40    0.47
B17         64.19   62.21   47.94          83.03    9.75    3.86          10.49   21.57            0.37     0.43     0.67            0.23     0.32     0.45           0.54    0.60
B18         59.91   64.91   49.77          84.44   -6.26    4.19           7.54   146.26            0.33     0.30     0.56            0.15     0.13     0.43           0.40    0.47
B19         57.28   59.09   53.61          81.34    0.76   -5.39           5.44   277.97            0.31     0.33     0.42            0.18     0.13     0.31           0.33    0.38
B20          5.34    3.22    1.08          20.89   31.59   16.43          35.60   27.48            0.09     0.06     0.03            0.24     0.09     0.35           0.36    0.44
B21         18.04   12.13    4.45          41.41   38.50   23.46          45.09   31.35            0.25     0.21     0.11            0.32     0.13     0.44           0.47    0.56
B22         34.38   29.34   17.64          61.08   22.31   13.32          25.98   30.83            0.39     0.42     0.40            0.36     0.26     0.53           0.59    0.69
C1           6.99    6.76    3.74          31.25    4.82   10.17          11.26   64.64            0.14     0.15     0.10            0.36     0.16     0.35           0.49    0.52
C2           7.38    6.72    2.29          31.17    8.96   20.81          22.65   66.71            0.14     0.14     0.07            0.34     0.12     0.38           0.47    0.52
C3           7.94    6.82    1.25          31.39   13.23   32.26          34.87   67.70            0.16     0.16     0.02            0.36     0.12     0.42           0.48    0.56
C4           8.48    6.64    0.31          30.97   19.86   47.53          51.51   67.32            0.16     0.14     0.01            0.33     0.10     0.46           0.51    0.58
C5          24.82   24.00   12.43          56.08    7.38   17.86          19.33   67.54            0.54     0.59     0.37            0.59     0.25     0.29           0.62    0.70
C6          26.91   24.08    6.99          56.16   15.68   36.60          39.82   66.81            0.48     0.50     0.19            0.50     0.21     0.34           0.59    0.64
C7          28.47   23.89    3.40          55.98   22.71   55.03          59.53   67.58            0.42     0.44     0.09            0.44     0.27     0.40           0.58    0.65
C8          31.42   23.74    0.67          55.82   34.48   83.60          90.43   67.58            0.36     0.36     0.02            0.36     0.28     0.36           0.52    0.58
C9          41.26   41.59   29.41          70.59    3.56    7.50           8.30   64.58            0.65     0.71     0.68            0.49     0.17     0.37           0.57    0.64
C10         42.36   41.71   24.90          70.66    6.52   15.28          16.62   66.89            0.64     0.71     0.62            0.50     0.24     0.37           0.58    0.66
C11         43.36   41.52   20.61          70.54   10.06   23.25          25.33   66.61            0.53     0.59     0.49            0.41     0.24     0.38           0.55    0.61
C12         46.70   41.29   10.14          70.38   20.34   49.51          53.53   67.67            0.38     0.52     0.26            0.36     0.51     0.40           0.66    0.74
C13         54.46   61.24   55.39          82.51  -11.28   -5.27          12.46   205.03            0.32     0.28     0.36            0.15     0.19     0.23           0.30    0.34
C14         59.20   54.08   50.53          78.51   17.60   -6.89          18.90   338.63            0.45     0.57     0.58            0.33     0.45     0.32           0.56    0.65
C15         68.34   69.80   40.85          86.90    2.27   19.20          19.34   83.26            0.30     0.30     0.69            0.15     0.25     0.66           0.63    0.72
C16         44.51   46.02   37.69          73.56    0.40    0.39           0.65   77.28            0.53     0.56     0.68            0.36     0.11     0.40           0.47    0.55
C17         56.17   51.75   37.85          77.13   16.17    6.34          17.38   21.37            0.42     0.51     0.77            0.31     0.35     0.58           0.66    0.75
C18         52.63   59.82   41.71          81.74  -12.66    9.21          15.66   144.01            0.40     0.35     0.74            0.19     0.22     0.65           0.59    0.71
C19         46.83   48.06   50.25          74.86    1.37  -12.86          12.93   276.07            0.45     0.50     0.49            0.32     0.14     0.34           0.43    0.48
C20         13.44    9.85    1.26          37.57   28.37   42.74          51.30   56.43            0.16     0.13     0.03            0.24     0.06     0.39           0.42    0.46
C21         22.87   21.26   11.89          53.23   11.09   14.50          18.26   52.58            0.38     0.40     0.32            0.43     0.15     0.55           0.63    0.72
C22         28.60   24.12   11.45          56.20   22.24   20.95          30.55   43.28            0.38     0.40     0.31            0.39     0.24     0.46           0.59    0.65
D1           4.68    4.88    2.68          26.37   -0.29    9.22           9.23   91.76            0.11     0.13     0.07            0.36     0.14     0.33           0.45    0.51
D2           4.70    4.91    1.69          26.49   -0.54   18.50          18.51   91.68            0.10     0.11     0.04            0.32     0.14     0.34           0.44    0.49
D3           4.56    4.81    0.96          26.19   -1.05   27.46          27.48   92.20            0.10     0.11     0.03            0.33     0.16     0.50           0.56    0.62
D4           4.46    4.76    0.34          26.04   -1.72   38.51          38.55   92.56            0.11     0.13     0.01            0.37     0.15     0.49           0.56    0.63
D5          18.62   19.45   10.05          51.21   -0.72   16.76          16.78   92.47            0.43     0.48     0.33            0.56     0.20     0.37           0.64    0.70
D6          18.48   19.49    5.45          51.25   -1.60   35.09          35.12   92.60            0.41     0.49     0.17            0.56     0.30     0.29           0.64    0.70
D7          18.33   19.42    2.64          51.17   -2.05   52.30          52.34   92.24            0.36     0.42     0.08            0.49     0.22     0.40           0.60    0.67
D8          18.33   19.48    0.87          51.25   -2.38   72.15          72.19   91.89            0.36     0.39     0.02            0.45     0.10     0.52           0.61    0.70
D9          47.01   48.97   25.68          75.43   -0.58   22.11          22.12   91.50            0.63     0.71     0.62            0.44     0.15     0.38           0.53    0.60
D10         46.46   48.68   14.69          75.25   -1.35   44.83          44.85   91.72            0.56     0.64     0.40            0.40     0.17     0.40           0.49    0.59
D11         46.08   48.73    7.44          75.28   -2.54   67.69          67.74   92.15            0.43     0.47     0.17            0.29     0.09     0.34           0.39    0.46
D12         45.82   48.64    3.66          75.23   -3.05   86.51          86.57   92.02            0.33     0.30     0.06            0.19     0.14     0.24           0.29    0.33
D13         49.72   57.84   55.15          80.65  -15.66   -8.21          17.69   207.68            0.36     0.29     0.41            0.16     0.28     0.22           0.34    0.39
D14         54.12   46.99   47.85          74.18   23.72  -11.29          26.28   334.54            0.44     0.56     0.56            0.36     0.49     0.31           0.60    0.69
D15         67.10   68.79   34.53          86.40    1.70   26.97          27.02   86.40            0.25     0.27     0.73            0.13     0.18     0.85           0.73    0.88
D16         34.10   35.29   29.21          65.97    0.25   -0.14           0.48   180.95            0.55     0.58     0.69            0.45     0.06     0.45           0.55    0.63
D17         49.19   42.92   29.45          71.50   22.35    9.01          24.11   21.93            0.41     0.49     0.72            0.33     0.36     0.63           0.68    0.80
D18         46.58   55.24   35.07          79.18  -17.93   13.74          22.60   142.56            0.40     0.35     0.75            0.20     0.28     0.74           0.69    0.82
D19         37.82   38.64   46.98          68.49    1.81  -20.08          20.16   275.15            0.45     0.51     0.50            0.37     0.20     0.38           0.49    0.57
D20          3.34    3.30    1.25          21.21    2.52   14.66          14.87   80.23            0.07     0.07     0.03            0.25     0.07     0.33           0.36    0.42
D21         31.75   29.31    1.69          61.05   13.18   78.09          79.20   80.42            0.35     0.38     0.04            0.33     0.19     0.33           0.40    0.50
D22         41.45   44.36   49.39          72.47   -3.98  -16.02          16.51   256.03            0.47     0.54     0.45            0.36     0.15     0.35           0.47    0.52
E1           6.08    6.83    3.78          31.41   -5.32   10.17          11.48   117.60            0.14     0.16     0.10            0.38     0.19     0.31           0.48    0.53
E2           5.52    6.78    2.46          31.30  -11.19   19.58          22.55   119.76            0.10     0.13     0.04            0.30     0.10     0.32           0.38    0.45
E3           5.06    6.76    1.48          31.25  -16.42   29.06          33.38   119.46            0.12     0.18     0.03            0.41     0.23     0.42           0.54    0.63
E4           4.40    6.66    0.53          31.01  -24.00   43.55          49.73   118.86            0.10     0.15     0.01            0.36     0.17     0.46           0.54    0.61
E5          25.92   29.34   15.93          61.08   -9.55   17.31          19.77   118.89            0.54     0.63     0.44            0.55     0.17     0.41           0.66    0.71
E6          23.61   29.13    9.86          60.90  -18.64   34.10          38.86   118.67            0.43     0.52     0.26            0.46     0.16     0.35           0.52    0.59
E7          21.39   28.98    5.44          60.76  -28.22   51.57          58.79   118.69            0.33     0.42     0.12            0.37     0.14     0.36           0.48    0.54
E8          20.05   28.99    3.47          60.77  -34.67   62.82          71.75   118.89            0.23     0.26     0.07            0.23     0.18     0.25           0.34    0.38
E9          45.39   48.93   33.10          75.41   -5.06   10.11          11.31   116.63            0.70     0.77     0.85            0.48     0.08     0.49           0.62    0.69
E10         43.21   48.88   26.25          75.38  -11.25   21.02          23.85   118.17            0.56     0.61     0.66            0.38     0.07     0.52           0.57    0.65
E11         41.18   48.72   20.59          75.27  -16.89   31.46          35.71   118.24            0.50     0.54     0.56            0.34     0.12     0.60           0.60    0.69
E12         39.73   48.76   16.61          75.30  -21.48   40.21          45.59   118.12            0.42     0.40     0.44            0.25     0.27     0.63           0.63    0.73
E13         46.15   55.13   54.74          79.12  -18.89  -10.43          21.58   208.91            0.39     0.35     0.49            0.20     0.26     0.25           0.36    0.41
E14         49.30   40.56   45.02          69.86   29.70  -15.38          33.45   332.62            0.43     0.52     0.57            0.37     0.47     0.29           0.56    0.66
E15         65.82   67.60   28.46          85.81    1.42   35.29          35.32   87.70            0.27     0.29     0.67            0.15     0.14     0.87           0.77    0.89
E16         25.62   26.31   21.64          58.33    1.07    0.14           1.15   167.41            0.44     0.46     0.52            0.43     0.12     0.46           0.57    0.64
E17         42.68   35.03   21.81          65.77   28.60   12.64          31.27   23.84            0.40     0.48     0.58            0.37     0.44     0.57           0.68    0.81
E18         41.68   51.29   28.84          76.85  -22.16   19.21          29.33   139.09            0.43     0.38     0.68            0.23     0.34     0.75           0.71    0.85
E19         30.61   30.81   43.71          62.35    3.37  -26.73          26.95   277.19            0.46     0.50     0.49            0.42     0.15     0.38           0.50    0.59
E20          7.78    9.20    1.54          36.37   -9.70   37.19          38.44   104.61            0.15     0.18     0.04            0.34     0.14     0.35           0.43    0.51
E21         25.64   30.33    6.71          61.93  -14.39   47.73          49.85   106.78            0.36     0.43     0.17            0.37     0.10     0.32           0.42    0.50
E22          9.63   19.14   14.51          50.84  -56.13    3.21          56.23   176.73            0.15     0.21     0.34            0.25     0.21     0.49           0.50    0.58
F1           3.91    4.75    3.42          26.00   -9.32    3.21           9.86   161.04            0.09     0.11     0.09            0.33     0.15     0.35           0.45    0.51
F2           3.22    4.79    2.88          26.12  -20.46    7.26          21.71   160.46            0.08     0.11     0.08            0.33     0.17     0.21           0.37    0.43
F3           2.60    4.71    2.53          25.88  -30.50    9.62          31.98   162.50            0.07     0.12     0.06            0.35     0.22     0.32           0.47    0.52
F4           1.86    4.67    1.83          25.76  -46.01   15.77          48.64   161.08            0.04     0.10     0.05            0.31     0.30     0.32           0.48    0.54
F5          12.31   15.38   10.97          46.14  -16.11    5.09          16.89   162.48            0.29     0.37     0.36            0.49     0.16     0.36           0.58    0.63
F6          10.09   15.48    9.02          46.28  -32.86   11.76          34.90   160.31            0.24     0.35     0.29            0.47     0.15     0.36           0.51    0.61
F7           7.94   15.28    7.58          46.01  -49.80   16.69          52.53   161.47            0.18     0.30     0.22            0.41     0.16     0.31           0.45    0.54
F8           7.05   15.21    6.81          45.92  -57.78   19.67          61.03   161.20            0.12     0.21     0.16            0.29     0.12     0.32           0.40    0.45
F9          31.38   35.56   26.71          66.18  -10.31    4.39          11.21   156.96            0.61     0.69     0.71            0.53     0.12     0.40           0.60    0.68
F10         27.72   35.12   24.46          65.84  -22.79    7.77          24.08   161.18            0.52     0.62     0.64            0.48     0.11     0.39           0.57    0.63
F11         24.84   34.96   22.34          65.72  -34.09   11.52          35.98   161.33            0.43     0.51     0.61            0.40     0.15     0.51           0.58    0.67
F12         22.68   34.81   20.68          65.60  -43.08   14.60          45.49   161.29            0.30     0.32     0.53            0.25     0.31     0.68           0.67    0.79
F13         42.12   51.97   54.20          77.26  -22.60  -13.06          26.10   210.02            0.33     0.30     0.47            0.18     0.24     0.25           0.35    0.39
F14         45.00   35.07   42.28          65.80   35.22  -18.99          40.01   331.66            0.41     0.49     0.57            0.38     0.49     0.28           0.57    0.68
F15         64.64   66.37   23.17          85.18    1.48   43.51          43.53   88.06            0.24     0.27     0.54            0.14     0.13     0.81           0.70    0.83
F16         18.05   18.69   15.38          50.32    0.12    0.12           0.36   213.00            0.36     0.39     0.45            0.46     0.12     0.42           0.54    0.63
F17         37.05   28.51   15.56          60.34   34.44   16.96          38.39   26.21            0.34     0.39     0.48            0.35     0.41     0.64           0.69    0.83
F18         36.31   46.77   23.36          74.04  -27.05   23.93          36.11   138.52            0.45     0.41     0.64            0.27     0.36     0.75           0.73    0.87
F19         23.71   23.73   40.26          55.81    3.70  -33.63          33.84   276.28            0.43     0.46     0.47            0.46     0.15     0.39           0.55    0.63
