targets/wolf_faust/transmissive/E040407.it8
IT8.7/1
ORIGINATOR "Wolf Faust"
DESCRIPTOR "Ektachrome Type 3, L* a* b* (light D50, viewing angle 2)"
MANUFACTURER "Wolf Faust - http://www.coloraid.de"
CREATED "April 07, 2004"
PROD_DATE "2004:03"
DIFFUSE_GEOMETRY "opal"
SERIAL "E040407 Batch Average Data with Statstical Data"
MATERIAL "For Kodak Ektachrome Product Family"
KEYWORD "MEAN_DE" # Mean Delta E of samples compared to batch average
NUMBER_OF_FIELDS 17
BEGIN_DATA_FORMAT
SAMPLE_ID   XYZ_X   XYZ_Y   XYZ_Z          LAB_L   LAB_A   LAB_B          LAB_C   LAB_H          STDEV_X  STDEV_Y  STDEV_Z          STDEV_L  STDEV_A  STDEV_B        MEAN_DE  STDEV_DE
END_DATA_FORMAT
NUMBER_OF_SETS 288
BEGIN_DATA
A1           2.43    2.04    1.45          15.71    9.85    2.71          10.23   15.46            0.08     0.06     0.07            0.30     0.46     0.41           0.63    0.69
A2           3.07    2.10    1.22          16.02   20.35    6.11          21.24   16.71            0.10     0.07     0.05            0.35     0.30     0.23           0.45    0.51 
A3           3.54    1.99    1.01          15.44   30.64    8.07          31.69   14.76            0.11     0.06     0.05            0.33     0.39     0.44           0.60    0.67
A4           4.55    2.03    0.74          15.62   44.37   13.04          46.25   16.38            0.11     0.05     0.03            0.26     0.36     0.34           0.51    0.55 
A5          10.89    9.36    6.64          36.67   14.66    4.49          15.33   17.04            0.32     0.27     0.25            0.51     0.44     0.40           0.71    0.78
A6          12.86    9.28    5.72          36.51   29.06    8.42          30.26   16.16            0.37     0.28     0.23            0.52     0.42     0.43           0.72    0.80 
A7          15.22    9.30    4.97          36.55   43.71   12.20          45.38   15.60            0.35     0.23     0.18            0.43     0.35     0.42           0.64    0.70
A8          17.35    8.90    4.01          35.78   59.05   16.30          61.26   15.43            0.18     0.12     0.16            0.24     0.09     0.65           0.59    0.70 
A9          32.68   31.96   24.92          63.30    6.77    2.57           7.26   20.78            0.91     0.93     0.83            0.77     0.39     0.46           0.88    0.98
A10         33.89   30.90   22.95          62.42   14.85    4.68          15.58   17.47            0.86     0.84     0.79            0.71     0.36     0.49           0.86    0.94
A11         35.85   30.69   21.85          62.24   22.28    6.47          23.20   16.19            0.79     0.79     0.74            0.67     0.38     0.49           0.82    0.91
A12         39.64   30.69   19.85          62.24   34.52   10.54          36.10   16.97            0.53     0.59     0.65            0.50     0.52     0.61           0.84    0.95 
A13         76.06   78.62   65.33          91.06    0.50   -0.42           0.66   320.03            0.24     0.22     0.24            0.10     0.09     0.11           0.15    0.17
A14         76.83   77.65   64.78          90.62    3.98   -0.67           4.04   350.52            0.26     0.34     0.27            0.16     0.20     0.12           0.25    0.28 
A15         77.70   79.67   61.32          91.54    1.77    4.26           4.61   67.41            0.22     0.23     0.42            0.10     0.05     0.26           0.25    0.29
A16         76.24   78.80   64.87          91.15    0.51    0.15           0.55   79.34            0.28     0.25     0.31            0.11     0.08     0.14           0.18    0.20
A17         77.31   78.61   63.14          91.06    3.04    1.66           3.47   28.62            0.26     0.31     0.38            0.14     0.12     0.16           0.23    0.25
A18         75.34   78.20   59.20          90.87   -0.14    5.22           5.22   91.46            0.29     0.26     0.42            0.12     0.11     0.29           0.29    0.33 
A19         75.24   77.01   65.08          90.33    2.02   -1.46           2.49   324.28            0.43     0.45     0.43            0.21     0.10     0.15           0.26    0.27
A20          2.16    1.31    0.46          11.31   23.27   10.79          25.65   24.88            0.06     0.04     0.03            0.27     0.31     0.32           0.47    0.52 
A21          6.02    3.17    0.45          20.71   40.04   27.19          48.40   34.18            0.16     0.08     0.03            0.32     0.40     0.27           0.49    0.58
A22         10.40    5.01    0.29          26.77   53.62   40.65          67.29   37.17            0.18     0.09     0.02            0.26     0.30     0.36           0.47    0.54
B1           3.67    3.26    1.84          21.06    8.45    7.61          11.38   42.02            0.11     0.09     0.06            0.35     0.41     0.33           0.58    0.63
B2           4.30    3.26    1.20          21.07   17.48   15.10          23.10   40.83            0.13     0.09     0.04            0.35     0.43     0.32           0.57    0.64
B3           4.87    3.20    0.70          20.84   26.03   22.65          34.51   41.03            0.13     0.08     0.02            0.31     0.35     0.40           0.56    0.62
B4           5.87    3.14    0.09          20.60   38.95   33.84          51.60   40.99            0.13     0.06     0.01            0.25     0.41     0.38           0.52    0.61
B5          13.86   12.41    6.99          41.86   12.50   11.92          17.28   43.65            0.40     0.37     0.25            0.57     0.44     0.32           0.73    0.79
B6          15.83   12.28    4.64          41.66   25.25   22.79          34.02   42.06            0.43     0.35     0.18            0.55     0.41     0.44           0.74    0.81
B7          18.18   12.27    2.89          41.63   38.24   33.94          51.13   41.59            0.45     0.33     0.13            0.51     0.32     0.35           0.64    0.70
B8          21.17   11.98    1.25          41.18   55.16   49.14          73.88   41.70            0.20     0.16     0.05            0.26     0.21     0.47           0.50    0.58
B9          37.01   36.84   27.25          67.15    4.92    5.14           7.13   46.29            0.97     1.02     0.87            0.76     0.40     0.39           0.85    0.94
B10         38.71   36.81   24.49          67.13   10.51    9.93          14.47   43.37            0.93     0.96     0.81            0.72     0.39     0.42           0.83    0.92
B11         40.55   37.05   21.89          67.31   15.48   15.14          21.66   44.37            0.85     0.90     0.73            0.67     0.42     0.50           0.83    0.94
B12         44.53   37.24   16.93          67.46   26.77   25.95          37.28   44.11            0.58     0.71     0.58            0.53     0.59     0.61           0.87    1.00
B13         65.21   70.12   60.04          87.06   -5.33   -2.20           5.77   202.43            0.48     0.46     0.43            0.23     0.18     0.14           0.30    0.32
B14         69.40   67.01   57.94          85.51   10.55   -2.74          10.90   345.43            0.43     0.54     0.44            0.27     0.30     0.15           0.39    0.43
B15         73.59   74.72   52.07          89.26    3.22    9.94          10.45   72.05            0.35     0.43     0.48            0.20     0.17     0.27           0.35    0.38
B16         61.42   63.65   52.42          83.78    0.10    0.12           0.31   171.62            0.64     0.66     0.64            0.34     0.19     0.26           0.43    0.47
B17         68.47   66.62   51.88          85.31    9.39    3.34           9.97   19.57            0.48     0.60     0.59            0.30     0.30     0.26           0.47    0.50
B18         64.73   69.91   53.84          86.95   -5.96    4.04           7.21   145.90            0.51     0.47     0.59            0.23     0.20     0.33           0.41    0.45
B19         61.98   63.99   58.65          83.96    0.65   -6.14           6.18   276.03            0.61     0.67     0.52            0.35     0.21     0.20           0.42    0.45
B20          4.20    2.69    0.57          18.74   26.18   21.58          33.92   39.50            0.11     0.07     0.03            0.30     0.41     0.38           0.55    0.63
B21          9.85    4.78    0.31          26.10   52.23   39.09          65.24   36.81            0.17     0.08     0.02            0.23     0.35     0.40           0.51    0.58
B22         35.27   31.19   17.74          62.66   18.51   15.82          24.36   40.51            0.73     0.70     0.58            0.59     0.41     0.57           0.84    0.92
C1           6.88    6.69    3.61          31.09    4.37   10.70          11.57   67.78            0.21     0.20     0.13            0.47     0.45     0.39           0.71    0.76
C2           7.46    6.83    2.37          31.40    8.75   20.52          22.31   66.91            0.22     0.20     0.09            0.46     0.45     0.35           0.69    0.74
C3           7.89    6.81    1.24          31.37   12.82   32.27          34.73   68.33            0.24     0.20     0.05            0.46     0.37     0.41           0.65    0.72
C4           8.58    6.69    0.27          31.08   20.26   48.42          52.49   67.29            0.21     0.17     0.01            0.39     0.40     0.48           0.65    0.74
C5          25.59   24.83   12.67          56.91    7.03   18.63          19.92   69.32            0.71     0.70     0.49            0.69     0.46     0.46           0.87    0.95
C6          27.59   24.78    7.04          56.85   15.46   37.57          40.63   67.62            0.75     0.71     0.29            0.70     0.38     0.49           0.85    0.93
C7          29.57   24.91    3.57          56.98   22.60   55.60          60.02   67.88            0.72     0.68     0.15            0.66     0.29     0.42           0.73    0.83
C8          32.69   24.71    0.66          56.79   34.90   85.43          92.29   67.78            0.58     0.54     0.02            0.53     0.28     0.53           0.69    0.80
C9          43.81   44.46   30.80          72.53    2.75    8.65           9.09   72.31            0.98     1.04     0.92            0.69     0.38     0.45           0.83    0.91
C10         44.79   44.56   26.56          72.59    5.34   15.71          16.59   71.22            0.95     1.01     0.91            0.67     0.33     0.54           0.82    0.92
C11         45.86   44.40   21.76          72.49    8.85   24.33          25.90   70.02            0.90     1.00     0.74            0.66     0.39     0.53           0.82    0.93
C12         49.40   44.14   10.61          72.32   19.38   51.36          54.90   69.33            0.58     0.75     0.38            0.50     0.59     0.61           0.88    0.99
C13         58.35   65.59   59.79          84.79  -11.52   -5.86          12.93   206.96            0.54     0.49     0.45            0.25     0.25     0.15           0.33    0.39
C14         63.52   58.51   55.48          81.02   16.85   -7.93          18.63   334.80            0.59     0.74     0.55            0.41     0.45     0.16           0.55    0.63
C15         72.30   73.93   44.01          88.89    2.14   18.66          18.78   83.46            0.38     0.45     0.64            0.21     0.15     0.51           0.49    0.57
C16         48.57   50.69   41.41          76.49   -0.84    0.54           1.05   149.39            0.96     0.99     0.97            0.60     0.31     0.38           0.72    0.78
C17         60.40   56.27   41.73          79.77   15.03    5.78          16.11   21.02            0.63     0.77     0.80            0.44     0.43     0.42           0.67    0.74
C18         56.75   64.42   45.86          84.19  -12.82    8.31          15.28   147.07            0.65     0.56     0.81            0.29     0.38     0.55           0.62    0.72
C19         50.86   52.62   55.17          77.65    0.33  -13.43          13.44   271.42            0.81     0.91     0.63            0.54     0.39     0.33           0.67    0.74
C20          2.97    2.32    0.86          17.10   14.10   13.35          19.42   43.42            0.08     0.06     0.03            0.29     0.34     0.33           0.52    0.56
C21         28.88   23.03    8.39          55.10   28.06   29.26          40.54   46.20            0.56     0.52     0.30            0.54     0.36     0.53           0.78    0.83
C22         41.70   39.53   24.58          69.13   11.15   13.21          17.29   49.84            0.83     0.87     0.73            0.62     0.42     0.44           0.81    0.87
D1           4.58    4.79    2.61          26.11   -0.41    9.33           9.34   92.51            0.15     0.15     0.09            0.43     0.41     0.32           0.62    0.67
D2           4.49    4.70    1.64          25.87   -0.59   18.06          18.08   91.85            0.15     0.15     0.07            0.43     0.42     0.30           0.62    0.67
D3           4.43    4.70    0.92          25.85   -1.36   27.44          27.47   92.84            0.13     0.13     0.04            0.38     0.36     0.35           0.58    0.63
D4           4.36    4.63    0.30          25.66   -1.42   38.56          38.59   92.11            0.11     0.11     0.01            0.33     0.39     0.49           0.64    0.71
D5          19.22   20.15   10.26          52.00   -1.04   17.43          17.47   93.39            0.60     0.64     0.41            0.71     0.44     0.46           0.88    0.96
D6          18.99   20.05    5.44          51.89   -1.76   36.27          36.32   92.77            0.64     0.67     0.24            0.75     0.43     0.51           0.91    1.00
D7          18.66   19.85    2.74          51.66   -2.49   52.40          52.46   92.71            0.58     0.63     0.12            0.72     0.44     0.50           0.86    0.97
D8          18.53   19.79    0.86          51.60   -2.84   72.78          72.84   92.23            0.55     0.58     0.03            0.65     0.35     0.71           0.90    1.03
D9          49.16   51.52   26.71          76.99   -1.41   23.02          23.06   93.52            0.96     1.04     0.88            0.62     0.31     0.60           0.82    0.92
D10         48.74   51.38   15.34          76.90   -2.16   46.04          46.10   92.68            0.96     1.05     0.54            0.64     0.27     0.58           0.82    0.90
D11         47.79   50.57    7.59          76.41   -2.67   69.07          69.12   92.21            0.77     0.80     0.22            0.49     0.22     0.38           0.60    0.66
D12         46.95   49.55    3.11          75.79   -2.31   91.18          91.21   91.45            0.54     0.47     0.08            0.29     0.31     0.34           0.49    0.55
D13         53.38   62.11   59.56          82.97  -16.04   -8.76          18.27   208.65            0.59     0.52     0.49            0.28     0.33     0.15           0.39    0.46
D14         57.68   50.43   52.45          76.33   23.32  -12.77          26.59   331.30            0.62     0.76     0.61            0.46     0.50     0.17           0.59    0.70
D15         71.09   73.01   37.43          88.45    1.48   26.43          26.47   86.80            0.39     0.46     0.72            0.22     0.15     0.68           0.60    0.73
D16         36.69   38.10   31.33          68.09   -0.15    0.17           0.52   163.50            1.01     1.05     0.95            0.77     0.37     0.37           0.86    0.94
D17         52.35   46.18   32.16          73.66   21.43    8.50          23.06   21.61            0.69     0.82     0.90            0.53     0.51     0.59           0.86    0.94
D18         50.21   59.48   38.41          81.55  -18.21   13.20          22.50   144.08            0.69     0.60     0.86            0.33     0.45     0.67           0.76    0.87
D19         40.76   41.70   51.18          70.66    1.70  -21.14          21.22   274.59            0.85     0.94     0.67            0.65     0.48     0.45           0.85    0.92
D20         18.98   15.11    5.47          45.78   24.52   25.60          35.45   46.23            0.46     0.38     0.18            0.51     0.42     0.39           0.72    0.77
D21         28.58   28.19   18.01          60.06    5.51   10.73          12.08   62.81            0.78     0.77     0.62            0.69     0.44     0.46           0.88    0.94
D22         46.67   46.11   28.48          73.61    6.30   14.22          15.56   66.08            0.93     0.98     0.84            0.63     0.36     0.51           0.84    0.89
E1           6.04    6.85    3.81          31.45   -5.95   10.05          11.68   120.58            0.20     0.21     0.17            0.49     0.48     0.40           0.74    0.79
E2           5.53    6.73    2.43          31.18  -10.58   19.61          22.28   118.34            0.18     0.20     0.10            0.48     0.37     0.43           0.69    0.74
E3           5.02    6.72    1.40          31.16  -16.64   29.97          34.27   119.04            0.15     0.19     0.04            0.44     0.35     0.45           0.65    0.72
E4           4.38    6.64    0.49          30.97  -24.09   44.11          50.26   118.64            0.11     0.17     0.02            0.39     0.40     0.44           0.64    0.71
E5          26.73   30.26   16.20          61.87   -9.65   18.05          20.47   118.14            0.79     0.91     0.60            0.78     0.47     0.49           0.95    1.03
E6          24.61   30.54   10.30          62.11  -19.55   34.73          39.85   119.37            0.71     0.82     0.39            0.70     0.38     0.52           0.87    0.95
E7          22.09   30.02    5.69          61.67  -28.83   51.89          59.36   119.05            0.59     0.72     0.21            0.62     0.37     0.31           0.73    0.79
E8          19.96   29.20    3.14          60.96  -35.94   65.43          74.65   118.78            0.35     0.37     0.08            0.32     0.36     0.26           0.48    0.55
E9          47.45   51.57   34.77          77.02   -6.23   10.46          12.18   120.78            0.97     1.05     0.92            0.63     0.33     0.46           0.78    0.85
E10         45.06   51.32   26.98          76.87  -12.32   22.36          25.53   118.87            0.89     0.95     0.84            0.57     0.31     0.62           0.80    0.90
E11         42.73   50.77   21.37          76.53  -17.66   32.08          36.62   118.84            0.79     0.81     0.67            0.49     0.37     0.71           0.87    0.94
E12         40.47   50.29   15.57          76.24  -23.24   44.34          50.06   117.66            0.64     0.57     0.43            0.35     0.50     0.58           0.72    0.84
E13         49.10   58.89   59.05          81.23  -19.82  -11.25          22.79   209.58            0.59     0.53     0.49            0.29     0.37     0.16           0.43    0.49
E14         53.24   44.51   49.90          72.57   28.43  -16.42          32.83   329.99            0.63     0.74     0.63            0.49     0.53     0.18           0.65    0.75
E15         69.79   71.83   31.29          87.89    1.13   34.36          34.38   88.12            0.35     0.42     0.67            0.20     0.14     0.77           0.70    0.81
E16         27.36   28.63   23.14          60.45   -0.99    0.91           1.40   138.71            0.82     0.87     0.78            0.77     0.41     0.45           0.90    0.98
E17         45.98   38.52   24.00          68.40   26.83   13.03          29.83   25.88            0.64     0.74     0.78            0.54     0.54     0.66           0.91    1.01
E18         44.44   54.82   31.54          78.94  -23.01   18.55          29.56   141.14            0.65     0.57     0.76            0.33     0.47     0.69           0.78    0.90
E19         32.86   33.51   47.79          64.57    1.97  -27.80          27.87   274.04            0.80     0.86     0.62            0.69     0.42     0.51           0.87    0.96
E20         25.42   17.85    1.22          49.31   39.09   63.53          74.59   58.40            0.43     0.35     0.04            0.43     0.22     0.46           0.63    0.67
E21         23.39   20.01    5.01          51.84   19.38   38.37          42.99   63.20            0.61     0.55     0.19            0.62     0.44     0.44           0.81    0.87
E22         36.42   33.19   12.66          64.31   15.25   31.42          34.93   64.10            0.77     0.77     0.44            0.62     0.36     0.54           0.85    0.90
F1           4.00    4.89    3.48          26.42   -9.75    3.51          10.37   160.21            0.12     0.14     0.12            0.42     0.47     0.33           0.67    0.71
F2           3.21    4.71    2.86          25.89  -19.80    7.03          21.01   160.46            0.11     0.14     0.09            0.41     0.42     0.30           0.60    0.66
F3           2.64    4.71    2.46          25.89  -29.91   10.23          31.61   161.11            0.08     0.13     0.09            0.38     0.38     0.31           0.58    0.62
F4           1.81    4.74    1.82          25.97  -48.00   16.23          50.67   161.31            0.04     0.11     0.06            0.32     0.38     0.31           0.54    0.59
F5          12.63   15.81   11.00          46.72  -16.42    5.97          17.47   160.02            0.40     0.49     0.40            0.65     0.50     0.51           0.88    0.96
F6          10.33   15.90    9.17          46.84  -33.46   12.19          35.61   159.98            0.36     0.50     0.36            0.66     0.47     0.49           0.87    0.95
F7           8.02   15.40    7.59          46.18  -49.76   16.93          52.56   161.22            0.25     0.42     0.28            0.57     0.40     0.36           0.71    0.78
F8           6.80   15.22    6.59          45.94  -60.38   20.68          63.83   161.09            0.14     0.25     0.17            0.33     0.21     0.30           0.43    0.49
F9          32.35   37.17   27.93          67.40  -12.07    4.43          12.86   159.87            0.89     1.00     0.83            0.75     0.45     0.48           0.91    0.99
F10         28.51   36.41   25.19          66.83  -23.96    8.16          25.31   161.20            0.77     0.94     0.73            0.71     0.46     0.52           0.90    0.99
F11         25.62   36.21   22.97          66.68  -34.95   11.98          36.95   161.08            0.64     0.78     0.68            0.59     0.38     0.55           0.83    0.90
F12         22.67   35.63   20.58          66.24  -45.86   15.90          48.54   160.89            0.40     0.42     0.55            0.32     0.44     0.65           0.71    0.85
F13         44.97   55.61   58.35          79.39  -23.43  -13.72          27.15   210.35            0.55     0.49     0.45            0.28     0.37     0.20           0.42    0.51
F14         48.15   37.99   46.65          68.01   34.55  -20.52          40.18   329.29            0.55     0.64     0.59            0.47     0.51     0.19           0.62    0.71
F15         68.53   70.56   25.81          87.27    1.07   42.30          42.32   88.55            0.33     0.41     0.58            0.20     0.15     0.76           0.64    0.80
F16         19.14   19.96   16.25          51.78   -0.54    0.53           0.93   152.01            0.59     0.62     0.56            0.70     0.48     0.49           0.91    0.98
F17         39.45   30.82   17.10          62.36   33.46   16.76          37.42   26.60            0.49     0.55     0.57            0.46     0.48     0.68           0.86    0.95
F18         39.00   50.21   25.54          76.19  -27.63   23.69          36.40   139.40            0.62     0.56     0.68            0.34     0.50     0.74           0.83    0.96
F19         25.38   25.44   43.69          57.50    3.61  -35.07          35.26   275.87            0.61     0.66     0.56            0.63     0.43     0.46           0.81    0.89
