targets/wolf_faust/transmissive/E040528.it8
IT8.7/1
ORIGINATOR "Wolf Faust"
DESCRIPTOR "Ektachrome, Type 3, L* a* b* (light D50, viewing angle 2)"
MANUFACTURER "Wolf Faust - http://www.coloraid.de"
CREATED "June 03, 2004"
PROD_DATE "2004:05"
DIFFUSE_GEOMETRY "opal"
SERIAL "E040528 Batch Average Data"
MATERIAL "For Kodak Ektachrome Product Family"
KEYWORD "MEAN_DE" # Mean Delta E of samples compared to batch average
NUMBER_OF_FIELDS 17
BEGIN_DATA_FORMAT
SAMPLE_ID   XYZ_X   XYZ_Y   XYZ_Z          LAB_L   LAB_A   LAB_B          LAB_C   LAB_H          STDEV_X  STDEV_Y  STDEV_Z          STDEV_L  STDEV_A  STDEV_B        MEAN_DE  STDEV_DE
END_DATA_FORMAT
NUMBER_OF_SETS 288
BEGIN_DATA
A1           2.43    2.10    1.55          16.00    8.67    2.04           8.91   13.24            0.06     0.05     0.04            0.27     0.19     0.27           0.39    0.43
A2           2.97    2.07    1.28          15.83   19.47    4.99          20.10   14.38            0.06     0.05     0.03            0.24     0.18     0.26           0.35    0.39 
A3           3.63    2.10    1.10          16.01   29.60    7.82          30.62   14.79            0.07     0.04     0.03            0.20     0.20     0.20           0.30    0.35
A4           4.37    1.96    0.80          15.27   43.49   11.30          44.94   14.56            0.07     0.03     0.02            0.16     0.25     0.17           0.29    0.35 
A5          10.63    9.22    6.90          36.40   13.86    2.89          14.16   11.78            0.23     0.21     0.20            0.39     0.21     0.28           0.45    0.53
A6          12.57    9.17    5.94          36.32   27.99    7.03          28.86   14.09            0.23     0.18     0.17            0.34     0.26     0.31           0.48    0.53 
A7          14.80    9.13    5.07          36.24   42.53   11.12          43.96   14.66            0.22     0.15     0.14            0.28     0.26     0.29           0.43    0.48
A8          17.25    8.97    4.20          35.93   57.88   15.45          59.91   14.95            0.15     0.10     0.14            0.20     0.08     0.54           0.51    0.58 
A9          30.66   29.93   23.97          61.59    6.82    1.32           6.95   10.89            0.66     0.68     0.69            0.59     0.16     0.36           0.60    0.71
A10         32.60   29.86   22.87          61.53   14.11    3.28          14.49   13.09            0.63     0.61     0.65            0.52     0.20     0.38           0.57    0.68
A11         34.70   29.68   21.52          61.37   22.13    5.63          22.84   14.27            0.59     0.55     0.60            0.48     0.19     0.48           0.60    0.70
A12         38.27   29.36   19.56          61.10   35.13    9.16          36.31   14.61            0.33     0.34     0.51            0.30     0.24     0.65           0.64    0.75 
A13         73.10   76.03   63.82          89.88   -0.45   -1.04           1.14   245.98            0.39     0.37     0.43            0.17     0.09     0.19           0.23    0.27
A14         73.61   73.64   62.70          88.75    5.46   -1.89           5.78   340.90            0.31     0.37     0.34            0.17     0.14     0.14           0.22    0.27 
A15         75.70   77.72   58.22          90.65    1.55    5.84           6.04   75.09            0.23     0.25     0.34            0.11     0.07     0.18           0.19    0.22
A16         74.20   76.81   63.73          90.24    0.28   -0.33           0.45   313.32            0.25     0.23     0.27            0.11     0.07     0.16           0.18    0.20
A17         75.56   76.88   62.44          90.27    2.93    0.97           3.09   18.26            0.25     0.29     0.28            0.13     0.11     0.08           0.16    0.19
A18         73.00   75.94   58.67          89.83   -0.47    3.97           4.00   96.78            0.27     0.27     0.38            0.13     0.08     0.19           0.22    0.24 
A19         72.01   72.98   62.85          88.44    3.47   -2.58           4.32   323.39            0.23     0.27     0.18            0.13     0.12     0.07           0.16    0.19
A20          6.57    3.08    2.11          20.36   47.49    3.81          47.65    4.59            0.10     0.05     0.05            0.19     0.28     0.32           0.41    0.47 
A21         27.71   19.78   16.13          51.58   38.64    0.47          38.64   66.15            0.29     0.23     0.31            0.26     0.23     0.45           0.50    0.57
A22         54.90   50.66   34.76          76.47   15.82    9.51          18.46   31.00            0.38     0.44     0.51            0.27     0.21     0.40           0.45    0.53
B1           3.65    3.29    1.96          21.17    7.72    6.58          10.14   40.45            0.07     0.07     0.06            0.27     0.20     0.26           0.38    0.43
B2           4.19    3.21    1.21          20.87   16.90   14.69          22.39   41.00            0.07     0.06     0.03            0.24     0.19     0.21           0.34    0.38
B3           4.80    3.22    0.76          20.90   24.91   21.79          33.10   41.18            0.09     0.06     0.02            0.25     0.20     0.36           0.45    0.48
B4           5.70    3.13    0.12          20.57   37.15   33.23          49.85   41.81            0.08     0.05     0.00            0.19     0.17     0.32           0.35    0.41
B5          13.53   12.18    7.29          41.50   11.97   10.09          15.65   40.13            0.32     0.30     0.23            0.47     0.20     0.29           0.52    0.59
B6          15.74   12.29    4.78          41.68   24.65   22.05          33.07   41.81            0.34     0.29     0.17            0.45     0.25     0.28           0.55    0.59
B7          17.67   11.98    2.88          41.18   37.49   33.25          50.11   41.57            0.28     0.21     0.10            0.34     0.23     0.31           0.47    0.52
B8          20.46   11.60    1.33          40.58   54.36   47.00          71.86   40.85            0.17     0.14     0.05            0.23     0.19     0.33           0.39    0.44
B9          36.03   35.96   27.67          66.48    4.58    3.28           5.64   35.56            0.67     0.71     0.67            0.54     0.19     0.34           0.59    0.67
B10         37.78   35.96   24.47          66.49   10.30    8.87          13.59   40.70            0.70     0.71     0.68            0.55     0.20     0.42           0.61    0.72
B11         38.84   35.27   21.90          65.96   15.99   12.79          20.48   38.65            0.65     0.64     0.61            0.49     0.19     0.45           0.58    0.69
B12         42.91   35.47   16.84          66.11   27.79   23.83          36.61   40.61            0.40     0.46     0.44            0.36     0.37     0.55           0.61    0.76
B13         62.20   67.12   58.72          85.56   -5.76   -3.45           6.71   210.90            0.40     0.40     0.32            0.20     0.10     0.11           0.22    0.25
B14         67.21   64.59   56.72          84.27   11.11   -3.61          11.68   341.97            0.32     0.41     0.34            0.21     0.24     0.09           0.27    0.33
B15         71.59   72.62   51.08          88.26    3.34    9.32           9.90   70.26            0.28     0.34     0.41            0.16     0.16     0.22           0.25    0.32
B16         57.54   59.54   49.79          81.59    0.31   -0.74           0.82   294.45            0.52     0.52     0.53            0.29     0.09     0.21           0.32    0.37
B17         65.73   63.57   49.80          83.74   10.13    2.95          10.56   16.25            0.34     0.42     0.49            0.22     0.22     0.24           0.32    0.39
B18         61.54   66.70   51.82          85.35   -6.36    3.48           7.26   151.33            0.43     0.41     0.52            0.21     0.15     0.32           0.36    0.41
B19         58.37   60.17   56.46          81.93    0.87   -7.39           7.44   276.70            0.48     0.52     0.41            0.28     0.14     0.16           0.31    0.35
B20          5.44    3.37    1.17          21.48   30.25   16.16          34.29   28.11            0.09     0.05     0.04            0.19     0.23     0.27           0.37    0.41
B21         18.09   12.38    4.79          41.81   37.04   22.25          43.21   30.99            0.25     0.18     0.12            0.28     0.26     0.33           0.47    0.51
B22         35.33   30.45   18.91          62.04   21.40   12.17          24.62   29.62            0.42     0.39     0.38            0.33     0.21     0.46           0.53    0.60
C1           6.85    6.77    3.86          31.28    3.33    9.48          10.05   70.64            0.13     0.14     0.10            0.32     0.16     0.33           0.44    0.49
C2           7.26    6.75    2.38          31.23    7.56   20.10          21.48   69.39            0.14     0.14     0.05            0.33     0.19     0.25           0.41    0.46
C3           7.61    6.60    1.29          30.87   12.48   30.79          33.22   67.93            0.12     0.12     0.03            0.29     0.20     0.23           0.36    0.42
C4           8.36    6.63    0.31          30.94   19.01   47.49          51.15   68.18            0.15     0.14     0.01            0.32     0.14     0.46           0.51    0.58
C5          25.15   24.50   12.72          56.58    6.59   17.92          19.10   69.79            0.55     0.59     0.43            0.58     0.24     0.41           0.67    0.75
C6          26.71   24.26    7.15          56.34   14.09   36.25          38.90   68.76            0.54     0.55     0.23            0.55     0.27     0.31           0.62    0.68
C7          28.85   24.32    3.58          56.41   22.33   54.58          58.97   67.75            0.50     0.50     0.13            0.49     0.25     0.24           0.54    0.60
C8          31.68   24.14    0.73          56.23   33.69   83.16          89.72   67.94            0.46     0.42     0.02            0.42     0.21     0.39           0.53    0.61
C9          41.90   42.29   30.29          71.06    3.42    6.92           7.72   63.64            0.74     0.78     0.75            0.53     0.15     0.42           0.61    0.70
C10         42.73   42.14   25.99          70.97    6.33   13.88          15.26   65.48            0.72     0.75     0.64            0.52     0.19     0.37           0.57    0.66
C11         44.12   42.44   21.57          71.17    9.54   22.43          24.38   66.96            0.66     0.69     0.56            0.47     0.17     0.46           0.58    0.68
C12         47.55   42.04   10.19          70.90   20.45   50.24          54.24   67.85            0.38     0.48     0.27            0.33     0.40     0.54           0.63    0.75
C13         56.19   63.12   58.48          83.51  -11.28   -6.74          13.15   210.87            0.43     0.41     0.29            0.22     0.16     0.12           0.25    0.30
C14         61.03   55.69   53.51          79.43   17.95   -8.56          19.88   334.49            0.37     0.47     0.33            0.27     0.30     0.17           0.32    0.43
C15         70.27   71.70   44.01          87.82    2.45   16.82          17.00   81.73            0.30     0.36     0.52            0.17     0.15     0.38           0.36    0.45
C16         44.92   46.49   39.20          73.86    0.25   -1.11           1.15   283.54            0.59     0.61     0.63            0.39     0.11     0.26           0.40    0.48
C17         57.30   52.60   39.57          77.64   16.77    4.90          17.47   16.30            0.38     0.46     0.56            0.27     0.24     0.35           0.40    0.51
C18         54.14   61.48   44.39          82.64  -12.67    7.41          14.69   149.69            0.49     0.44     0.61            0.24     0.24     0.46           0.48    0.57
C19         47.52   48.79   52.71          75.32    1.31  -14.79          14.85   275.07            0.56     0.60     0.43            0.38     0.17     0.25           0.41    0.48
C20         13.12    9.81    1.33          37.50   26.54   41.69          49.42   57.52            0.20     0.15     0.05            0.28     0.29     0.28           0.47    0.49
C21         23.68   22.31   12.62          54.35    9.89   14.35          17.43   55.43            0.42     0.39     0.29            0.41     0.20     0.37           0.53    0.59
C22         29.19   24.96   12.16          57.04   20.88   20.29          29.12   44.17            0.45     0.41     0.31            0.40     0.24     0.34           0.53    0.58
D1           4.48    4.77    2.71          26.06   -1.54    8.47           8.61   100.30            0.10     0.10     0.08            0.31     0.20     0.28           0.42    0.46
D2           4.47    4.76    1.69          26.05   -1.59   17.82          17.89   95.09            0.08     0.09     0.04            0.27     0.19     0.25           0.38    0.41
D3           4.45    4.76    0.99          26.04   -1.86   26.70          26.76   93.98            0.08     0.09     0.02            0.27     0.20     0.34           0.43    0.47
D4           4.39    4.70    0.33          25.86   -1.92   38.41          38.46   92.86            0.08     0.10     0.01            0.29     0.19     0.40           0.46    0.53
D5          18.67   19.63   10.34          51.42   -1.32   16.16          16.21   94.67            0.44     0.50     0.34            0.57     0.26     0.33           0.63    0.71
D6          18.63   19.85    5.62          51.67   -2.61   34.98          35.08   94.27            0.40     0.46     0.18            0.53     0.31     0.29           0.60    0.67
D7          18.29   19.56    2.72          51.33   -2.95   52.00          52.08   93.25            0.39     0.45     0.08            0.52     0.22     0.37           0.59    0.67
D8          18.16   19.57    0.92          51.35   -3.70   71.44          71.54   92.96            0.37     0.42     0.03            0.48     0.21     0.46           0.59    0.70
D9          47.25   49.18   26.42          75.56   -0.48   21.06          21.06   91.31            0.72     0.78     0.67            0.48     0.12     0.47           0.58    0.68
D10         46.82   49.10   15.12          75.51   -1.47   44.20          44.22   91.90            0.72     0.77     0.41            0.48     0.11     0.30           0.49    0.58
D11         46.10   48.76    7.63          75.30   -2.56   67.00          67.05   92.19            0.69     0.73     0.22            0.46     0.10     0.24           0.46    0.53
D12         45.96   48.70    3.59          75.26   -2.82   86.99          87.03   91.86            0.48     0.42     0.08            0.26     0.25     0.27           0.40    0.45
D13         51.04   59.44   57.93          81.53  -15.94   -9.59          18.60   211.04            0.43     0.41     0.34            0.22     0.21     0.11           0.27    0.32
D14         55.80   48.44   50.62          75.10   23.99  -12.86          27.22   331.80            0.42     0.51     0.37            0.32     0.36     0.20           0.38    0.52
D15         68.96   70.64   37.56          87.31    1.84   24.28          24.35   85.66            0.30     0.35     0.56            0.17     0.16     0.52           0.47    0.57
D16         34.32   35.68   30.25          66.27   -0.29   -1.29           1.34   256.79            0.57     0.59     0.66            0.45     0.18     0.38           0.54    0.62
D17         50.27   43.85   30.82          72.13   22.58    7.91          23.93   19.30            0.41     0.48     0.58            0.32     0.29     0.49           0.53    0.65
D18         47.85   56.72   37.60          80.02  -18.03   11.66          21.48   147.14            0.47     0.42     0.67            0.24     0.28     0.60           0.55    0.71
D19         38.33   39.27   49.17          68.94    1.51  -21.84          21.89   273.96            0.51     0.57     0.42            0.41     0.25     0.31           0.49    0.57
D20          3.30    3.36    1.27          21.41    1.00   14.73          14.77   86.13            0.06     0.06     0.04            0.21     0.21     0.27           0.35    0.41
D21         32.52   30.40    1.91          62.00   11.85   77.48          78.38   81.30            0.47     0.47     0.04            0.40     0.21     0.38           0.50    0.59
D22         42.75   46.10   52.24          73.61   -4.99  -17.23          17.93   253.84            0.53     0.60     0.36            0.39     0.19     0.33           0.45    0.54
E1           5.93    6.78    3.95          31.30   -6.53    8.95          11.09   126.11            0.12     0.15     0.11            0.35     0.20     0.29           0.44    0.49
E2           5.44    6.75    2.52          31.23  -11.77   18.95          22.31   121.83            0.11     0.15     0.07            0.35     0.23     0.31           0.47    0.53
E3           4.91    6.61    1.45          30.91  -16.91   28.85          33.44   120.37            0.10     0.14     0.04            0.34     0.22     0.32           0.46    0.52
E4           4.35    6.65    0.53          31.00  -24.58   43.52          49.98   119.46            0.09     0.14     0.01            0.34     0.25     0.44           0.54    0.61
E5          26.14   29.88   16.55          61.55  -10.65   16.65          19.77   122.61            0.58     0.68     0.47            0.58     0.21     0.26           0.57    0.67
E6          23.56   29.21   10.21          60.96  -19.15   33.05          38.20   120.10            0.48     0.60     0.29            0.53     0.20     0.29           0.56    0.63
E7          21.23   28.93    5.62          60.72  -28.76   50.63          58.22   119.60            0.39     0.51     0.15            0.45     0.16     0.18           0.45    0.51
E8          19.68   28.74    3.56          60.55  -35.57   61.87          71.37   119.90            0.27     0.30     0.08            0.27     0.21     0.11           0.29    0.35
E9          45.11   48.77   33.86          75.30   -5.42    8.80          10.34   121.63            0.76     0.82     0.81            0.51     0.12     0.39           0.56    0.66
E10         43.06   48.81   27.20          75.33  -11.47   19.32          22.47   120.71            0.68     0.71     0.64            0.44     0.17     0.47           0.57    0.67
E11         40.95   48.66   21.51          75.24  -17.44   29.55          34.32   120.55            0.69     0.72     0.59            0.45     0.22     0.43           0.54    0.66
E12         38.98   48.47   16.80          75.12  -23.06   39.47          45.71   120.30            0.46     0.44     0.46            0.27     0.30     0.69           0.68    0.80
E13         47.05   56.49   57.62          79.89  -19.67  -12.10          23.10   211.60            0.43     0.40     0.33            0.23     0.24     0.13           0.26    0.36
E14         51.12   42.24   47.78          71.04   29.51  -16.64          33.88   330.59            0.35     0.41     0.35            0.28     0.31     0.16           0.35    0.45
E15         67.63   69.43   31.42          86.72    1.50   32.15          32.19   87.33            0.26     0.32     0.51            0.16     0.15     0.58           0.50    0.62
E16         25.37   26.55   22.49          58.55   -0.94   -1.12           1.48   229.05            0.44     0.45     0.51            0.42     0.22     0.36           0.51    0.59
E17         43.91   36.25   23.01          66.71   28.17   11.94          30.60   22.97            0.34     0.39     0.49            0.30     0.30     0.55           0.57    0.70
E18         42.18   52.15   31.13          77.37  -22.91   16.47          28.22   144.30            0.47     0.43     0.64            0.26     0.31     0.64           0.57    0.76
E19         30.74   31.37   45.84          62.81    1.86  -28.52          28.58   273.73            0.45     0.50     0.36            0.42     0.26     0.36           0.51    0.61
E20          7.93    9.50    1.57          36.93  -10.68   37.90          39.37   105.73            0.12     0.15     0.04            0.27     0.14     0.24           0.33    0.39
E21         26.29   31.31    7.28          62.77  -15.29   46.77          49.21   108.10            0.38     0.44     0.16            0.37     0.17     0.29           0.44    0.50
E22          9.44   18.99   15.03          50.67  -56.91    1.59          56.93   178.40            0.12     0.17     0.26            0.20     0.14     0.36           0.36    0.43
F1           3.95    4.82    3.60          26.22   -9.64    2.41           9.94   165.99            0.08     0.11     0.10            0.31     0.21     0.27           0.42    0.46
F2           3.22    4.80    3.01          26.15  -20.66    6.35          21.62   162.92            0.07     0.11     0.08            0.32     0.28     0.24           0.44    0.49
F3           2.77    4.89    2.56          26.41  -29.77   10.27          31.49   160.97            0.06     0.11     0.08            0.33     0.29     0.23           0.46    0.50
F4           1.87    4.83    1.93          26.23  -47.69   15.63          50.19   161.85            0.04     0.10     0.06            0.28     0.36     0.21           0.44    0.50
F5          12.47   15.66   11.38          46.52  -16.65    4.48          17.25   164.94            0.30     0.39     0.39            0.52     0.23     0.37           0.58    0.68
F6          10.02   15.48    9.34          46.28  -33.41   10.66          35.07   162.30            0.26     0.41     0.33            0.55     0.32     0.30           0.62    0.70
F7           8.08   15.45    7.86          46.24  -49.46   15.98          51.98   162.10            0.19     0.34     0.27            0.45     0.26     0.37           0.58    0.64
F8           6.79   14.94    6.85          45.55  -58.84   18.89          61.80   162.20            0.13     0.24     0.19            0.32     0.10     0.28           0.38    0.44
F9          30.82   35.26   27.39          65.95  -11.36    2.82          11.71   166.06            0.72     0.81     0.71            0.63     0.13     0.29           0.59    0.70
F10         27.76   35.29   25.19          65.97  -23.16    6.67          24.11   163.94            0.57     0.68     0.67            0.52     0.12     0.46           0.60    0.71
F11         24.95   35.07   23.11          65.80  -34.00   10.20          35.50   163.31            0.57     0.68     0.70            0.53     0.17     0.47           0.62    0.73
F12         22.09   34.46   21.51          65.33  -44.59   12.47          46.30   164.39            0.27     0.29     0.51            0.23     0.28     0.64           0.61    0.73
F13         43.32   53.52   57.04          78.18  -23.03  -14.45          27.19   212.11            0.43     0.41     0.32            0.24     0.26     0.16           0.30    0.39
F14         46.39   36.27   44.66          66.73   35.21  -20.35          40.67   329.97            0.35     0.40     0.35            0.31     0.36     0.18           0.39    0.50
F15         66.35   68.13   25.80          86.07    1.46   40.25          40.28   87.92            0.25     0.31     0.50            0.16     0.16     0.66           0.57    0.70
F16         17.95   18.74   15.88          50.38   -0.67   -1.00           1.23   234.69            0.32     0.32     0.38            0.38     0.20     0.38           0.50    0.57
F17         37.83   29.23   16.41          60.99   34.20   16.00          37.76   25.07            0.26     0.28     0.39            0.24     0.24     0.61           0.57    0.70
F18         37.16   47.87   25.34          74.74  -27.27   21.53          34.75   141.72            0.40     0.38     0.54            0.24     0.30     0.65           0.60    0.75
F19         23.88   23.93   41.87          56.02    3.58  -35.36          35.54   275.79            0.35     0.40     0.33            0.40     0.26     0.34           0.51    0.59
