targets/wolf_faust/transmissive/E040629.it8
IT8.7/1
ORIGINATOR "Wolf Faust"
DESCRIPTOR "Ektachrome, Type 3, L* a* b* (light D50, viewing angle 2)"
MANUFACTURER "Wolf Faust - http://www.coloraid.de"
CREATED "September 06, 2004"
PROD_DATE "2004:06"
DIFFUSE_GEOMETRY "opal"
SERIAL "E040629 Batch Average Data"
MATERIAL "For Kodak Ektachrome Product Family"
KEYWORD "MEAN_DE" # Mean Delta E of samples compared to batch average
NUMBER_OF_FIELDS 17
BEGIN_DATA_FORMAT
SAMPLE_ID   XYZ_X   XYZ_Y   XYZ_Z          LAB_L   LAB_A   LAB_B          LAB_C   LAB_H          STDEV_X  STDEV_Y  STDEV_Z          STDEV_L  STDEV_A  STDEV_B        MEAN_DE  STDEV_DE
END_DATA_FORMAT
NUMBER_OF_SETS 288
BEGIN_DATA
A1           2.34    2.08    1.38          15.89    7.40    3.84           8.35   27.38            0.05     0.05     0.04            0.24     0.13     0.34           0.38    0.43
A2           2.83    2.01    1.14          15.51   18.36    6.28          19.41   18.88            0.06     0.04     0.04            0.21     0.17     0.30           0.36    0.40 
A3           3.34    1.96    0.96          15.26   28.31    8.65          29.60   16.98            0.06     0.04     0.03            0.20     0.16     0.21           0.29    0.33
A4           4.09    1.82    0.71          14.51   42.84   11.61          44.39   15.16            0.06     0.03     0.02            0.15     0.25     0.16           0.30    0.33 
A5          10.16    9.03    6.34          36.04   11.86    4.71          12.77   21.66            0.22     0.21     0.17            0.40     0.19     0.25           0.45    0.51
A6          12.08    8.93    5.34          35.85   26.72    9.10          28.22   18.81            0.24     0.19     0.15            0.37     0.19     0.31           0.47    0.52 
A7          14.35    8.92    4.57          35.83   41.56   13.13          43.58   17.53            0.26     0.19     0.14            0.36     0.18     0.27           0.42    0.48
A8          17.35    8.98    3.81          35.95   58.34   17.86          61.01   17.02            0.13     0.09     0.10            0.18     0.10     0.37           0.36    0.42 
A9          30.24   29.99   22.97          61.64    5.05    3.29           6.04   32.98            0.60     0.63     0.60            0.55     0.19     0.38           0.62    0.69
A10         32.68   30.27   21.92          61.88   12.90    5.73          14.12   23.92            0.62     0.63     0.61            0.54     0.21     0.38           0.60    0.69
A11         35.03   30.23   20.84          61.85   21.18    7.81          22.58   20.24            0.57     0.56     0.56            0.48     0.20     0.43           0.58    0.67
A12         38.67   29.78   18.97          61.46   34.83   11.04          36.54   17.58            0.39     0.43     0.43            0.37     0.39     0.40           0.60    0.68 
A13         72.35   75.14   63.50          89.46   -0.23   -1.45           1.47   260.93            0.33     0.30     0.32            0.14     0.13     0.20           0.24    0.28
A14         73.75   73.63   62.46          88.75    5.77   -1.67           6.01   343.91            0.33     0.40     0.32            0.19     0.19     0.23           0.31    0.35 
A15         75.78   77.38   60.10          90.50    2.40    3.67           4.38   56.83            0.28     0.27     0.31            0.12     0.07     0.16           0.18    0.22
A16         73.61   76.05   63.34          89.88    0.57   -0.56           0.81   316.57            0.31     0.28     0.35            0.13     0.12     0.23           0.26    0.29
A17         75.24   76.09   61.85          89.90    3.85    0.92           3.96   13.43            0.28     0.31     0.27            0.14     0.10     0.13           0.20    0.22
A18         73.08   75.61   57.58          89.68    0.37    4.81           4.83   85.63            0.30     0.28     0.31            0.13     0.11     0.15           0.19    0.23 
A19         71.97   73.04   63.00          88.47    3.26   -2.67           4.22   320.74            0.31     0.34     0.19            0.16     0.08     0.15           0.21    0.23
A20          6.36    2.93    1.77          19.77   47.84    6.07          48.23    7.23            0.09     0.04     0.05            0.18     0.24     0.32           0.40    0.44 
A21         27.40   19.64   14.96          51.43   38.10    3.06          38.22    4.60            0.35     0.31     0.32            0.36     0.24     0.41           0.54    0.59
A22         54.67   50.61   33.09          76.44   15.39   11.91          19.46   37.73            0.56     0.67     0.61            0.41     0.36     0.36           0.59    0.65
B1           3.48    3.27    1.79          21.08    5.45    8.17           9.83   56.30            0.07     0.08     0.05            0.29     0.15     0.20           0.35    0.38
B2           3.99    3.14    1.09          20.60   15.15   15.85          21.93   46.31            0.08     0.07     0.03            0.25     0.14     0.24           0.34    0.38
B3           4.65    3.18    0.67          20.76   23.55   23.21          33.07   44.57            0.10     0.07     0.02            0.27     0.18     0.29           0.39    0.43
B4           5.43    3.07    0.11          20.31   35.16   32.91          48.16   43.10            0.10     0.06     0.00            0.23     0.19     0.38           0.38    0.48
B5          13.16   12.04    6.72          41.27   10.56   12.06          16.03   48.80            0.29     0.29     0.19            0.46     0.17     0.20           0.47    0.53
B6          15.42   12.15    4.40          41.46   23.72   23.82          33.61   45.12            0.30     0.25     0.13            0.40     0.13     0.24           0.44    0.48
B7          17.48   11.90    2.66          41.06   37.02   34.71          50.75   43.15            0.29     0.22     0.07            0.34     0.15     0.26           0.42    0.46
B8          20.86   11.80    1.13          40.89   54.95   50.19          74.42   42.41            0.16     0.12     0.03            0.19     0.14     0.26           0.31    0.35
B9          35.93   36.36   26.37          66.79    2.95    6.01           6.70   63.81            0.65     0.70     0.66            0.53     0.18     0.35           0.60    0.66
B10         37.76   36.20   23.53          66.67    9.45   10.90          14.43   49.06            0.61     0.64     0.57            0.49     0.19     0.38           0.59    0.64
B11         39.57   36.48   21.39          66.88   14.30   15.38          21.00   47.08            0.59     0.60     0.55            0.46     0.19     0.40           0.55    0.64
B12         43.63   36.36   16.00          66.79   27.01   27.00          38.19   44.99            0.42     0.48     0.46            0.36     0.35     0.54           0.65    0.74
B13         61.84   67.09   58.40          85.55   -6.54   -3.14           7.26   205.65            0.41     0.40     0.35            0.20     0.15     0.10           0.23    0.27
B14         67.60   65.25   56.35          84.61   10.52   -2.65          10.85   345.83            0.44     0.50     0.43            0.26     0.22     0.08           0.31    0.34
B15         71.75   72.97   49.58          88.43    2.94   11.30          11.67   75.40            0.40     0.43     0.44            0.21     0.09     0.21           0.27    0.31
B16         57.74   60.20   49.28          81.94   -0.75    0.45           0.89   148.89            0.55     0.61     0.59            0.33     0.11     0.17           0.33    0.38
B17         66.04   64.18   48.92          84.06    9.46    4.50          10.48   25.45            0.49     0.55     0.53            0.29     0.21     0.20           0.36    0.41
B18         61.14   66.63   50.89          85.31   -7.14    4.45           8.41   148.09            0.46     0.45     0.48            0.23     0.18     0.23           0.33    0.37
B19         58.84   61.09   56.71          82.43   -0.15   -6.79           6.79   268.72            0.52     0.57     0.47            0.30     0.10     0.15           0.29    0.35
B20          5.04    3.11    1.00          20.46   29.74   16.97          34.25   29.71            0.09     0.06     0.02            0.24     0.16     0.27           0.35    0.40
B21         17.34   11.82    4.25          40.93   36.83   23.74          43.82   32.80            0.24     0.19     0.11            0.30     0.19     0.32           0.44    0.48
B22         34.82   30.06   17.42          61.71   21.11   14.91          25.84   35.22            0.52     0.52     0.40            0.45     0.26     0.36           0.57    0.64
C1           6.63    6.68    3.57          31.07    1.93   10.94          11.11   80.00            0.15     0.17     0.11            0.39     0.16     0.24           0.43    0.48
C2           7.03    6.66    2.17          31.02    6.22   21.58          22.46   73.92            0.15     0.16     0.07            0.37     0.15     0.27           0.43    0.48
C3           7.49    6.69    1.23          31.09   10.39   32.01          33.66   72.02            0.15     0.15     0.03            0.35     0.12     0.30           0.42    0.47
C4           8.26    6.68    0.29          31.07   17.48   48.17          51.24   70.05            0.17     0.15     0.01            0.35     0.13     0.54           0.55    0.66
C5          24.62   24.17   11.91          56.25    5.74   19.67          20.49   73.72            0.50     0.54     0.36            0.53     0.23     0.34           0.60    0.67
C6          26.60   24.33    6.62          56.41   13.37   38.62          40.87   70.90            0.46     0.47     0.19            0.47     0.18     0.26           0.49    0.56
C7          28.89   24.44    3.16          56.52   22.00   57.62          61.68   69.11            0.43     0.43     0.09            0.42     0.17     0.32           0.49    0.55
C8          31.92   24.21    0.61          56.30   34.25   85.51          92.11   68.17            0.40     0.36     0.01            0.36     0.13     0.49           0.54    0.62
C9          42.38   43.25   29.61          71.72    2.04    9.13           9.36   77.37            0.66     0.71     0.71            0.48     0.19     0.39           0.57    0.65
C10         43.47   43.40   24.94          71.82    4.83   17.20          17.87   74.32            0.59     0.64     0.56            0.43     0.17     0.37           0.52    0.59
C11         44.20   42.85   20.29          71.45    8.57   25.49          26.89   71.41            0.59     0.65     0.47            0.45     0.26     0.32           0.53    0.60
C12         48.53   43.23    9.68          71.71   19.68   53.32          56.83   69.74            0.34     0.44     0.25            0.30     0.36     0.46           0.58    0.65
C13         55.27   62.55   58.16          83.21  -12.27   -6.94          14.10   209.50            0.36     0.33     0.30            0.17     0.19     0.10           0.24    0.27
C14         61.63   56.66   53.45          79.99   16.96   -7.56          18.56   335.98            0.38     0.48     0.35            0.27     0.32     0.13           0.37    0.44
C15         70.28   71.87   41.46          87.90    2.11   20.15          20.26   84.02            0.36     0.37     0.52            0.18     0.08     0.40           0.38    0.45
C16         44.82   47.00   38.20          74.19   -1.44    0.79           1.65   151.26            0.63     0.70     0.62            0.45     0.19     0.19           0.44    0.53
C17         57.97   53.75   38.46          78.31   15.48    7.56          17.23   26.01            0.50     0.60     0.69            0.35     0.30     0.36           0.50    0.59
C18         53.15   60.84   42.57          82.29  -13.71    9.06          16.44   146.56            0.49     0.44     0.60            0.24     0.26     0.39           0.46    0.53
C19         47.96   49.91   53.32          76.01   -0.45  -14.27          14.27   268.19            0.59     0.68     0.46            0.42     0.20     0.26           0.45    0.53
C20         12.61    9.50    1.20          36.93   25.62   42.49          49.61   58.91            0.21     0.17     0.03            0.32     0.16     0.28           0.38    0.45
C21         23.09   21.71   11.52          53.71    9.99   16.43          19.23   58.70            0.41     0.41     0.31            0.44     0.20     0.41           0.56    0.64
C22         28.72   24.63   11.11          56.71   20.49   22.87          30.71   48.13            0.44     0.44     0.29            0.44     0.24     0.32           0.51    0.59
D1           4.37    4.76    2.53          26.03   -2.92    9.89          10.32   106.45            0.11     0.13     0.08            0.37     0.17     0.28           0.45    0.50
D2           4.37    4.75    1.57          26.01   -2.82   19.04          19.25   98.41            0.10     0.11     0.04            0.33     0.19     0.18           0.38    0.42
D3           4.38    4.80    0.87          26.15   -3.31   28.74          28.93   96.58            0.11     0.13     0.03            0.37     0.16     0.35           0.46    0.53
D4           4.30    4.75    0.31          26.00   -3.69   39.03          39.20   95.39            0.10     0.11     0.01            0.32     0.14     0.48           0.50    0.59
D5          18.31   19.66    9.73          51.44   -3.32   18.22          18.52   100.33            0.41     0.45     0.30            0.52     0.17     0.27           0.55    0.61
D6          18.22   19.58    5.26          51.36   -3.44   36.25          36.41   95.42            0.38     0.43     0.15            0.49     0.21     0.35           0.56    0.63
D7          18.03   19.45    2.47          51.21   -3.76   53.76          53.90   94.00            0.36     0.41     0.07            0.47     0.18     0.36           0.55    0.62
D8          17.66   18.99    0.77          50.67   -3.41   72.77          72.85   92.68            0.33     0.36     0.01            0.42     0.12     0.63           0.68    0.76
D9          47.76   50.27   25.59          76.24   -1.96   23.65          23.74   94.73            0.65     0.71     0.57            0.43     0.16     0.32           0.49    0.57
D10         47.11   49.70   14.15          75.88   -2.25   47.32          47.38   92.73            0.56     0.64     0.35            0.39     0.18     0.34           0.46    0.55
D11         46.66   49.22    7.01          75.58   -2.23   69.98          70.02   91.82            0.46     0.48     0.14            0.30     0.13     0.23           0.35    0.40
D12         45.65   47.98    3.05          74.81   -1.74   89.94          89.96   91.11            0.31     0.28     0.05            0.18     0.18     0.24           0.32    0.35
D13         50.26   58.89   57.84          81.23  -16.70  -10.03          19.48   210.98            0.36     0.34     0.27            0.19     0.20     0.13           0.26    0.30
D14         56.55   49.53   50.80          75.78   22.92  -11.90          25.83   332.56            0.48     0.60     0.44            0.37     0.43     0.18           0.50    0.59
D15         68.87   70.64   34.74          87.31    1.64   28.24          28.28   86.67            0.34     0.36     0.57            0.18     0.08     0.53           0.46    0.57
D16         34.05   35.91   29.08          66.45   -1.95    0.89           2.16   155.76            0.60     0.66     0.63            0.50     0.19     0.29           0.52    0.61
D17         50.70   44.59   29.50          72.62   21.58   10.86          24.16   26.70            0.49     0.58     0.68            0.38     0.35     0.47           0.61    0.70
D18         46.74   55.86   35.46          79.53  -19.02   13.78          23.49   144.07            0.50     0.46     0.61            0.26     0.30     0.45           0.50    0.60
D19         38.75   40.29   49.95          69.67   -0.32  -21.46          21.47   269.14            0.60     0.70     0.50            0.50     0.26     0.33           0.55    0.65
D20          3.19    3.30    1.12          21.22    0.08   16.45          16.45   89.72            0.06     0.07     0.03            0.27     0.18     0.29           0.36    0.43
D21         32.16   29.68    1.32          61.37   13.24   83.03          84.08   80.94            0.46     0.45     0.02            0.39     0.13     0.56           0.59    0.70
D22         41.23   45.39   52.31          73.15   -7.57  -18.10          19.62   247.29            0.54     0.64     0.46            0.42     0.22     0.28           0.47    0.55
E1           5.84    6.86    3.63          31.48   -8.33   11.28          14.02   126.44            0.15     0.18     0.11            0.41     0.16     0.25           0.45    0.51
E2           5.27    6.73    2.32          31.18  -13.62   20.52          24.64   123.58            0.13     0.17     0.06            0.39     0.21     0.30           0.47    0.53
E3           4.86    6.67    1.37          31.04  -18.08   30.11          35.12   120.98            0.12     0.16     0.04            0.37     0.23     0.39           0.51    0.58
E4           4.32    6.63    0.48          30.95  -24.78   44.37          50.82   119.18            0.10     0.15     0.01            0.36     0.21     0.53           0.59    0.67
E5          25.76   29.88   15.79          61.55  -12.25   18.46          22.16   123.58            0.54     0.63     0.49            0.54     0.21     0.35           0.61    0.68
E6          23.52   29.42    9.68          61.15  -20.12   35.11          40.47   119.81            0.44     0.55     0.28            0.48     0.24     0.32           0.57    0.63
E7          20.80   28.46    5.17          60.30  -29.01   52.12          59.65   119.10            0.32     0.43     0.11            0.38     0.18     0.26           0.44    0.50
E8          18.93   27.76    3.30          59.67  -35.55   62.05          71.52   119.81            0.20     0.23     0.07            0.21     0.13     0.35           0.38    0.43
E9          45.40   49.66   33.49          75.86   -6.95   10.31          12.44   124.02            0.67     0.73     0.71            0.45     0.16     0.32           0.49    0.58
E10         43.14   49.40   25.98          75.70  -12.83   22.05          25.51   120.20            0.62     0.66     0.56            0.41     0.17     0.33           0.47    0.55
E11         40.74   48.65   20.16          75.23  -18.03   32.27          36.97   119.20            0.49     0.52     0.46            0.33     0.18     0.42           0.46    0.56
E12         38.17   47.63   15.43          74.59  -23.35   41.84          47.91   119.17            0.36     0.35     0.29            0.22     0.25     0.35           0.38    0.49
E13         45.70   55.35   57.29          79.24  -20.70  -12.89          24.38   211.91            0.38     0.36     0.29            0.20     0.22     0.11           0.28    0.32
E14         51.69   43.01   47.99          71.56   28.76  -15.97          32.89   330.95            0.47     0.58     0.46            0.39     0.46     0.18           0.52    0.63
E15         67.40   69.21   28.16          86.61    1.47   37.16          37.19   87.73            0.34     0.38     0.57            0.19     0.09     0.65           0.56    0.68
E16         24.87   26.50   21.12          58.51   -2.89    1.49           3.25   152.89            0.51     0.57     0.52            0.53     0.22     0.28           0.55    0.64
E17         43.97   36.44   21.28          66.85   27.71   15.56          31.78   29.31            0.43     0.50     0.54            0.38     0.36     0.48           0.60    0.71
E18         40.61   50.79   28.50          76.55  -24.13   19.25          30.86   141.42            0.46     0.43     0.51            0.26     0.30     0.44           0.49    0.59
E19         30.59   31.76   46.45          63.14   -0.11  -28.69          28.69   269.77            0.49     0.58     0.48            0.48     0.31     0.34           0.55    0.67
E20          7.61    9.24    1.42          36.44  -11.58   38.75          40.44   106.63            0.15     0.19     0.04            0.37     0.23     0.28           0.42    0.51
E21         25.43   30.50    6.48          62.08  -15.92   49.00          51.52   107.99            0.43     0.51     0.17            0.44     0.18     0.24           0.47    0.53
E22          8.98   18.30   13.86          49.85  -57.22    3.20          57.32   176.80            0.13     0.22     0.28            0.27     0.22     0.40           0.49    0.53
F1           3.84    4.90    3.35          26.45  -12.27    4.49          13.07   159.92            0.10     0.13     0.10            0.38     0.18     0.21           0.42    0.47
F2           3.16    4.84    2.85          26.27  -22.28    7.73          23.59   160.87            0.08     0.13     0.08            0.37     0.22     0.24           0.42    0.49
F3           2.62    4.81    2.36          26.18  -31.58   11.53          33.62   159.94            0.07     0.12     0.06            0.35     0.31     0.30           0.47    0.56
F4           1.76    4.63    1.71          25.64  -47.76   16.92          50.67   160.49            0.04     0.10     0.05            0.31     0.40     0.26           0.49    0.57
F5          12.04   15.47   10.60          46.26  -18.47    6.46          19.57   160.72            0.28     0.36     0.30            0.48     0.19     0.18           0.48    0.55
F6           9.64   15.23    8.74          45.94  -34.96   12.19          37.02   160.78            0.20     0.31     0.23            0.41     0.26     0.30           0.50    0.57
F7           7.77   14.99    7.26          45.62  -49.70   17.31          52.62   160.80            0.14     0.27     0.17            0.37     0.29     0.27           0.48    0.54
F8           6.50   14.41    6.35          44.81  -58.66   19.79          61.91   161.35            0.12     0.22     0.17            0.31     0.19     0.30           0.41    0.47
F9          30.59   35.56   26.30          66.18  -13.22    5.09          14.16   158.95            0.57     0.67     0.60            0.52     0.19     0.23           0.53    0.60
F10         27.03   35.00   23.90          65.75  -25.12    8.63          26.56   161.04            0.49     0.61     0.55            0.47     0.14     0.30           0.50    0.57
F11         24.00   34.28   21.72          65.18  -35.39   11.79          37.30   161.57            0.42     0.52     0.50            0.41     0.16     0.37           0.48    0.58
F12         21.30   33.50   20.05          64.57  -45.03   14.12          47.20   162.59            0.26     0.30     0.40            0.24     0.25     0.44           0.48    0.56
F13         41.96   52.30   56.74          77.46  -23.94  -15.39          28.46   212.73            0.36     0.35     0.32            0.21     0.22     0.11           0.27    0.32
F14         46.87   36.83   44.93          67.15   34.75  -19.95          40.07   330.13            0.43     0.50     0.46            0.38     0.43     0.15           0.47    0.59
F15         66.17   67.87   22.93          85.94    1.64   45.25          45.28   87.93            0.32     0.36     0.46            0.18     0.09     0.61           0.51    0.64
F16         17.46   18.59   14.80          50.19   -2.48    1.36           2.84   151.48            0.36     0.41     0.36            0.49     0.24     0.32           0.56    0.63
F17         37.75   29.15   14.95          60.91   34.27   19.44          39.40   29.56            0.33     0.37     0.30            0.33     0.37     0.30           0.48    0.58
F18         35.61   46.42   23.09          73.82  -28.42   24.05          37.23   139.76            0.37     0.37     0.39            0.24     0.26     0.41           0.48    0.54
F19         24.05   24.61   42.82          56.69    1.41  -35.38          35.41   272.28            0.39     0.47     0.40            0.46     0.31     0.34           0.50    0.65
