targets/wolf_faust/transmissive/E040227.it8
IT8.7/1
ORIGINATOR "Wolf Faust"
DESCRIPTOR "Ektachrome Type 3, L* a* b* (light D50, viewing angle 2)"
MANUFACTURER "Wolf Faust - http://www.coloraid.de"
CREATED "March 02, 2004"
PROD_DATE "2004:03"
DIFFUSE_GEOMETRY "opal"
SERIAL "E040227 Batch Average Data with Statstical Data"
MATERIAL "For Kodak Ektachrome Product Family"
KEYWORD "MEAN_DE" # Mean Delta E of samples compared to batch average
NUMBER_OF_FIELDS 17
BEGIN_DATA_FORMAT
SAMPLE_ID   XYZ_X   XYZ_Y   XYZ_Z          LAB_L   LAB_A   LAB_B          LAB_C   LAB_H          STDEV_X  STDEV_Y  STDEV_Z          STDEV_L  STDEV_A  STDEV_B        MEAN_DE  STDEV_DE
END_DATA_FORMAT
NUMBER_OF_SETS 288
BEGIN_DATA
A1           2.52    2.16    1.57          16.31    9.01    2.38           9.32   14.69            0.06     0.05     0.06            0.26     0.41     0.52           0.64    0.71
A2           3.18    2.23    1.34          16.65   19.65    5.66          20.45   16.06            0.07     0.04     0.03            0.19     0.43     0.37           0.53    0.60 
A3           3.71    2.15    1.13          16.23   29.87    7.75          30.86   14.54            0.08     0.04     0.03            0.22     0.37     0.41           0.51    0.60
A4           4.56    2.03    0.82          15.66   44.36   11.66          45.86   14.72            0.09     0.04     0.02            0.19     0.32     0.45           0.51    0.58 
A5          10.92    9.52    6.97          36.96   13.67    3.56          14.13   14.56            0.24     0.22     0.21            0.41     0.47     0.51           0.72    0.81
A6          12.89    9.44    6.00          36.82   27.99    7.59          29.00   15.17            0.28     0.21     0.18            0.40     0.50     0.30           0.64    0.71 
A7          15.38    9.53    5.23          36.99   42.79   11.61          44.34   15.18            0.29     0.19     0.13            0.36     0.37     0.18           0.50    0.55
A8          17.85    9.31    4.35          36.57   58.34   15.65          60.41   15.02            0.15     0.10     0.10            0.20     0.15     0.27           0.28    0.36 
A9          32.26   31.76   24.93          63.14    5.98    2.26           6.41   20.67            0.59     0.59     0.60            0.49     0.47     0.59           0.81    0.90
A10         34.05   31.43   23.62          62.86   13.47    4.18          14.10   17.25            0.72     0.73     0.63            0.61     0.48     0.33           0.75    0.85
A11         36.07   31.25   22.49          62.72   20.95    6.06          21.81   16.12            0.53     0.48     0.59            0.41     0.36     0.59           0.72    0.80
A12         39.65   30.75   20.17          62.29   34.33    9.95          35.74   16.15            0.40     0.41     0.53            0.35     0.30     0.59           0.65    0.74 
A13         76.03   78.62   65.69          91.06    0.46   -0.76           0.89   300.70            0.25     0.22     0.16            0.10     0.09     0.05           0.12    0.14
A14         75.96   77.06   65.03          90.35    3.40   -1.38           3.66   337.93            0.27     0.31     0.19            0.14     0.13     0.08           0.18    0.21 
A15         77.00   79.27   61.49          91.35    1.14    3.78           3.95   73.21            0.24     0.21     0.31            0.10     0.11     0.16           0.18    0.22
A16         76.05   78.69   64.96          91.09    0.37   -0.02           0.37   236.70            0.23     0.20     0.16            0.09     0.09     0.06           0.12    0.14
A17         76.32   77.94   63.07          90.75    2.38    1.20           2.67   26.79            0.24     0.27     0.24            0.12     0.13     0.10           0.18    0.20
A18         75.25   78.18   61.95          90.86   -0.27    2.47           2.49   96.17            0.25     0.21     0.30            0.10     0.11     0.18           0.19    0.23 
A19         74.91   76.63   65.12          90.15    2.09   -1.80           2.76   319.40            0.26     0.28     0.15            0.13     0.11     0.11           0.18    0.21
A20          2.18    1.36    0.49          11.67   22.18   10.80          24.67   25.96            0.05     0.03     0.02            0.19     0.32     0.27           0.39    0.46 
A21          6.16    3.29    0.49          21.17   39.70   27.27          48.16   34.48            0.11     0.06     0.03            0.24     0.26     0.40           0.48    0.53
A22         10.67    5.18    0.37          27.23   53.67   39.93          66.90   36.64            0.10     0.06     0.02            0.16     0.15     0.29           0.32    0.37
B1           3.77    3.42    2.01          21.66    7.40    6.97          10.17   43.25            0.08     0.08     0.07            0.29     0.36     0.53           0.61    0.70
B2           4.35    3.36    1.24          21.41   16.78   15.10          22.57   41.99            0.09     0.06     0.03            0.24     0.52     0.36           0.59    0.67
B3           4.98    3.32    0.74          21.28   25.48   22.68          34.11   41.67            0.11     0.07     0.03            0.26     0.47     0.41           0.59    0.68
B4           5.94    3.20    0.10          20.83   38.73   34.02          51.55   41.30            0.10     0.05     0.01            0.21     0.28     0.30           0.40    0.46
B5          14.02   12.66    7.54          42.25   11.86   10.34          15.73   41.10            0.27     0.23     0.19            0.35     0.56     0.48           0.74    0.82
B6          16.19   12.61    4.93          42.17   25.09   22.11          33.44   41.39            0.38     0.33     0.16            0.51     0.53     0.42           0.77    0.84
B7          18.21   12.39    3.07          41.83   37.60   32.96          50.00   41.24            0.33     0.26     0.10            0.40     0.42     0.26           0.56    0.64
B8          21.58   12.41    1.42          41.87   54.15   48.11          72.44   41.62            0.15     0.12     0.04            0.19     0.16     0.30           0.33    0.38
B9          37.51   37.51   28.15          67.65    4.43    4.50           6.33   45.21            0.72     0.72     0.69            0.54     0.41     0.65           0.84    0.94
B10         39.03   37.25   25.50          67.46   10.09    8.70          13.33   40.73            0.65     0.64     0.63            0.48     0.39     0.58           0.76    0.85
B11         40.65   37.27   22.60          67.48   15.09   14.05          20.62   42.94            0.63     0.61     0.56            0.46     0.36     0.57           0.73    0.82
B12         44.57   37.39   17.39          67.57   26.41   25.07          36.42   43.50            0.41     0.48     0.45            0.36     0.38     0.52           0.65    0.74
B13         64.01   68.89   58.61          86.45   -5.44   -1.81           5.74   198.38            0.46     0.44     0.48            0.22     0.19     0.27           0.35    0.40
B14         68.72   67.05   57.17          85.53    9.00   -1.91           9.20   348.03            0.40     0.48     0.49            0.24     0.28     0.29           0.42    0.47
B15         72.24   73.60   52.70          88.73    2.68    8.34           8.77   72.13            0.33     0.36     0.50            0.17     0.18     0.35           0.36    0.43
B16         61.07   63.51   52.33          83.71   -0.39    0.08           0.54   177.55            0.56     0.59     0.67            0.31     0.27     0.40           0.53    0.57
B17         67.92   66.67   52.05          85.34    8.08    3.20           8.70   21.65            0.42     0.53     0.60            0.27     0.31     0.37           0.49    0.55
B18         63.86   68.96   53.60          86.48   -5.90    3.49           6.86   149.48            0.45     0.41     0.53            0.20     0.20     0.35           0.39    0.45
B19         61.65   63.90   57.60          83.91    0.09   -5.15           5.16   270.92            0.43     0.47     0.43            0.24     0.30     0.25           0.42    0.46
B20          4.34    2.82    0.63          19.32   25.65   21.38          33.39   39.81            0.09     0.06     0.02            0.25     0.31     0.31           0.44    0.50
B21          9.98    4.88    0.38          26.38   52.05   38.35          64.65   36.38            0.15     0.08     0.02            0.23     0.19     0.24           0.36    0.39
B22         35.62   31.92   18.49          63.27   17.07   15.21          22.87   41.71            0.63     0.66     0.54            0.55     0.49     0.43           0.75    0.85
C1           7.18    7.08    3.91          31.99    3.45   10.35          10.91   71.61            0.17     0.16     0.08            0.37     0.46     0.40           0.62    0.71
C2           7.55    7.04    2.46          31.90    7.43   20.55          21.86   70.13            0.16     0.16     0.08            0.36     0.42     0.35           0.57    0.65
C3           8.06    7.06    1.29          31.93   11.99   32.62          34.75   69.83            0.18     0.16     0.04            0.37     0.53     0.37           0.67    0.75
C4           8.56    6.78    0.29          31.30   19.13   48.45          52.09   68.45            0.15     0.11     0.01            0.26     0.49     0.37           0.60    0.67
C5          26.39   25.75   13.29          57.80    6.53   18.43          19.55   70.50            0.51     0.49     0.31            0.47     0.51     0.48           0.75    0.84
C6          28.20   25.76    7.62          57.81   13.75   36.85          39.34   69.55            0.47     0.45     0.19            0.43     0.51     0.53           0.76    0.86
C7          30.10   25.64    3.73          57.69   21.55   55.81          59.83   68.89            0.40     0.37     0.09            0.36     0.48     0.52           0.71    0.79
C8          32.97   25.14    0.70          57.21   34.06   85.48          92.02   68.28            0.33     0.31     0.01            0.30     0.34     0.35           0.51    0.58
C9          43.73   44.72   31.40          72.70    1.82    8.01           8.22   77.16            0.74     0.76     0.76            0.50     0.35     0.59           0.79    0.85
C10         44.53   44.49   27.11          72.55    4.77   14.68          15.44   71.99            0.72     0.75     0.57            0.50     0.38     0.58           0.77    0.85
C11         45.61   44.38   22.22          72.48    8.19   23.42          24.81   70.72            0.65     0.67     0.54            0.45     0.33     0.58           0.72    0.80
C12         49.28   44.19   10.65          72.36   18.90   51.26          54.64   69.76            0.42     0.54     0.26            0.36     0.45     0.42           0.58    0.71
C13         57.79   64.95   58.85          84.46  -11.47   -5.48          12.71   205.53            0.47     0.41     0.42            0.21     0.24     0.24           0.35    0.40
C14         63.12   58.70   54.55          81.13   15.49   -6.76          16.90   336.42            0.54     0.66     0.63            0.36     0.39     0.25           0.50    0.59
C15         71.10   72.95   45.07          88.42    1.62   16.55          16.63   84.41            0.35     0.38     0.56            0.18     0.17     0.45           0.43    0.51
C16         49.14   51.48   42.44          76.96   -1.34    0.05           1.38   178.32            0.68     0.75     0.72            0.45     0.38     0.36           0.62    0.69
C17         60.44   56.76   42.34          80.04   13.93    5.49          14.97   21.52            0.60     0.75     0.76            0.43     0.47     0.39           0.64    0.74
C18         56.39   63.95   46.24          83.94  -12.66    7.43          14.68   149.63            0.49     0.44     0.66            0.23     0.25     0.49           0.53    0.60
C19         51.10   53.09   54.53          77.93   -0.25  -12.25          12.26   268.82            0.74     0.80     0.72            0.48     0.35     0.22           0.55    0.63
C20          2.97    2.39    0.89          17.40   12.81   13.34          18.50   46.14            0.05     0.05     0.04            0.22     0.35     0.49           0.58    0.64
C21         29.12   23.51    8.83          55.59   26.89   28.50          39.18   46.67            0.44     0.42     0.25            0.43     0.41     0.32           0.59    0.67
C22         42.77   41.08   25.68          70.23    9.64   13.14          16.31   53.74            0.75     0.82     0.73            0.58     0.47     0.51           0.78    0.90
D1           4.71    5.04    2.82          26.84   -1.87    8.95           9.15   101.85            0.11     0.12     0.09            0.34     0.38     0.41           0.57    0.65
D2           4.73    5.08    1.80          26.95   -2.18   18.17          18.31   96.85            0.09     0.07     0.04            0.19     0.56     0.44           0.66    0.74
D3           4.58    4.89    0.97          26.43   -1.83   27.62          27.69   93.80            0.10     0.11     0.04            0.32     0.53     0.34           0.62    0.71
D4           4.42    4.79    0.32          26.13   -2.69   38.97          39.07   93.95            0.08     0.07     0.01            0.21     0.41     0.31           0.50    0.56
D5          19.82   20.96   10.78          52.90   -1.92   17.33          17.44   96.34            0.41     0.41     0.26            0.45     0.53     0.46           0.74    0.83
D6          19.58   20.86    6.00          52.79   -2.64   35.12          35.22   94.30            0.39     0.41     0.15            0.45     0.58     0.45           0.79    0.87
D7          19.36   20.82    2.97          52.75   -3.56   52.48          52.61   93.88            0.39     0.40     0.07            0.45     0.58     0.51           0.81    0.89
D8          19.00   20.44    0.90          52.33   -3.55   73.43          73.52   92.77            0.36     0.36     0.02            0.40     0.52     0.59           0.79    0.88
D9          49.40   52.03   27.55          77.30   -2.07   22.12          22.22   95.34            0.82     0.90     0.69            0.54     0.41     0.45           0.74    0.81
D10         48.85   51.60   15.68          77.04   -2.44   45.44          45.51   93.08            0.64     0.72     0.39            0.43     0.34     0.40           0.61    0.68
D11         47.58   50.65    7.94          76.47   -3.45   67.79          67.88   92.92            0.54     0.59     0.21            0.36     0.30     0.41           0.55    0.62
D12         47.06   49.84    3.36          75.97   -2.77   89.78          89.82   91.77            0.45     0.37     0.08            0.23     0.38     0.40           0.55    0.59
D13         52.92   61.58   58.65          82.69  -16.00   -8.34          18.04   207.53            0.50     0.43     0.44            0.23     0.30     0.22           0.36    0.44
D14         57.68   50.95   51.77          76.65   21.93  -11.47          24.75   332.40            0.52     0.60     0.67            0.37     0.37     0.26           0.49    0.58
D15         69.83   71.97   38.09          87.95    0.95   24.67          24.69   87.78            0.34     0.36     0.60            0.18     0.15     0.57           0.51    0.62
D16         38.10   39.91   32.75          69.41   -1.23    0.28           1.34   169.30            0.71     0.74     0.79            0.53     0.41     0.46           0.73    0.81
D17         52.88   47.09   32.96          74.25   20.28    8.31          21.92   22.29            0.56     0.69     0.70            0.44     0.50     0.49           0.70    0.83
D18         50.17   59.29   38.89          81.45  -17.90   12.37          21.76   145.35            0.47     0.41     0.63            0.23     0.30     0.55           0.57    0.67
D19         41.79   43.09   51.11          71.61    0.74  -19.42          19.44   272.18            0.74     0.81     0.69            0.55     0.44     0.33           0.68    0.78
D20         19.64   15.84    5.91          46.77   23.63   25.18          34.53   46.83            0.38     0.32     0.18            0.42     0.48     0.38           0.67    0.74
D21         29.18   28.95   18.74          60.73    4.94   10.29          11.43   64.37            0.61     0.63     0.54            0.56     0.51     0.49           0.81    0.90
D22         46.54   46.33   28.87          73.76    5.30   13.84          14.83   69.03            0.78     0.87     0.75            0.56     0.44     0.49           0.76    0.86
E1           6.25    7.14    4.10          32.13   -6.67    9.47          11.59   125.19            0.12     0.11     0.07            0.25     0.42     0.39           0.57    0.63
E2           5.72    7.12    2.64          32.07  -12.18   19.42          22.93   122.12            0.11     0.12     0.06            0.27     0.44     0.55           0.67    0.75
E3           5.22    7.08    1.55          31.99  -17.76   29.62          34.54   120.95            0.10     0.11     0.04            0.26     0.50     0.46           0.65    0.72
E4           4.53    6.93    0.52          31.64  -24.97   44.75          51.25   119.16            0.08     0.11     0.01            0.25     0.34     0.35           0.46    0.54
E5          27.76   31.78   17.32          63.16  -11.05   17.64          20.82   122.08            0.58     0.61     0.47            0.51     0.41     0.48           0.74    0.81
E6          24.84   30.99   10.71          62.49  -20.20   34.08          39.62   120.66            0.49     0.56     0.31            0.47     0.48     0.63           0.83    0.93
E7          22.26   30.48    5.97          62.07  -29.79   51.29          59.32   120.15            0.41     0.56     0.20            0.48     0.39     0.50           0.72    0.79
E8          20.19   29.25    3.08          61.00  -34.97   65.93          74.64   117.94            0.26     0.28     0.09            0.24     0.32     0.50           0.56    0.64
E9          47.61   51.88   35.45          77.21   -6.57    9.80          11.81   123.88            0.69     0.74     0.70            0.44     0.37     0.54           0.70    0.79
E10         45.01   51.25   28.05          76.83  -12.25   20.47          23.86   120.92            0.60     0.65     0.58            0.40     0.31     0.58           0.67    0.77
E11         42.68   50.70   21.76          76.50  -17.66   31.24          35.89   119.48            0.66     0.70     0.61            0.43     0.27     0.58           0.69    0.77
E12         40.14   50.00   16.39          76.07  -23.51   42.07          48.20   119.20            0.46     0.43     0.43            0.26     0.37     0.72           0.74    0.85
E13         48.14   57.98   58.08          80.73  -20.27  -11.13          23.13   208.78            0.50     0.45     0.57            0.25     0.31     0.23           0.40    0.46
E14         52.45   43.84   48.80          72.12   28.32  -15.94          32.50   330.64            0.45     0.52     0.61            0.35     0.40     0.31           0.51    0.61
E15         68.52   70.77   31.65          87.37    0.62   32.92          32.93   88.91            0.30     0.33     0.56            0.16     0.13     0.65           0.54    0.68
E16         27.91   29.30   24.19          61.04   -1.33   -0.01           1.39   179.83            0.55     0.60     0.57            0.53     0.50     0.46           0.77    0.86
E17         45.76   38.33   24.47          68.26   26.81   11.93          29.35   23.98            0.50     0.60     0.60            0.44     0.48     0.50           0.69    0.82
E18         44.07   54.41   32.01          78.70  -23.05   17.43          28.90   142.92            0.46     0.40     0.63            0.23     0.34     0.65           0.65    0.77
E19         33.05   33.83   47.41          64.82    1.52  -26.91          26.95   273.22            0.64     0.70     0.68            0.56     0.50     0.29           0.70    0.80
E20         25.99   18.51    1.40          50.11   38.01   62.64          73.28   58.75            0.32     0.28     0.05            0.34     0.35     0.41           0.57    0.63
E21         23.90   20.83    5.47          52.76   17.68   37.63          41.57   64.84            0.44     0.44     0.15            0.48     0.54     0.24           0.67    0.76
E22         36.13   33.00   12.96          64.16   14.96   30.31          33.80   63.74            0.61     0.66     0.40            0.53     0.47     0.39           0.71    0.81
F1           4.05    5.04    3.63          26.86  -10.86    3.32          11.36   162.97            0.08     0.08     0.07            0.24     0.36     0.32           0.46    0.54
F2           3.35    5.00    3.02          26.73  -21.10    7.30          22.33   160.90            0.07     0.09     0.05            0.26     0.41     0.36           0.53    0.60
F3           2.82    5.03    2.66          26.82  -30.62   10.22          32.28   161.53            0.05     0.09     0.08            0.25     0.39     0.39           0.53    0.60
F4           1.88    4.92    1.88          26.49  -48.63   16.53          51.36   161.23            0.03     0.08     0.05            0.24     0.30     0.34           0.47    0.51
F5          13.14   16.50   11.77          47.63  -16.98    5.20          17.77   162.95            0.31     0.36     0.32            0.46     0.47     0.58           0.77    0.88
F6          10.52   16.28    9.75          47.34  -34.10   11.09          35.86   161.99            0.25     0.34     0.27            0.45     0.45     0.40           0.69    0.75
F7           8.71   16.46    8.14          47.57  -49.64   17.21          52.54   160.88            0.17     0.27     0.20            0.35     0.28     0.35           0.48    0.56
F8           6.92   15.38    6.83          46.15  -60.15   19.99          63.39   161.62            0.11     0.20     0.17            0.27     0.15     0.32           0.39    0.44
F9          32.51   37.48   28.33          67.63  -12.51    4.16          13.19   161.64            0.61     0.62     0.70            0.46     0.41     0.66           0.80    0.90
F10         29.12   37.16   26.11          67.39  -24.00    7.51          25.15   162.62            0.64     0.74     0.66            0.55     0.43     0.45           0.75    0.83
F11         26.07   36.81   23.82          67.13  -35.05   11.17          36.79   162.33            0.49     0.58     0.53            0.44     0.30     0.51           0.64    0.73
F12         22.96   35.84   21.41          66.40  -45.28   14.50          47.55   162.24            0.29     0.30     0.46            0.23     0.32     0.65           0.65    0.76
F13         44.46   55.07   57.61          79.08  -23.56  -13.48          27.15   209.78            0.44     0.41     0.50            0.23     0.28     0.21           0.38    0.42
F14         47.75   37.74   45.82          67.83   34.24  -19.86          39.58   329.89            0.43     0.48     0.60            0.35     0.39     0.33           0.53    0.62
F15         67.28   69.48   25.99          86.74    0.64   41.07          41.07   89.11            0.27     0.30     0.56            0.15     0.13     0.75           0.66    0.77
F16         20.15   21.13   17.29          53.09   -1.12    0.34           1.29   161.79            0.39     0.41     0.48            0.45     0.57     0.51           0.81    0.89
F17         39.53   31.00   17.49          62.50   33.05   16.12          36.77   26.00            0.40     0.46     0.44            0.39     0.44     0.45           0.64    0.74
F18         38.94   50.05   26.08          76.10  -27.41   22.57          35.51   140.55            0.41     0.38     0.55            0.23     0.34     0.64           0.64    0.76
F19         26.04   26.22   43.63          58.24    3.18  -33.72          33.88   275.39            0.53     0.58     0.63            0.55     0.55     0.33           0.72    0.84
