targets/wolf_faust/transmissive/E040630.it8
IT8.7/1
ORIGINATOR "Wolf Faust"
DESCRIPTOR "Ektachrome, Type 3, L* a* b* (light D50, viewing angle 2)"
MANUFACTURER "Wolf Faust - http://www.coloraid.de"
CREATED "November 14, 2004"
PROD_DATE "2004:06"
DIFFUSE_GEOMETRY "opal"
SERIAL "E040630 Batch Average Data"
MATERIAL "For Kodak Ektachrome Product Family"
KEYWORD "MEAN_DE" # Mean Delta E of samples compared to batch average
NUMBER_OF_FIELDS 17
BEGIN_DATA_FORMAT
SAMPLE_ID   XYZ_X   XYZ_Y   XYZ_Z          LAB_L   LAB_A   LAB_B          LAB_C   LAB_H          STDEV_X  STDEV_Y  STDEV_Z          STDEV_L  STDEV_A  STDEV_B        MEAN_DE  STDEV_DE
END_DATA_FORMAT
NUMBER_OF_SETS 288
BEGIN_DATA
A1           2.46    2.08    1.48          15.87    9.73    2.61          10.08   14.98            0.09     0.08     0.07            0.42     0.13     0.30           0.46    0.53
A2           2.95    2.02    1.20          15.57   20.33    5.62          21.09   15.45            0.09     0.07     0.04            0.35     0.14     0.25           0.40    0.46 
A3           3.56    2.03    1.02          15.62   30.26    8.26          31.37   15.27            0.10     0.06     0.03            0.30     0.27     0.32           0.44    0.52
A4           4.42    2.00    0.78          15.50   43.19   12.01          44.83   15.54            0.10     0.04     0.03            0.21     0.37     0.31           0.44    0.53 
A5          10.65    9.12    6.60          36.21   14.80    3.86          15.30   14.61            0.25     0.24     0.22            0.45     0.20     0.37           0.55    0.62
A6          12.71    9.07    5.58          36.11   29.83    8.40          30.99   15.72            0.27     0.21     0.19            0.40     0.20     0.44           0.56    0.63 
A7          14.72    8.98    4.80          35.93   43.34   12.06          44.99   15.55            0.31     0.22     0.18            0.43     0.13     0.40           0.53    0.60
A8          16.84    8.61    3.95          35.23   58.67   15.71          60.74   14.99            0.19     0.12     0.16            0.24     0.11     0.69           0.62    0.74 
A9          30.11   28.84   22.71          60.63    8.87    2.04           9.12   12.93            0.62     0.66     0.67            0.59     0.23     0.50           0.72    0.81
A10         31.77   28.60   21.41          60.42   15.90    4.21          16.46   14.80            0.62     0.63     0.64            0.56     0.22     0.57           0.76    0.83
A11         33.86   28.63   20.36          60.45   23.22    6.40          24.09   15.40            0.65     0.65     0.65            0.58     0.25     0.57           0.77    0.85
A12         37.40   28.50   18.51          60.33   35.61   10.10          37.02   15.82            0.57     0.58     0.66            0.52     0.46     0.73           0.91    1.01 
A13         71.27   73.71   62.18          88.79    0.41   -1.33           1.39   287.15            0.35     0.31     0.22            0.14     0.12     0.08           0.18    0.21
A14         71.71   71.32   60.67          87.64    6.28   -1.82           6.54   343.81            0.46     0.46     0.29            0.22     0.31     0.12           0.37    0.40 
A15         74.08   75.48   58.45          89.62    2.70    3.82           4.68   54.62            0.43     0.36     0.56            0.17     0.19     0.34           0.37    0.43
A16         71.17   73.64   61.22          88.75    0.34   -0.44           0.57   305.66            0.38     0.32     0.35            0.15     0.16     0.14           0.23    0.26
A17         73.12   73.75   59.84          88.80    4.22    1.01           4.34   13.57            0.46     0.39     0.45            0.19     0.27     0.16           0.33    0.37
A18         70.77   73.36   56.11          88.62    0.07    4.51           4.52   88.88            0.51     0.44     0.65            0.21     0.22     0.48           0.48    0.57 
A19         69.32   70.39   60.67          87.19    3.15   -2.60           4.09   320.46            0.42     0.45     0.29            0.22     0.09     0.15           0.24    0.28
A20          6.55    3.09    1.99          20.40   47.09    4.94          47.35    5.99            0.10     0.05     0.06            0.20     0.25     0.34           0.42    0.47 
A21         27.01   18.95   14.96          50.63   39.97    1.68          40.01    2.41            0.38     0.32     0.44            0.37     0.22     0.61           0.65    0.75
A22         52.51   47.90   32.01          74.76   17.10   10.62          20.14   31.82            0.68     0.74     0.81            0.47     0.35     0.59           0.71    0.83
B1           3.65    3.23    1.81          20.93    8.71    7.73          11.64   41.58            0.11     0.10     0.06            0.39     0.12     0.25           0.44    0.48
B2           4.24    3.21    1.19          20.88   17.49   14.92          22.99   40.46            0.10     0.09     0.04            0.33     0.13     0.34           0.44    0.49
B3           4.92    3.26    0.69          21.05   25.74   23.34          34.75   42.20            0.12     0.09     0.02            0.34     0.15     0.32           0.44    0.49
B4           5.88    3.17    0.12          20.73   38.45   33.43          50.95   41.01            0.12     0.07     0.00            0.27     0.18     0.45           0.50    0.55
B5          13.41   11.91    6.83          41.07   13.01   11.26          17.21   40.85            0.32     0.31     0.23            0.49     0.21     0.39           0.59    0.66
B6          15.05   11.71    4.49          40.74   24.61   22.04          33.04   41.85            0.32     0.29     0.14            0.46     0.18     0.33           0.53    0.59
B7          17.64   11.86    2.85          40.99   38.19   33.10          50.54   40.92            0.33     0.26     0.10            0.42     0.16     0.41           0.55    0.60
B8          20.55   11.61    1.26          40.59   54.73   47.93          72.75   41.21            0.25     0.20     0.05            0.32     0.24     0.38           0.49    0.56
B9          35.11   34.53   25.83          65.38    6.26    4.52           7.73   35.79            0.76     0.82     0.76            0.65     0.25     0.49           0.76    0.85
B10         36.85   34.63   23.23          65.45   11.76    9.37          15.04   38.51            0.76     0.81     0.77            0.63     0.29     0.60           0.82    0.92
B11         38.31   34.47   20.64          65.33   17.02   14.22          22.18   39.88            0.74     0.79     0.71            0.62     0.33     0.57           0.81    0.90
B12         41.52   34.00   15.83          64.96   28.58   24.27          37.50   40.33            0.60     0.69     0.62            0.55     0.58     0.71           0.94    1.07
B13         60.08   64.92   55.71          84.44   -5.89   -2.26           6.32   201.02            0.51     0.49     0.73            0.25     0.15     0.42           0.44    0.51
B14         64.51   61.69   53.13          82.75   11.68   -2.44          11.93   348.22            0.69     0.71     0.90            0.38     0.37     0.37           0.60    0.65
B15         69.53   70.44   48.40          87.21    3.49   10.54          11.11   71.65            0.52     0.46     0.76            0.23     0.36     0.54           0.63    0.69
B16         55.55   57.34   47.38          80.37    0.66   -0.07           0.80   202.94            0.68     0.72     0.92            0.40     0.11     0.51           0.55    0.66
B17         63.44   61.09   47.19          82.43   10.61    3.70          11.25   19.23            0.62     0.66     0.87            0.35     0.42     0.51           0.68    0.75
B18         59.41   64.50   49.27          84.22   -6.54    4.40           7.89   146.20            0.51     0.47     0.84            0.24     0.19     0.57           0.52    0.65
B19         56.22   57.80   53.24          80.63    1.22   -6.21           6.33   281.09            0.64     0.68     0.81            0.38     0.10     0.35           0.48    0.53
B20          5.35    3.21    1.07          20.87   31.83   16.64          35.92   27.60            0.11     0.07     0.04            0.26     0.18     0.37           0.44    0.49
B21         17.70   11.83    4.40          40.94   38.70   22.90          44.97   30.61            0.26     0.20     0.13            0.32     0.18     0.39           0.46    0.53
B22         33.72   28.56   17.32          60.39   23.01   12.86          26.36   29.21            0.54     0.54     0.51            0.49     0.25     0.48           0.64    0.73
C1           6.84    6.65    3.72          30.99    4.45    9.82          10.78   65.59            0.19     0.20     0.14            0.48     0.22     0.42           0.62    0.68
C2           7.33    6.68    2.29          31.07    8.94   20.59          22.45   66.54            0.18     0.18     0.08            0.41     0.16     0.39           0.53    0.59
C3           7.74    6.59    1.22          30.86   13.65   31.66          34.48   66.67            0.19     0.18     0.03            0.43     0.16     0.41           0.53    0.61
C4           8.48    6.66    0.32          31.01   19.73   47.49          51.43   67.44            0.19     0.16     0.01            0.39     0.17     0.58           0.62    0.72
C5          24.39   23.44   12.12          55.52    7.90   17.80          19.47   66.06            0.54     0.58     0.44            0.59     0.31     0.46           0.72    0.81
C6          26.64   23.75    6.82          55.83   16.03   36.73          40.08   66.43            0.50     0.53     0.23            0.53     0.30     0.41           0.65    0.73
C7          27.92   23.25    3.27          55.32   23.37   54.81          59.58   66.90            0.53     0.54     0.11            0.55     0.29     0.41           0.64    0.74
C8          31.05   23.33    0.66          55.41   34.92   83.02          90.07   67.19            0.47     0.44     0.02            0.45     0.27     0.49           0.61    0.72
C9          40.88   40.93   28.63          70.13    4.37    7.98           9.10   61.18            0.80     0.86     0.90            0.61     0.21     0.61           0.77    0.89
C10         41.80   40.97   24.42          70.15    7.04   15.28          16.83   65.25            0.76     0.84     0.79            0.59     0.28     0.59           0.78    0.88
C11         43.02   41.13   20.35          70.26   10.25   23.33          25.48   66.28            0.70     0.78     0.65            0.54     0.31     0.58           0.75    0.86
C12         46.48   40.95    9.88          70.14   20.76   49.96          54.10   67.44            0.59     0.74     0.35            0.52     0.60     0.48           0.78    0.92
C13         54.40   61.12   55.57          82.44  -11.17   -5.57          12.49   206.51            0.49     0.46     0.69            0.25     0.20     0.38           0.43    0.49
C14         58.61   53.13   50.36          77.95   18.59   -7.66          20.11   337.60            0.75     0.83     0.92            0.49     0.45     0.32           0.68    0.74
C15         68.30   69.63   40.72          86.82    2.53   19.24          19.41   82.51            0.54     0.49     0.83            0.24     0.33     0.72           0.76    0.83
C16         43.95   45.26   37.37          73.06    0.89   -0.02           0.99   178.56            0.74     0.82     0.89            0.54     0.20     0.46           0.66    0.74
C17         55.63   50.94   37.39          76.64   16.92    6.12          18.00   19.85            0.68     0.76     0.89            0.46     0.43     0.52           0.71    0.82
C18         52.48   59.66   41.54          81.65  -12.70    9.28          15.73   143.88            0.52     0.47     0.84            0.26     0.25     0.67           0.60    0.76
C19         46.07   47.03   49.98          74.21    2.04  -13.68          13.83   278.50            0.74     0.81     0.86            0.52     0.19     0.36           0.58    0.66
C20         13.30    9.73    1.25          37.35   28.35   42.48          51.07   56.28            0.24     0.20     0.04            0.37     0.17     0.30           0.46    0.51
C21         22.51   20.85   11.73          52.78   11.37   14.21          18.20   51.34            0.42     0.43     0.34            0.48     0.22     0.40           0.60    0.66
C22         28.28   23.79   11.32          55.87   22.39   20.78          30.55   42.86            0.47     0.47     0.35            0.47     0.24     0.46           0.63    0.70
D1           4.58    4.75    2.67          26.02   -0.01    8.70           8.70   90.02            0.13     0.14     0.08            0.42     0.24     0.30           0.51    0.57
D2           4.60    4.79    1.67          26.13   -0.31   18.10          18.10   90.96            0.11     0.13     0.05            0.37     0.22     0.36           0.47    0.56
D3           4.49    4.72    0.95          25.93   -0.84   27.17          27.18   91.77            0.11     0.13     0.03            0.37     0.23     0.38           0.51    0.58
D4           4.50    4.79    0.34          26.13   -1.60   38.56          38.60   92.37            0.11     0.13     0.01            0.37     0.22     0.50           0.56    0.66
D5          18.32   19.04    9.77          50.74   -0.25   16.86          16.86   90.84            0.43     0.48     0.33            0.56     0.29     0.47           0.70    0.79
D6          18.32   19.14    5.30          50.84   -0.71   35.14          35.15   91.15            0.43     0.49     0.16            0.57     0.28     0.35           0.66    0.72
D7          18.06   19.07    2.62          50.76   -1.72   51.78          51.81   91.90            0.39     0.45     0.07            0.53     0.27     0.43           0.65    0.73
D8          18.11   19.23    0.86          50.95   -2.29   71.70          71.74   91.83            0.36     0.41     0.02            0.48     0.29     0.56           0.67    0.79
D9          46.49   48.24   25.13          74.98   -0.07   22.32          22.32   90.20            0.71     0.79     0.78            0.50     0.18     0.63           0.72    0.83
D10         45.99   48.02   14.32          74.83   -0.87   45.07          45.08   91.11            0.67     0.77     0.42            0.48     0.23     0.40           0.59    0.67
D11         45.66   48.16    7.27          74.93   -2.20   67.80          67.84   91.86            0.55     0.62     0.18            0.39     0.15     0.29           0.45    0.51
D12         45.61   48.49    3.67          75.13   -3.25   86.29          86.35   92.16            0.51     0.49     0.09            0.31     0.19     0.18           0.35    0.41
D13         49.32   57.50   55.27          80.46  -15.89   -8.68          18.11   208.63            0.44     0.42     0.65            0.23     0.20     0.39           0.43    0.50
D14         53.47   45.99   47.65          73.54   24.84  -12.16          27.66   333.91            0.74     0.81     0.92            0.53     0.49     0.33           0.72    0.79
D15         66.99   68.58   33.72          86.30    1.92   27.97          28.04   86.08            0.53     0.49     0.76            0.25     0.29     0.77           0.80    0.86
D16         33.06   34.19   28.25          65.11    0.35   -0.06           0.57   178.79            0.68     0.73     0.79            0.58     0.18     0.48           0.68    0.77
D17         48.48   42.01   28.49          70.87   23.13    9.49          25.00   22.29            0.62     0.70     0.76            0.48     0.45     0.51           0.71    0.83
D18         45.96   54.74   34.29          78.89  -18.42   14.36          23.36   142.08            0.50     0.46     0.78            0.27     0.28     0.72           0.71    0.82
D19         36.93   37.62   46.86          67.74    2.15  -21.23          21.34   275.79            0.60     0.67     0.68            0.50     0.22     0.48           0.63    0.72
D20          3.28    3.25    1.23          21.03    2.45   14.67          14.87   80.53            0.08     0.09     0.04            0.33     0.18     0.30           0.42    0.48
D21         31.39   28.69    1.43          60.51   14.20   80.19          81.44   79.96            0.48     0.49     0.03            0.43     0.19     0.45           0.54    0.65
D22         40.86   43.67   49.38          72.01   -3.78  -16.80          17.22   257.31            0.61     0.68     0.74            0.46     0.18     0.47           0.60    0.68
E1           5.92    6.60    3.73          30.87   -4.79    9.55          10.68   116.64            0.15     0.19     0.12            0.44     0.24     0.26           0.50    0.56
E2           5.41    6.58    2.41          30.83  -10.42   19.14          21.79   118.57            0.14     0.18     0.08            0.42     0.27     0.36           0.53    0.61
E3           5.01    6.62    1.39          30.92  -15.65   29.65          33.53   117.82            0.13     0.19     0.04            0.44     0.31     0.38           0.56    0.66
E4           4.39    6.60    0.53          30.88  -23.59   43.33          49.33   118.56            0.10     0.15     0.01            0.35     0.28     0.48           0.56    0.66
E5          25.63   28.78   15.63          60.58   -8.65   17.20          19.26   116.73            0.59     0.70     0.56            0.62     0.35     0.54           0.79    0.89
E6          23.22   28.56    9.77          60.38  -18.20   33.49          38.12   118.53            0.51     0.64     0.31            0.57     0.30     0.37           0.67    0.74
E7          21.14   28.62    5.27          60.44  -28.01   51.85          58.93   118.38            0.40     0.53     0.13            0.47     0.18     0.32           0.52    0.60
E8          19.89   28.61    3.14          60.44  -34.03   64.49          72.92   117.82            0.24     0.29     0.06            0.25     0.21     0.17           0.32    0.37
E9          44.77   48.22   32.68          74.96   -4.91    9.97          11.12   116.29            0.72     0.80     0.87            0.50     0.18     0.56           0.66    0.77
E10         42.75   48.28   25.65          75.00  -10.99   21.42          24.08   117.17            0.65     0.72     0.74            0.45     0.13     0.64           0.68    0.80
E11         40.80   48.27   20.21          74.99  -16.85   31.77          35.96   117.95            0.56     0.65     0.60            0.41     0.22     0.64           0.67    0.79
E12         39.52   48.60   16.57          75.20  -21.70   40.14          45.63   118.39            0.50     0.50     0.48            0.31     0.24     0.63           0.59    0.75
E13         46.18   55.13   55.02          79.11  -18.80  -10.73          21.65   209.71            0.44     0.41     0.65            0.24     0.24     0.38           0.44    0.51
E14         48.87   39.89   45.00          69.39   30.58  -16.16          34.59   332.14            0.58     0.65     0.76            0.46     0.51     0.36           0.68    0.77
E15         65.78   67.44   28.12          85.73    1.68   35.70          35.74   87.30            0.51     0.49     0.71            0.24     0.25     0.83           0.80    0.90
E16         25.19   25.67   21.10          57.72    1.89    0.16           1.95   184.40            0.54     0.58     0.66            0.55     0.21     0.51           0.70    0.78
E17         42.15   34.34   21.31          65.23   29.32   12.71          31.96   23.43            0.50     0.55     0.63            0.43     0.41     0.60           0.73    0.85
E18         41.53   51.13   28.47          76.76  -22.24   19.66          29.69   138.53            0.47     0.45     0.73            0.27     0.30     0.78           0.68    0.88
E19         30.20   30.13   43.62          61.76    4.37  -27.63          27.97   278.98            0.50     0.53     0.66            0.46     0.21     0.46           0.61    0.69
E20          7.57    8.90    1.50          35.79   -9.17   36.67          37.80   104.04            0.15     0.19     0.04            0.36     0.23     0.27           0.47    0.51
E21         25.21   29.75    6.69          61.44  -14.08   46.94          49.00   106.70            0.42     0.51     0.18            0.44     0.23     0.36           0.53    0.61
E22          9.58   19.06   14.16          50.76  -56.20    3.97          56.35   175.96            0.15     0.23     0.35            0.27     0.17     0.53           0.53    0.62
F1           3.87    4.70    3.43          25.86   -9.23    2.93           9.68   162.38            0.11     0.14     0.11            0.42     0.27     0.25           0.50    0.56
F2           3.20    4.69    2.87          25.82  -19.68    6.83          20.83   160.86            0.10     0.14     0.10            0.41     0.27     0.31           0.53    0.58
F3           2.56    4.61    2.51          25.59  -30.21    9.30          31.61   162.89            0.07     0.13     0.08            0.39     0.31     0.37           0.54    0.62
F4           1.85    4.64    1.83          25.68  -45.92   15.68          48.53   161.15            0.05     0.11     0.05            0.34     0.33     0.28           0.47    0.55
F5          12.04   14.98   10.77          45.60  -15.64    4.77          16.35   163.05            0.31     0.41     0.38            0.56     0.31     0.47           0.69    0.79
F6           9.83   15.03    8.94          45.67  -32.29   10.99          34.11   161.21            0.26     0.40     0.33            0.55     0.33     0.45           0.68    0.78
F7           7.87   15.04    7.38          45.69  -49.02   16.93          51.86   160.94            0.18     0.33     0.20            0.44     0.28     0.27           0.54    0.59
F8           6.99   15.09    6.71          45.76  -57.71   19.83          61.02   161.04            0.14     0.25     0.18            0.34     0.17     0.24           0.39    0.45
F9          30.94   34.93   26.49          65.69   -9.84    3.91          10.60   158.35            0.65     0.76     0.83            0.59     0.26     0.56           0.76    0.86
F10         27.42   34.74   24.14          65.54  -22.68    7.84          24.00   160.95            0.58     0.70     0.70            0.55     0.15     0.49           0.66    0.75
F11         24.41   34.36   21.94          65.25  -33.93   11.49          35.82   161.30            0.47     0.59     0.62            0.47     0.13     0.49           0.58    0.69
F12         22.62   34.76   20.61          65.56  -43.16   14.68          45.59   161.23            0.35     0.38     0.60            0.30     0.30     0.72           0.69    0.84
F13         42.02   51.86   54.46          77.20  -22.63  -13.44          26.32   210.72            0.44     0.42     0.62            0.25     0.27     0.35           0.45    0.50
F14         44.56   34.43   42.24          65.30   36.12  -19.81          41.20   331.26            0.54     0.58     0.71            0.46     0.50     0.36           0.68    0.76
F15         64.65   66.26   23.02          85.13    1.73   43.69          43.72   87.73            0.48     0.46     0.62            0.24     0.21     0.84           0.77    0.90
F16         17.56   18.08   15.02          49.59    0.72   -0.25           0.93   190.73            0.39     0.42     0.50            0.50     0.19     0.58           0.71    0.79
F17         36.60   27.94   15.30          59.83   35.16   16.72          38.94   25.42            0.42     0.45     0.50            0.41     0.41     0.62           0.74    0.85
F18         36.07   46.56   23.12          73.91  -27.27   24.16          36.44   138.48            0.43     0.42     0.62            0.27     0.28     0.74           0.68    0.84
F19         23.26   23.08   40.15          55.15    4.54  -34.62          34.92   277.48            0.39     0.42     0.62            0.43     0.21     0.50           0.63    0.69
