targets/wolf_faust/transmissive/E040527.it8
IT8.7/1
ORIGINATOR "Wolf Faust"
DESCRIPTOR "Ektachrome, Type 3, L* a* b* (light D50, viewing angle 2)"
MANUFACTURER "Wolf Faust - http://www.coloraid.de"
CREATED "May 28, 2004"
PROD_DATE "2004:05"
DIFFUSE_GEOMETRY "opal"
SERIAL "E040527 Batch Average Data"
MATERIAL "For Kodak Ektachrome Product Family"
KEYWORD "MEAN_DE" # Mean Delta E of samples compared to batch average
NUMBER_OF_FIELDS 17
BEGIN_DATA_FORMAT
SAMPLE_ID   XYZ_X   XYZ_Y   XYZ_Z          LAB_L   LAB_A   LAB_B          LAB_C   LAB_H          STDEV_X  STDEV_Y  STDEV_Z          STDEV_L  STDEV_A  STDEV_B        MEAN_DE  STDEV_DE
END_DATA_FORMAT
NUMBER_OF_SETS 288
BEGIN_DATA
A1           2.32    1.98    1.43          15.38    9.15    2.38           9.45   14.57            0.05     0.05     0.03            0.24     0.19     0.23           0.34    0.38
A2           2.95    2.02    1.23          15.61   20.22    5.32          20.91   14.74            0.05     0.04     0.03            0.21     0.11     0.18           0.27    0.30 
A3           3.52    2.02    1.02          15.58   29.66    8.20          30.77   15.45            0.06     0.04     0.02            0.19     0.13     0.17           0.25    0.29
A4           4.25    1.91    0.77          14.99   43.06   11.24          44.50   14.63            0.04     0.02     0.01            0.09     0.17     0.18           0.23    0.26 
A5          10.24    8.81    6.59          35.62   14.28    2.88          14.57   11.41            0.17     0.18     0.13            0.34     0.23     0.34           0.47    0.53
A6          12.15    8.80    5.59          35.59   28.27    7.43          29.23   14.73            0.17     0.15     0.10            0.29     0.18     0.34           0.43    0.48 
A7          14.17    8.64    4.72          35.28   42.85   11.33          44.32   14.81            0.16     0.11     0.08            0.21     0.20     0.29           0.37    0.41
A8          16.60    8.47    3.97          34.94   58.60   15.11          60.52   14.46            0.11     0.07     0.08            0.14     0.08     0.31           0.31    0.35 
A9          29.25   28.30   22.82          60.16    7.68    1.02           7.76    7.60            0.48     0.49     0.50            0.44     0.25     0.43           0.58    0.66
A10         31.48   28.53   21.83          60.36   15.16    3.27          15.52   12.19            0.53     0.54     0.51            0.48     0.32     0.40           0.61    0.70
A11         33.48   28.37   20.72          60.22   22.88    5.26          23.48   12.95            0.52     0.50     0.46            0.45     0.32     0.36           0.58    0.66
A12         37.51   28.41   18.69          60.25   36.32    9.56          37.56   14.74            0.41     0.44     0.45            0.40     0.42     0.48           0.68    0.75 
A13         74.07   76.66   63.80          90.16    0.32   -0.52           0.62   303.39            0.29     0.24     0.41            0.11     0.11     0.24           0.26    0.29
A14         75.20   76.08   63.49          89.90    3.79   -0.68           3.85   349.90            0.28     0.31     0.41            0.14     0.10     0.24           0.28    0.30 
A15         76.31   78.15   61.12          90.85    1.93    3.26           3.79   59.30            0.22     0.21     0.37            0.10     0.06     0.23           0.23    0.25
A16         74.40   76.95   63.84          90.30    0.41   -0.33           0.54   291.26            0.34     0.30     0.38            0.14     0.11     0.18           0.22    0.25
A17         75.82   77.07   62.55          90.36    3.07    1.02           3.23   18.30            0.26     0.28     0.32            0.13     0.09     0.12           0.18    0.19
A18         73.97   76.59   58.58          90.13    0.25    4.57           4.58   86.81            0.30     0.27     0.35            0.12     0.11     0.17           0.20    0.24 
A19         73.48   75.30   63.81          89.53    1.81   -1.62           2.43   318.17            0.22     0.23     0.13            0.11     0.07     0.08           0.14    0.16
A20          6.49    3.04    1.96          20.21   47.31    4.93          47.57    5.95            0.11     0.05     0.05            0.22     0.27     0.26           0.38    0.43 
A21         26.95   18.95   15.32          50.63   39.74    0.78          39.75    1.12            0.38     0.32     0.37            0.38     0.24     0.46           0.57    0.65
A22         53.90   49.28   33.57          75.62   16.97    9.78          19.59   29.95            0.56     0.66     0.70            0.41     0.37     0.51           0.68    0.75
B1           3.48    3.11    1.85          20.48    7.94    6.48          10.25   39.20            0.07     0.07     0.04            0.28     0.23     0.36           0.47    0.51
B2           4.08    3.09    1.13          20.39   17.31   14.92          22.85   40.76            0.08     0.07     0.02            0.26     0.17     0.25           0.35    0.40
B3           4.67    3.10    0.71          20.43   25.20   21.91          33.39   41.00            0.08     0.06     0.02            0.24     0.15     0.22           0.32    0.36
B4           5.56    3.03    0.11          20.18   37.23   32.64          49.52   41.24            0.05     0.03     0.00            0.12     0.17     0.21           0.25    0.29
B5          12.99   11.60    6.94          40.58   12.48    9.93          15.95   38.52            0.20     0.20     0.12            0.32     0.26     0.32           0.47    0.52
B6          15.11   11.63    4.55          40.62   25.49   21.51          33.36   40.17            0.21     0.20     0.08            0.32     0.20     0.31           0.44    0.49
B7          17.36   11.67    2.86          40.69   37.95   32.51          49.97   40.58            0.18     0.15     0.05            0.24     0.20     0.26           0.38    0.41
B8          20.25   11.38    1.24          40.22   54.90   47.53          72.62   40.88            0.13     0.10     0.03            0.17     0.14     0.17           0.26    0.28
B9          35.23   35.06   26.96          65.79    4.91    3.29           5.92   33.81            0.57     0.63     0.51            0.49     0.31     0.36           0.62    0.68
B10         36.49   34.53   23.62          65.38   10.88    8.51          13.82   38.00            0.58     0.61     0.51            0.48     0.27     0.47           0.64    0.72
B11         37.93   34.14   21.23          65.07   16.92   12.58          21.09   36.63            0.58     0.60     0.52            0.48     0.30     0.49           0.65    0.74
B12         42.23   34.55   16.19          65.40   28.85   24.14          37.62   39.93            0.43     0.51     0.38            0.40     0.43     0.45           0.66    0.74
B13         62.88   67.55   58.93          85.78   -5.11   -3.28           6.07   212.72            0.35     0.33     0.28            0.17     0.12     0.18           0.24    0.27
B14         67.73   65.18   56.97          84.57   10.95   -3.36          11.45   342.95            0.39     0.45     0.39            0.23     0.24     0.19           0.33    0.38
B15         71.92   72.79   51.96          88.35    3.68    8.48           9.24   66.56            0.29     0.34     0.35            0.16     0.13     0.21           0.27    0.30
B16         58.84   60.83   51.07          82.29    0.44   -0.98           1.08   294.24            0.55     0.57     0.53            0.31     0.15     0.29           0.41    0.45
B17         66.76   64.70   51.07          84.33    9.89    2.55          10.22   14.45            0.41     0.49     0.53            0.25     0.25     0.34           0.44    0.49
B18         62.55   67.40   52.85          85.70   -5.55    2.96           6.29   152.00            0.48     0.44     0.49            0.22     0.18     0.31           0.37    0.42
B19         59.57   61.37   57.00          82.57    0.95   -6.84           6.90   277.87            0.52     0.55     0.38            0.30     0.13     0.17           0.32    0.37
B20          5.18    3.13    1.11          20.56   31.07   15.48          34.71   26.48            0.10     0.06     0.02            0.23     0.26     0.21           0.35    0.40
B21         17.27   11.62    4.44          40.60   37.86   22.11          43.84   30.28            0.29     0.22     0.12            0.35     0.25     0.32           0.49    0.54
B22         34.27   29.11   18.00          60.88   22.80   12.16          25.84   28.06            0.55     0.54     0.43            0.48     0.31     0.52           0.68    0.77
C1           6.66    6.52    3.65          30.69    3.86    9.81          10.54   68.48            0.12     0.13     0.10            0.32     0.27     0.46           0.56    0.62
C2           7.00    6.43    2.32          30.47    8.29   19.29          20.99   66.75            0.13     0.14     0.05            0.33     0.25     0.23           0.43    0.47
C3           7.52    6.51    1.23          30.66   12.47   31.29          33.69   68.26            0.15     0.15     0.03            0.35     0.18     0.32           0.42    0.51
C4           7.99    6.29    0.29          30.13   19.13   46.40          50.19   67.59            0.10     0.10     0.01            0.24     0.19     0.31           0.37    0.43
C5          24.29   23.41   12.35          55.49    7.63   17.07          18.70   65.92            0.36     0.38     0.27            0.39     0.24     0.43           0.55    0.62
C6          26.43   23.79    6.94          55.87   15.00   36.29          39.27   67.54            0.36     0.37     0.15            0.37     0.26     0.35           0.51    0.57
C7          28.13   23.60    3.38          55.68   22.64   54.65          59.15   67.50            0.35     0.35     0.07            0.35     0.29     0.31           0.47    0.55
C8          31.03   23.53    0.70          55.62   33.95   82.65          89.35   67.67            0.29     0.28     0.01            0.28     0.23     0.35           0.41    0.50
C9          41.05   41.30   29.59          70.38    3.80    6.85           7.84   60.97            0.54     0.59     0.54            0.41     0.19     0.39           0.53    0.60
C10         41.93   41.20   25.19          70.31    6.75   14.16          15.69   64.51            0.56     0.61     0.54            0.42     0.27     0.42           0.59    0.66
C11         42.98   41.17   20.77          70.29   10.00   22.50          24.62   66.03            0.59     0.65     0.45            0.45     0.29     0.45           0.63    0.70
C12         47.02   41.30    9.71          70.38   21.22   50.94          55.18   67.39            0.38     0.49     0.22            0.34     0.40     0.40           0.58    0.66
C13         56.67   63.44   58.62          83.67  -10.81   -6.60          12.67   211.39            0.44     0.42     0.34            0.22     0.17     0.13           0.26    0.30
C14         61.38   56.06   53.76          79.65   17.83   -8.47          19.74   334.61            0.46     0.60     0.39            0.34     0.40     0.26           0.48    0.59
C15         70.53   71.85   44.47          87.90    2.67   16.39          16.60   80.73            0.40     0.43     0.59            0.21     0.13     0.43           0.43    0.50
C16         45.72   47.26   39.80          74.36    0.41   -1.06           1.15   291.34            0.69     0.74     0.72            0.47     0.24     0.33           0.57    0.62
C17         57.94   53.33   40.17          78.07   16.47    4.86          17.17   16.43            0.54     0.67     0.67            0.39     0.39     0.40           0.61    0.68
C18         54.89   62.06   45.06          82.94  -12.10    7.13          14.05   149.53            0.56     0.51     0.63            0.27     0.26     0.38           0.46    0.53
C19         48.45   49.68   53.21          75.87    1.50  -14.38          14.46   275.93            0.62     0.70     0.45            0.43     0.25     0.31           0.48    0.59
C20         12.65    9.29    1.24          36.54   27.63   41.17          49.58   56.13            0.24     0.20     0.04            0.37     0.19     0.25           0.43    0.49
C21         22.77   21.10   12.12          53.06   11.36   13.55          17.69   50.01            0.43     0.44     0.33            0.48     0.33     0.46           0.67    0.75
C22         28.43   24.05   11.67          56.14   21.84   20.18          29.74   42.74            0.46     0.44     0.30            0.44     0.31     0.48           0.64    0.72
D1           4.44    4.64    2.63          25.68   -0.47    8.48           8.50   93.13            0.09     0.11     0.08            0.32     0.28     0.38           0.51    0.57
D2           4.33    4.58    1.63          25.49   -1.07   17.42          17.46   93.50            0.09     0.11     0.04            0.33     0.26     0.30           0.46    0.52
D3           4.27    4.50    0.92          25.27   -1.04   26.44          26.46   92.25            0.09     0.11     0.03            0.33     0.27     0.26           0.44    0.50
D4           4.23    4.50    0.32          25.26   -1.52   37.59          37.63   92.32            0.08     0.09     0.01            0.26     0.22     0.41           0.44    0.54
D5          18.13   18.96    9.95          50.64   -0.79   16.08          16.10   92.79            0.24     0.28     0.18            0.33     0.31     0.36           0.52    0.58
D6          17.96   18.94    5.43          50.61   -1.59   34.11          34.14   92.67            0.26     0.30     0.11            0.35     0.28     0.39           0.55    0.60
D7          17.84   19.03    2.70          50.72   -2.66   51.08          51.15   92.98            0.25     0.29     0.05            0.34     0.24     0.28           0.42    0.50
D8          17.72   19.05    0.89          50.74   -3.43   70.94          71.03   92.76            0.23     0.25     0.02            0.30     0.17     0.34           0.41    0.48
D9          46.73   48.64   26.15          75.23   -0.49   20.94          20.95   91.33            0.48     0.51     0.44            0.32     0.19     0.37           0.46    0.53
D10         46.17   48.52   14.99          75.15   -1.72   43.90          43.93   92.24            0.51     0.57     0.27            0.36     0.19     0.31           0.44    0.51
D11         46.05   48.73    7.64          75.28   -2.63   66.90          66.95   92.25            0.44     0.49     0.15            0.31     0.17     0.24           0.37    0.43
D12         45.82   48.53    3.46          75.16   -2.74   87.70          87.75   91.79            0.35     0.34     0.06            0.22     0.14     0.19           0.28    0.32
D13         51.41   59.72   58.18          81.69  -15.62   -9.58          18.32   211.52            0.42     0.40     0.34            0.22     0.19     0.15           0.29    0.32
D14         56.25   48.94   50.94          75.41   23.78  -12.69          26.96   331.91            0.51     0.63     0.41            0.40     0.46     0.29           0.55    0.67
D15         69.13   70.73   37.72          87.35    2.02   24.13          24.22   85.21            0.38     0.41     0.57            0.20     0.13     0.50           0.45    0.55
D16         34.74   36.14   30.51          66.62   -0.34   -1.09           1.21   250.04            0.61     0.69     0.65            0.53     0.33     0.40           0.67    0.74
D17         50.70   44.31   31.05          72.44   22.39    8.09          23.81   19.86            0.50     0.59     0.63            0.39     0.40     0.46           0.65    0.73
D18         48.22   57.02   37.97          80.19  -17.76   11.45          21.13   147.20            0.57     0.52     0.71            0.29     0.32     0.54           0.59    0.69
D19         39.00   39.95   49.63          69.43    1.52  -21.52          21.58   274.04            0.61     0.72     0.49            0.51     0.38     0.38           0.64    0.74
D20          3.14    3.12    1.22          20.52    2.23   13.85          14.03   80.84            0.06     0.07     0.04            0.28     0.26     0.33           0.46    0.50
D21         31.83   29.23    1.53          60.98   13.73   79.82          80.99   80.24            0.46     0.47     0.03            0.41     0.26     0.41           0.57    0.64
D22         41.50   44.60   51.74          72.62   -4.50  -18.37          18.92   256.23            0.56     0.66     0.43            0.43     0.27     0.32           0.52    0.60
E1           5.76    6.54    3.80          30.73   -6.04    8.90          10.76   124.17            0.12     0.15     0.10            0.37     0.31     0.42           0.59    0.64
E2           5.20    6.37    2.36          30.33  -10.77   18.70          21.58   119.92            0.13     0.17     0.07            0.41     0.26     0.28           0.49    0.56
E3           4.89    6.48    1.39          30.58  -15.73   29.09          33.07   118.40            0.09     0.13     0.03            0.32     0.32     0.34           0.49    0.56
E4           4.21    6.42    0.50          30.44  -24.14   42.95          49.27   119.34            0.06     0.09     0.01            0.23     0.25     0.38           0.44    0.51
E5          25.58   29.16   16.16          60.92  -10.31   16.50          19.46   122.01            0.45     0.55     0.36            0.49     0.31     0.38           0.60    0.69
E6          23.16   28.70   10.08          60.52  -19.00   32.70          37.82   120.16            0.31     0.39     0.18            0.35     0.20     0.41           0.53    0.58
E7          20.89   28.43    5.60          60.27  -28.46   49.93          57.47   119.69            0.26     0.33     0.09            0.29     0.14     0.24           0.36    0.40
E8          19.43   28.68    3.78          60.49  -36.60   60.36          70.59   121.24            0.18     0.22     0.06            0.19     0.17     0.17           0.27    0.31
E9          45.01   48.69   34.13          75.25   -5.48    8.32           9.97   123.41            0.63     0.69     0.61            0.43     0.20     0.42           0.56    0.63
E10         42.53   48.22   26.67          74.96  -11.48   19.59          22.70   120.37            0.61     0.67     0.55            0.42     0.18     0.37           0.53    0.59
E11         40.73   48.31   21.08          75.02  -17.16   30.03          34.58   119.75            0.48     0.52     0.40            0.33     0.17     0.44           0.51    0.57
E12         38.40   47.95   16.15          74.79  -23.49   40.42          46.75   120.16            0.47     0.44     0.31            0.28     0.32     0.46           0.56    0.63
E13         47.18   56.56   57.68          79.93  -19.48  -12.10          22.93   211.84            0.44     0.41     0.35            0.23     0.23     0.14           0.31    0.36
E14         50.85   41.77   47.64          70.71   30.20  -17.03          34.67   330.58            0.48     0.57     0.44            0.39     0.45     0.25           0.55    0.65
E15         67.75   69.47   31.25          86.74    1.68   32.44          32.48   87.04            0.41     0.45     0.58            0.22     0.13     0.53           0.48    0.59
E16         25.26   26.13   22.22          58.16    0.26   -1.28           1.34   277.98            0.55     0.60     0.50            0.57     0.34     0.40           0.70    0.77
E17         43.59   35.74   22.75          66.32   28.91   11.77          31.22   22.14            0.49     0.56     0.57            0.43     0.43     0.52           0.71    0.80
E18         42.46   52.39   31.11          77.51  -22.68   16.75          28.19   143.56            0.52     0.48     0.60            0.29     0.33     0.50           0.56    0.67
E19         30.68   31.00   45.68          62.50    2.97  -28.87          29.03   275.86            0.57     0.68     0.53            0.57     0.45     0.41           0.73    0.83
E20          7.48    8.78    1.46          35.55   -8.97   36.71          37.80   103.73            0.17     0.22     0.04            0.43     0.33     0.38           0.56    0.66
E21         25.27   29.97    6.95          61.63  -14.62   46.16          48.42   107.57            0.44     0.54     0.14            0.46     0.27     0.35           0.57    0.64
E22          9.09   18.49   14.48          50.08  -57.24    1.96          57.27   178.04            0.17     0.27     0.27            0.32     0.12     0.26           0.40    0.43
F1           3.68    4.50    3.39          25.27   -9.52    2.14           9.76   167.36            0.08     0.10     0.08            0.31     0.25     0.34           0.47    0.53
F2           3.06    4.56    2.85          25.45  -20.38    6.33          21.34   162.75            0.06     0.09     0.06            0.29     0.25     0.30           0.44    0.49
F3           2.60    4.58    2.44          25.49  -28.87    9.67          30.45   161.48            0.06     0.10     0.05            0.31     0.28     0.32           0.46    0.52
F4           1.74    4.52    1.82          25.32  -46.88   15.17          49.27   162.07            0.03     0.07     0.03            0.22     0.20     0.30           0.36    0.42
F5          11.92   14.86   10.82          45.45  -15.79    4.35          16.38   164.61            0.19     0.25     0.20            0.35     0.27     0.29           0.48    0.53
F6           9.72   15.01    9.15          45.64  -33.04   10.20          34.58   162.84            0.14     0.22     0.17            0.31     0.25     0.41           0.52    0.57
F7           7.97   15.17    7.70          45.87  -48.93   15.97          51.47   161.92            0.14     0.25     0.13            0.34     0.21     0.27           0.43    0.48
F8           6.57   14.58    6.73          45.05  -58.97   18.52          61.81   162.56            0.12     0.22     0.13            0.30     0.12     0.14           0.32    0.35
F9          30.34   34.56   26.99          65.40  -10.78    2.56          11.09   166.68            0.47     0.54     0.52            0.42     0.26     0.47           0.63    0.68
F10         26.73   34.09   24.48          65.03  -23.24    6.33          24.09   164.77            0.49     0.59     0.52            0.47     0.20     0.39           0.58    0.64
F11         24.43   34.42   22.65          65.29  -34.00   10.19          35.50   163.33            0.41     0.52     0.43            0.41     0.15     0.40           0.52    0.59
F12         21.58   33.93   20.72          64.90  -45.17   13.32          47.09   163.57            0.28     0.31     0.38            0.24     0.26     0.48           0.54    0.60
F13         43.24   53.43   57.03          78.13  -23.01  -14.54          27.22   212.29            0.38     0.36     0.30            0.21     0.21     0.15           0.30    0.34
F14         46.10   35.79   44.47          66.36   35.98  -20.76          41.54   330.02            0.45     0.52     0.41            0.40     0.46     0.27           0.56    0.67
F15         66.35   68.05   25.43          86.03    1.62   40.84          40.87   87.73            0.36     0.41     0.50            0.20     0.14     0.56           0.53    0.61
F16         17.73   18.33   15.61          49.90    0.30   -1.20           1.27   281.09            0.39     0.44     0.41            0.52     0.34     0.41           0.66    0.75
F17         37.53   28.79   16.10          60.59   34.91   16.06          38.43   24.70            0.43     0.48     0.37            0.42     0.46     0.39           0.66    0.73
F18         37.03   47.73   25.07          74.66  -27.32   21.86          34.99   141.35            0.44     0.43     0.47            0.27     0.36     0.42           0.54    0.61
F19         23.87   23.71   41.86          55.79    4.48  -35.73          36.01   277.14            0.49     0.56     0.52            0.57     0.38     0.38           0.68    0.78
