targets/wolf_faust/transmissive/E041210.it8
IT8.7/1
ORIGINATOR "Wolf Faust"
DESCRIPTOR "Ektachrome, Type 3, L* a* b* (light D50, viewing angle 2)"
MANUFACTURER "Wolf Faust - http://www.coloraid.de"
CREATED "December 12, 2004"
PROD_DATE "2004:12"
DIFFUSE_GEOMETRY "opal"
SERIAL "E041210 Batch Average Data"
MATERIAL "For Kodak Ektachrome Product Family"
KEYWORD "MEAN_DE" # Mean Delta E of samples compared to batch average
NUMBER_OF_FIELDS 17
BEGIN_DATA_FORMAT
SAMPLE_ID   XYZ_X   XYZ_Y   XYZ_Z          LAB_L   LAB_A   LAB_B          LAB_C   LAB_H          STDEV_X  STDEV_Y  STDEV_Z          STDEV_L  STDEV_A  STDEV_B        MEAN_DE  STDEV_DE
END_DATA_FORMAT
NUMBER_OF_SETS 288
BEGIN_DATA
A1           2.06    1.72    1.33          13.94    9.65    1.17           9.73    6.94            0.04     0.03     0.05            0.17     0.26     0.38           0.44    0.49
A2           2.58    1.76    1.03          14.15   19.50    5.57          20.28   15.94            0.04     0.03     0.05            0.16     0.28     0.47           0.50    0.57 
A3           3.07    1.73    0.83          14.01   29.08    8.64          30.33   16.55            0.05     0.03     0.02            0.15     0.23     0.29           0.36    0.40
A4           3.97    1.85    0.70          14.68   40.48   12.15          42.27   16.71            0.05     0.02     0.02            0.13     0.22     0.32           0.37    0.41 
A5           9.36    8.02    6.04          34.02   14.18    2.58          14.42   10.30            0.14     0.12     0.16            0.25     0.33     0.53           0.61    0.67
A6          11.20    8.00    5.14          33.99   28.45    6.94          29.29   13.70            0.17     0.12     0.16            0.25     0.33     0.67           0.72    0.79 
A7          13.54    8.15    4.48          34.29   43.09   10.97          44.47   14.29            0.21     0.13     0.15            0.26     0.29     0.60           0.66    0.72
A8          17.04    8.65    3.75          35.30   59.47   17.08          61.87   16.03            0.08     0.06     0.11            0.11     0.11     0.57           0.50    0.59 
A9          28.49   27.44   22.18          59.37    8.14    0.89           8.22   36.17            0.52     0.52     0.60            0.48     0.34     0.67           0.83    0.89
A10         30.54   27.42   20.94          59.36   16.02    3.32          16.37   11.69            0.53     0.51     0.50            0.47     0.26     0.62           0.72    0.82
A11         32.60   27.40   20.08          59.34   23.56    5.05          24.10   12.09            0.52     0.50     0.47            0.46     0.31     0.59           0.72    0.81
A12         36.65   27.36   17.98          59.30   37.59    9.49          38.77   14.16            0.36     0.40     0.40            0.36     0.43     0.55           0.70    0.79 
A13         76.48   79.07   66.53          91.27    0.50   -1.20           1.31   292.08            0.15     0.12     0.08            0.06     0.19     0.07           0.18    0.21
A14         78.12   79.02   66.06          91.24    3.88   -0.80           3.96   348.32            0.22     0.23     0.16            0.10     0.09     0.07           0.14    0.16 
A15         79.25   80.90   64.76          92.09    2.47    1.88           3.12   37.21            0.13     0.16     0.25            0.07     0.15     0.22           0.24    0.27
A16         76.96   79.38   65.74          91.40    0.86   -0.23           0.89   315.96            0.19     0.15     0.22            0.07     0.19     0.15           0.22    0.25
A17         78.41   79.50   65.38          91.46    3.51    0.21           3.52   33.51            0.21     0.22     0.26            0.10     0.08     0.13           0.16    0.18
A18         76.57   79.14   64.86          91.30    0.54    0.42           0.72   40.00            0.25     0.18     0.27            0.08     0.22     0.18           0.26    0.30 
A19         75.92   77.73   65.79          90.65    1.98   -1.57           2.53   321.61            0.20     0.19     0.13            0.08     0.09     0.07           0.13    0.15
A20          6.12    2.89    1.87          19.58   46.04    4.72          46.28    5.85            0.11     0.05     0.06            0.22     0.29     0.45           0.53    0.58 
A21         25.64   17.86   14.09          49.32   39.99    1.67          40.03    2.39            0.35     0.29     0.35            0.35     0.21     0.67           0.72    0.78
A22         53.37   48.19   32.07          74.94   18.52   10.85          21.47   30.36            0.38     0.46     0.53            0.29     0.30     0.45           0.55    0.61
B1           3.09    2.79    1.62          19.19    7.21    6.72           9.87   42.93            0.04     0.04     0.06            0.15     0.34     0.50           0.55    0.62
B2           3.71    2.83    0.96          19.34   16.54   15.63          22.76   43.39            0.05     0.04     0.03            0.16     0.24     0.31           0.37    0.42
B3           4.30    2.83    0.60          19.34   25.00   22.01          33.31   41.36            0.05     0.04     0.02            0.15     0.21     0.24           0.32    0.35
B4           5.18    2.82    0.11          19.29   36.55   31.10          47.99   40.39            0.05     0.03     0.00            0.13     0.16     0.21           0.27    0.30
B5          12.16   10.78    6.40          39.21   12.75    9.91          16.15   37.84            0.19     0.17     0.18            0.28     0.34     0.56           0.64    0.72
B6          13.89   10.64    4.16          38.97   25.17   20.90          32.72   39.70            0.19     0.16     0.14            0.27     0.31     0.61           0.68    0.74
B7          16.14   10.67    2.50          39.01   38.44   32.51          50.35   40.22            0.21     0.14     0.09            0.24     0.26     0.46           0.55    0.58
B8          20.22   11.16    1.08          39.84   56.35   49.12          74.76   41.08            0.11     0.08     0.04            0.14     0.16     0.50           0.43    0.55
B9          33.58   33.18   25.66          64.31    5.64    2.96           6.39   27.62            0.56     0.56     0.53            0.45     0.34     0.51           0.72    0.76
B10         35.27   33.08   22.55          64.23   11.76    8.54          14.55   35.94            0.53     0.53     0.49            0.43     0.25     0.64           0.75    0.81
B11         36.79   33.03   20.47          64.18   17.05   12.59          21.20   36.42            0.53     0.52     0.40            0.42     0.24     0.54           0.66    0.73
B12         41.12   33.27   15.48          64.38   29.88   24.11          38.40   38.90            0.39     0.46     0.40            0.37     0.44     0.61           0.76    0.84
B13         64.64   69.67   63.66          86.83   -5.65   -6.13           8.34   227.31            0.43     0.38     0.23            0.19     0.20     0.21           0.30    0.35
B14         69.27   67.57   61.44          85.79    9.05   -5.76          10.73   327.51            0.41     0.49     0.35            0.25     0.18     0.20           0.32    0.37
B15         71.38   73.18   51.35          88.53    1.74    9.48           9.65   79.52            0.41     0.39     0.85            0.19     0.16     0.70           0.61    0.75
B16         59.09   61.29   51.33          82.53   -0.01   -0.84           0.86   264.39            0.67     0.67     0.97            0.36     0.16     0.63           0.67    0.74
B17         66.60   65.21   50.95          84.59    8.40    3.13           8.98   20.38            0.56     0.59     0.98            0.30     0.15     0.65           0.64    0.73
B18         62.86   68.26   52.56          86.14   -6.70    4.02           7.83   149.17            0.52     0.45     0.76            0.22     0.26     0.64           0.64    0.73
B19         62.41   64.77   61.82          84.37   -0.11   -8.59           8.60   269.26            0.44     0.46     0.27            0.24     0.15     0.27           0.34    0.39
B20          4.65    2.79    0.90          19.17   30.41   16.37          34.54   28.29            0.10     0.06     0.04            0.25     0.30     0.35           0.47    0.52
B21         16.32   10.84    4.09          39.30   38.21   21.92          44.06   29.84            0.25     0.18     0.12            0.30     0.28     0.59           0.66    0.72
B22         32.79   27.69   16.76          59.61   23.11   12.79          26.41   28.95            0.37     0.35     0.34            0.32     0.24     0.65           0.70    0.76
C1           6.01    5.87    3.37          29.08    3.95    8.86           9.71   65.98            0.08     0.08     0.09            0.20     0.37     0.41           0.54    0.59
C2           6.42    5.86    2.02          29.05    8.48   19.60          21.36   66.61            0.07     0.07     0.04            0.18     0.32     0.31           0.44    0.48
C3           6.86    5.86    1.11          29.05   13.00   30.17          32.85   66.68            0.08     0.08     0.03            0.20     0.25     0.36           0.44    0.48
C4           7.42    5.80    0.29          28.91   19.07   44.42          48.34   66.77            0.08     0.07     0.01            0.19     0.22     0.26           0.34    0.39
C5          23.25   22.23   11.62          54.27    8.32   17.13          19.04   64.09            0.32     0.32     0.29            0.33     0.33     0.56           0.65    0.73
C6          24.90   22.22    6.49          54.25   15.58   35.45          38.73   66.27            0.30     0.28     0.15            0.29     0.33     0.48           0.59    0.65
C7          26.96   22.28    3.08          54.33   23.83   54.44          59.43   66.36            0.27     0.25     0.10            0.26     0.27     0.57           0.63    0.68
C8          30.16   22.38    0.62          54.43   35.83   82.15          89.62   66.43            0.22     0.18     0.01            0.19     0.19     0.25           0.31    0.37
C9          39.78   40.00   28.52          69.47    3.81    7.00           7.98   61.39            0.54     0.56     0.50            0.40     0.26     0.49           0.60    0.68
C10         40.50   39.67   24.02          69.23    7.07   14.40          16.05   63.83            0.55     0.57     0.47            0.41     0.27     0.68           0.75    0.84
C11         41.54   39.54   19.75          69.14   10.67   22.63          25.02   64.74            0.53     0.54     0.43            0.39     0.24     0.62           0.67    0.77
C12         45.75   39.74    9.88          69.29   22.37   48.47          53.39   65.22            0.31     0.41     0.22            0.29     0.39     0.49           0.61    0.69
C13         58.05   65.17   62.94          84.57  -11.31   -9.34          14.67   219.54            0.42     0.38     0.20            0.19     0.24     0.24           0.32    0.39
C14         63.33   58.83   57.95          81.20   15.67  -10.19          18.70   326.96            0.52     0.66     0.40            0.37     0.40     0.30           0.53    0.62
C15         69.38   71.59   41.09          87.77    0.76   20.40          20.42   87.84            0.34     0.34     0.73            0.16     0.15     0.77           0.67    0.80
C16         45.42   46.87   39.59          74.11    0.65   -1.21           1.41   301.09            0.69     0.75     0.70            0.48     0.22     0.45           0.64    0.69
C17         57.15   52.76   38.87          77.73   15.98    6.00          17.08   20.59            0.55     0.68     0.66            0.40     0.41     0.41           0.60    0.70
C18         54.39   62.26   42.59          83.05  -13.81   10.36          17.27   143.15            0.46     0.39     0.56            0.21     0.30     0.56           0.60    0.67
C19         51.63   53.61   58.28          78.23   -0.17  -15.64          15.64   269.38            0.57     0.64     0.34            0.37     0.23     0.42           0.54    0.61
C20         11.74    8.50    1.03          35.01   27.97   41.53          50.07   56.04            0.18     0.13     0.04            0.26     0.27     0.33           0.46    0.50
C21         21.11   19.41   11.09          51.16   11.86   13.36          17.87   48.36            0.34     0.32     0.32            0.36     0.30     0.75           0.82    0.89
C22         26.75   22.34   10.92          54.39   22.70   19.46          29.90   40.58            0.31     0.28     0.23            0.29     0.26     0.73           0.76    0.83
D1           3.96    4.17    2.34          24.24   -0.94    8.42           8.48   96.35            0.06     0.05     0.06            0.17     0.33     0.40           0.50    0.55
D2           3.94    4.14    1.39          24.11   -0.70   17.96          17.97   92.23            0.05     0.05     0.04            0.17     0.31     0.35           0.45    0.50
D3           3.91    4.13    0.77          24.10   -1.13   27.02          27.05   92.39            0.05     0.06     0.02            0.18     0.23     0.28           0.37    0.40
D4           3.80    4.06    0.31          23.86   -1.65   35.35          35.39   92.67            0.05     0.05     0.00            0.17     0.27     0.22           0.36    0.39
D5          16.82   17.49    9.38          48.87   -0.25   14.98          14.98   90.95            0.21     0.21     0.25            0.26     0.27     0.75           0.77    0.84
D6          16.72   17.54    4.99          48.94   -1.07   33.48          33.49   91.84            0.21     0.22     0.17            0.27     0.32     0.61           0.69    0.74
D7          16.58   17.51    2.28          48.89   -1.67   51.40          51.43   91.87            0.16     0.17     0.06            0.20     0.28     0.41           0.50    0.53
D8          16.49   17.58    0.74          48.99   -2.57   70.45          70.49   92.09            0.21     0.20     0.01            0.25     0.27     0.28           0.41    0.46
D9          45.67   47.53   25.26          74.53   -0.44   21.30          21.30   91.19            0.48     0.48     0.38            0.31     0.23     0.62           0.62    0.72
D10         45.02   47.10   13.97          74.26   -1.13   44.99          45.00   91.44            0.45     0.44     0.16            0.28     0.25     0.59           0.63    0.70
D11         44.51   47.05    7.08          74.22   -2.48   67.35          67.40   92.11            0.41     0.38     0.11            0.24     0.26     0.53           0.57    0.64
D12         44.89   47.77    2.87          74.68   -3.36   91.09          91.16   92.11            0.31     0.26     0.06            0.16     0.22     0.37           0.41    0.46
D13         52.65   61.30   62.28          82.54  -16.06  -12.20          20.17   217.22            0.36     0.31     0.17            0.16     0.29     0.21           0.32    0.39
D14         57.99   51.23   54.97          76.82   21.98  -14.64          26.41   326.33            0.49     0.63     0.42            0.38     0.46     0.29           0.58    0.66
D15         67.56   69.91   32.05          86.95    0.33   31.59          31.59   89.40            0.32     0.36     0.56            0.17     0.13     0.69           0.59    0.73
D16         34.06   35.15   29.99          65.87    0.55   -1.57           1.70   291.71            0.57     0.62     0.58            0.48     0.26     0.53           0.68    0.76
D17         49.42   42.94   29.28          71.52   22.92    9.31          24.74   22.10            0.46     0.56     0.49            0.38     0.41     0.31           0.56    0.64
D18         47.17   56.72   33.82          80.02  -19.92   16.99          26.18   139.54            0.44     0.37     0.37            0.21     0.37     0.46           0.54    0.62
D19         42.22   43.97   55.09          72.21   -0.55  -22.71          22.72   268.61            0.51     0.57     0.34            0.38     0.27     0.41           0.57    0.62
D20          2.81    2.78    0.99          19.12    2.40   14.73          14.93   80.73            0.05     0.04     0.03            0.18     0.25     0.34           0.42    0.46
D21         29.89   27.25    1.44          59.20   14.26   77.76          79.06   79.61            0.34     0.34     0.03            0.32     0.20     0.32           0.43    0.49
D22         39.78   43.13   55.17          71.64   -5.57  -23.77          24.42   256.82            0.45     0.52     0.34            0.35     0.26     0.39           0.53    0.59
E1           5.28    5.95    3.50          29.29   -5.32    8.35           9.91   122.54            0.07     0.07     0.08            0.19     0.22     0.40           0.45    0.50
E2           4.75    5.82    2.22          28.96  -10.52   17.58          20.49   120.89            0.06     0.06     0.06            0.16     0.26     0.37           0.44    0.48
E3           4.36    5.81    1.25          28.94  -15.54   27.93          31.97   119.09            0.06     0.08     0.04            0.19     0.21     0.28           0.36    0.40
E4           3.93    5.98    0.47          29.36  -23.53   41.71          47.89   119.43            0.04     0.07     0.01            0.17     0.31     0.19           0.34    0.40
E5          24.00   27.13   14.98          59.10   -9.19   16.25          18.67   119.52            0.33     0.35     0.34            0.32     0.25     0.78           0.81    0.88
E6          21.99   27.29    9.44          59.24  -18.84   32.63          37.68   120.01            0.28     0.30     0.24            0.27     0.24     0.66           0.68    0.76
E7          19.53   26.97    5.12          58.95  -29.38   50.06          58.05   120.41            0.22     0.28     0.10            0.26     0.26     0.48           0.54    0.60
E8          18.95   28.00    2.79          59.89  -36.40   66.16          75.51   118.82            0.12     0.14     0.05            0.12     0.19     0.33           0.36    0.40
E9          43.89   47.61   33.07          74.58   -5.82    8.73          10.50   123.79            0.39     0.41     0.47            0.26     0.23     0.65           0.66    0.74
E10         41.64   47.39   25.97          74.44  -11.89   19.89          23.18   120.89            0.44     0.46     0.30            0.29     0.25     0.68           0.69    0.78
E11         39.56   47.38   20.22          74.43  -18.24   30.76          35.77   120.68            0.41     0.43     0.28            0.27     0.30     0.70           0.71    0.81
E12         37.53   47.62   14.63          74.59  -25.39   43.83          50.66   120.08            0.32     0.28     0.26            0.18     0.35     0.60           0.65    0.72
E13         47.93   57.75   61.61          80.60  -20.29  -14.89          25.17   216.28            0.31     0.28     0.15            0.15     0.27     0.21           0.32    0.38
E14         53.28   44.73   52.23          72.71   27.93  -18.77          33.65   326.09            0.36     0.45     0.33            0.30     0.36     0.26           0.47    0.53
E15         66.02   68.26   24.72          86.13    0.45   42.27          42.28   89.39            0.26     0.30     0.41            0.15     0.12     0.68           0.58    0.70
E16         24.60   25.45   21.75          57.51    0.24   -1.49           1.53   280.71            0.45     0.47     0.49            0.45     0.26     0.68           0.77    0.86
E17         42.48   34.49   21.22          65.35   29.84   13.08          32.58   23.67            0.37     0.44     0.38            0.35     0.41     0.45           0.62    0.70
E18         40.74   51.44   26.31          76.95  -25.44   23.63          34.72   137.12            0.43     0.38     0.36            0.23     0.37     0.55           0.60    0.70
E19         34.05   35.50   51.88          66.13   -0.63  -29.73          29.74   268.78            0.46     0.52     0.35            0.40     0.35     0.40           0.61    0.67
E20          6.76    7.94    1.25          33.85   -8.71   36.44          37.47   103.45            0.10     0.11     0.03            0.23     0.15     0.35           0.39    0.44
E21         23.64   28.13    6.45          60.01  -14.70   45.53          47.85   107.89            0.30     0.32     0.14            0.29     0.30     0.58           0.65    0.71
E22          8.79   17.72   13.64          49.15  -55.79    2.58          55.85   177.35            0.09     0.13     0.26            0.16     0.22     0.55           0.53    0.61
F1           3.34    4.12    3.17          24.05   -9.65    1.56           9.78   170.84            0.05     0.05     0.07            0.17     0.24     0.35           0.42    0.46
F2           2.74    4.07    2.63          23.90  -19.41    5.38          20.15   164.50            0.04     0.06     0.08            0.19     0.23     0.40           0.45    0.49
F3           2.32    4.17    2.25          24.22  -28.92    9.15          30.34   162.45            0.03     0.05     0.06            0.16     0.23     0.33           0.40    0.44
F4           1.72    4.11    1.75          24.04  -41.89   13.64          44.05   161.96            0.02     0.05     0.03            0.16     0.22     0.25           0.32    0.37
F5          11.02   13.78   10.20          43.91  -15.59    3.69          16.03   166.69            0.15     0.17     0.22            0.25     0.29     0.53           0.60    0.65
F6           8.92   13.80    8.46          43.94  -32.24    9.77          33.69   163.14            0.14     0.19     0.15            0.28     0.33     0.43           0.56    0.61
F7           7.19   13.96    7.11          44.17  -48.90   15.42          51.27   162.50            0.10     0.16     0.11            0.23     0.30     0.37           0.49    0.53
F8           6.35   13.74    6.33          43.85  -56.07   18.22          58.96   162.00            0.06     0.11     0.11            0.16     0.21     0.46           0.48    0.53
F9          29.18   33.34   26.39          64.44  -11.02    1.92          11.21   170.18            0.32     0.38     0.37            0.31     0.27     0.73           0.74    0.83
F10         25.77   32.98   23.74          64.14  -23.38    6.14          24.18   165.29            0.37     0.46     0.29            0.38     0.29     0.61           0.69    0.77
F11         23.07   33.03   21.43          64.19  -35.22   10.65          36.80   163.19            0.32     0.45     0.31            0.36     0.26     0.71           0.76    0.84
F12         21.24   34.15   19.65          65.08  -47.50   15.82          50.07   161.58            0.19     0.20     0.29            0.16     0.26     0.48           0.51    0.57
F13         43.98   54.63   60.94          78.83  -23.85  -17.28          29.46   215.92            0.28     0.27     0.15            0.15     0.24     0.23           0.31    0.36
F14         48.80   38.79   49.40          68.60   33.79  -22.69          40.71   326.12            0.27     0.32     0.29            0.23     0.30     0.28           0.41    0.47
F15         64.80   66.75   19.23          85.38    1.00   51.71          51.72   88.90            0.25     0.30     0.38            0.15     0.12     0.69           0.55    0.71
F16         17.03   17.55   15.25          48.94    0.62   -1.94           2.07   289.43            0.36     0.36     0.34            0.44     0.27     0.72           0.77    0.88
F17         36.41   27.41   14.86          59.35   36.62   16.97          40.36   24.87            0.26     0.29     0.34            0.27     0.33     0.62           0.66    0.75
F18         35.44   46.81   20.55          74.07  -30.08   29.48          42.12   135.58            0.34     0.32     0.41            0.20     0.32     0.65           0.66    0.75
F19         27.21   28.16   48.48          60.03    0.27  -36.42          36.42   270.42            0.37     0.41     0.31            0.37     0.37     0.43           0.60    0.68
