targets/wolf_faust/transmissive/E041211.it8
IT8.7/1
ORIGINATOR "Wolf Faust"
DESCRIPTOR "Ektachrome, Type 3, L* a* b* (light D50, viewing angle 2)"
MANUFACTURER "Wolf Faust - http://www.coloraid.de"
CREATED "December 12, 2004"
PROD_DATE "2004:12"
DIFFUSE_GEOMETRY "opal"
SERIAL "E041211 Batch Average Data"
MATERIAL "For Kodak Ektachrome Product Family"
KEYWORD "MEAN_DE" # Mean Delta E of samples compared to batch average
NUMBER_OF_FIELDS 17
BEGIN_DATA_FORMAT
SAMPLE_ID   XYZ_X   XYZ_Y   XYZ_Z          LAB_L   LAB_A   LAB_B          LAB_C   LAB_H          STDEV_X  STDEV_Y  STDEV_Z          STDEV_L  STDEV_A  STDEV_B        MEAN_DE  STDEV_DE
END_DATA_FORMAT
NUMBER_OF_SETS 288
BEGIN_DATA
A1           2.03    1.70    1.23          13.85    9.32    2.25           9.59   13.59            0.03     0.03     0.02            0.18     0.15     0.25           0.31    0.35
A2           2.52    1.68    1.01          13.71   20.34    5.06          20.96   13.97            0.04     0.02     0.02            0.14     0.21     0.26           0.33    0.37 
A3           3.12    1.76    0.88          14.19   29.26    8.06          30.35   15.39            0.03     0.02     0.02            0.11     0.15     0.23           0.26    0.30
A4           3.97    1.85    0.71          14.67   40.48   11.92          42.19   16.40            0.05     0.02     0.02            0.12     0.19     0.30           0.34    0.37 
A5           9.27    7.93    6.05          33.83   14.21    2.23          14.39    8.91            0.17     0.15     0.20            0.32     0.19     0.60           0.60    0.70
A6          10.99    7.85    5.23          33.66   28.36    5.90          28.97   11.76            0.29     0.22     0.21            0.47     0.19     0.44           0.57    0.67 
A7          13.53    8.13    4.46          34.26   43.16   11.07          44.56   14.39            0.33     0.22     0.19            0.45     0.23     0.46           0.59    0.68
A8          16.75    8.43    3.77          34.86   59.75   16.19          61.91   15.16            0.11     0.06     0.14            0.13     0.08     0.78           0.67    0.80 
A9          28.53   27.44   22.76          59.37    8.27   -0.22           8.29   307.06            0.60     0.62     0.72            0.57     0.19     0.49           0.64    0.77
A10         30.26   27.23   21.49          59.18   15.70    1.91          15.83    6.93            0.54     0.53     0.64            0.49     0.13     0.64           0.71    0.81
A11         32.37   27.18   20.28          59.13   23.65    4.28          24.04   10.25            0.67     0.65     0.72            0.60     0.22     0.54           0.74    0.84
A12         36.66   27.32   18.26          59.27   37.79    8.81          38.81   13.11            0.43     0.46     0.71            0.42     0.43     0.90           0.89    1.08 
A13         76.38   78.90   66.51          91.19    0.61   -1.32           1.46   294.89            0.23     0.19     0.12            0.09     0.09     0.07           0.12    0.14
A14         78.33   79.22   66.30          91.33    3.91   -0.87           4.00   347.47            0.18     0.20     0.17            0.09     0.12     0.13           0.17    0.20 
A15         79.36   80.90   65.34          92.09    2.67    1.33           2.99   26.41            0.08     0.09     0.13            0.04     0.03     0.10           0.09    0.11
A16         77.08   79.39   65.88          91.41    1.06   -0.35           1.12   341.78            0.11     0.12     0.18            0.06     0.06     0.08           0.10    0.12
A17         78.66   79.74   65.85          91.57    3.54   -0.05           3.54   256.35            0.17     0.19     0.20            0.09     0.07     0.05           0.10    0.12
A18         76.85   79.27   65.47          91.36    0.84   -0.06           0.85   201.88            0.16     0.17     0.23            0.08     0.06     0.11           0.13    0.15 
A19         76.21   77.99   66.01          90.78    2.05   -1.56           2.58   322.77            0.18     0.20     0.20            0.09     0.06     0.08           0.12    0.14
A20          6.01    2.83    1.87          19.37   45.77    4.39          45.98    5.48            0.06     0.03     0.06            0.13     0.15     0.48           0.43    0.52 
A21         25.76   17.89   14.39          49.36   40.28    0.97          40.29    1.38            0.21     0.18     0.16            0.22     0.25     0.21           0.32    0.39
A22         53.64   48.45   32.46          75.11   18.51   10.55          21.31   29.68            0.28     0.32     0.32            0.20     0.22     0.17           0.30    0.35
B1           3.03    2.71    1.63          18.85    7.63    6.04           9.73   38.37            0.03     0.03     0.03            0.14     0.22     0.26           0.31    0.37
B2           3.63    2.73    0.98          18.95   16.87   14.60          22.31   40.88            0.03     0.02     0.01            0.11     0.19     0.27           0.30    0.34
B3           4.19    2.73    0.57          18.91   25.25   21.82          33.37   40.82            0.03     0.02     0.01            0.10     0.13     0.23           0.23    0.28
B4           5.10    2.76    0.11          19.06   36.51   30.71          47.71   40.07            0.07     0.03     0.00            0.14     0.21     0.24           0.28    0.35
B5          12.01   10.62    6.57          38.93   12.94    8.68          15.59   33.85            0.22     0.22     0.22            0.37     0.14     0.48           0.53    0.62
B6          13.79   10.53    4.16          38.78   25.35   20.60          32.67   39.10            0.22     0.18     0.12            0.31     0.17     0.30           0.42    0.47
B7          16.17   10.72    2.54          39.10   38.23   32.29          50.04   40.18            0.25     0.18     0.08            0.31     0.14     0.45           0.50    0.56
B8          20.05   11.01    1.05          39.60   56.56   49.17          74.95   41.00            0.20     0.16     0.04            0.26     0.18     0.29           0.37    0.43
B9          33.77   33.43   26.12          64.51    5.41    2.52           5.98   24.85            0.60     0.63     0.66            0.51     0.15     0.53           0.64    0.75
B10         35.50   33.36   23.07          64.45   11.57    7.95          14.05   34.44            0.61     0.61     0.65            0.49     0.14     0.59           0.66    0.78
B11         36.86   33.13   20.68          64.27   16.90   12.31          20.91   36.07            0.80     0.79     0.68            0.64     0.16     0.48           0.70    0.82
B12         41.30   33.43   15.82          64.51   29.90   23.49          38.03   38.15            0.32     0.37     0.44            0.30     0.35     0.79           0.78    0.92
B13         64.73   69.73   64.06          86.86   -5.57   -6.46           8.53   229.22            0.35     0.36     0.20            0.18     0.07     0.15           0.19    0.24
B14         69.74   68.01   62.14          86.01    9.10   -6.07          10.94   326.30            0.30     0.39     0.23            0.20     0.22     0.19           0.28    0.35
B15         71.93   73.63   52.74          88.75    1.98    8.33           8.56   76.62            0.38     0.41     0.55            0.20     0.06     0.29           0.29    0.35
B16         59.67   61.80   52.63          82.81    0.20   -1.79           1.81   276.72            0.33     0.35     0.48            0.19     0.11     0.25           0.27    0.33
B17         67.31   65.86   52.44          84.93    8.52    2.07           8.77   13.61            0.35     0.41     0.63            0.21     0.14     0.38           0.36    0.45
B18         63.28   68.60   53.75          86.30   -6.46    3.02           7.14   154.97            0.48     0.47     0.57            0.24     0.10     0.33           0.36    0.42
B19         63.07   65.51   62.50          84.75   -0.21   -8.61           8.61   268.58            0.41     0.49     0.36            0.25     0.17     0.17           0.27    0.35
B20          4.62    2.75    0.92          19.03   30.57   15.69          34.36   27.18            0.06     0.04     0.02            0.16     0.22     0.32           0.36    0.42
B21         16.12   10.67    4.05          39.01   38.31   21.62          43.99   29.44            0.21     0.16     0.07            0.27     0.22     0.35           0.44    0.49
B22         32.47   27.27   17.01          59.23   23.59   11.55          26.27   26.09            0.29     0.27     0.25            0.25     0.20     0.44           0.48    0.54
C1           6.01    5.87    3.45          29.07    3.96    8.29           9.19   64.45            0.08     0.09     0.05            0.22     0.16     0.15           0.26    0.31
C2           6.36    5.78    2.05          28.86    8.67   19.00          20.88   65.48            0.08     0.07     0.04            0.18     0.13     0.36           0.34    0.42
C3           6.81    5.82    1.13          28.96   12.89   29.71          32.39   66.55            0.09     0.09     0.02            0.24     0.20     0.16           0.29    0.35
C4           7.40    5.74    0.29          28.74   19.68   44.11          48.30   65.95            0.11     0.09     0.01            0.23     0.09     0.36           0.36    0.44
C5          23.13   22.12   11.76          54.15    8.30   16.50          18.47   63.29            0.33     0.34     0.33            0.36     0.11     0.48           0.50    0.61
C6          24.78   22.11    6.52          54.14   15.53   35.14          38.42   66.16            0.43     0.43     0.23            0.45     0.15     0.38           0.51    0.61
C7          26.69   22.10    3.13          54.14   23.55   53.74          58.67   66.33            0.35     0.34     0.09            0.36     0.16     0.23           0.40    0.45
C8          29.98   22.22    0.62          54.26   35.91   81.83          89.36   66.30            0.38     0.32     0.01            0.34     0.12     0.44           0.47    0.57
C9          40.07   40.30   29.36          69.68    3.81    6.01           7.12   57.60            0.64     0.69     0.62            0.49     0.14     0.31           0.49    0.59
C10         40.87   40.10   24.81          69.54    6.89   13.51          15.17   62.97            0.65     0.69     0.67            0.49     0.16     0.48           0.58    0.71
C11         41.84   39.86   20.02          69.37   10.54   22.46          24.82   64.85            0.56     0.59     0.52            0.42     0.19     0.57           0.65    0.74
C12         45.85   39.79    9.93          69.32   22.49   48.38          53.35   65.07            0.34     0.43     0.28            0.31     0.39     0.66           0.73    0.83
C13         58.24   65.30   63.35          84.64  -11.14   -9.61          14.71   220.80            0.32     0.33     0.17            0.17     0.10     0.17           0.21    0.26
C14         64.06   59.70   58.85          81.67   15.29  -10.28          18.43   326.08            0.45     0.59     0.30            0.32     0.37     0.28           0.44    0.56
C15         69.76   71.88   41.92          87.91    0.96   19.57          19.60   87.19            0.38     0.41     0.55            0.20     0.05     0.36           0.29    0.42
C16         46.09   47.63   40.47          74.59    0.47   -1.53           1.61   287.28            0.52     0.57     0.57            0.36     0.16     0.23           0.37    0.46
C17         58.04   53.77   40.00          78.33   15.58    5.52          16.53   19.50            0.28     0.34     0.49            0.20     0.19     0.33           0.35    0.43
C18         54.69   62.49   43.03          83.17  -13.59   10.01          16.88   143.63            0.49     0.48     0.49            0.25     0.18     0.32           0.39    0.45
C19         52.44   54.61   59.16          78.82   -0.58  -15.52          15.53   267.87            0.29     0.39     0.30            0.23     0.26     0.24           0.35    0.42
C20         11.64    8.44    1.12          34.88   27.80   40.07          48.77   55.25            0.17     0.14     0.02            0.27     0.17     0.40           0.44    0.51
C21         20.99   19.28   11.05          51.01   11.94   13.23          17.83   47.93            0.27     0.29     0.16            0.33     0.19     0.49           0.55    0.62
C22         26.57   22.18   10.85          54.21   22.70   19.37          29.84   40.48            0.30     0.29     0.15            0.31     0.23     0.53           0.57    0.65
D1           3.87    4.04    2.31          23.81   -0.43    7.92           7.93   93.14            0.07     0.08     0.06            0.26     0.15     0.10           0.26    0.32
D2           3.80    4.00    1.37          23.67   -0.84   17.33          17.35   92.79            0.06     0.07     0.02            0.24     0.17     0.26           0.32    0.39
D3           3.83    4.03    0.78          23.77   -0.78   26.35          26.36   91.69            0.06     0.06     0.01            0.21     0.13     0.34           0.35    0.42
D4           3.76    4.01    0.31          23.69   -1.57   35.04          35.07   92.57            0.07     0.08     0.01            0.26     0.11     0.36           0.40    0.45
D5          16.82   17.54    9.44          48.93   -0.53   14.87          14.88   92.02            0.29     0.31     0.28            0.38     0.14     0.42           0.48    0.58
D6          16.66   17.47    4.96          48.84   -1.03   33.46          33.47   91.76            0.29     0.32     0.13            0.39     0.14     0.17           0.37    0.45
D7          16.55   17.39    2.37          48.74   -1.18   50.39          50.41   91.34            0.28     0.30     0.06            0.37     0.12     0.33           0.43    0.51
D8          16.29   17.40    0.75          48.76   -2.73   69.93          69.98   92.23            0.26     0.30     0.01            0.38     0.13     0.48           0.52    0.62
D9          45.57   47.41   25.46          74.45   -0.40   20.80          20.81   91.12            0.65     0.71     0.50            0.45     0.12     0.29           0.46    0.55
D10         45.25   47.36   14.29          74.42   -1.17   44.42          44.44   91.51            0.52     0.59     0.30            0.37     0.14     0.29           0.41    0.49
D11         44.78   47.22    7.01          74.33   -2.14   67.83          67.86   91.81            0.55     0.62     0.16            0.40     0.15     0.27           0.42    0.50
D12         44.76   47.75    2.93          74.66   -3.64   90.60          90.67   92.30            0.32     0.29     0.05            0.19     0.19     0.27           0.33    0.38
D13         52.89   61.47   62.67          82.63  -15.83  -12.42          20.12   218.12            0.29     0.30     0.15            0.16     0.11     0.17           0.19    0.26
D14         58.55   51.84   55.77          77.18   21.74  -14.85          26.33   325.67            0.36     0.48     0.25            0.29     0.38     0.28           0.42    0.56
D15         68.11   70.43   32.97          87.21    0.43   30.65          30.65   89.20            0.20     0.23     0.31            0.11     0.08     0.29           0.27    0.32
D16         34.28   35.29   30.52          65.97    0.86   -2.22           2.38   291.08            0.47     0.51     0.45            0.40     0.14     0.22           0.38    0.48
D17         49.62   43.06   29.91          71.59   23.12    8.43          24.62   20.01            0.28     0.33     0.49            0.22     0.23     0.49           0.47    0.59
D18         47.40   56.90   34.04          80.12  -19.72   16.85          25.94   139.50            0.45     0.45     0.53            0.25     0.20     0.44           0.48    0.54
D19         42.87   44.74   55.91          72.72   -0.82  -22.68          22.70   267.94            0.31     0.41     0.27            0.27     0.28     0.30           0.41    0.49
D20          2.81    2.78    0.99          19.13    2.42   14.79          14.98   80.71            0.04     0.05     0.02            0.19     0.17     0.37           0.39    0.45
D21         29.49   26.80    1.43          58.79   14.48   77.14          78.49   79.37            0.33     0.33     0.02            0.30     0.12     0.58           0.56    0.66
D22         39.73   43.44   55.74          71.85   -6.61  -24.01          24.91   254.61            0.41     0.53     0.30            0.36     0.31     0.38           0.51    0.61
E1           5.13    5.81    3.44          28.92   -5.56    8.10           9.83   124.45            0.11     0.14     0.09            0.35     0.17     0.09           0.33    0.40
E2           4.68    5.72    2.09          28.69  -10.19   18.33          20.97   119.08            0.06     0.08     0.04            0.21     0.15     0.24           0.32    0.35
E3           4.26    5.66    1.20          28.53  -15.15   27.91          31.75   118.50            0.06     0.08     0.02            0.20     0.12     0.35           0.35    0.42
E4           3.82    5.80    0.47          28.90  -23.18   41.04          47.13   119.46            0.07     0.10     0.01            0.25     0.16     0.32           0.39    0.44
E5          23.95   27.08   15.35          59.05   -9.17   15.23          17.78   121.05            0.39     0.45     0.40            0.42     0.12     0.38           0.48    0.58
E6          21.65   26.89    9.40          58.87  -18.82   32.13          37.24   120.36            0.29     0.36     0.20            0.33     0.14     0.28           0.40    0.46
E7          19.48   26.89    5.22          58.87  -29.34   49.39          57.45   120.72            0.24     0.33     0.12            0.30     0.13     0.23           0.35    0.41
E8          18.87   27.93    2.81          59.83  -36.57   65.88          75.35   119.04            0.15     0.16     0.03            0.15     0.21     0.18           0.24    0.32
E9          44.22   47.82   33.35          74.71   -5.41    8.53          10.10   122.39            0.47     0.51     0.46            0.32     0.08     0.36           0.39    0.49
E10         41.82   47.64   26.25          74.60  -12.03   19.68          23.06   121.44            0.41     0.46     0.34            0.29     0.08     0.29           0.35    0.42
E11         39.47   47.18   20.54          74.31  -18.00   29.90          34.90   121.06            0.47     0.56     0.33            0.35     0.08     0.23           0.38    0.43
E12         37.77   47.84   14.95          74.73  -25.21   43.27          50.08   120.22            0.30     0.30     0.24            0.19     0.19     0.36           0.38    0.45
E13         48.12   57.88   61.99          80.67  -20.09  -15.13          25.15   216.97            0.19     0.19     0.05            0.10     0.13     0.17           0.19    0.24
E14         53.79   45.28   53.01          73.08   27.66  -18.98          33.54   325.53            0.25     0.35     0.20            0.23     0.35     0.28           0.36    0.50
E15         66.50   68.73   25.27          86.37    0.50   41.71          41.71   89.31            0.17     0.21     0.34            0.10     0.10     0.45           0.37    0.47
E16         24.66   25.42   22.19          57.48    0.64   -2.40           2.48   285.15            0.43     0.46     0.40            0.44     0.11     0.35           0.45    0.57
E17         42.57   34.49   21.58          65.35   30.09   12.37          32.54   22.35            0.27     0.33     0.48            0.26     0.33     0.61           0.58    0.73
E18         41.11   51.79   26.66          77.15  -25.18   23.37          34.36   137.14            0.24     0.23     0.41            0.14     0.17     0.53           0.48    0.57
E19         34.57   36.14   52.66          66.62   -0.92  -29.74          29.75   268.23            0.33     0.40     0.24            0.30     0.25     0.36           0.44    0.53
E20          6.66    7.78    1.26          33.51   -8.24   35.73          36.67   102.99            0.09     0.11     0.02            0.23     0.22     0.48           0.49    0.58
E21         23.57   27.96    6.29          59.85  -14.29   45.98          48.15   107.27            0.32     0.40     0.17            0.37     0.20     0.55           0.62    0.69
E22          8.81   17.72   13.66          49.16  -55.66    2.52          55.72   177.40            0.11     0.19     0.25            0.24     0.19     0.51           0.53    0.60
F1           3.38    4.15    3.11          24.16   -9.51    2.20           9.76   167.00            0.06     0.08     0.09            0.27     0.14     0.31           0.34    0.43
F2           2.73    4.06    2.57          23.86  -19.48    5.80          20.33   163.42            0.05     0.07     0.06            0.24     0.17     0.22           0.31    0.37
F3           2.30    4.12    2.16          24.08  -28.80    9.68          30.38   161.41            0.04     0.07     0.03            0.21     0.21     0.27           0.33    0.40
F4           1.70    4.05    1.66          23.84  -41.52   14.32          43.92   160.97            0.03     0.08     0.05            0.25     0.29     0.20           0.37    0.44
F5          10.86   13.55   10.22          43.58  -15.35    3.05          15.65   168.78            0.23     0.29     0.21            0.43     0.16     0.19           0.37    0.49
F6           8.89   13.74    8.56          43.85  -32.08    9.23          33.39   163.94            0.23     0.35     0.22            0.51     0.25     0.11           0.43    0.58
F7           7.24   14.01    7.12          44.25  -48.76   15.51          51.16   162.35            0.12     0.22     0.18            0.32     0.23     0.31           0.44    0.50
F8           6.38   13.76    6.47          43.89  -55.91   17.66          58.63   162.47            0.10     0.21     0.15            0.31     0.26     0.20           0.39    0.45
F9          29.06   33.11   26.64          64.24  -10.66    1.16          10.72   173.83            0.51     0.59     0.51            0.48     0.15     0.39           0.52    0.64
F10         25.93   33.13   24.03          64.26  -23.23    5.82          23.94   165.94            0.47     0.57     0.52            0.46     0.11     0.32           0.48    0.57
F11         23.10   33.01   21.82          64.17  -35.05    9.85          36.41   164.30            0.32     0.42     0.35            0.34     0.09     0.19           0.34    0.40
F12         21.34   34.26   19.82          65.17  -47.39   15.63          49.90   161.75            0.17     0.19     0.23            0.15     0.16     0.25           0.29    0.33
F13         44.18   54.78   61.27          78.91  -23.63  -17.46          29.38   216.46            0.16     0.17     0.09            0.10     0.10     0.16           0.17    0.21
F14         49.60   39.72   50.37          69.27   33.08  -22.64          40.08   325.61            0.21     0.29     0.17            0.21     0.35     0.26           0.38    0.49
F15         65.22   67.16   19.51          85.59    1.03   51.48          51.49   88.86            0.17     0.22     0.26            0.11     0.11     0.38           0.31    0.41
F16         17.33   17.91   15.73          49.39    0.32   -2.37           2.40   277.49            0.31     0.33     0.33            0.41     0.20     0.49           0.57    0.66
F17         36.80   27.80   15.27          59.71   36.35   16.56          39.94   24.50            0.19     0.22     0.35            0.20     0.27     0.61           0.56    0.70
F18         35.50   46.85   20.51          74.09  -29.98   29.59          42.12   135.37            0.36     0.37     0.34            0.24     0.22     0.47           0.48    0.57
F19         27.93   29.12   49.47          60.88   -0.58  -36.08          36.08   269.08            0.29     0.39     0.28            0.34     0.37     0.37           0.50    0.62
