targets/wolf_faust/transmissive/E050925.it8
IT8.7/1
ORIGINATOR "Wolf Faust"
DESCRIPTOR "Ektachrome, Type 3, L* a* b* (light D50, viewing angle 2)"
MANUFACTURER "Wolf Faust - http://www.coloraid.de"
CREATED "September 25, 2005"
PROD_DATE "2005:09"
DIFFUSE_GEOMETRY "opal"
SERIAL "E050925 Batch Average Data"
MATERIAL "For Kodak Ektachrome Product Family"
KEYWORD "MEAN_DE" # Mean Delta E of samples compared to batch average
NUMBER_OF_FIELDS 18
BEGIN_DATA_FORMAT
SAMPLE_ID  XYZ_X   XYZ_Y   XYZ_Z          LAB_L   LAB_A   LAB_B          LAB_C   LAB_H          D_RED  D_GREEN  D_BLUE  D_VIS          STDEV_X STDEV_Y STDEV_Z        MEAN_DE  STDEV_DE
END_DATA_FORMAT
NUMBER_OF_SETS 288
BEGIN_DATA
A1          1.85    1.55    1.08          12.89    9.28    2.64           9.65   15.84           1.54    1.99    2.02    1.78            0.06    0.05    0.04           0.38     0.41
A2          2.31    1.54    0.88          12.85   19.73    5.73          20.54   16.20           1.35    2.19    2.09    1.74            0.07    0.05    0.03           0.40     0.44 
A3          2.83    1.58    0.75          13.13   28.63    8.49          29.86   16.52           1.20    2.43    2.14    1.69            0.08    0.05    0.03           0.46     0.51
A4          3.65    1.64    0.58          13.45   40.97   12.22          42.75   16.61           1.01    3.18    2.18    1.62            0.09    0.04    0.02           0.44     0.48 
A5          8.42    7.09    5.39          32.01   14.82    2.25          15.00    8.65           0.90    1.30    1.26    1.12            0.29    0.25    0.25           0.69     0.78
A6         10.32    7.27    4.55          32.40   28.74    7.34          29.66   14.32           0.73    1.43    1.33    1.07            0.32    0.24    0.18           0.63     0.69 
A7         12.50    7.43    3.97          32.77   42.83   11.34          44.30   14.83           0.58    1.63    1.37    1.03            0.33    0.21    0.15           0.60     0.66
A8         15.77    7.93    3.39          33.84   58.60   16.96          61.01   16.14           0.41    1.96    1.41    0.97            0.15    0.10    0.12           0.48     0.56 
A9         26.22   25.01   21.09          57.08    8.92   -0.90           8.98  333.09           0.50    0.66    0.62    0.59            0.83    0.82    0.77           0.88     0.96
A10        28.48   25.31   19.97          57.37   16.69    1.89          16.81    6.45           0.41    0.69    0.65    0.57            0.84    0.81    0.80           0.87     0.93
A11        30.89   25.70   19.35          57.75   24.24    3.83          24.54    8.99           0.34    0.73    0.66    0.56            0.80    0.75    0.71           0.82     0.89
A12        35.07   26.19   18.08          58.21   37.02    7.41          37.76   11.31           0.23    0.80    0.68    0.53            0.51    0.53    0.63           0.85     0.93 
A13        66.98   70.72   62.19          87.35   -2.63   -3.82           4.64  235.42           0.18    0.15    0.12    0.15            0.45    0.39    0.15           0.30     0.34
A14        72.99   73.90   62.34          88.87    3.65   -1.33           3.88  339.96           0.11    0.15    0.12    0.13            0.27    0.32    0.15           0.21     0.24 
A15        72.90   74.18   59.71          89.01    2.88    1.49           3.25   27.32           0.11    0.14    0.14    0.13            0.31    0.35    0.33           0.20     0.22
A16        69.64   72.28   59.91          88.10   -0.13   -0.27           0.33  242.41           0.15    0.14    0.14    0.14            0.42    0.38    0.36           0.24     0.26
A17        72.81   73.76   61.41          88.81    3.55   -0.53           3.59  351.55           0.11    0.15    0.13    0.13            0.29    0.33    0.23           0.20     0.22
A18        66.35   70.22   56.26          87.11   -3.00    1.74           3.48  150.18           0.18    0.15    0.17    0.16            0.54    0.46    0.69           0.45     0.50 
A19        70.80   71.98   61.84          87.96    2.97   -2.42           3.83  320.85           0.13    0.16    0.12    0.14            0.36    0.41    0.17           0.25     0.29
A20         5.60    2.60    1.61          18.38   45.42    5.49          45.75    6.89           0.85    2.74    1.72    1.44            0.15    0.07    0.05           0.58     0.62 
A21        24.52   16.81   13.81          48.01   40.82    0.18          40.83  148.49           0.35    1.07    0.79    0.71            0.53    0.42    0.48           0.68     0.74
A22        50.93   46.09   32.71          73.60   17.96    7.59          19.50   22.89           0.17    0.42    0.42    0.31            0.86    1.00    1.06           0.94     1.02
B1          2.74    2.40    1.38          17.45    8.41    6.50          10.63   37.67           1.39    1.76    1.92    1.59            0.09    0.08    0.05           0.43     0.47
B2          3.28    2.43    0.84          17.59   17.20   14.58          22.55   40.28           1.23    1.87    2.18    1.55            0.10    0.07    0.03           0.44     0.47
B3          3.87    2.49    0.46          17.87   25.14   22.06          33.45   41.27           1.11    2.00    2.50    1.51            0.11    0.07    0.02           0.46     0.52
B4          4.69    2.51    0.08          17.97   36.14   29.52          46.66   39.24           0.96    2.33    3.59    1.47            0.11    0.06    0.00           0.53     0.60
B5         11.04    9.67    5.78          37.23   13.30    9.36          16.27   35.14           0.79    1.14    1.24    0.99            0.36    0.32    0.24           0.68     0.74
B6         12.87    9.70    3.68          37.29   25.84   20.98          33.28   39.07           0.65    1.24    1.47    0.95            0.39    0.31    0.16           0.63     0.68
B7         15.10    9.88    2.16          37.62   38.36   33.06          50.64   40.76           0.52    1.37    1.74    0.92            0.41    0.29    0.09           0.62     0.67
B8         19.13   10.56    0.98          38.83   55.28   48.90          73.81   41.50           0.35    1.61    2.14    0.85            0.18    0.15    0.04           0.39     0.42
B9         31.22   30.65   24.49          62.20    6.23    1.44           6.41   13.05           0.44    0.55    0.56    0.51            0.95    0.97    0.92           0.90     0.96
B10        33.09   30.72   21.72          62.26   12.68    6.77          14.39   28.08           0.37    0.58    0.62    0.49            0.89    0.90    0.80           0.88     0.95
B11        35.44   31.49   19.67          62.92   17.98   12.07          21.66   33.87           0.30    0.60    0.67    0.47            0.85    0.86    0.74           0.85     0.93
B12        39.32   31.87   15.66          63.23   29.27   21.69          36.43   36.54           0.20    0.66    0.78    0.45            0.62    0.71    0.60           0.92     1.02
B13        56.91   61.23   57.43          82.50   -5.16   -7.41           9.03  235.09           0.28    0.20    0.16    0.22            0.71    0.72    0.56           0.49     0.53
B14        61.79   59.23   55.15          81.42   11.16   -6.90          13.12  328.27           0.15    0.27    0.17    0.22            0.72    0.88    0.61           0.67     0.75
B15        64.32   65.13   47.12          84.55    3.47    7.45           8.22   64.93           0.15    0.21    0.26    0.18            0.70    0.76    1.02           0.67     0.73
B16        51.60   53.43   45.69          78.13    0.22   -1.94           1.96  276.18           0.27    0.28    0.27    0.27            0.94    1.00    0.97           0.68     0.73
B17        59.82   57.69   45.80          80.56   10.22    2.14          10.45   11.80           0.15    0.28    0.26    0.23            0.81    0.95    1.00           0.75     0.80
B18        55.28   60.05   47.48          81.86   -6.46    2.39           6.90  159.86           0.27    0.21    0.25    0.23            0.84    0.83    1.00           0.66     0.71
B19        53.73   55.46   55.16          79.30    0.67  -10.56          10.58  273.57           0.28    0.26    0.17    0.26            0.88    0.97    0.65           0.70     0.76
B20         4.38    2.62    0.79          18.43   29.97   16.82          34.37   29.30           1.02    2.09    2.16    1.48            0.13    0.08    0.03           0.50     0.54
B21        15.30   10.01    3.69          37.86   38.51   21.88          44.30   29.60           0.52    1.37    1.45    0.92            0.40    0.28    0.14           0.57     0.61
B22        31.34   26.16   16.59          58.18   23.99   10.76          26.30   24.16           0.33    0.72    0.74    0.55            0.79    0.75    0.61           0.78     0.85
C1          5.41    5.22    2.89          27.35    4.62    9.33          10.41   63.65           1.14    1.35    1.59    1.27            0.16    0.16    0.10           0.50     0.54
C2          5.81    5.22    1.77          27.35    9.16   19.20          21.27   64.50           1.07    1.39    1.86    1.25            0.18    0.16    0.07           0.51     0.55
C3          6.21    5.18    0.85          27.24   13.98   30.98          33.99   65.72           1.01    1.44    2.30    1.24            0.18    0.15    0.03           0.52     0.57
C4          6.79    5.23    0.22          27.38   19.45   43.04          47.23   65.68           0.95    1.49    3.37    1.21            0.18    0.14    0.01           0.63     0.71
C5         21.12   20.04   10.69          51.88    8.78   15.86          18.13   61.02           0.55    0.77    0.97    0.68            0.68    0.68    0.48           0.82     0.90
C6         23.06   20.29    5.72          52.16   16.55   35.36          39.04   64.91           0.46    0.80    1.31    0.65            0.68    0.66    0.23           0.82     0.89
C7         25.00   20.40    2.62          52.28   24.51   54.41          59.68   65.75           0.39    0.85    1.78    0.63            0.65    0.60    0.09           0.76     0.84
C8         28.29   20.62    0.48          52.53   36.87   81.57          89.52   65.68           0.31    0.95    3.24    0.61            0.52    0.47    0.01           0.80     0.88
C9         37.67   37.70   27.71          67.79    4.34    5.47           6.99   51.43           0.36    0.45    0.51    0.42            1.02    1.08    0.99           0.94     1.00
C10        38.63   37.74   23.69          67.82    7.27   12.60          14.55   60.02           0.32    0.47    0.59    0.41            1.09    1.15    0.93           0.95     1.02
C11        40.13   38.09   19.49          68.08   10.88   21.36          23.97   63.00           0.28    0.48    0.69    0.40            0.98    1.05    0.76           0.90     0.99
C12        43.87   38.37   10.63          68.29   21.24   44.33          49.16   64.40           0.18    0.53    1.01    0.38            0.69    0.83    0.38           0.88     0.96
C13        51.04   57.52   56.94          80.47  -11.36  -10.41          15.41  222.48           0.37    0.21    0.16    0.26            0.79    0.81    0.62           0.54     0.58
C14        56.26   50.83   52.03          76.57   18.79  -11.89          22.23  327.68           0.16    0.37    0.19    0.28            0.81    0.99    0.69           0.87     0.97
C15        63.07   64.34   38.52          84.14    2.37   17.53          17.69   82.31           0.14    0.21    0.36    0.18            0.77    0.84    1.04           0.75     0.87
C16        39.05   40.48   34.89          69.80    0.05   -2.16           2.17  270.85           0.39    0.40    0.39    0.40            1.04    1.11    1.05           0.87     0.92
C17        51.99   47.18   35.24          74.30   17.72    5.09          18.44   16.03           0.17    0.40    0.39    0.31            0.90    1.04    1.03           0.92     1.00
C18        47.87   55.10   38.82          79.10  -14.01    8.43          16.35  148.99           0.37    0.22    0.36    0.27            0.88    0.87    1.01           0.76     0.84
C19        43.37   44.67   51.62          72.67    0.90  -18.17          18.20  272.82           0.39    0.35    0.20    0.36            0.98    1.09    0.68           0.93     1.01
C20        10.94    7.85    0.91          33.66   28.03   41.18          49.82   55.75           0.70    1.38    2.28    1.03            0.31    0.24    0.03           0.63     0.69
C21        19.57   17.88   10.45          49.34   12.13   12.25          17.25   45.27           0.57    0.84    0.97    0.72            0.62    0.59    0.40           0.80     0.86
C22        25.00   20.64   10.29          52.54   23.35   18.28          29.66   38.05           0.41    0.84    0.98    0.64            0.69    0.63    0.39           0.75     0.82
D1          3.42    3.56    2.01          22.15   -0.20    7.84           7.85   91.50           1.38    1.49    1.77    1.44            0.11    0.12    0.08           0.46     0.50
D2          3.44    3.61    1.15          22.32   -0.57   17.90          17.91   91.83           1.37    1.47    2.10    1.43            0.11    0.12    0.04           0.44     0.48
D3          3.45    3.59    0.62          22.25   -0.05   26.71          26.71   90.10           1.37    1.47    2.52    1.43            0.10    0.10    0.02           0.47     0.53
D4          3.40    3.57    0.24          22.21   -0.75   33.79          33.80   91.27           1.42    1.45    3.36    1.42            0.09    0.09    0.00           0.51     0.59
D5         15.32   15.80    8.47          46.70    0.48   14.47          14.48   88.07           0.74    0.83    1.09    0.79            0.47    0.50    0.32           0.75     0.83
D6         15.33   15.97    4.45          46.93   -0.39   32.97          32.97   90.68           0.73    0.82    1.46    0.78            0.46    0.50    0.16           0.77     0.85
D7         15.13   15.85    1.97          46.77   -0.87   50.66          50.66   90.98           0.74    0.81    2.00    0.78            0.46    0.50    0.07           0.82     0.89
D8         15.10   16.12    0.62          47.12   -2.59   69.56          69.61   92.13           0.80    0.80    3.14    0.77            0.41    0.44    0.01           0.86     0.96
D9         43.94   45.93   24.45          73.50   -1.02   20.99          21.02   92.79           0.30    0.35    0.58    0.33            1.01    1.10    0.87           0.81     0.89
D10        43.65   45.95   13.78          73.51   -1.91   44.20          44.24   92.48           0.29    0.35    0.90    0.32            0.91    1.01    0.50           0.75     0.81
D11        43.73   46.22    6.52          73.69   -2.44   68.82          68.86   92.03           0.29    0.35    1.37    0.32            0.76    0.81    0.20           0.59     0.64
D12        43.90   46.70    4.07          74.00   -3.27   81.80          81.86   92.29           0.30    0.34    1.71    0.31            0.66    0.64    0.10           0.46     0.50
D13        46.55   54.44   56.39          78.72  -16.04  -12.85          20.55  218.69           0.46    0.21    0.17    0.29            0.74    0.76    0.57           0.55     0.59
D14        50.93   43.23   48.76          71.71   26.11  -16.60          30.94  327.55           0.18    0.47    0.22    0.34            0.78    0.93    0.70           0.93     1.03
D15        61.57   63.06   30.85          83.47    1.79   27.44          27.50   86.26           0.14    0.22    0.48    0.19            0.69    0.77    0.95           0.82     0.93
D16        28.41   29.17   25.61          60.92    1.13   -2.76           2.99  292.55           0.52    0.55    0.54    0.54            0.87    0.91    0.88           0.89     0.95
D17        44.41   37.52   26.15          67.66   25.51    7.91          26.71   17.22           0.19    0.55    0.52    0.39            0.76    0.86    0.89           0.95     1.02
D18        41.77   50.55   31.13          76.41  -19.99   14.82          24.89  143.46           0.45    0.24    0.47    0.31            0.84    0.83    0.91           0.80     0.88
D19        34.43   34.99   47.76          65.73    2.41  -25.75          25.87  275.34           0.51    0.46    0.23    0.47            0.91    1.04    0.69           1.04     1.14
D20         2.52    2.51    0.89          17.97    2.02   14.39          14.53   82.00           1.48    1.66    2.21    1.58            0.09    0.08    0.03           0.44     0.47
D21        28.03   25.38    1.17          57.43   14.68   78.18          79.55   79.36           0.41    0.69    2.53    0.55            0.74    0.74    0.04           0.90     1.00
D22        38.96   40.90   50.29          70.10   -1.50  -21.12          21.17  265.90           0.46    0.38    0.21    0.40            0.96    1.10    0.66           0.99     1.10
E1          4.57    5.16    2.95          27.18   -5.21    8.61          10.06  121.18           1.30    1.28    1.60    1.29            0.15    0.16    0.11           0.51     0.56
E2          4.20    5.13    1.79          27.11   -9.97   18.59          21.10  118.21           1.38    1.25    1.90    1.30            0.13    0.15    0.05           0.51     0.56
E3          3.74    5.01    1.00          26.76  -15.11   27.82          31.66  118.51           1.50    1.22    2.31    1.31            0.11    0.14    0.03           0.52     0.57
E4          3.20    5.02    0.38          26.78  -23.65   39.03          45.64  121.21           1.77    1.15    3.25    1.32            0.08    0.12    0.01           0.51     0.61
E5         22.01   24.95   14.09          57.02   -9.16   14.95          17.54  121.50           0.65    0.58    0.85    0.61            0.65    0.75    0.53           0.83     0.90
E6         20.24   25.27    8.59          57.33  -18.94   32.37          37.50  120.34           0.74    0.54    1.14    0.61            0.60    0.74    0.30           0.81     0.89
E7         18.71   25.89    4.60          57.92  -29.17   51.07          58.81  119.73           0.86    0.49    1.56    0.60            0.53    0.68    0.15           0.69     0.77
E8         17.76   26.23    2.92          58.25  -35.57   62.37          71.81  119.69           0.96    0.46    1.92    0.60            0.32    0.38    0.07           0.44     0.49
E9         42.21   45.87   31.92          73.46   -5.95    8.52          10.39  124.97           0.37    0.33    0.45    0.34            1.02    1.11    0.97           0.78     0.85
E10        40.26   46.28   25.23          73.72  -13.04   19.98          23.86  123.15           0.41    0.30    0.58    0.34            0.95    1.03    0.86           0.80     0.87
E11        38.47   46.29   19.88          73.73  -18.72   30.27          35.59  121.74           0.45    0.29    0.71    0.34            0.84    0.90    0.68           0.73     0.82
E12        37.95   46.76   17.87          74.03  -21.66   35.14          41.29  121.65           0.47    0.28    0.77    0.34            0.75    0.77    0.55           0.70     0.78
E13        42.77   51.70   55.84          77.10  -19.96  -15.07          25.01  217.04           0.54    0.22    0.17    0.32            0.66    0.67    0.53           0.55     0.59
E14        46.71   37.55   45.95          67.68   31.98  -20.26          37.85  327.65           0.19    0.57    0.24    0.40            0.73    0.84    0.65           0.95     1.06
E15        60.36   61.87   24.66          82.84    1.66   36.72          36.75   87.42           0.14    0.23    0.60    0.19            0.68    0.79    0.81           0.79     0.91
E16        20.61   21.12   18.72          53.08    1.18   -2.86           3.10  292.49           0.65    0.70    0.68    0.68            0.68    0.71    0.66           0.86     0.92
E17        38.32   30.23   19.02          61.85   32.05   11.61          34.08   19.90           0.21    0.70    0.67    0.47            0.65    0.71    0.69           0.92     1.00
E18        36.45   46.26   24.73          73.71  -25.16   20.86          32.68  140.35           0.54    0.27    0.59    0.35            0.74    0.74    0.77           0.80     0.89
E19        27.55   27.70   44.31          59.61    3.41  -32.20          32.38  276.04           0.63    0.56    0.26    0.58            0.78    0.89    0.66           1.07     1.16
E20         6.17    7.21    1.04          32.26   -8.11   36.75          37.64  102.44           1.20    1.11    2.33    1.14            0.21    0.25    0.04           0.65     0.72
E21        22.21   26.46    5.83          58.46  -14.50   45.74          47.98  107.59           0.66    0.54    1.38    0.58            0.70    0.83    0.19           0.88     0.97
E22         8.51   16.67   13.46          47.84  -52.57    0.79          52.58  179.14           1.76    0.58    0.89    0.85            0.26    0.44    0.44           0.69     0.75
F1          2.87    3.55    2.61          22.13   -9.35    2.52           9.69  164.93           1.57    1.42    1.64    1.47            0.08    0.10    0.09           0.44     0.48
F2          2.33    3.52    2.26          22.02  -19.37    5.28          20.08  164.76           1.81    1.35    1.74    1.50            0.07    0.10    0.07           0.42     0.47
F3          1.92    3.53    1.90          22.03  -28.53    8.64          29.81  163.16           2.07    1.29    1.86    1.51            0.06    0.10    0.05           0.46     0.51
F4          1.45    3.49    1.42          21.92  -39.89   13.72          42.19  161.02           2.54    1.23    2.09    1.54            0.04    0.08    0.04           0.41     0.48
F5          9.92   12.36    9.20          41.78  -14.77    3.39          15.16  167.09           1.08    0.86    1.04    0.93            0.30    0.36    0.33           0.69     0.76
F6          7.85   12.38    7.70          41.81  -32.47    8.97          33.68  164.56           1.38    0.78    1.16    0.95            0.25    0.37    0.29           0.71     0.76
F7          6.27   12.53    6.33          42.04  -49.15   15.08          51.41  162.94           1.77    0.71    1.30    0.97            0.19    0.34    0.21           0.64     0.69
F8          6.03   12.81    6.01          42.47  -53.61   17.29          56.33  162.12           1.88    0.68    1.34    0.96            0.16    0.30    0.19           0.59     0.64
F9         27.24   31.02   25.05          62.52  -10.38    0.97          10.44  174.71           0.60    0.48    0.56    0.52            0.79    0.88    0.84           0.87     0.95
F10        24.49   31.53   22.77          62.95  -23.65    5.91          24.38  165.96           0.74    0.43    0.62    0.53            0.74    0.90    0.79           0.82     0.90
F11        22.29   32.05   21.15          63.38  -35.30    9.84          36.65  164.43           0.88    0.38    0.66    0.53            0.57    0.72    0.68           0.74     0.81
F12        20.48   32.32   19.75          63.60  -44.81   13.08          46.68  163.74           1.02    0.35    0.71    0.54            0.43    0.51    0.62           0.77     0.86
F13        39.21   48.94   55.11          75.41  -23.59  -17.21          29.20  216.10           0.62    0.23    0.18    0.35            0.66    0.68    0.54           0.55     0.59
F14        42.52   32.24   42.92          63.54   37.73  -23.71          44.56  327.86           0.21    0.67    0.26    0.46            0.69    0.75    0.66           0.91     0.98
F15        59.20   60.56   19.12          82.14    1.93   46.38          46.42   87.62           0.14    0.24    0.74    0.20            0.62    0.73    0.62           0.70     0.82
F16        14.19   14.53   12.96          44.98    1.14   -2.75           2.98  292.65           0.81    0.87    0.86    0.84            0.50    0.51    0.48           0.81     0.87
F17        32.94   24.14   13.19          56.23   38.21   16.01          41.43   22.72           0.24    0.86    0.84    0.56            0.52    0.54    0.49           0.83     0.92
