targets/wolf_faust/transmissive/E050202.it8
IT8.7/1
ORIGINATOR "Wolf Faust"
DESCRIPTOR "Ektachrome, Type 3, L* a* b* (light D50, viewing angle 2)"
MANUFACTURER "Wolf Faust - http://www.coloraid.de"
CREATED "February 06, 2005"
PROD_DATE "2005:02"
DIFFUSE_GEOMETRY "opal"
SERIAL "E050202 Batch Average Data"
MATERIAL "For Kodak Ektachrome Product Family"
KEYWORD "MEAN_DE" # Mean Delta E of samples compared to batch average
NUMBER_OF_FIELDS 17
BEGIN_DATA_FORMAT
SAMPLE_ID   XYZ_X   XYZ_Y   XYZ_Z          LAB_L   LAB_A   LAB_B          LAB_C   LAB_H          STDEV_X  STDEV_Y  STDEV_Z          STDEV_L  STDEV_A  STDEV_B        MEAN_DE  STDEV_DE
END_DATA_FORMAT
NUMBER_OF_SETS 288
BEGIN_DATA
A1           2.05    1.74    1.25          14.05    8.99    2.37           9.29   14.78            0.07     0.06     0.04            0.35     0.33     0.14           0.44    0.50
A2           2.57    1.75    1.04          14.12   19.48    5.37          20.20   15.42            0.08     0.06     0.04            0.33     0.30     0.19           0.44    0.48 
A3           3.06    1.73    0.84          14.02   28.89    8.44          30.09   16.28            0.09     0.05     0.04            0.30     0.27     0.17           0.39    0.44
A4           3.98    1.81    0.68          14.46   41.46   12.17          43.21   16.36            0.10     0.05     0.03            0.26     0.36     0.24           0.45    0.50 
A5           9.33    7.99    5.98          33.96   14.17    2.79          14.44   11.14            0.29     0.26     0.23            0.54     0.34     0.25           0.63    0.68
A6          11.04    7.88    4.89          33.72   28.48    7.79          29.53   15.30            0.34     0.26     0.20            0.54     0.36     0.27           0.63    0.70 
A7          13.28    8.01    4.26          34.01   42.64   11.75          44.23   15.40            0.35     0.23     0.17            0.48     0.33     0.29           0.57    0.64
A8          16.43    8.25    3.58          34.50   59.50   16.84          61.84   15.80            0.17     0.11     0.14            0.23     0.13     0.55           0.49    0.61 
A9          27.87   26.83   21.87          58.81    8.11    0.53           8.13    3.72            0.86     0.88     0.78            0.81     0.36     0.26           0.82    0.93
A10         29.81   26.70   20.55          58.68   16.13    2.95          16.41   10.37            0.84     0.83     0.72            0.77     0.34     0.36           0.80    0.92
A11         32.05   26.84   19.44          58.82   23.80    5.49          24.43   12.99            0.84     0.81     0.70            0.76     0.37     0.34           0.80    0.91
A12         36.39   27.41   17.97          59.35   36.54    9.61          37.78   14.73            0.56     0.61     0.62            0.56     0.57     0.50           0.83    0.94 
A13         67.76   71.45   62.86          87.71   -2.47   -3.85           4.58   237.37            0.37     0.30     0.09            0.14     0.21     0.18           0.26    0.31
A14         73.49   73.96   62.64          88.90    4.55   -1.57           4.82   341.00            0.24     0.33     0.12            0.16     0.19     0.17           0.25    0.29 
A15         73.71   75.00   58.94          89.39    2.90    2.93           4.13   45.22            0.24     0.26     0.41            0.12     0.11     0.23           0.26    0.28
A16         69.82   72.69   60.70          88.30   -0.57   -0.72           0.93   231.55            0.33     0.28     0.27            0.13     0.15     0.13           0.22    0.24
A17         73.07   73.52   61.38          88.70    4.57   -0.71           4.63   351.26            0.28     0.36     0.26            0.17     0.19     0.11           0.25    0.28
A18         66.50   70.45   55.41          87.22   -3.15    2.83           4.24   138.37            0.45     0.35     0.74            0.17     0.27     0.52           0.54    0.61 
A19         69.61   70.38   61.61          87.18    3.79   -3.54           5.19   316.95            0.38     0.46     0.14            0.23     0.19     0.27           0.35    0.40
A20          5.86    2.75    1.72          19.02   45.61    5.38          45.93    6.73            0.14     0.07     0.08            0.29     0.35     0.43           0.54    0.63 
A21         25.32   17.48   13.86          48.86   40.64    1.48          40.67    2.08            0.53     0.44     0.58            0.55     0.24     0.65           0.79    0.88
A22         52.07   47.34   31.90          74.40   17.47   10.20          20.23   30.23            0.86     1.04     1.17            0.66     0.61     0.70           1.01    1.14
B1           3.06    2.73    1.60          18.94    7.65    6.48          10.03   40.26            0.10     0.09     0.07            0.39     0.28     0.21           0.47    0.52
B2           3.66    2.78    1.00          19.12   16.68   14.64          22.19   41.26            0.11     0.09     0.04            0.39     0.25     0.25           0.47    0.52
B3           4.20    2.75    0.59          19.02   24.99   21.66          33.07   40.92            0.11     0.08     0.02            0.35     0.24     0.22           0.43    0.48
B4           5.09    2.78    0.11          19.14   36.06   30.98          47.55   40.66            0.14     0.08     0.00            0.33     0.28     0.51           0.57    0.67
B5          11.98   10.61    6.27          38.91   12.82    9.98          16.25   37.88            0.38     0.36     0.25            0.62     0.33     0.33           0.72    0.78
B6          13.93   10.67    4.08          39.01   25.19   21.44          33.08   40.40            0.42     0.36     0.18            0.61     0.34     0.21           0.67    0.73
B7          16.07   10.63    2.44          38.94   38.35   32.92          50.54   40.65            0.43     0.33     0.11            0.56     0.28     0.23           0.61    0.67
B8          19.93   11.01    1.09          39.59   56.03   48.52          74.12   40.89            0.20     0.17     0.05            0.28     0.25     0.28           0.41    0.48
B9          32.98   32.61   25.19          63.84    5.50    3.01           6.28   28.67            0.97     1.02     0.86            0.83     0.33     0.30           0.81    0.94
B10         34.95   32.70   22.39          63.91   12.05    8.31          14.64   34.61            0.96     0.99     0.79            0.81     0.35     0.32           0.82    0.94
B11         36.67   32.77   20.11          63.97   17.54   12.98          21.82   36.49            0.93     0.97     0.72            0.79     0.42     0.29           0.83    0.94
B12         40.55   32.97   15.68          64.13   29.18   23.19          37.28   38.47            0.60     0.72     0.56            0.58     0.67     0.44           0.86    0.99
B13         60.24   64.35   58.86          84.15   -4.24   -6.03           7.37   234.88            0.59     0.59     0.42            0.31     0.16     0.24           0.38    0.42
B14         64.56   62.44   56.73          83.14   10.08   -5.57          11.52   331.07            0.55     0.70     0.49            0.37     0.37     0.25           0.52    0.58
B15         66.40   67.32   48.53          85.66    3.33    7.73           8.42   66.63            0.56     0.62     0.83            0.31     0.14     0.46           0.52    0.57
B16         55.41   57.21   47.82          80.30    0.63   -0.71           1.00   313.40            0.81     0.88     0.87            0.49     0.18     0.33           0.57    0.62
B17         62.31   60.52   47.55          82.12    9.36    2.74           9.76   16.31            0.67     0.81     0.90            0.44     0.36     0.40           0.63    0.70
B18         58.35   62.86   48.90          83.37   -5.41    3.34           6.38   148.52            0.71     0.69     0.99            0.36     0.18     0.60           0.65    0.72
B19         57.27   58.95   56.63          81.26    1.04   -8.72           8.79   276.80            0.75     0.84     0.53            0.46     0.24     0.35           0.56    0.62
B20          4.55    2.71    0.87          18.85   30.49   16.25          34.55   28.05            0.12     0.08     0.04            0.32     0.26     0.23           0.43    0.47
B21         16.07   10.61    3.87          38.91   38.44   22.57          44.58   30.41            0.39     0.30     0.19            0.51     0.24     0.37           0.60    0.68
B22         32.28   27.01   16.47          58.98   23.97   12.43          27.00   27.39            0.81     0.81     0.73            0.75     0.38     0.51           0.86    0.98
C1           5.95    5.79    3.30          28.87    4.13    8.99           9.90   65.33            0.18     0.18     0.12            0.47     0.27     0.21           0.53    0.58
C2           6.29    5.75    1.95          28.76    8.37   19.78          21.48   67.07            0.19     0.18     0.07            0.47     0.31     0.29           0.58    0.63
C3           6.69    5.70    1.01          28.63   13.02   30.80          33.44   67.09            0.19     0.17     0.04            0.45     0.28     0.31           0.54    0.61
C4           7.46    5.83    0.27          28.97   19.24   44.76          48.73   66.74            0.22     0.17     0.01            0.44     0.29     0.63           0.68    0.82
C5          22.64   21.65   11.43          53.64    8.27   16.62          18.57   63.54            0.72     0.74     0.47            0.80     0.34     0.41           0.88    0.96
C6          24.64   21.90    6.33          53.91   15.91   35.56          38.96   65.90            0.70     0.72     0.28            0.76     0.41     0.33           0.86    0.92
C7          26.34   21.73    3.01          53.73   23.82   53.95          58.97   66.17            0.65     0.63     0.13            0.68     0.37     0.41           0.80    0.87
C8          29.65   21.83    0.55          53.84   36.40   82.42          90.10   66.17            0.58     0.53     0.02            0.57     0.32     0.69           0.81    0.95
C9          39.44   39.51   28.17          69.11    4.29    6.98           8.20   58.44            1.03     1.12     0.93            0.80     0.34     0.32           0.83    0.93
C10         40.50   39.50   23.79          69.11    7.59   14.63          16.48   62.60            0.97     1.07     0.86            0.77     0.39     0.33           0.81    0.92
C11         41.13   39.12   19.33          68.83   10.73   22.99          25.37   64.98            0.97     1.06     0.73            0.76     0.40     0.43           0.84    0.97
C12         45.19   39.64   10.65          69.21   21.12   45.84          50.47   65.27            0.66     0.83     0.42            0.60     0.71     0.43           0.89    1.02
C13         53.90   60.34   58.47          82.02  -10.63   -9.30          14.12   221.19            0.61     0.59     0.42            0.32     0.22     0.24           0.41    0.46
C14         58.81   53.68   53.46          78.27   17.68  -10.52          20.57   329.25            0.69     0.90     0.55            0.53     0.62     0.40           0.78    0.90
C15         64.87   66.25   39.31          85.12    2.23   18.16          18.30   82.99            0.58     0.65     0.89            0.33     0.14     0.63           0.63    0.73
C16         42.02   43.34   36.86          71.78    0.70   -1.53           1.72   295.18            0.96     1.05     0.95            0.71     0.29     0.32           0.76    0.83
C17         53.81   49.04   36.71          75.47   17.37    5.05          18.09   16.19            0.81     0.98     1.02            0.61     0.59     0.50           0.90    0.98
C18         50.21   57.37   39.71          80.39  -13.22    9.47          16.28   144.45            0.80     0.75     1.12            0.42     0.36     0.85           0.88    1.01
C19         46.30   47.60   53.03          74.57    1.14  -16.44          16.48   273.95            0.91     1.03     0.60            0.65     0.35     0.58           0.84    0.94
C20         11.60    8.43    1.04          34.86   27.61   41.13          49.54   56.13            0.29     0.23     0.04            0.47     0.31     0.29           0.57    0.63
C21         20.44   18.79   10.65          50.43   11.74   13.47          17.87   48.92            0.62     0.62     0.48            0.72     0.31     0.48           0.83    0.92
C22         26.02   21.64   10.38          53.63   22.94   19.88          30.36   40.91            0.71     0.68     0.47            0.73     0.33     0.43           0.82    0.91
D1           3.89    4.08    2.27          23.93   -0.64    8.48           8.51   94.32            0.12     0.13     0.08            0.42     0.27     0.22           0.50    0.55
D2           3.87    4.07    1.48          23.91   -0.86   16.44          16.47   93.01            0.12     0.13     0.05            0.42     0.28     0.21           0.50    0.55
D3           3.83    4.06    0.76          23.86   -1.29   26.82          26.86   92.76            0.12     0.13     0.03            0.41     0.27     0.27           0.50    0.56
D4           3.82    4.06    0.29          23.86   -1.36   35.58          35.60   92.18            0.13     0.13     0.01            0.43     0.23     0.58           0.63    0.76
D5          16.56   17.30    9.23          48.63   -0.68   15.08          15.09   92.59            0.58     0.62     0.37            0.77     0.31     0.38           0.82    0.91
D6          16.31   17.15    4.88          48.44   -1.31   33.22          33.25   92.26            0.56     0.61     0.20            0.76     0.37     0.39           0.83    0.93
D7          16.25   17.13    2.29          48.41   -1.51   50.56          50.58   91.71            0.54     0.61     0.09            0.76     0.37     0.54           0.88    1.00
D8          16.13   17.21    0.70          48.52   -2.64   70.44          70.49   92.14            0.48     0.51     0.02            0.64     0.29     0.80           0.90    1.06
D9          45.46   47.13   24.75          74.27    0.05   21.78          21.78   89.89            1.01     1.13     0.86            0.72     0.28     0.43           0.77    0.88
D10         44.56   46.60   13.86          73.93   -1.07   44.72          44.73   91.37            0.92     1.03     0.52            0.66     0.27     0.48           0.78    0.86
D11         44.86   47.33    6.93          74.40   -2.23   68.28          68.32   91.87            0.69     0.76     0.23            0.48     0.21     0.28           0.54    0.60
D12         44.89   47.67    3.90          74.61   -3.07   83.95          84.00   92.09            0.54     0.50     0.10            0.31     0.24     0.20           0.38    0.44
D13         48.94   56.91   57.96          80.13  -15.51  -12.04          19.64   217.82            0.63     0.59     0.40            0.33     0.29     0.24           0.43    0.50
D14         53.87   46.60   50.51          73.93   24.16  -14.76          28.31   328.58            0.74     0.94     0.60            0.60     0.73     0.44           0.92    1.05
D15         63.32   64.92   30.99          84.44    1.65   28.90          28.94   86.73            0.62     0.71     0.89            0.37     0.18     0.79           0.77    0.89
D16         30.92   31.98   27.25          63.32    0.32   -1.47           1.54   283.40            0.90     0.96     0.99            0.80     0.29     0.44           0.86    0.95
D17         46.44   39.68   27.28          69.23   24.53    8.67          26.02   19.46            0.79     0.94     0.96            0.67     0.69     0.57           1.00    1.12
D18         43.49   52.34   31.48          77.48  -19.49   16.13          25.30   140.41            0.75     0.72     0.95            0.43     0.39     0.81           0.86    0.99
D19         37.32   38.36   49.69          68.28    1.11  -23.58          23.61   272.67            0.86     1.00     0.65            0.73     0.44     0.62           0.92    1.05
D20          2.72    2.70    0.99          18.82    2.17   14.18          14.35   81.29            0.09     0.09     0.04            0.37     0.29     0.18           0.47    0.51
D21         29.24   26.50    1.33          58.50   14.76   77.98          79.37   79.28            0.73     0.74     0.04            0.69     0.31     0.67           0.86    1.01
D22         39.64   42.33   51.51          71.09   -3.66  -20.76          21.09   259.98            0.96     1.11     0.65            0.76     0.38     0.64           0.92    1.07
E1           4.95    5.64    3.30          28.49   -5.93    8.32          10.22   125.49            0.17     0.18     0.12            0.48     0.26     0.27           0.54    0.61
E2           4.66    5.75    2.09          28.78  -10.87   18.50          21.46   120.44            0.15     0.19     0.07            0.50     0.32     0.31           0.62    0.67
E3           4.20    5.64    1.21          28.49  -15.82   27.73          31.93   119.71            0.14     0.18     0.05            0.48     0.28     0.27           0.52    0.61
E4           3.75    5.75    0.45          28.76  -23.49   41.06          47.30   119.78            0.12     0.17     0.01            0.45     0.28     0.59           0.68    0.79
E5          23.45   26.58   14.85          58.57   -9.37   15.66          18.25   120.89            0.79     0.90     0.53            0.84     0.32     0.40           0.88    0.98
E6          21.55   26.73    9.32          58.72  -18.67   32.16          37.19   120.13            0.70     0.87     0.38            0.81     0.35     0.36           0.88    0.96
E7          19.68   27.00    4.99          58.97  -28.78   50.79          58.37   119.54            0.54     0.70     0.17            0.65     0.25     0.32           0.69    0.77
E8          18.83   27.53    3.19          59.46  -35.21   62.49          71.73   119.40            0.34     0.37     0.08            0.34     0.35     0.21           0.47    0.53
E9          43.31   46.94   32.25          74.15   -5.65    9.21          10.81   121.55            1.05     1.12     0.99            0.72     0.22     0.42           0.75    0.86
E10         41.15   46.93   25.08          74.14  -12.11   20.96          24.21   120.03            0.96     1.04     0.82            0.67     0.23     0.47           0.72    0.85
E11         39.62   47.45   19.75          74.47  -18.27   31.83          36.70   119.86            0.83     0.87     0.69            0.55     0.29     0.61           0.74    0.87
E12         38.41   47.42   16.87          74.46  -22.02   38.15          44.05   119.99            0.70     0.67     0.50            0.43     0.45     0.56           0.69    0.83
E13         45.05   54.03   57.39          78.48  -19.25  -14.30          23.98   216.60            0.62     0.59     0.40            0.34     0.33     0.25           0.46    0.54
E14         49.34   40.43   47.59          69.77   30.20  -18.59          35.46   328.38            0.76     0.93     0.66            0.65     0.78     0.43           0.94    1.11
E15         62.02   63.62   24.59          83.77    1.58   38.44          38.48   87.65            0.60     0.70     0.82            0.37     0.19     0.90           0.82    0.99
E16         22.54   23.28   20.02          55.35    0.44   -1.70           1.80   285.69            0.72     0.78     0.79            0.80     0.35     0.43           0.88    0.97
E17         40.28   32.19   20.08          63.49   31.11   12.20          33.42   21.41            0.65     0.75     0.75            0.62     0.65     0.58           0.93    1.07
E18         38.20   48.05   25.09          74.85  -24.38   22.16          32.95   137.74            0.71     0.69     0.81            0.43     0.45     0.79           0.88    1.01
E19         30.42   31.08   46.54          62.57    1.68  -29.78          29.83   273.21            0.77     0.90     0.64            0.76     0.48     0.61           0.96    1.09
E20          6.63    7.81    1.29          33.58   -8.84   35.50          36.59   103.98            0.19     0.23     0.05            0.49     0.33     0.30           0.59    0.66
E21         23.43   27.84    6.00          59.74  -14.46   47.15          49.31   107.05            0.67     0.83     0.26            0.75     0.39     0.23           0.79    0.87
E22          8.99   17.54   13.54          48.93  -53.17    2.48          53.23   177.33            0.25     0.41     0.50            0.51     0.14     0.54           0.65    0.75
F1           3.24    4.03    2.97          23.76  -10.06    2.53          10.38   165.87            0.11     0.13     0.10            0.43     0.28     0.19           0.49    0.55
F2           2.61    3.98    2.54          23.62  -20.59    5.61          21.34   164.74            0.09     0.13     0.09            0.42     0.28     0.22           0.50    0.55
F3           2.23    4.02    2.08          23.75  -28.97    9.88          30.61   161.17            0.08     0.13     0.08            0.43     0.32     0.21           0.52    0.58
F4           1.70    4.02    1.68          23.72  -41.19   13.84          43.45   161.43            0.05     0.11     0.06            0.38     0.37     0.18           0.50    0.56
F5          10.75   13.50    9.80          43.50  -15.86    4.29          16.44   164.86            0.40     0.49     0.38            0.72     0.28     0.35           0.76    0.85
F6           8.66   13.51    8.19          43.52  -32.62   10.03          34.13   162.92            0.31     0.45     0.29            0.66     0.31     0.35           0.74    0.81
F7           6.92   13.49    6.81          43.49  -48.68   15.51          51.10   162.33            0.22     0.39     0.25            0.57     0.28     0.29           0.62    0.69
F8           6.48   13.63    6.40          43.70  -54.06   17.66          56.87   161.91            0.18     0.34     0.22            0.49     0.24     0.24           0.53    0.60
F9          28.42   32.48   25.52          63.73  -10.94    2.24          11.18   168.44            0.90     1.03     0.90            0.84     0.31     0.39           0.85    0.98
F10         25.24   32.44   23.06          63.70  -23.74    6.68          24.66   164.30            0.78     0.94     0.82            0.77     0.24     0.40           0.79    0.89
F11         22.71   32.51   20.90          63.76  -35.02   11.00          36.71   162.57            0.64     0.81     0.74            0.66     0.19     0.46           0.69    0.82
F12         21.44   33.46   19.57          64.53  -44.22   15.06          46.72   161.20            0.43     0.47     0.62            0.38     0.43     0.69           0.69    0.89
F13         41.40   51.18   56.71          76.79  -22.75  -16.51          28.11   215.97            0.57     0.55     0.38            0.33     0.31     0.25           0.44    0.52
F14         45.50   35.42   44.91          66.07   35.50  -21.78          41.65   328.47            0.66     0.78     0.62            0.60     0.72     0.38           0.87    1.01
F15         60.74   62.13   18.68          82.98    1.98   48.78          48.82   87.68            0.55     0.66     0.63            0.35     0.24     0.81           0.75    0.91
F16         15.75   16.34   13.85          47.40   -0.02   -0.99           1.04   272.02            0.52     0.57     0.57            0.73     0.32     0.41           0.80    0.90
F17         34.90   26.01   13.93          58.04   37.18   17.15          40.95   24.76            0.56     0.61     0.58            0.58     0.62     0.61           0.90    1.04
F18         33.17   43.64   19.14          71.98  -28.93   28.83          40.85   135.11            0.63     0.62     0.66            0.42     0.45     0.77           0.84    0.99
F19         24.26   24.65   43.21          56.73    2.15  -35.80          35.87   273.43            0.61     0.72     0.61            0.71     0.46     0.55           0.90    1.01
