targets/wolf_faust/transmissive/E050203.it8
IT8.7/1
ORIGINATOR "Wolf Faust"
DESCRIPTOR "Ektachrome, Type 3, L* a* b* (light D50, viewing angle 2)"
MANUFACTURER "Wolf Faust - http://www.coloraid.de"
CREATED "February 06, 2005"
PROD_DATE "2005:02"
DIFFUSE_GEOMETRY "opal"
SERIAL "E050203 Batch Average Data"
MATERIAL "For Kodak Ektachrome Product Family"
KEYWORD "MEAN_DE" # Mean Delta E of samples compared to batch average
NUMBER_OF_FIELDS 17
BEGIN_DATA_FORMAT
SAMPLE_ID   XYZ_X   XYZ_Y   XYZ_Z          LAB_L   LAB_A   LAB_B          LAB_C   LAB_H          STDEV_X  STDEV_Y  STDEV_Z          STDEV_L  STDEV_A  STDEV_B        MEAN_DE  STDEV_DE
END_DATA_FORMAT
NUMBER_OF_SETS 288
BEGIN_DATA
A1           2.09    1.76    1.26          14.16    9.32    2.39           9.63   14.40            0.06     0.05     0.04            0.29     0.23     0.28           0.40    0.46
A2           2.58    1.76    1.04          14.15   19.65    5.42          20.38   15.42            0.08     0.06     0.03            0.33     0.19     0.27           0.40    0.47 
A3           3.21    1.83    0.86          14.59   29.08    9.01          30.44   17.22            0.10     0.06     0.03            0.31     0.28     0.19           0.40    0.46
A4           4.02    1.83    0.69          14.56   41.63   12.14          43.36   16.25            0.10     0.05     0.02            0.26     0.37     0.14           0.42    0.48 
A5           9.41    8.05    5.91          34.08   14.35    3.30          14.73   12.96            0.28     0.25     0.18            0.52     0.26     0.35           0.60    0.68
A6          11.30    8.16    5.13          34.30   27.84    7.52          28.84   15.11            0.31     0.23     0.13            0.48     0.28     0.40           0.62    0.69 
A7          13.56    8.17    4.38          34.33   43.01   11.61          44.55   15.11            0.31     0.20     0.13            0.42     0.24     0.35           0.55    0.60
A8          16.66    8.40    3.62          34.81   59.46   17.10          61.87   16.04            0.14     0.10     0.11            0.20     0.07     0.46           0.46    0.50 
A9          28.23   27.08   22.05          59.04    8.55    0.57           8.58   39.86            0.75     0.74     0.53            0.68     0.37     0.39           0.78    0.87
A10         30.35   27.37   21.22          59.31   15.49    2.67          15.72    9.78            0.72     0.69     0.53            0.63     0.30     0.40           0.72    0.81
A11         32.48   27.24   19.96          59.19   23.80    5.04          24.33   11.96            0.71     0.69     0.54            0.63     0.33     0.34           0.71    0.79
A12         36.73   27.76   18.43          59.67   36.31    9.13          37.44   14.11            0.49     0.53     0.51            0.48     0.48     0.45           0.73    0.82 
A13         67.84   71.50   62.90          87.73   -2.41   -3.85           4.54   238.00            0.34     0.29     0.09            0.14     0.15     0.16           0.23    0.26
A14         73.53   73.86   62.63          88.86    4.83   -1.65           5.11   341.21            0.25     0.33     0.12            0.15     0.26     0.16           0.30    0.34 
A15         74.00   75.18   59.47          89.48    3.13    2.55           4.04   39.11            0.30     0.31     0.37            0.15     0.20     0.15           0.25    0.29
A16         69.74   72.59   60.39          88.25   -0.55   -0.48           0.76   220.39            0.36     0.31     0.38            0.15     0.14     0.21           0.26    0.29
A17         73.16   73.46   61.56          88.66    4.91   -0.93           5.00   349.28            0.32     0.37     0.23            0.18     0.28     0.11           0.29    0.35
A18         66.65   70.56   56.24          87.27   -3.05    2.05           3.69   146.39            0.54     0.45     0.74            0.22     0.26     0.45           0.49    0.57 
A19         70.31   71.12   61.93          87.54    3.73   -3.23           4.94   319.20            0.38     0.45     0.17            0.22     0.16     0.22           0.29    0.35
A20          6.00    2.83    1.75          19.35   45.68    5.58          46.03    6.97            0.15     0.07     0.08            0.31     0.39     0.38           0.54    0.62 
A21         25.60   17.80   14.15          49.24   40.14    1.38          40.17    1.97            0.58     0.47     0.58            0.57     0.18     0.61           0.78    0.85
A22         52.49   47.84   32.60          74.72   17.23    9.67          19.76   29.28            0.68     0.82     0.87            0.52     0.46     0.52           0.76    0.87
B1           3.14    2.78    1.62          19.12    8.23    6.61          10.56   38.75            0.09     0.08     0.06            0.32     0.24     0.37           0.47    0.55
B2           3.65    2.76    0.99          19.05   16.72   14.60          22.20   41.12            0.12     0.09     0.03            0.39     0.21     0.25           0.42    0.51
B3           4.24    2.78    0.62          19.12   25.08   21.18          32.83   40.18            0.12     0.09     0.02            0.36     0.21     0.31           0.45    0.52
B4           5.16    2.82    0.11          19.29   36.34   31.19          47.89   40.64            0.14     0.08     0.00            0.34     0.24     0.51           0.55    0.66
B5          12.10   10.75    6.38          39.15   12.61    9.87          16.02   38.05            0.40     0.37     0.22            0.62     0.30     0.31           0.69    0.76
B6          14.00   10.69    4.09          39.05   25.48   21.43          33.29   40.07            0.39     0.31     0.13            0.53     0.31     0.37           0.62    0.71
B7          16.09   10.63    2.46          38.95   38.41   32.76          50.48   40.46            0.39     0.29     0.08            0.49     0.20     0.28           0.52    0.60
B8          20.13   11.14    1.07          39.82   56.00   49.29          74.60   41.36            0.20     0.16     0.03            0.26     0.17     0.23           0.35    0.39
B9          33.41   32.96   25.38          64.12    5.81    3.15           6.63   28.44            0.82     0.84     0.61            0.68     0.34     0.47           0.79    0.89
B10         35.48   33.33   22.75          64.43   11.60    8.51          14.39   36.25            0.78     0.80     0.56            0.64     0.33     0.39           0.72    0.82
B11         37.30   33.50   20.55          64.56   17.07   13.07          21.50   37.45            0.76     0.79     0.51            0.63     0.34     0.36           0.70    0.80
B12         41.21   33.76   16.28          64.77   28.49   22.84          36.52   38.72            0.58     0.68     0.52            0.54     0.57     0.49           0.82    0.92
B13         60.21   64.28   59.19          84.11   -4.13   -6.43           7.64   237.23            0.56     0.56     0.39            0.29     0.14     0.29           0.40    0.44
B14         64.72   62.62   57.22          83.24   10.02   -5.91          11.64   329.46            0.51     0.64     0.47            0.34     0.32     0.28           0.47    0.54
B15         66.38   67.22   48.81          85.62    3.50    7.32           8.12   64.43            0.49     0.56     0.69            0.28     0.19     0.44           0.51    0.55
B16         55.45   57.39   48.22          80.39    0.30   -1.00           1.06   287.49            0.71     0.77     0.68            0.43     0.19     0.31           0.51    0.56
B17         62.72   61.02   48.20          82.39    9.12    2.46           9.45   15.05            0.60     0.69     0.82            0.37     0.27     0.43           0.58    0.63
B18         58.16   62.65   49.22          83.26   -5.39    2.79           6.08   152.75            0.68     0.66     0.81            0.35     0.22     0.44           0.56    0.60
B19         57.32   59.13   57.15          81.36    0.73   -9.08           9.11   274.58            0.73     0.78     0.55            0.43     0.20     0.35           0.52    0.59
B20          4.63    2.79    0.88          19.17   30.13   16.63          34.41   28.90            0.11     0.07     0.04            0.30     0.22     0.24           0.40    0.44
B21         16.38   10.90    3.98          39.40   38.07   22.72          44.34   30.83            0.36     0.26     0.15            0.44     0.19     0.31           0.51    0.57
B22         32.65   27.37   16.79          59.31   23.86   12.24          26.82   27.15            0.65     0.62     0.55            0.57     0.27     0.46           0.70    0.78
C1           5.90    5.74    3.18          28.75    4.12    9.63          10.48   66.83            0.19     0.18     0.09            0.46     0.24     0.34           0.55    0.62
C2           6.37    5.80    1.96          28.89    8.66   19.94          21.74   66.51            0.18     0.16     0.05            0.41     0.22     0.32           0.50    0.57
C3           6.86    5.83    1.11          28.97   13.28   29.91          32.72   66.05            0.20     0.17     0.03            0.43     0.21     0.33           0.51    0.58
C4           7.58    5.96    0.28          29.31   18.91   45.22          49.02   67.30            0.20     0.16     0.01            0.41     0.25     0.60           0.61    0.77
C5          22.93   21.93   11.45          53.95    8.25   17.08          18.97   64.22            0.64     0.64     0.32            0.67     0.32     0.37           0.73    0.83
C6          24.78   22.05    6.31          54.07   15.84   35.94          39.28   66.22            0.66     0.63     0.19            0.67     0.24     0.44           0.75    0.84
C7          26.56   21.86    2.93          53.87   24.15   54.74          59.83   66.19            0.60     0.56     0.09            0.59     0.24     0.50           0.71    0.81
C8          29.78   22.01    0.56          54.03   36.12   82.57          90.12   66.37            0.52     0.47     0.02            0.50     0.22     0.60           0.68    0.80
C9          39.90   40.13   28.67          69.55    3.80    6.92           7.90   61.18            0.95     0.98     0.80            0.70     0.25     0.40           0.77    0.84
C10         41.00   40.14   24.31          69.56    7.18   14.45          16.14   63.58            0.92     0.96     0.73            0.68     0.28     0.38           0.76    0.83
C11         42.04   40.11   20.01          69.54   10.39   22.78          25.04   65.48            0.87     0.93     0.64            0.66     0.30     0.39           0.75    0.82
C12         45.65   40.22   10.66          69.62   20.61   46.54          50.90   66.11            0.58     0.72     0.31            0.51     0.57     0.38           0.76    0.85
C13         54.08   60.41   58.78          82.06  -10.32   -9.55          14.06   222.77            0.56     0.56     0.37            0.30     0.18     0.28           0.40    0.45
C14         59.07   53.98   53.99          78.45   17.53  -10.78          20.58   328.42            0.60     0.75     0.51            0.44     0.49     0.38           0.61    0.76
C15         64.80   66.13   39.29          85.06    2.35   18.07          18.23   82.58            0.51     0.59     0.76            0.30     0.18     0.56           0.59    0.66
C16         42.53   43.99   37.14          72.21    0.35   -1.16           1.24   287.62            0.87     0.92     0.88            0.61     0.27     0.41           0.71    0.78
C17         54.35   49.76   37.10          75.92   16.81    5.28          17.62   17.42            0.62     0.74     0.81            0.45     0.41     0.49           0.70    0.79
C18         50.32   57.42   39.90          80.41  -13.05    9.26          16.00   144.65            0.75     0.70     0.87            0.39     0.36     0.51           0.66    0.74
C19         46.71   48.08   53.64          74.88    0.98  -16.57          16.60   273.39            0.79     0.89     0.55            0.56     0.33     0.50           0.70    0.82
C20         11.75    8.50    1.03          35.00   28.06   41.58          50.16   55.99            0.29     0.22     0.04            0.44     0.19     0.26           0.49    0.55
C21         21.16   19.54   11.08          51.31   11.45   13.65          17.82   49.99            0.55     0.52     0.45            0.59     0.27     0.48           0.73    0.81
C22         26.81   22.33   10.68          54.37   23.03   20.17          30.62   41.21            0.59     0.53     0.39            0.56     0.23     0.42           0.65    0.74
D1           3.85    4.04    2.26          23.80   -0.73    8.33           8.36   94.97            0.10     0.10     0.06            0.34     0.22     0.32           0.46    0.51
D2           3.84    4.06    1.37          23.86   -1.02   17.65          17.68   93.32            0.11     0.11     0.04            0.36     0.17     0.31           0.44    0.50
D3           3.84    4.07    0.79          23.89   -1.18   26.34          26.37   92.57            0.11     0.12     0.03            0.38     0.23     0.23           0.42    0.50
D4           3.81    4.07    0.30          23.91   -1.73   35.53          35.57   92.79            0.11     0.12     0.01            0.38     0.24     0.52           0.55    0.68
D5          16.71   17.51    9.33          48.89   -0.95   15.17          15.20   93.58            0.45     0.49     0.22            0.60     0.39     0.53           0.81    0.89
D6          16.75   17.63    4.93          49.03   -1.37   33.96          33.99   92.31            0.52     0.54     0.16            0.67     0.28     0.42           0.75    0.84
D7          16.44   17.43    2.31          48.80   -2.07   50.96          51.01   92.33            0.46     0.50     0.08            0.62     0.28     0.46           0.71    0.82
D8          16.37   17.43    0.71          48.79   -2.45   70.73          70.77   91.99            0.42     0.44     0.01            0.54     0.22     0.67           0.74    0.89
D9          45.74   47.70   24.98          74.63   -0.72   21.99          22.00   91.86            0.88     0.93     0.67            0.59     0.22     0.42           0.69    0.76
D10         45.60   47.77   14.19          74.67   -1.30   45.14          45.16   91.65            0.78     0.84     0.44            0.53     0.19     0.43           0.63    0.71
D11         45.24   47.76    6.98          74.67   -2.29   68.53          68.56   91.91            0.71     0.72     0.19            0.46     0.18     0.32           0.52    0.58
D12         44.97   47.74    3.90          74.66   -3.01   83.99          84.04   92.05            0.51     0.48     0.08            0.30     0.18     0.26           0.40    0.44
D13         49.27   57.11   58.28          80.24  -15.08  -12.17          19.38   218.91            0.54     0.53     0.36            0.30     0.21     0.27           0.40    0.45
D14         54.06   46.79   51.02          74.05   24.13  -15.12          28.48   327.94            0.56     0.70     0.51            0.45     0.53     0.42           0.66    0.81
D15         63.32   64.87   31.30          84.42    1.77   28.37          28.42   86.43            0.50     0.58     0.71            0.30     0.18     0.69           0.67    0.77
D16         31.31   32.33   27.62          63.61    0.52   -1.59           1.71   287.40            0.73     0.77     0.70            0.63     0.37     0.39           0.74    0.83
D17         46.90   40.24   27.83          69.64   24.09    8.44          25.53   19.31            0.56     0.66     0.74            0.47     0.45     0.56           0.76    0.85
D18         43.67   52.43   31.64          77.54  -19.20   15.99          24.98   140.22            0.66     0.62     0.77            0.37     0.40     0.61           0.71    0.81
D19         37.75   38.72   50.23          68.55    1.35  -23.72          23.76   273.25            0.76     0.87     0.55            0.63     0.37     0.60           0.80    0.95
D20          2.74    2.71    1.03          18.83    2.37   13.75          13.95   80.20            0.08     0.07     0.04            0.32     0.23     0.17           0.39    0.43
D21         29.82   27.20    1.44          59.16   14.16   77.67          78.95   79.67            0.64     0.62     0.04            0.57     0.16     0.54           0.67    0.80
D22         40.41   43.13   52.24          71.64   -3.60  -20.61          20.93   260.08            0.80     0.88     0.54            0.60     0.28     0.59           0.78    0.88
E1           5.09    5.77    3.34          28.83   -5.73    8.59          10.33   123.67            0.13     0.15     0.07            0.38     0.27     0.32           0.53    0.57
E2           4.67    5.72    2.05          28.70  -10.41   18.69          21.40   119.11            0.13     0.15     0.06            0.40     0.25     0.38           0.54    0.60
E3           4.32    5.75    1.19          28.78  -15.48   28.47          32.40   118.53            0.12     0.16     0.04            0.41     0.26     0.22           0.47    0.53
E4           3.79    5.78    0.45          28.84  -23.35   41.19          47.34   119.55            0.10     0.14     0.01            0.36     0.24     0.51           0.58    0.68
E5          23.62   26.81   14.92          58.79   -9.55   15.87          18.53   121.04            0.60     0.68     0.36            0.63     0.35     0.49           0.79    0.88
E6          21.79   27.06    9.29          59.03  -18.84   32.79          37.82   119.87            0.55     0.66     0.24            0.61     0.25     0.48           0.72    0.81
E7          19.95   27.28    4.95          59.23  -28.55   51.45          58.84   119.03            0.51     0.62     0.15            0.57     0.18     0.36           0.61    0.70
E8          18.97   27.71    3.20          59.62  -35.16   62.72          71.90   119.27            0.28     0.31     0.06            0.28     0.26     0.16           0.38    0.42
E9          44.14   47.77   32.60          74.67   -5.49    9.59          11.05   119.80            0.86     0.90     0.77            0.57     0.23     0.36           0.65    0.71
E10         41.76   47.59   25.77          74.56  -12.08   20.46          23.76   120.57            0.70     0.77     0.58            0.49     0.23     0.51           0.68    0.75
E11         40.07   47.89   20.17          74.76  -18.07   31.44          36.26   119.89            0.73     0.73     0.46            0.46     0.37     0.45           0.65    0.74
E12         38.89   47.86   17.36          74.73  -21.69   37.48          43.31   120.05            0.54     0.54     0.38            0.34     0.32     0.48           0.60    0.66
E13         45.30   54.19   57.68          78.57  -18.93  -14.45          23.81   217.35            0.51     0.50     0.34            0.29     0.26     0.29           0.42    0.48
E14         49.60   40.68   48.18          69.95   30.14  -18.97          35.61   327.82            0.55     0.66     0.53            0.46     0.53     0.40           0.67    0.81
E15         61.93   63.48   24.45          83.70    1.68   38.57          38.60   87.51            0.43     0.51     0.51            0.27     0.18     0.61           0.59    0.69
E16         22.70   23.42   19.93          55.49    0.57   -1.29           1.44   292.84            0.57     0.60     0.49            0.61     0.38     0.40           0.74    0.82
E17         40.36   32.31   20.00          63.59   30.95   12.53          33.40   22.04            0.49     0.56     0.53            0.46     0.48     0.51           0.75    0.84
E18         38.38   48.17   25.00          74.93  -24.13   22.45          32.96   137.07            0.57     0.55     0.62            0.35     0.37     0.60           0.71    0.79
E19         30.71   31.30   46.99          62.75    1.98  -29.99          30.05   273.78            0.63     0.73     0.53            0.61     0.40     0.57           0.80    0.93
E20          6.80    7.97    1.33          33.91   -8.59   35.48          36.50   103.61            0.19     0.22     0.06            0.46     0.24     0.26           0.50    0.58
E21         23.85   28.30    6.14          60.15  -14.40   47.16          49.31   106.98            0.58     0.66     0.20            0.59     0.28     0.32           0.64    0.73
E22          9.06   17.66   13.91          49.08  -53.21    1.74          53.24   178.13            0.22     0.35     0.40            0.43     0.23     0.41           0.58    0.64
F1           3.33    4.11    2.98          24.03   -9.79    2.88          10.21   163.64            0.09     0.11     0.07            0.35     0.28     0.26           0.46    0.52
F2           2.75    4.15    2.57          24.14  -20.30    6.28          21.25   162.82            0.08     0.11     0.06            0.35     0.26     0.29           0.48    0.52
F3           2.19    3.99    2.09          23.64  -29.21    9.59          30.74   161.81            0.06     0.10     0.06            0.33     0.22     0.30           0.43    0.50
F4           1.71    4.05    1.68          23.85  -41.42   14.05          43.74   161.27            0.04     0.09     0.04            0.31     0.30     0.35           0.49    0.55
F5          10.95   13.77    9.99          43.89  -16.04    4.32          16.61   164.94            0.33     0.41     0.27            0.59     0.35     0.32           0.69    0.76
F6           8.96   13.92    8.34          44.12  -32.65   10.51          34.30   162.16            0.27     0.38     0.21            0.55     0.32     0.34           0.66    0.72
F7           7.15   13.89    6.87          44.08  -48.91   16.25          51.54   161.62            0.20     0.33     0.16            0.47     0.28     0.27           0.54    0.61
F8           6.52   13.73    6.49          43.84  -54.29   17.49          57.04   162.14            0.15     0.28     0.17            0.40     0.26     0.29           0.48    0.56
F9          28.87   33.00   25.96          64.16  -11.02    2.19          11.25   168.79            0.74     0.82     0.70            0.67     0.29     0.43           0.76    0.84
F10         25.78   33.03   23.53          64.18  -23.53    6.62          24.45   164.30            0.62     0.73     0.64            0.59     0.27     0.41           0.68    0.77
F11         23.50   33.48   21.42          64.55  -34.88   11.29          36.66   162.06            0.57     0.67     0.59            0.54     0.31     0.43           0.67    0.76
F12         21.69   33.77   20.16          64.78  -44.10   14.25          46.35   162.10            0.33     0.37     0.45            0.29     0.33     0.51           0.60    0.68
F13         41.63   51.36   57.06          76.90  -22.51  -16.69          28.02   216.55            0.45     0.45     0.33            0.27     0.24     0.26           0.39    0.45
F14         45.63   35.51   45.41          66.14   35.57  -22.27          41.97   327.95            0.52     0.60     0.53            0.46     0.53     0.39           0.68    0.81
F15         60.73   62.09   18.73          82.96    2.04   48.63          48.67   87.59            0.45     0.54     0.39            0.29     0.21     0.52           0.55    0.63
F16         15.90   16.48   13.87          47.60    0.05   -0.70           0.77   269.18            0.46     0.48     0.45            0.61     0.30     0.38           0.70    0.78
F17         35.04   26.17   13.99          58.19   37.02   17.23          40.84   24.96            0.40     0.43     0.40            0.41     0.43     0.55           0.72    0.81
F18         33.26   43.72   19.06          72.04  -28.81   29.09          40.95   134.73            0.46     0.47     0.44            0.31     0.34     0.46           0.59    0.65
F19         24.28   24.57   43.54          56.65    2.56  -36.35          36.44   274.02            0.54     0.61     0.56            0.60     0.38     0.53           0.77    0.89
