targets/wolf_faust/transmissive/E050926.it8
IT8.7/1
ORIGINATOR "Wolf Faust"
DESCRIPTOR "Ektachrome, Type 3, L* a* b* (light D50, viewing angle 2)"
MANUFACTURER "Wolf Faust - http://www.coloraid.de"
CREATED "October 10, 2005"
PROD_DATE "2005:09"
DIFFUSE_GEOMETRY "opal"
SERIAL "E050926 Batch Average Data"
MATERIAL "For Kodak Ektachrome Product Family"
KEYWORD "MEAN_DE" # Mean Delta E of samples compared to batch average
NUMBER_OF_FIELDS 18
BEGIN_DATA_FORMAT
SAMPLE_ID  XYZ_X   XYZ_Y   XYZ_Z          LAB_L   LAB_A   LAB_B          LAB_C   LAB_H          D_RED  D_GREEN  D_BLUE  D_VIS          STDEV_X STDEV_Y STDEV_Z        MEAN_DE  STDEV_DE
END_DATA_FORMAT
NUMBER_OF_SETS 288
BEGIN_DATA
A1          1.85    1.56    1.08          12.97    8.91    2.76           9.33   17.24           1.54    1.98    2.02    1.78            0.05    0.04    0.03           0.33     0.36
A2          2.32    1.55    0.87          12.93   19.69    6.01          20.59   16.98           1.35    2.18    2.10    1.73            0.06    0.04    0.03           0.35     0.38 
A3          2.77    1.56    0.75          12.96   28.26    8.29          29.45   16.34           1.21    2.43    2.14    1.70            0.07    0.04    0.02           0.39     0.42
A4          3.63    1.63    0.58          13.39   40.85   12.14          42.62   16.55           1.01    3.17    2.18    1.63            0.08    0.03    0.02           0.39     0.43 
A5          8.61    7.35    5.35          32.58   14.05    3.45          14.47   13.81           0.89    1.27    1.27    1.10            0.26    0.23    0.19           0.61     0.65
A6         10.34    7.34    4.61          32.56   28.24    7.27          29.16   14.43           0.73    1.42    1.32    1.07            0.29    0.21    0.17           0.63     0.68 
A7         12.67    7.55    3.93          33.02   42.92   12.03          44.57   15.66           0.57    1.62    1.38    1.02            0.29    0.19    0.14           0.54     0.58
A8         15.88    8.04    3.35          34.07   58.23   17.60          60.83   16.82           0.41    1.92    1.42    0.96            0.12    0.09    0.12           0.51     0.58 
A9         26.47   25.33   20.45          57.39    8.58    0.93           8.64    6.17           0.49    0.65    0.64    0.59            0.83    0.82    0.79           0.85     0.92
A10        28.45   25.46   19.48          57.51   16.01    3.16          16.33   11.16           0.42    0.69    0.66    0.57            0.84    0.83    0.78           0.90     0.98
A11        30.80   25.78   18.86          57.83   23.57    5.03          24.11   12.04           0.34    0.72    0.67    0.56            0.80    0.76    0.75           0.85     0.93
A12        34.89   26.17   17.45          58.19   36.49    8.78          37.53   13.52           0.23    0.80    0.70    0.53            0.54    0.57    0.71           0.98     1.09 
A13        67.17   70.87   62.11          87.42   -2.54   -3.62           4.42  235.00           0.18    0.14    0.12    0.15            0.34    0.28    0.10           0.25     0.27
A14        73.26   74.31   62.39          89.07    3.35   -1.04           3.50  342.77           0.11    0.14    0.12    0.13            0.22    0.27    0.12           0.17     0.19 
A15        72.79   74.16   58.84          89.00    2.69    2.36           3.58   41.05           0.11    0.14    0.15    0.13            0.29    0.31    0.48           0.26     0.28
A16        69.65   72.29   59.75          88.11   -0.12   -0.10           0.23  224.30           0.15    0.14    0.14    0.14            0.35    0.30    0.36           0.23     0.24
A17        72.79   73.77   61.28          88.81    3.50   -0.40           3.52  353.52           0.11    0.15    0.13    0.13            0.22    0.27    0.20           0.16     0.18
A18        66.26   70.16   55.94          87.08   -3.07    2.03           3.69  146.84           0.18    0.15    0.18    0.16            0.52    0.42    0.73           0.49     0.54 
A19        70.76   71.94   61.72          87.94    2.97   -2.34           3.78  321.88           0.13    0.16    0.12    0.14            0.35    0.41    0.16           0.25     0.29
A20         5.69    2.65    1.62          18.58   45.56    5.64          45.91    7.06           0.84    2.72    1.71    1.43            0.16    0.07    0.06           0.50     0.55 
A21        24.57   16.94   13.70          48.18   40.33    0.76          40.34   33.81           0.35    1.06    0.80    0.71            0.54    0.45    0.51           0.73     0.81
A22        50.91   46.24   31.91          73.69   17.48    8.96          19.65   27.12           0.17    0.41    0.44    0.31            0.89    1.07    1.09           1.11     1.20
B1          2.72    2.42    1.34          17.57    7.55    7.25          10.47   43.84           1.39    1.74    1.95    1.59            0.07    0.06    0.03           0.36     0.39
B2          3.30    2.48    0.84          17.83   16.53   15.04          22.34   42.30           1.23    1.85    2.19    1.54            0.08    0.06    0.02           0.35     0.38
B3          3.82    2.48    0.48          17.85   24.60   21.79          32.86   41.53           1.11    1.99    2.48    1.51            0.10    0.06    0.01           0.44     0.48
B4          4.79    2.59    0.08          18.34   35.81   30.09          46.77   40.04           0.96    2.28    3.60    1.46            0.11    0.06    0.00           0.50     0.56
B5         10.93    9.62    5.49          37.15   12.91   10.60          16.71   39.39           0.80    1.13    1.27    0.99            0.30    0.27    0.20           0.60     0.66
B6         13.02    9.82    3.51          37.52   25.82   22.43          34.21   40.98           0.64    1.23    1.50    0.95            0.35    0.28    0.13           0.60     0.65
B7         15.25   10.01    2.18          37.86   38.23   33.32          50.71   41.08           0.51    1.36    1.74    0.91            0.36    0.26    0.08           0.54     0.58
B8         19.06   10.54    0.96          38.79   55.08   49.14          73.81   41.74           0.35    1.60    2.16    0.85            0.13    0.11    0.02           0.26     0.30
B9         31.58   31.22   23.86          62.69    5.47    3.43           6.47   32.04           0.43    0.54    0.57    0.50            1.00    1.05    0.93           0.92     1.01
B10        33.28   31.18   21.41          62.66   11.68    8.08          14.22   34.63           0.37    0.57    0.62    0.49            0.84    0.85    0.82           0.91     1.00
B11        35.36   31.56   19.23          62.97   17.47   13.10          21.84   36.87           0.31    0.60    0.68    0.47            0.93    0.96    0.78           0.91     0.99
B12        39.25   31.93   15.26          63.28   28.84   22.75          36.74   38.27           0.20    0.65    0.79    0.45            0.69    0.79    0.67           1.03     1.14
B13        57.26   61.48   57.13          82.64   -4.89   -6.86           8.43  234.50           0.27    0.20    0.16    0.22            0.67    0.67    0.51           0.40     0.43
B14        61.86   59.40   54.88          81.51   10.92   -6.45          12.68  329.43           0.15    0.27    0.17    0.22            0.69    0.85    0.59           0.60     0.67
B15        64.33   65.23   46.39          84.60    3.27    8.40           9.02   68.62           0.14    0.20    0.27    0.18            0.64    0.68    1.05           0.72     0.80
B16        51.85   53.64   44.82          78.25    0.35   -0.68           0.79  300.78           0.27    0.28    0.28    0.27            0.97    1.03    1.08           0.70     0.76
B17        59.66   57.65   44.87          80.54    9.93    3.21          10.45   17.88           0.15    0.28    0.27    0.23            0.81    0.96    1.04           0.79     0.86
B18        55.64   60.36   46.70          82.03   -6.28    3.59           7.25  150.43           0.27    0.21    0.26    0.22            0.88    0.85    1.13           0.72     0.79
B19        53.95   55.59   54.77          79.37    0.90  -10.01          10.05  275.10           0.27    0.26    0.18    0.26            0.96    1.08    0.62           0.69     0.79
B20         4.36    2.61    0.84          18.42   29.76   16.05          33.81   28.34           1.03    2.09    2.13    1.48            0.14    0.09    0.03           0.51     0.55
B21        15.28   10.04    3.60          37.91   38.15   22.58          44.33   30.62           0.52    1.36    1.46    0.91            0.40    0.28    0.14           0.59     0.64
B22        30.89   25.78   15.77          57.82   23.92   12.11          26.82   26.83           0.33    0.73    0.76    0.55            0.77    0.74    0.64           0.93     1.01
C1          5.39    5.25    2.92          27.43    3.95    9.20          10.02   66.74           1.15    1.35    1.58    1.27            0.16    0.15    0.10           0.49     0.52
C2          5.82    5.28    1.72          27.51    8.56   20.00          21.76   66.83           1.07    1.38    1.88    1.25            0.16    0.15    0.06           0.47     0.51
C3          6.23    5.23    0.83          27.37   13.67   31.52          34.35   66.56           1.01    1.43    2.32    1.23            0.17    0.14    0.02           0.50     0.56
C4          6.87    5.33    0.22          27.64   19.19   43.49          47.53   66.19           0.95    1.47    3.40    1.21            0.16    0.13    0.00           0.59     0.66
C5         21.14   20.21   10.39          52.07    8.06   17.13          18.93   64.79           0.56    0.76    0.98    0.67            0.64    0.65    0.42           0.79     0.86
C6         22.94   20.28    5.58          52.15   16.05   36.02          39.44   65.99           0.47    0.80    1.32    0.65            0.60    0.57    0.20           0.76     0.82
C7         25.18   20.56    2.53          52.46   24.49   55.41          60.58   66.15           0.39    0.85    1.80    0.63            0.63    0.58    0.08           0.76     0.84
C8         28.85   21.13    0.48          53.08   36.64   82.48          90.25   66.05           0.30    0.93    3.26    0.60            0.48    0.43    0.01           0.72     0.82
C9         37.54   37.73   26.72          67.81    3.79    7.18           8.13   62.12           0.36    0.45    0.52    0.42            1.05    1.12    0.98           0.90     0.98
C10        38.86   38.03   22.97          68.03    7.08   14.33          15.99   63.69           0.32    0.46    0.60    0.41            1.06    1.14    0.91           0.95     1.03
C11        40.39   38.31   18.89          68.24   11.00   22.92          25.42   64.37           0.27    0.48    0.70    0.39            0.96    1.05    0.75           0.93     1.02
C12        44.05   38.70   10.37          68.53   20.72   45.59          50.08   65.56           0.18    0.52    1.03    0.37            0.62    0.77    0.39           0.89     0.97
C13        51.21   57.67   56.64          80.55  -11.27   -9.95          15.04  221.43           0.37    0.20    0.17    0.26            0.69    0.69    0.50           0.44     0.47
C14        56.11   50.73   51.58          76.51   18.68  -11.50          21.94  328.40           0.16    0.37    0.20    0.28            0.77    0.96    0.61           0.84     0.95
C15        62.98   64.32   37.91          84.13    2.22   18.33          18.46   83.10           0.14    0.21    0.37    0.18            0.74    0.81    1.21           0.95     1.07
C16        39.01   40.35   34.16          69.71    0.32   -1.26           1.32  285.03           0.39    0.41    0.40    0.40            1.13    1.21    1.18           0.91     0.99
C17        51.56   46.75   34.45          74.02   17.79    5.75          18.71   17.88           0.17    0.41    0.40    0.31            0.87    1.03    1.11           1.03     1.12
C18        47.96   55.18   38.05          79.14  -13.94    9.54          16.90  145.67           0.36    0.22    0.37    0.27            0.95    0.92    1.20           0.92     1.03
C19        43.18   44.33   50.99          72.44    1.31  -17.86          17.91  274.17           0.39    0.36    0.20    0.36            1.10    1.23    0.70           0.99     1.11
C20        10.95    7.88    0.91          33.73   27.73   41.16          49.63   56.04           0.70    1.37    2.27    1.03            0.34    0.25    0.03           0.67     0.73
C21        19.56   17.93   10.20          49.40   11.85   13.15          17.71   47.96           0.57    0.83    0.98    0.72            0.65    0.63    0.41           0.86     0.93
C22        24.88   20.63    9.77          52.53   22.87   19.99          30.38   41.14           0.41    0.83    1.00    0.64            0.68    0.63    0.41           0.82     0.87
D1          3.40    3.57    2.00          22.20   -0.72    8.00           8.03   95.11           1.38    1.48    1.77    1.44            0.10    0.11    0.07           0.44     0.47
D2          3.41    3.60    1.12          22.29   -0.98   18.32          18.34   93.06           1.38    1.47    2.12    1.43            0.10    0.10    0.04           0.39     0.45
D3          3.48    3.67    0.63          22.56   -0.94   26.92          26.94   92.01           1.37    1.45    2.51    1.42            0.09    0.09    0.01           0.47     0.51
D4          3.48    3.67    0.24          22.55   -0.95   34.36          34.38   91.59           1.41    1.44    3.35    1.41            0.09    0.09    0.00           0.50     0.57
D5         15.61   16.26    8.34          47.31   -0.37   16.01          16.02   91.30           0.73    0.81    1.10    0.78            0.47    0.49    0.32           0.74     0.81
D6         15.35   16.08    4.32          47.07   -0.88   33.94          33.96   91.49           0.73    0.81    1.48    0.78            0.44    0.48    0.16           0.67     0.74
D7         15.38   16.13    1.94          47.14   -1.00   51.57          51.58   91.11           0.74    0.81    2.01    0.77            0.44    0.47    0.06           0.76     0.84
D8         15.36   16.37    0.62          47.45   -2.49   70.20          70.24   92.03           0.79    0.79    3.15    0.76            0.38    0.39    0.01           0.78     0.89
D9         43.85   45.95   23.62          73.51   -1.33   22.53          22.57   93.38           0.30    0.35    0.60    0.33            1.00    1.11    0.90           0.90     0.97
D10        43.95   46.10   13.29          73.61   -1.46   45.70          45.72   91.83           0.28    0.35    0.92    0.32            0.85    0.93    0.49           0.77     0.83
D11        43.60   46.08    6.39          73.59   -2.42   69.22          69.26   92.00           0.29    0.35    1.38    0.32            0.70    0.75    0.21           0.53     0.57
D12        43.97   46.70    3.98          73.99   -3.05   82.37          82.42   92.12           0.30    0.34    1.72    0.31            0.62    0.59    0.08           0.44     0.48
D13        46.48   54.44   56.07          78.72  -16.22  -12.53          20.50  217.67           0.46    0.21    0.17    0.29            0.68    0.68    0.49           0.48     0.52
D14        51.00   43.50   48.44          71.89   25.53  -15.92          30.09  328.05           0.18    0.47    0.22    0.34            0.72    0.89    0.57           0.90     1.02
D15        61.55   63.10   30.07          83.49    1.65   28.70          28.75   86.71           0.14    0.22    0.49    0.19            0.72    0.81    1.04           0.92     1.04
D16        28.44   29.40   24.92          61.13    0.35   -1.18           1.24  287.15           0.52    0.55    0.55    0.53            0.97    1.02    1.00           0.93     1.01
D17        44.27   37.55   25.30          67.68   25.01    9.44          26.74   20.66           0.19    0.55    0.54    0.39            0.89    1.03    1.05           1.15     1.26
D18        41.62   50.47   30.17          76.35  -20.20   16.24          25.92  141.24           0.45    0.24    0.49    0.31            0.97    0.94    1.12           0.98     1.09
D19        34.34   35.04   47.36          65.77    1.91  -25.22          25.30  274.32           0.51    0.46    0.23    0.47            0.98    1.10    0.68           1.04     1.17
D20         2.55    2.53    0.86          18.07    2.13   15.11          15.25   81.98           1.47    1.65    2.23    1.58            0.09    0.09    0.03           0.43     0.47
D21        28.33   25.68    1.19          57.72   14.59   78.45          79.79   79.46           0.41    0.68    2.52    0.55            0.71    0.70    0.03           0.90     0.99
D22        38.95   41.04   50.00          70.20   -1.95  -20.61          20.71  264.56           0.46    0.38    0.21    0.40            0.98    1.10    0.63           0.96     1.07
E1          4.62    5.24    2.90          27.40   -5.47    9.36          10.84  120.30           1.30    1.27    1.61    1.29            0.15    0.16    0.11           0.50     0.54
E2          4.21    5.21    1.71          27.31  -10.57   19.73          22.38  118.18           1.38    1.24    1.93    1.29            0.11    0.13    0.04           0.40     0.44
E3          3.72    5.03    0.97          26.83  -15.73   28.34          32.41  119.04           1.51    1.21    2.33    1.31            0.10    0.14    0.02           0.50     0.58
E4          3.32    5.17    0.38          27.20  -23.54   39.82          46.25  120.59           1.76    1.14    3.27    1.31            0.07    0.11    0.01           0.45     0.55
E5         22.40   25.38   13.92          57.44   -9.20   16.13          18.58  119.72           0.64    0.58    0.86    0.60            0.73    0.83    0.58           0.86     0.94
E6         20.42   25.50    8.40          57.55  -19.01   33.45          38.48  119.62           0.73    0.54    1.15    0.60            0.56    0.68    0.32           0.75     0.81
E7         18.84   25.93    4.56          57.96  -28.68   51.35          58.82  119.19           0.85    0.49    1.56    0.60            0.47    0.60    0.14           0.60     0.66
E8         17.83   26.27    2.86          58.29  -35.35   62.89          72.15  119.34           0.96    0.46    1.93    0.60            0.29    0.31    0.04           0.44     0.50
E9         42.23   46.03   31.28          73.56   -6.35    9.68          11.58  123.33           0.37    0.33    0.46    0.34            1.01    1.09    1.09           0.88     0.95
E10        40.43   46.44   24.44          73.83  -12.98   21.58          25.18  121.03           0.41    0.30    0.59    0.34            0.96    1.04    0.90           0.84     0.92
E11        38.52   46.30   19.05          73.74  -18.55   32.05          37.03  120.06           0.45    0.29    0.73    0.34            0.84    0.90    0.71           0.79     0.88
E12        38.04   46.80   17.38          74.06  -21.49   36.29          42.17  120.63           0.47    0.28    0.79    0.34            0.78    0.78    0.61           0.77     0.87
E13        42.64   51.63   55.48          77.06  -20.18  -14.76          25.01  216.18           0.54    0.22    0.18    0.32            0.65    0.65    0.45           0.50     0.54
E14        46.57   37.55   45.55          67.68   31.59  -19.77          37.26  327.95           0.19    0.56    0.24    0.40            0.63    0.74    0.53           0.82     0.93
E15        60.30   61.85   23.88          82.83    1.58   38.13          38.16   87.63           0.14    0.23    0.61    0.19            0.67    0.78    0.84           0.86     0.98
E16        20.57   21.25   18.07          53.21    0.39   -1.20           1.27  289.00           0.65    0.69    0.70    0.68            0.74    0.77    0.76           0.89     0.96
E17        38.19   30.26   18.36          61.88   31.50   13.09          34.11   22.55           0.21    0.69    0.69    0.47            0.64    0.72    0.74           1.01     1.10
E18        36.37   46.20   23.86          73.67  -25.27   22.38          33.76  138.48           0.54    0.27    0.61    0.35            0.85    0.86    0.95           1.00     1.09
E19        27.44   27.75   43.94          59.65    2.80  -31.67          31.80  275.03           0.63    0.56    0.26    0.58            0.80    0.91    0.64           1.01     1.14
E20         6.21    7.28    1.05          32.43   -8.41   36.82          37.77  102.87           1.20    1.10    2.32    1.13            0.21    0.25    0.03           0.69     0.75
E21        22.61   26.93    5.63          58.90  -14.55   47.44          49.62  107.05           0.65    0.53    1.40    0.57            0.69    0.82    0.19           0.81     0.89
E22         8.55   16.84   13.03          48.06  -53.20    2.36          53.25  177.46           1.76    0.58    0.91    0.85            0.29    0.47    0.49           0.69     0.75
F1          2.90    3.59    2.60          22.28   -9.56    2.82           9.97  163.58           1.57    1.41    1.64    1.47            0.09    0.10    0.09           0.45     0.51
F2          2.40    3.61    2.25          22.34  -19.25    5.94          20.15  162.87           1.79    1.34    1.75    1.49            0.07    0.09    0.07           0.43     0.47
F3          1.93    3.57    1.83          22.19  -28.83    9.69          30.41  161.42           2.07    1.28    1.89    1.51            0.05    0.08    0.05           0.39     0.43
F4          1.46    3.53    1.39          22.05  -40.31   14.39          42.80  160.35           2.55    1.22    2.11    1.53            0.03    0.07    0.04           0.42     0.48
F5         10.03   12.58    9.13          42.12  -15.36    4.20          15.93  164.71           1.08    0.85    1.05    0.92            0.34    0.42    0.36           0.73     0.80
F6          7.85   12.43    7.50          41.89  -32.83    9.89          34.29  163.24           1.38    0.77    1.18    0.95            0.23    0.34    0.28           0.69     0.75
F7          6.31   12.60    6.25          42.15  -49.23   15.65          51.67  162.36           1.77    0.70    1.31    0.97            0.16    0.28    0.21           0.61     0.67
F8          5.97   12.75    5.76          42.38  -53.81   18.34          56.85  161.18           1.89    0.68    1.36    0.96            0.11    0.22    0.15           0.48     0.52
F9         27.34   31.40   24.34          62.84  -11.38    2.82          11.74  166.14           0.61    0.47    0.57    0.52            0.81    0.91    0.89           0.91     0.97
F10        24.54   31.67   22.30          63.06  -23.95    7.02          24.96  163.67           0.74    0.42    0.63    0.53            0.74    0.90    0.82           0.87     0.94
F11        22.38   32.22   20.50          63.52  -35.47   11.39          37.26  162.20           0.88    0.38    0.68    0.53            0.64    0.79    0.81           0.84     0.93
F12        20.56   32.43   19.23          63.70  -44.81   14.35          47.05  162.25           1.02    0.35    0.72    0.53            0.47    0.53    0.72           0.89     1.01
F13        39.19   48.97   54.84          75.43  -23.72  -16.89          29.12  215.45           0.62    0.23    0.18    0.35            0.60    0.61    0.44           0.49     0.54
F14        42.34   32.20   42.54          63.50   37.36  -23.29          44.02  328.06           0.21    0.67    0.27    0.46            0.54    0.61    0.53           0.76     0.84
F15        59.17   60.54   18.58          82.13    1.93   47.54          47.58   87.68           0.14    0.24    0.75    0.20            0.64    0.76    0.70           0.86     0.96
F16        14.25   14.66   12.55          45.16    0.69   -1.30           1.48  300.09           0.80    0.86    0.87    0.84            0.50    0.51    0.55           0.83     0.90
F17        32.82   24.14   12.84          56.23   37.77   16.99          41.42   24.21           0.24    0.85    0.85    0.56            0.52    0.56    0.57           0.98     1.06
