targets/wolf_faust/transmissive/E051026.it8
IT8.7/1
ORIGINATOR "Wolf Faust"
DESCRIPTOR "Ektachrome, Type 3, L* a* b* (light D50, viewing angle 2)"
MANUFACTURER "Wolf Faust - http://www.coloraid.de"
CREATED "November 04, 2005"
PROD_DATE "2005:10"
DIFFUSE_GEOMETRY "opal"
SERIAL "E051026 Batch Average Data"
MATERIAL "For Kodak Ektachrome Product Family"
KEYWORD "MEAN_DE" # Mean Delta E of samples compared to batch average
NUMBER_OF_FIELDS 18
BEGIN_DATA_FORMAT
SAMPLE_ID  XYZ_X   XYZ_Y   XYZ_Z          LAB_L   LAB_A   LAB_B          LAB_C   LAB_H          D_RED  D_GREEN  D_BLUE  D_VIS          STDEV_X STDEV_Y STDEV_Z        MEAN_DE  STDEV_DE
END_DATA_FORMAT
NUMBER_OF_SETS 288
BEGIN_DATA
A1          2.10    1.76    1.23          14.16    9.65    2.73          10.04   15.80           1.49    1.93    1.95    1.72            0.06    0.05    0.03           0.46     0.50
A2          2.57    1.74    0.95          14.05   19.85    6.60          20.92   18.37           1.31    2.11    2.06    1.69            0.08    0.05    0.03           0.46     0.54 
A3          3.08    1.73    0.79          13.97   29.41    9.16          30.81   17.30           1.16    2.39    2.11    1.65            0.09    0.05    0.03           0.58     0.64
A4          4.23    1.92    0.67          15.05   42.43   13.34          44.47   17.45           0.95    3.04    2.12    1.56            0.10    0.04    0.02           0.54     0.60 
A5          9.56    8.13    5.76          34.26   14.78    4.32          15.42   16.26           0.85    1.23    1.23    1.06            0.27    0.25    0.22           0.83     0.92
A6         11.18    8.00    4.91          33.99   28.36    8.14          29.51   16.00           0.70    1.37    1.29    1.03            0.31    0.24    0.19           0.78     0.86 
A7         13.75    8.28    4.22          34.56   43.25   12.96          45.15   16.67           0.54    1.56    1.35    0.99            0.33    0.22    0.17           0.78     0.88
A8         16.78    8.46    3.58          34.91   59.68   17.51          62.19   16.35           0.39    1.91    1.39    0.94            0.14    0.09    0.11           0.59     0.69 
A9         29.39   28.19   22.16          60.05    8.67    2.11           8.96   13.60           0.45    0.60    0.61    0.54            0.76    0.80    0.75           0.98     1.12
A10        31.16   27.85   20.97          59.75   16.58    3.93          17.06   13.34           0.38    0.65    0.63    0.53            0.77    0.77    0.69           1.01     1.11
A11        33.29   28.06   20.01          59.94   23.45    6.23          24.28   14.85           0.31    0.68    0.65    0.52            0.72    0.71    0.69           1.03     1.18
A12        37.98   28.72   18.36          60.53   36.66   10.76          38.21   16.36           0.20    0.75    0.68    0.49            0.48    0.54    0.40           0.92     1.04 
A13        73.21   76.93   66.52          90.29   -2.01   -2.87           3.50  235.06           0.14    0.11    0.09    0.12            0.32    0.27    0.10           0.22     0.25
A14        77.14   77.53   65.92          90.57    4.83   -1.84           5.17  339.20           0.08    0.13    0.10    0.11            0.24    0.29    0.15           0.24     0.26 
A15        78.58   80.39   61.49          91.86    2.13    4.65           5.11   65.25           0.08    0.11    0.13    0.09            0.16    0.15    0.46           0.34     0.39
A16        76.88   79.32   65.06          91.38    0.81    0.38           0.91   24.84           0.10    0.11    0.11    0.10            0.25    0.22    0.26           0.18     0.21
A17        76.54   76.87   63.33          90.26    4.94    0.10           4.94  132.06           0.08    0.13    0.12    0.11            0.26    0.29    0.30           0.29     0.31
A18        72.01   76.03   60.05          89.87   -2.71    2.64           3.79  135.92           0.14    0.12    0.15    0.12            0.33    0.27    0.50           0.37     0.45 
A19        74.26   76.19   65.84          89.95    1.65   -2.83           3.28  300.32           0.12    0.13    0.10    0.12            0.18    0.17    0.11           0.11     0.13
A20         6.26    2.92    1.91          19.72   46.99    4.56          47.22    5.53           0.80    2.66    1.64    1.39            0.14    0.07    0.05           0.76     0.84 
A21        26.03   18.08   14.53          49.59   40.42    1.00          40.45   66.87           0.33    1.03    0.77    0.68            0.58    0.48    0.48           0.97     1.10
A22        54.78   49.95   33.34          76.04   17.38   10.84          20.50   31.92           0.14    0.38    0.42    0.28            0.71    0.85    0.78           0.84     1.02
B1          3.24    2.86    1.53          19.48    8.34    8.29          11.76   44.80           1.32    1.67    1.88    1.51            0.09    0.08    0.04           0.55     0.60
B2          3.74    2.83    0.88          19.33   16.95   16.94          23.97   44.98           1.18    1.78    2.17    1.49            0.13    0.10    0.03           0.67     0.73
B3          4.29    2.78    0.51          19.12   25.71   23.40          34.77   42.29           1.06    1.94    2.45    1.47            0.14    0.09    0.01           0.63     0.69
B4          5.35    2.84    0.10          19.39   38.09   31.56          49.47   39.64           0.90    2.28    3.42    1.41            0.16    0.09    0.00           0.71     0.79
B5         12.39   10.93    6.29          39.46   13.21   10.85          17.10   39.35           0.75    1.08    1.21    0.93            0.37    0.35    0.23           0.82     0.94
B6         14.14   10.81    4.03          39.26   25.43   22.17          33.74   41.07           0.61    1.18    1.43    0.91            0.39    0.33    0.16           0.81     0.88
B7         16.30   10.79    2.53          39.21   38.47   32.61          50.43   40.29           0.49    1.32    1.66    0.88            0.41    0.30    0.08           0.77     0.87
B8         20.36   11.26    0.95          40.01   56.30   51.39          76.23   42.39           0.33    1.57    2.17    0.82            0.19    0.16    0.03           0.41     0.47
B9         34.93   34.19   25.63          65.11    6.82    4.41           8.15   32.70           0.38    0.51    0.54    0.46            0.71    0.76    0.59           0.91     1.07
B10        36.48   34.16   22.96          65.09   12.11    9.26          15.26   37.36           0.33    0.53    0.59    0.45            0.81    0.86    0.72           0.95     1.08
B11        38.09   34.25   20.77          65.16   17.05   13.67          21.86   38.69           0.28    0.56    0.64    0.44            0.76    0.78    0.65           0.91     1.07
B12        42.37   34.49   15.69          65.35   29.50   25.26          38.85   40.57           0.17    0.62    0.78    0.42            0.49    0.61    0.32           1.01     1.16
B13        64.43   69.53   63.71          86.76   -5.83   -6.30           8.59  227.17           0.23    0.14    0.11    0.17            0.43    0.42    0.18           0.31     0.36
B14        69.37   66.97   61.66          85.49   10.58   -6.51          12.42  328.41           0.11    0.21    0.12    0.17            0.29    0.36    0.22           0.31     0.35
B15        71.92   73.64   49.72          88.75    1.93   11.69          11.84   80.58           0.10    0.15    0.24    0.13            0.35    0.37    0.77           0.65     0.78
B16        59.34   61.15   50.89          82.46    0.91   -0.48           1.12  305.33           0.21    0.22    0.22    0.21            0.64    0.68    0.68           0.57     0.68
B17        66.86   64.96   50.61          84.46    9.53    3.29          10.10   19.02           0.11    0.23    0.22    0.18            0.43    0.51    0.68           0.56     0.67
B18        62.85   68.39   51.07          86.20   -6.99    5.77           9.07  140.56           0.21    0.15    0.23    0.17            0.43    0.40    0.62           0.58     0.70
B19        62.37   64.31   62.19          84.13    0.85   -9.38           9.42  275.18           0.21    0.20    0.12    0.20            0.36    0.38    0.13           0.30     0.35
B20         4.79    2.86    0.85          19.46   30.98   17.63          35.65   29.64           0.98    2.05    2.13    1.44            0.13    0.08    0.02           0.67     0.80
B21        16.52   10.87    4.07          39.35   39.09   22.07          44.89   29.44           0.48    1.32    1.40    0.88            0.46    0.34    0.11           0.88     1.00
B22        33.48   28.19   17.28          60.05   23.60   12.37          26.66   27.64           0.30    0.68    0.72    0.51            0.74    0.73    0.46           1.05     1.16
C1          6.24    6.02    3.24          29.45    4.86   10.37          11.45   64.81           1.08    1.29    1.53    1.20            0.17    0.17    0.09           0.70     0.76
C2          6.48    5.92    1.91          29.19    8.48   20.91          22.57   67.93           1.03    1.32    1.83    1.20            0.21    0.20    0.06           0.75     0.83
C3          6.88    5.86    0.96          29.04   13.19   32.41          34.99   67.84           0.97    1.37    2.25    1.18            0.24    0.22    0.03           0.85     0.93
C4          7.28    5.72    0.28          28.69   18.66   44.17          47.95   67.09           0.93    1.43    3.20    1.18            0.25    0.21    0.01           0.91     0.98
C5         24.11   22.77   11.60          54.83    9.67   18.15          20.57   61.92           0.49    0.71    0.93    0.62            0.65    0.67    0.43           1.01     1.12
C6         25.78   22.77    6.35          54.83   16.78   37.07          40.69   65.63           0.42    0.75    1.26    0.60            0.59    0.58    0.22           0.95     1.10
C7         27.46   22.59    3.05          54.64   24.47   55.14          60.33   66.07           0.35    0.80    1.69    0.59            0.57    0.52    0.09           0.86     0.99
C8         30.83   22.84    0.59          54.90   36.30   83.58          91.12   66.52           0.27    0.89    3.07    0.57            0.55    0.50    0.01           0.80     0.91
C9         41.67   41.63   28.91          70.61    4.69    8.35           9.59   60.54           0.32    0.41    0.49    0.37            0.82    0.87    0.85           0.89     1.04
C10        42.37   41.37   24.70          70.43    7.56   15.25          17.03   63.57           0.28    0.43    0.57    0.37            0.81    0.87    0.71           0.96     1.08
C11        43.28   41.37   20.71          70.43   10.28   22.88          25.09   65.79           0.25    0.44    0.66    0.36            0.81    0.88    0.62           1.03     1.15
C12        47.32   41.27    9.44          70.36   22.16   51.83          56.37   66.85           0.14    0.50    1.08    0.34            0.55    0.73    0.31           0.97     1.18
C13        58.83   65.84   63.28          84.92  -10.90   -9.07          14.18  219.75           0.30    0.15    0.12    0.20            0.40    0.41    0.17           0.31     0.35
C14        64.26   59.38   58.96          81.50   16.48  -10.70          19.64  327.01           0.12    0.29    0.14    0.22            0.35    0.44    0.20           0.42     0.47
C15        70.31   72.43   40.33          88.18    1.00   22.08          22.11   87.39           0.10    0.16    0.35    0.13            0.31    0.34    0.77           0.77     0.90
C16        47.31   48.44   40.27          75.10    1.70   -0.39           1.87  283.91           0.30    0.33    0.33    0.31            0.78    0.84    0.73           0.83     0.94
C17        58.55   54.04   40.03          78.48   16.14    5.76          17.14   19.65           0.13    0.34    0.33    0.25            0.62    0.76    0.63           0.75     0.84
C18        55.51   63.21   42.00          83.55  -13.14   11.96          17.77  137.73           0.29    0.17    0.33    0.21            0.52    0.48    0.53           0.61     0.70
C19        52.91   54.37   59.24          78.67    1.25  -15.85          15.90  274.51           0.30    0.27    0.14    0.27            0.59    0.64    0.19           0.52     0.62
C20        11.67    8.46    0.99          34.91   27.83   41.96          50.36   56.44           0.67    1.33    2.23    1.00            0.31    0.23    0.02           0.98     1.11
C21        21.79   19.99   11.16          51.81   12.23   14.28          18.81   49.36           0.53    0.79    0.94    0.67            0.65    0.64    0.29           1.14     1.22
C22        27.24   22.84   11.06          54.90   22.44   19.89          30.00   41.53           0.38    0.78    0.95    0.60            0.70    0.66    0.37           1.04     1.16
D1          4.15    4.32    2.33          24.70   -0.15    9.30           9.31   90.90           1.30    1.40    1.70    1.36            0.11    0.12    0.05           0.63     0.70
D2          3.96    4.13    1.33          24.10   -0.37   18.57          18.57   91.15           1.31    1.41    2.02    1.37            0.14    0.15    0.04           0.73     0.81
D3          3.98    4.18    0.73          24.25   -0.68   28.04          28.05   91.38           1.32    1.39    2.43    1.36            0.14    0.15    0.02           0.80     0.89
D4          3.91    4.12    0.30          24.07   -0.94   35.77          35.78   91.50           1.35    1.39    3.18    1.36            0.17    0.19    0.01           0.96     1.08
D5         17.48   17.97    9.11          49.45    0.83   16.93          16.95   87.17           0.68    0.77    1.06    0.74            0.57    0.61    0.30           0.98     1.10
D6         17.24   17.84    4.88          49.29    0.20   34.68          34.68   89.66           0.68    0.77    1.41    0.73            0.52    0.56    0.14           0.97     1.15
D7         16.86   17.57    2.29          48.96   -0.42   51.44          51.44   90.47           0.70    0.77    1.90    0.73            0.52    0.56    0.05           1.02     1.16
D8         16.89   17.87    0.73          49.34   -1.85   71.20          71.22   91.49           0.74    0.76    2.99    0.72            0.48    0.53    0.02           0.93     1.06
D9         47.60   49.14   25.62          75.53    0.61   22.40          22.41   88.42           0.26    0.33    0.56    0.30            0.77    0.84    0.73           0.85     1.01
D10        46.85   48.52   14.35          75.15    0.18   45.53          45.53   89.78           0.25    0.33    0.88    0.30            0.68    0.74    0.43           0.83     1.03
D11        46.06   48.28    7.32          75.00   -1.39   67.71          67.72   91.18           0.26    0.33    1.29    0.30            0.64    0.68    0.18           0.87     1.05
D12        46.18   48.60    2.72          75.20   -1.91   93.08          93.10   91.18           0.28    0.33    2.05    0.29            0.47    0.38    0.04           0.57     0.67
D13        53.78   62.28   62.76          83.06  -15.42  -11.76          19.40  217.32           0.38    0.16    0.12    0.23            0.38    0.38    0.15           0.31     0.36
D14        58.95   51.88   56.14          77.21   22.60  -15.19          27.23  326.09           0.13    0.37    0.16    0.27            0.41    0.51    0.23           0.52     0.60
D15        68.64   70.89   31.47          87.43    0.63   33.31          33.31   88.92           0.10    0.17    0.48    0.14            0.31    0.35    0.68           0.81     0.99
D16        35.20   35.96   29.92          66.49    1.78   -0.39           1.99  186.99           0.42    0.46    0.47    0.44            0.78    0.83    0.68           1.02     1.11
D17        50.20   43.54   29.84          71.92   23.28    9.10          25.00   21.36           0.15    0.47    0.46    0.33            0.61    0.75    0.61           0.91     1.03
D18        48.58   57.86   32.93          80.66  -18.78   19.42          27.02  134.05           0.37    0.19    0.45    0.25            0.49    0.44    0.57           0.71     0.79
D19        43.39   44.73   56.10          72.71    0.77  -22.91          22.92  271.91           0.41    0.35    0.16    0.36            0.65    0.71    0.27           0.59     0.75
D20         2.93    2.93    0.93          19.76    1.93   16.78          16.89   83.42           1.41    1.58    2.19    1.51            0.09    0.09    0.01           0.74     0.82
D21        30.97   27.88    1.38          59.78   15.77   79.51          81.05   78.78           0.36    0.65    2.39    0.51            0.77    0.76    0.03           0.99     1.13
D22        41.97   45.57   56.84          73.26   -5.83  -22.72          23.46  255.59           0.47    0.32    0.16    0.36            0.85    0.99    0.41           0.83     1.00
E1          5.33    5.96    3.38          29.30   -4.83    9.16          10.36  117.85           1.24    1.22    1.53    1.23            0.14    0.16    0.08           0.60     0.70
E2          4.96    5.97    2.07          29.33   -9.49   19.66          21.83  115.77           1.30    1.19    1.82    1.23            0.15    0.19    0.06           0.64     0.73
E3          4.48    5.81    1.13          28.93  -13.98   29.68          32.81  115.22           1.41    1.16    2.24    1.24            0.15    0.21    0.03           0.78     0.87
E4          4.03    6.01    0.47          29.43  -22.41   41.94          47.55  118.12           1.63    1.09    3.10    1.24            0.15    0.23    0.01           0.90     1.02
E5         25.01   28.03   15.33          59.91   -8.32   16.77          18.73  116.41           0.59    0.54    0.81    0.56            0.71    0.82    0.45           0.96     1.09
E6         22.58   27.56    9.24          59.48  -17.20   33.74          37.87  117.02           0.68    0.51    1.10    0.57            0.61    0.75    0.25           0.89     1.06
E7         20.12   27.65    5.15          59.56  -29.18   50.98          58.74  119.79           0.83    0.46    1.48    0.57            0.51    0.66    0.13           0.94     1.08
E8         20.35   29.13    2.68          60.89  -33.74   68.79          76.62  116.12           0.89    0.42    2.01    0.55            0.31    0.30    0.02           0.58     0.64
E9         45.87   49.19   33.26          75.57   -4.37   10.14          11.05  113.35           0.32    0.31    0.43    0.31            0.81    0.87    0.74           0.87     1.02
E10        43.26   48.78   25.85          75.31  -10.82   21.61          24.17  116.61           0.37    0.29    0.57    0.31            0.70    0.77    0.70           0.96     1.13
E11        40.87   48.56   20.36          75.17  -17.40   31.76          36.21  118.73           0.42    0.27    0.70    0.32            0.67    0.74    0.53           0.88     1.03
E12        38.75   48.69   14.88          75.26  -24.39   44.35          50.62  118.82           0.47    0.25    0.88    0.32            0.49    0.45    0.39           0.83     0.95
E13        49.66   59.22   62.23          81.41  -19.09  -14.10          23.73  216.44           0.46    0.17    0.13    0.25            0.39    0.39    0.13           0.34     0.40
E14        54.11   45.29   53.43          73.08   28.46  -19.44          34.47  325.66           0.15    0.46    0.17    0.32            0.45    0.55    0.27           0.61     0.69
E15        67.18   69.29   24.47          86.65    0.80   43.63          43.63   88.95           0.10    0.18    0.61    0.14            0.29    0.32    0.58           0.93     1.05
E16        25.62   26.12   21.51          58.15    1.82    0.09           2.06  167.58           0.55    0.61    0.62    0.58            0.59    0.63    0.53           1.09     1.26
E17        43.05   34.92   21.52          65.69   30.04   13.08          32.77   23.53           0.17    0.61    0.62    0.41            0.53    0.63    0.52           0.96     1.05
E18        42.79   53.07   25.78          77.92  -23.43   26.21          35.16  131.80           0.44    0.22    0.58    0.29            0.49    0.46    0.55           0.78     0.86
E19        35.18   36.18   52.89          66.65    1.00  -29.92          29.94  271.91           0.53    0.44    0.18    0.46            0.60    0.66    0.29           0.69     0.79
E20         7.09    8.24    1.23          34.47   -8.07   37.79          38.64  102.05           1.14    1.05    2.22    1.08            0.20    0.23    0.02           0.85     0.96
E21        24.63   28.89    6.32          60.67  -13.27   47.29          49.11  105.67           0.61    0.51    1.33    0.54            0.65    0.77    0.19           1.11     1.27
E22         8.95   17.70   13.60          49.12  -54.29    2.63          54.36  177.23           1.76    0.55    0.89    0.83            0.19    0.34    0.32           0.91     1.04
F1          3.39    4.11    2.94          24.04   -8.86    3.25           9.45  159.92           1.49    1.36    1.58    1.41            0.09    0.11    0.07           0.57     0.63
F2          2.82    4.12    2.55          24.08  -18.69    6.34          19.74  161.29           1.70    1.29    1.68    1.42            0.08    0.12    0.08           0.69     0.76
F3          2.30    4.07    2.06          23.89  -28.05   10.30          29.88  159.84           1.96    1.24    1.82    1.45            0.07    0.12    0.06           0.72     0.81
F4          1.72    4.02    1.55          23.75  -40.64   15.36          43.44  159.30           2.46    1.17    2.04    1.47            0.06    0.14    0.05           0.72     0.82
F5         11.21   13.88   10.07          44.05  -14.80    4.33          15.44  163.76           1.02    0.81    1.00    0.88            0.37    0.47    0.33           0.97     1.12
F6          9.14   13.83    7.95          43.98  -30.59   11.75          32.78  159.01           1.27    0.74    1.15    0.90            0.27    0.40    0.20           0.88     1.05
F7          7.11   13.80    6.74          43.94  -48.69   16.58          51.44  161.21           1.69    0.67    1.27    0.92            0.18    0.35    0.14           0.87     1.03
F8          6.50   13.75    6.41          43.87  -54.56   17.88          57.42  161.86           1.87    0.65    1.31    0.93            0.14    0.29    0.15           0.72     0.82
F9         30.28   34.28   26.35          65.18  -10.09    3.28          10.64  162.19           0.55    0.44    0.54    0.48            0.72    0.82    0.71           1.00     1.19
F10        26.96   34.21   23.86          65.13  -22.77    7.63          24.03  161.50           0.69    0.40    0.60    0.49            0.59    0.73    0.62           0.98     1.16
F11        23.61   33.76   21.93          64.77  -35.36   10.68          36.94  163.21           0.86    0.36    0.65    0.51            0.50    0.65    0.56           0.94     1.07
F12        22.69   35.55   19.85          66.17  -45.51   17.30          48.69  159.19           0.97    0.31    0.71    0.49            0.28    0.30    0.30           0.68     0.76
F13        45.73   56.15   61.64          79.70  -22.58  -16.46          27.95  216.09           0.53    0.18    0.13    0.28            0.37    0.36    0.13           0.35     0.40
F14        49.65   39.46   50.75          69.08   34.04  -23.39          41.30  325.50           0.17    0.55    0.19    0.38            0.48    0.57    0.30           0.66     0.76
F15        65.96   67.78   19.00          85.90    1.36   53.11          53.13   88.54           0.10    0.19    0.75    0.15            0.30    0.33    0.40           0.76     0.89
F16        17.62   18.03   15.16          49.53    1.26   -0.72           1.69  240.82           0.71    0.77    0.78    0.74            0.46    0.49    0.32           1.09     1.21
F17        36.97   27.93   15.01          59.83   36.40   17.43          40.36   25.59           0.20    0.77    0.78    0.50            0.46    0.52    0.39           0.96     1.06
