targets/wolf_faust/transmissive/E051025.it8
IT8.7/1
ORIGINATOR "Wolf Faust"
DESCRIPTOR "Ektachrome, Type 3, L* a* b* (light D50, viewing angle 2)"
MANUFACTURER "Wolf Faust - http://www.coloraid.de"
CREATED "November 04, 2005"
PROD_DATE "2005:10"
DIFFUSE_GEOMETRY "opal"
SERIAL "E051025 Batch Average Data"
MATERIAL "For Kodak Ektachrome Product Family"
KEYWORD "MEAN_DE" # Mean Delta E of samples compared to batch average
NUMBER_OF_FIELDS 18
BEGIN_DATA_FORMAT
SAMPLE_ID  XYZ_X   XYZ_Y   XYZ_Z          LAB_L   LAB_A   LAB_B          LAB_C   LAB_H          D_RED  D_GREEN  D_BLUE  D_VIS          STDEV_X STDEV_Y STDEV_Z        MEAN_DE  STDEV_DE
END_DATA_FORMAT
NUMBER_OF_SETS 288
BEGIN_DATA
A1          2.06    1.73    1.25          14.01    9.30    2.24           9.58   13.46           1.50    1.93    1.94    1.73            0.03    0.03    0.06           0.61     0.71
A2          2.61    1.76    0.98          14.15   20.08    6.31          21.05   17.42           1.30    2.11    2.04    1.68            0.04    0.03    0.04           0.52     0.63 
A3          3.09    1.73    0.81          14.02   29.51    8.96          30.84   16.87           1.16    2.38    2.10    1.65            0.06    0.03    0.03           0.66     0.76
A4          4.21    1.92    0.69          15.05   42.30   12.88          44.22   16.93           0.95    3.03    2.11    1.56            0.07    0.03    0.02           0.60     0.71 
A5          9.57    8.12    6.06          34.24   14.92    2.89          15.22   10.92           0.85    1.23    1.20    1.06            0.14    0.14    0.18           0.82     0.96
A6         11.14    7.98    5.05          33.94   28.29    7.29          29.23   14.42           0.70    1.37    1.28    1.04            0.15    0.12    0.17           0.95     1.15 
A7         13.81    8.37    4.47          34.73   42.91   11.83          44.53   15.41           0.54    1.54    1.32    0.98            0.17    0.11    0.15           0.86     1.10
A8         16.94    8.59    3.81          35.18   59.43   16.48          61.68   15.50           0.38    1.89    1.36    0.93            0.07    0.05    0.11           0.64     0.76 
A9         29.35   28.07   22.62          59.95    8.96    1.04           9.06   96.54           0.45    0.61    0.59    0.54            0.30    0.31    0.60           0.86     1.01
A10        31.11   27.86   21.57          59.76   16.38    2.74          16.63    9.47           0.38    0.65    0.61    0.53            0.24    0.23    0.56           0.84     1.00
A11        33.30   28.00   20.59          59.89   23.70    4.94          24.23   11.74           0.31    0.68    0.63    0.52            0.17    0.15    0.56           0.81     1.04
A12        38.15   28.94   19.16          60.73   36.33    9.38          37.54   14.46           0.20    0.74    0.66    0.49            0.26    0.22    0.59           0.84     1.01 
A13        73.30   76.97   66.57          90.31   -1.90   -2.89           3.46  236.76           0.14    0.11    0.09    0.12            0.26    0.23    0.21           0.14     0.15
A14        76.99   77.44   65.95          90.52    4.72   -1.94           5.10  337.60           0.08    0.13    0.10    0.11            0.33    0.40    0.26           0.22     0.25 
A15        78.39   80.20   61.97          91.77    2.11    4.03           4.55   62.32           0.08    0.11    0.13    0.09            0.36    0.33    0.51           0.31     0.35
A16        76.73   79.17   65.06          91.31    0.81    0.25           0.86   62.17           0.10    0.11    0.11    0.10            0.28    0.26    0.35           0.17     0.20
A17        76.39   76.79   63.55          90.23    4.79   -0.17           4.79  312.92           0.08    0.13    0.11    0.11            0.41    0.45    0.41           0.24     0.28
A18        71.24   75.46   59.50          89.61   -3.20    2.74           4.22  139.62           0.15    0.12    0.15    0.12            0.35    0.30    0.63           0.38     0.48 
A19        74.28   76.21   65.87          89.96    1.64   -2.85           3.29  299.96           0.12    0.13    0.10    0.12            0.28    0.31    0.21           0.16     0.19
A20         6.40    2.98    1.94          19.95   47.41    4.68          47.64    5.63           0.79    2.66    1.63    1.38            0.11    0.05    0.07           0.73     0.89 
A21        26.31   18.38   14.84          49.95   40.01    0.83          40.03   91.19           0.33    1.01    0.76    0.67            0.37    0.31    0.36           0.86     1.05
A22        54.71   49.92   33.81          76.02   17.29   10.11          20.03   30.31           0.14    0.38    0.41    0.28            0.47    0.56    0.61           0.61     0.74
B1          3.19    2.84    1.56          19.38    8.04    7.70          11.14   43.66           1.33    1.67    1.87    1.52            0.05    0.05    0.06           0.64     0.78
B2          3.70    2.81    0.96          19.26   16.64   15.51          22.76   42.96           1.19    1.78    2.12    1.49            0.06    0.05    0.04           0.68     0.79
B3          4.25    2.76    0.52          19.05   25.55   23.08          34.43   42.09           1.07    1.94    2.44    1.47            0.08    0.04    0.02           0.60     0.75
B4          5.24    2.79    0.10          19.20   37.66   31.16          48.88   39.61           0.91    2.28    3.39    1.42            0.10    0.05    0.00           0.44     0.55
B5         12.22   10.81    6.56          39.25   12.97    9.26          15.96   35.46           0.76    1.08    1.18    0.94            0.16    0.16    0.19           0.89     1.02
B6         14.12   10.79    4.22          39.22   25.54   21.01          33.08   39.41           0.61    1.18    1.40    0.91            0.14    0.12    0.16           0.88     1.08
B7         16.29   10.77    2.64          39.18   38.55   31.67          49.89   39.39           0.49    1.32    1.63    0.88            0.17    0.12    0.10           0.95     1.10
B8         20.49   11.40    0.99          40.25   55.92   51.27          75.86   42.51           0.33    1.55    2.15    0.82            0.10    0.09    0.04           0.57     0.72
B9         35.36   34.72   26.29          65.53    6.46    3.99           7.63   31.31           0.38    0.50    0.53    0.45            0.35    0.37    0.70           0.90     1.02
B10        36.88   34.60   23.57          65.44   11.91    8.70          14.77   36.06           0.33    0.53    0.58    0.44            0.33    0.34    0.62           0.79     0.94
B11        38.31   34.54   21.44          65.39   16.78   12.70          21.07   37.05           0.28    0.55    0.63    0.44            0.24    0.25    0.70           1.01     1.22
B12        42.52   34.72   16.53          65.53   29.14   23.57          37.49   38.95           0.17    0.61    0.75    0.41            0.30    0.30    0.57           0.91     1.10
B13        64.60   69.62   63.84          86.81   -5.64   -6.34           8.49  228.29           0.22    0.14    0.11    0.17            0.42    0.41    0.43           0.24     0.28
B14        69.44   67.18   61.83          85.59   10.27   -6.49          12.15  327.70           0.11    0.21    0.12    0.17            0.51    0.63    0.49           0.35     0.44
B15        71.66   73.39   49.65          88.63    1.88   11.57          11.73   80.68           0.10    0.15    0.24    0.13            0.46    0.47    1.22           0.86     1.07
B16        59.20   61.02   50.50          82.39    0.88   -0.16           1.06  130.41           0.21    0.22    0.22    0.21            0.46    0.50    0.86           0.58     0.71
B17        66.68   64.90   50.35          84.43    9.27    3.53           9.93   20.78           0.11    0.23    0.22    0.18            0.49    0.56    0.88           0.55     0.68
B18        62.65   68.12   50.85          86.07   -6.89    5.79           9.01  140.14           0.21    0.15    0.23    0.17            0.43    0.40    0.96           0.68     0.87
B19        62.39   64.37   62.22          84.16    0.73   -9.35           9.38  274.45           0.21    0.20    0.12    0.20            0.34    0.39    0.28           0.25     0.31
B20         4.83    2.88    0.84          19.54   31.15   17.92          35.94   29.89           0.98    2.05    2.13    1.44            0.11    0.06    0.03           0.74     0.91
B21        16.54   10.90    4.23          39.40   39.03   21.24          44.44   28.54           0.48    1.32    1.38    0.88            0.28    0.21    0.16           1.01     1.25
B22        33.36   28.11   17.48          59.99   23.46   11.79          26.27   26.66           0.30    0.68    0.72    0.52            0.51    0.50    0.40           0.87     1.04
C1          6.15    5.96    3.31          29.31    4.51    9.68          10.69   64.92           1.09    1.29    1.52    1.21            0.10    0.09    0.13           0.73     0.86
C2          6.42    5.87    1.95          29.07    8.39   20.28          21.95   67.49           1.03    1.33    1.81    1.20            0.10    0.10    0.09           0.91     1.08
C3          6.87    5.85    1.02          29.02   13.22   31.44          34.10   67.19           0.97    1.37    2.20    1.19            0.12    0.11    0.04           0.72     0.85
C4          7.24    5.70    0.28          28.64   18.49   44.04          47.77   67.22           0.93    1.43    3.19    1.18            0.14    0.11    0.00           0.52     0.62
C5         23.83   22.51   12.01          54.56    9.61   16.46          19.07   59.67           0.50    0.72    0.91    0.63            0.26    0.27    0.30           0.74     0.87
C6         25.45   22.50    6.56          54.56   16.60   35.67          39.34   65.02           0.42    0.76    1.24    0.61            0.22    0.22    0.24           1.04     1.19
C7         27.06   22.28    3.10          54.32   24.24   54.29          59.46   65.93           0.36    0.81    1.68    0.60            0.25    0.21    0.11           0.96     1.10
C8         30.35   22.43    0.59          54.48   36.32   82.86          90.47   66.33           0.28    0.90    3.05    0.57            0.30    0.26    0.01           0.57     0.66
C9         41.64   41.45   29.39          70.49    5.14    7.36           8.99   54.85           0.32    0.42    0.48    0.37            0.34    0.35    0.56           0.74     0.94
C10        42.52   41.37   25.30          70.43    8.03   14.17          16.29   60.37           0.28    0.43    0.56    0.37            0.38    0.43    0.84           0.98     1.15
C11        43.29   41.30   21.25          70.39   10.51   21.72          24.13   64.14           0.25    0.44    0.65    0.36            0.27    0.30    0.69           0.97     1.16
C12        46.89   40.81    9.82          70.04   22.30   50.01          54.76   65.96           0.15    0.50    1.06    0.35            0.25    0.29    0.40           1.01     1.14
C13        58.99   65.90   63.24          84.94  -10.64   -8.98          13.93  220.16           0.30    0.15    0.12    0.20            0.42    0.38    0.33           0.27     0.32
C14        64.39   59.70   59.16          81.67   16.04  -10.59          19.23  326.56           0.12    0.28    0.14    0.21            0.59    0.75    0.53           0.48     0.62
C15        70.07   72.16   40.73          88.05    1.05   21.34          21.37   87.18           0.10    0.16    0.34    0.13            0.37    0.39    1.16           1.01     1.25
C16        47.11   48.21   40.00          74.95    1.75   -0.29           1.85  216.28           0.30    0.33    0.33    0.32            0.33    0.35    0.56           0.49     0.61
C17        58.27   53.82   39.87          78.36   16.01    5.76          17.02   19.77           0.13    0.34    0.33    0.25            0.40    0.47    0.62           0.47     0.59
C18        55.38   62.97   41.79          83.43  -12.95   12.02          17.67  137.19           0.29    0.17    0.33    0.21            0.41    0.38    0.79           0.69     0.83
C19        52.84   54.32   59.22          78.65    1.20  -15.87          15.92  274.32           0.30    0.27    0.14    0.27            0.38    0.41    0.25           0.40     0.45
C20        11.63    8.43    1.06          34.86   27.75   40.92          49.44   55.84           0.67    1.33    2.18    1.00            0.22    0.17    0.05           0.87     0.99
C21        21.96   20.10   11.37          51.95   12.48   13.87          18.67   47.91           0.52    0.78    0.93    0.67            0.41    0.40    0.31           1.03     1.27
C22        27.31   22.88   11.35          54.94   22.57   19.07          29.56   40.17           0.38    0.78    0.93    0.60            0.41    0.40    0.37           1.02     1.18
D1          4.06    4.24    2.36          24.46   -0.51    8.61           8.62   93.39           1.31    1.40    1.69    1.37            0.06    0.06    0.11           0.72     0.87
D2          3.95    4.13    1.34          24.08   -0.36   18.50          18.50   91.14           1.31    1.41    2.02    1.37            0.11    0.11    0.06           0.67     0.81
D3          3.88    4.10    0.73          23.99   -0.99   27.66          27.68   92.05           1.33    1.40    2.43    1.37            0.06    0.06    0.03           0.65     0.74
D4          3.81    4.04    0.30          23.79   -1.20   35.31          35.33   91.94           1.37    1.40    3.18    1.37            0.08    0.09    0.00           0.50     0.61
D5         17.55   18.05    9.26          49.55    0.80   16.55          16.57   87.19           0.68    0.77    1.05    0.73            0.24    0.26    0.29           0.89     1.06
D6         17.18   17.75    5.01          49.19    0.34   33.82          33.82   89.43           0.68    0.77    1.40    0.73            0.18    0.21    0.16           1.01     1.14
D7         16.89   17.48    2.27          48.85    0.20   51.41          51.41   89.78           0.69    0.78    1.90    0.74            0.32    0.34    0.07           0.80     1.05
D8         16.67   17.65    0.73          49.06   -1.89   70.78          70.80   91.53           0.75    0.76    2.98    0.73            0.24    0.28    0.01           0.59     0.68
D9         47.39   48.97   25.82          75.43    0.48   21.86          21.87   88.74           0.26    0.33    0.56    0.30            0.42    0.46    0.62           0.76     0.98
D10        46.43   48.00   14.58          74.83    0.40   44.38          44.38   89.48           0.25    0.34    0.87    0.30            0.34    0.39    0.51           0.98     1.28
D11        45.69   47.83    7.24          74.72   -1.24   67.54          67.55   91.05           0.26    0.34    1.30    0.30            0.28    0.28    0.30           0.95     1.19
D12        46.07   48.51    2.83          75.15   -1.97   92.19          92.21   91.23           0.28    0.33    2.02    0.29            0.21    0.17    0.10           0.64     0.79
D13        54.19   62.54   62.81          83.20  -14.97  -11.57          18.92  217.70           0.38    0.16    0.12    0.22            0.30    0.25    0.28           0.29     0.33
D14        58.95   52.01   56.21          77.29   22.26  -15.13          26.92  325.79           0.14    0.37    0.16    0.27            0.39    0.51    0.36           0.43     0.53
D15        68.43   70.65   32.34          87.31    0.68   31.78          31.79   88.77           0.10    0.17    0.46    0.14            0.28    0.32    0.93           0.99     1.21
D16        35.24   35.88   30.10          66.43    2.19   -0.78           2.40  296.46           0.42    0.47    0.46    0.44            0.36    0.39    0.47           0.67     0.77
D17        49.83   43.17   29.86          71.67   23.36    8.65          24.91   20.30           0.15    0.47    0.46    0.34            0.32    0.38    0.48           0.54     0.61
D18        48.73   57.87   33.33          80.67  -18.40   18.84          26.34  134.35           0.37    0.19    0.44    0.25            0.33    0.29    0.69           0.77     0.90
D19        43.36   44.62   56.06          72.64    1.01  -22.99          23.02  272.52           0.41    0.35    0.16    0.36            0.44    0.48    0.24           0.50     0.59
D20         2.99    2.98    0.99          19.94    2.13   16.16          16.30   82.48           1.40    1.58    2.16    1.51            0.08    0.07    0.04           0.75     0.89
D21        31.18   28.13    1.39          60.00   15.56   79.80          81.30   78.96           0.36    0.65    2.39    0.51            0.60    0.58    0.04           0.84     1.05
D22        41.86   45.39   56.83          73.15   -5.67  -22.92          23.61  256.10           0.47    0.32    0.16    0.36            0.49    0.55    0.31           0.51     0.60
E1          5.38    6.07    3.46          29.59   -5.44    9.12          10.62  120.91           1.24    1.21    1.52    1.22            0.12    0.13    0.12           0.71     0.84
E2          4.90    5.92    2.08          29.21   -9.66   19.35          21.63  116.55           1.31    1.19    1.82    1.23            0.11    0.13    0.07           0.63     0.78
E3          4.44    5.77    1.19          28.82  -13.92   28.57          31.78  115.99           1.41    1.17    2.19    1.25            0.06    0.08    0.05           0.71     0.79
E4          3.99    5.97    0.47          29.34  -22.49   41.79          47.46  118.28           1.63    1.09    3.09    1.24            0.08    0.14    0.01           0.69     0.80
E5         24.82   27.75   15.58          59.66   -8.07   15.72          17.68  117.26           0.60    0.54    0.80    0.56            0.44    0.49    0.45           0.99     1.15
E6         22.67   27.65    9.53          59.57  -17.16   32.91          37.12  117.55           0.68    0.51    1.08    0.56            0.34    0.39    0.27           1.00     1.22
E7         20.15   27.69    5.23          59.60  -29.18   50.63          58.44  119.96           0.82    0.46    1.47    0.57            0.29    0.35    0.15           0.86     1.03
E8         20.36   29.14    2.76          60.91  -33.75   68.21          76.10  116.33           0.88    0.42    1.98    0.55            0.19    0.18    0.08           0.57     0.68
E9         45.74   49.00   33.75          75.45   -4.23    9.21          10.14  114.79           0.33    0.31    0.42    0.31            0.53    0.56    0.68           0.77     0.95
E10        43.15   48.60   26.25          75.20  -10.65   20.72          23.29  117.22           0.37    0.29    0.56    0.32            0.51    0.55    0.57           0.76     0.95
E11        40.63   48.17   20.84          74.93  -17.09   30.36          34.84  119.40           0.42    0.28    0.69    0.32            0.46    0.47    0.67           0.99     1.21
E12        38.61   48.50   15.20          75.14  -24.30   43.36          49.71  119.28           0.48    0.25    0.87    0.32            0.34    0.33    0.59           1.08     1.29
E13        50.01   59.44   62.28          81.53  -18.67  -13.94          23.30  216.74           0.45    0.17    0.12    0.25            0.33    0.28    0.29           0.30     0.33
E14        54.21   45.49   53.62          73.21   28.11  -19.41          34.16  325.38           0.15    0.45    0.17    0.32            0.34    0.43    0.38           0.47     0.55
E15        66.93   69.04   25.03          86.52    0.80   42.40          42.41   88.92           0.10    0.18    0.60    0.15            0.22    0.27    0.91           1.17     1.43
E16        25.60   25.98   21.75          58.02    2.31   -0.60           2.55  213.11           0.55    0.61    0.62    0.58            0.42    0.44    0.51           0.96     1.14
E17        42.77   34.67   21.57          65.49   30.07   12.64          32.63   22.80           0.18    0.62    0.62    0.42            0.31    0.37    0.42           0.77     0.88
E18        42.97   53.11   25.97          77.94  -23.00   25.93          34.67  131.59           0.44    0.22    0.58    0.29            0.37    0.33    0.73           0.96     1.13
E19        35.37   36.30   53.00          66.75    1.26  -29.89          29.92  272.41           0.52    0.44    0.18    0.46            0.45    0.50    0.36           0.56     0.65
E20         7.12    8.23    1.22          34.46   -7.79   37.90          38.69  101.62           1.13    1.05    2.22    1.08            0.17    0.19    0.05           0.83     0.97
E21        24.71   29.20    6.55          60.96  -14.12   46.75          48.84  106.82           0.61    0.50    1.31    0.53            0.45    0.54    0.26           1.18     1.50
E22         9.05   17.81   13.81          49.27  -54.07    2.31          54.13  177.56           1.75    0.55    0.88    0.82            0.16    0.28    0.39           0.94     1.16
F1          3.41    4.17    2.98          24.22   -9.23    3.22           9.79  160.89           1.50    1.35    1.58    1.40            0.09    0.10    0.12           0.71     0.83
F2          2.86    4.16    2.57          24.19  -18.46    6.33          19.52  161.09           1.69    1.29    1.67    1.42            0.07    0.09    0.09           0.69     0.82
F3          2.29    4.06    2.18          23.85  -28.02    9.19          29.50  161.87           1.97    1.24    1.79    1.45            0.05    0.08    0.08           0.72     0.86
F4          1.72    4.01    1.64          23.72  -40.55   14.30          43.00  160.59           2.46    1.17    2.00    1.47            0.04    0.09    0.04           0.62     0.76
F5         11.16   13.81   10.11          43.95  -14.74    4.04          15.31  164.74           1.03    0.81    1.00    0.88            0.09    0.12    0.32           0.88     1.01
F6          9.05   13.68    8.12          43.77  -30.40   10.73          32.25  160.58           1.28    0.74    1.13    0.90            0.14    0.20    0.23           0.92     1.10
F7          7.16   13.87    6.89          44.04  -48.63   16.13          51.24  161.66           1.68    0.67    1.25    0.92            0.10    0.17    0.25           0.90     1.12
F8          6.50   13.70    6.49          43.80  -54.31   17.44          57.04  162.20           1.86    0.65    1.30    0.93            0.10    0.16    0.18           0.73     0.94
F9         30.09   33.97   26.69          64.93   -9.71    2.27          10.01  166.99           0.56    0.45    0.53    0.48            0.55    0.60    0.61           0.84     1.03
F10        27.08   34.30   24.55          65.20  -22.57    6.49          23.51  164.00           0.69    0.40    0.58    0.49            0.49    0.57    0.69           1.01     1.21
F11        23.79   33.83   22.24          64.83  -34.81   10.19          36.29  163.71           0.85    0.36    0.64    0.51            0.43    0.52    0.67           1.04     1.23
F12        22.92   35.75   20.47          66.33  -45.12   16.30          47.98  160.15           0.96    0.31    0.70    0.49            0.28    0.29    0.62           0.91     1.05
F13        46.15   56.47   61.70          79.88  -22.17  -16.21          27.47  216.16           0.52    0.18    0.13    0.28            0.33    0.30    0.29           0.33     0.36
F14        49.95   39.89   51.09          69.39   33.50  -23.23          40.77  325.26           0.17    0.54    0.19    0.37            0.39    0.46    0.39           0.53     0.62
F15        65.78   67.63   19.68          85.82    1.29   51.54          51.55   88.57           0.10    0.19    0.73    0.15            0.26    0.33    0.81           1.23     1.48
F16        17.84   18.28   15.58          49.83    1.15   -1.22           1.81  278.04           0.71    0.76    0.77    0.74            0.43    0.44    0.51           1.10     1.31
F17        37.08   28.11   15.50          59.98   36.07   16.47          39.66   24.54           0.20    0.76    0.77    0.50            0.33    0.39    0.44           0.87     1.01
