targets/wolf_faust/transmissive/E060111.it8
IT8.7/1
ORIGINATOR "Wolf Faust"
DESCRIPTOR "Ektachrome, Type 3, L* a* b* (light D50, viewing angle 2)"
MANUFACTURER "Wolf Faust - http://www.coloraid.de"
CREATED "April 26, 2006"
PROD_DATE "2006:01"
DIFFUSE_GEOMETRY "opal"
SERIAL "E060111 Batch Average Data"
MATERIAL "For Kodak Ektachrome Product Family"
KEYWORD "MEAN_DE" # Mean Delta E of samples compared to batch average
NUMBER_OF_FIELDS 18
BEGIN_DATA_FORMAT
SAMPLE_ID  XYZ_X   XYZ_Y   XYZ_Z          LAB_L   LAB_A   LAB_B          LAB_C   LAB_H          D_RED  D_GREEN  D_BLUE  D_VIS          STDEV_X STDEV_Y STDEV_Z        MEAN_DE  STDEV_DE
END_DATA_FORMAT
NUMBER_OF_SETS 288
BEGIN_DATA
A1          2.02    1.73    1.19          14.00    8.56    3.01           9.08   19.35           1.50    1.92    1.98    1.73            0.06    0.05    0.05           0.43     0.48
A2          2.46    1.66    0.94          13.61   19.56    6.06          20.48   17.22           1.32    2.13    2.07    1.71            0.07    0.05    0.04           0.42     0.47 
A3          3.00    1.67    0.79          13.68   29.32    8.64          30.57   16.43           1.17    2.40    2.12    1.66            0.07    0.04    0.03           0.40     0.46
A4          4.01    1.80    0.64          14.42   42.13   12.70          44.00   16.77           0.97    3.17    2.14    1.58            0.08    0.03    0.03           0.43     0.48 
A5          9.22    8.03    5.71          34.05   12.91    4.21          13.59   18.04           0.87    1.22    1.24    1.07            0.26    0.23    0.25           0.64     0.72
A6         11.20    8.15    5.06          34.30   27.14    7.87          28.26   16.17           0.70    1.34    1.28    1.03            0.28    0.21    0.20           0.62     0.69 
A7         13.37    8.11    4.21          34.21   42.37   12.39          44.14   16.31           0.55    1.55    1.35    1.00            0.31    0.20    0.19           0.61     0.69
A8         16.33    8.20    3.47          34.39   59.47   17.36          61.96   16.27           0.40    1.93    1.41    0.95            0.13    0.08    0.14           0.64     0.77 
A9         27.81   27.09   21.63          59.05    6.85    1.43           7.03   11.81           0.48    0.61    0.62    0.56            0.72    0.72    0.85           0.90     1.00
A10        29.57   26.82   20.38          58.80   14.73    3.51          15.16   13.40           0.40    0.66    0.64    0.55            0.78    0.75    0.76           0.85     0.95
A11        31.93   27.14   19.34          59.10   22.21    6.19          23.07   15.58           0.33    0.69    0.67    0.53            0.79    0.75    0.72           0.85     0.95
A12        36.75   27.54   17.62          59.47   37.20   10.60          38.69   15.89           0.20    0.77    0.70    0.51            0.51    0.55    0.69           0.95     1.08 
A13        72.24   76.19   64.98          89.95   -2.54   -2.02           3.25  218.47           0.15    0.11    0.11    0.12            0.34    0.31    0.22           0.23     0.27
A14        77.69   78.70   65.09          91.10    3.64   -0.14           3.65  280.79           0.08    0.12    0.10    0.10            0.23    0.31    0.20           0.23     0.28 
A15        78.24   80.00   63.11          91.69    2.19    2.77           3.53   51.57           0.08    0.11    0.12    0.09            0.22    0.27    0.30           0.23     0.25
A16        75.57   78.42   64.59          90.97   -0.10    0.11           0.20  161.35           0.11    0.11    0.11    0.11            0.27    0.26    0.26           0.20     0.22
A17        77.52   78.53   64.20          91.02    3.63    0.57           3.68    9.04           0.08    0.12    0.11    0.10            0.24    0.30    0.31           0.22     0.26
A18        74.08   77.42   60.19          90.51   -1.16    3.61           3.79  107.82           0.12    0.11    0.14    0.11            0.34    0.31    0.32           0.21     0.24 
A19        73.65   75.46   64.86          89.61    1.86   -2.50           3.11  306.60           0.12    0.13    0.10    0.12            0.33    0.32    0.17           0.24     0.26
A20         5.89    2.74    1.62          18.99   46.07    6.35          46.51    7.85           0.82    2.71    1.72    1.41            0.13    0.06    0.06           0.50     0.57 
A21        25.37   17.70   14.01          49.12   39.70    1.57          39.74   27.99           0.34    1.03    0.79    0.69            0.56    0.44    0.69           1.05     1.15
A22        52.30   47.38   31.53          74.43   18.00   10.80          21.00   30.92           0.15    0.41    0.44    0.30            0.82    0.94    1.14           1.10     1.23
B1          3.07    2.75    1.51          19.01    7.54    7.72          10.79   45.66           1.34    1.68    1.89    1.53            0.09    0.08    0.06           0.43     0.48
B2          3.65    2.81    0.94          19.27   15.84   15.86          22.41   45.03           1.20    1.77    2.14    1.49            0.10    0.07    0.04           0.42     0.45
B3          4.21    2.75    0.55          19.01   25.14   22.41          33.68   41.72           1.07    1.93    2.41    1.47            0.10    0.07    0.03           0.36     0.39
B4          5.02    2.72    0.09          18.90   36.32   30.81          47.63   40.31           0.93    2.24    3.49    1.44            0.11    0.06    0.00           0.44     0.53
B5         11.83   10.60    6.18          38.90   11.79   10.37          15.71   41.31           0.77    1.08    1.22    0.95            0.32    0.29    0.27           0.73     0.78
B6         13.88   10.74    3.95          39.14   24.39   22.44          33.14   42.61           0.62    1.17    1.45    0.91            0.33    0.26    0.17           0.61     0.67
B7         16.08   10.75    2.32          39.16   37.44   34.28          50.77   42.48           0.50    1.31    1.72    0.88            0.38    0.27    0.11           0.53     0.60
B8         19.97   11.00    1.03          39.58   56.24   49.49          74.91   41.35           0.33    1.58    2.12    0.83            0.16    0.13    0.05           0.44     0.52
B9         32.91   32.70   24.69          63.91    4.96    4.03           6.41   38.91           0.41    0.52    0.56    0.48            0.85    0.88    0.92           0.85     0.97
B10        34.79   32.95   22.00          64.11   10.63    9.42          14.21   41.50           0.35    0.54    0.62    0.47            0.87    0.87    0.83           0.91     0.99
B11        36.26   32.82   19.58          64.01   16.01   14.16          21.38   41.47           0.30    0.57    0.67    0.46            0.94    0.94    0.81           0.94     1.04
B12        41.30   33.46   14.66          64.53   29.78   26.44          39.83   41.59           0.17    0.63    0.82    0.43            0.60    0.71    0.59           0.97     1.11
B13        64.25   70.04   63.18          87.02   -7.32   -5.35           9.07  216.17           0.23    0.14    0.12    0.16            0.45    0.41    0.25           0.29     0.33
B14        68.17   64.93   60.10          84.45   12.47   -6.75          14.18  331.57           0.10    0.23    0.13    0.18            0.53    0.66    0.36           0.44     0.56
B15        73.57   75.68   49.20          89.71    1.24   13.94          13.99   84.92           0.09    0.13    0.25    0.11            0.39    0.44    0.64           0.46     0.52
B16        57.47   59.66   49.94          81.65   -0.14   -0.79           0.83  257.21           0.23    0.23    0.23    0.23            0.91    0.97    1.06           0.61     0.69
B17        65.93   63.27   49.74          83.58   11.25    2.76          11.59   13.74           0.10    0.24    0.23    0.19            0.63    0.74    0.95           0.62     0.71
B18        63.18   69.31   51.75          86.65   -8.20    5.80          10.05  144.79           0.22    0.14    0.22    0.16            0.65    0.56    0.89           0.58     0.68
B19        59.70   61.88   60.55          82.85    0.08   -9.96           9.97  270.45           0.23    0.21    0.13    0.21            0.60    0.66    0.35           0.41     0.50
B20         4.50    2.68    0.83          18.71   30.34   16.74          34.65   28.89           1.01    2.08    2.14    1.47            0.11    0.06    0.04           0.38     0.45
B21        16.19   10.75    3.77          39.16   38.10   23.64          44.84   31.82           0.49    1.31    1.45    0.89            0.41    0.29    0.19           0.66     0.72
B22        32.02   26.99   16.25          58.96   23.10   12.91          26.48   29.17           0.32    0.70    0.76    0.53            0.81    0.75    0.86           1.09     1.20
C1          5.94    5.91    3.20          29.18    2.70   10.19          10.54   75.13           1.11    1.28    1.55    1.22            0.16    0.15    0.13           0.53     0.57
C2          6.25    5.77    1.91          28.83    7.58   20.29          21.66   69.52           1.04    1.33    1.83    1.21            0.16    0.16    0.08           0.44     0.50
C3          6.72    5.80    1.04          28.91   12.16   30.95          33.25   68.56           0.98    1.36    2.20    1.19            0.17    0.15    0.04           0.43     0.50
C4          7.39    5.85    0.26          29.02   18.35   45.15          48.74   67.88           0.92    1.41    3.29    1.17            0.17    0.14    0.01           0.51     0.63
C5         22.51   21.87   11.16          53.89    6.63   17.84          19.03   69.62           0.54    0.71    0.96    0.64            0.62    0.63    0.43           0.78     0.85
C6         24.37   21.88    6.08          53.90   14.84   36.71          39.59   67.99           0.44    0.76    1.29    0.62            0.53    0.51    0.25           0.71     0.78
C7         26.29   21.90    2.94          53.92   22.83   54.74          59.31   67.36           0.38    0.80    1.72    0.61            0.53    0.50    0.13           0.64     0.72
C8         30.23   22.59    0.55          54.65   35.13   83.92          90.98   67.28           0.29    0.88    3.17    0.57            0.50    0.45    0.01           0.59     0.78
C9         38.78   39.20   27.47          68.89    3.14    7.77           8.38   67.96           0.35    0.43    0.52    0.40            0.97    1.03    0.99           0.86     0.97
C10        40.05   39.43   23.40          69.06    6.42   15.27          16.57   67.19           0.31    0.44    0.60    0.39            1.02    1.08    0.93           0.91     1.04
C11        41.29   39.64   19.33          69.21    9.58   23.64          25.51   67.94           0.27    0.46    0.70    0.38            1.00    1.08    0.82           0.91     1.03
C12        46.30   40.15    8.67          69.58   22.66   53.20          57.82   66.93           0.15    0.51    1.13    0.35            0.57    0.74    0.35           0.95     1.08
C13        58.50   66.04   62.71          85.02  -12.15   -8.34          14.73  214.45           0.31    0.15    0.12    0.20            0.46    0.41    0.20           0.33     0.39
C14        62.23   56.49   57.05          79.89   18.77  -11.52          22.02  328.47           0.12    0.32    0.15    0.24            0.70    0.86    0.49           0.62     0.79
C15        72.03   74.49   40.12          89.15    0.43   24.05          24.05   88.97           0.09    0.14    0.35    0.12            0.40    0.45    0.83           0.71     0.82
C16        43.59   45.36   38.01          73.13   -0.43   -0.78           1.02  230.76           0.34    0.35    0.36    0.35            0.93    0.99    1.12           0.87     0.96
C17        56.80   51.73   38.39          77.11   17.79    5.59          18.66   17.42           0.13    0.36    0.35    0.27            0.74    0.87    1.07           0.84     0.95
C18        55.47   63.62   42.36          83.77  -14.19   11.89          18.52  140.11           0.30    0.16    0.32    0.21            0.68    0.59    1.07           0.85     1.00
C19        48.68   50.61   56.78          76.44   -0.33  -17.19          17.19  268.88           0.34    0.29    0.16    0.31            0.84    0.95    0.49           0.68     0.83
C20        11.41    8.32    1.00          34.64   27.20   41.42          49.56   56.70           0.68    1.33    2.23    1.01            0.26    0.19    0.04           0.45     0.52
C21        20.57   19.12   10.56          50.82   10.71   14.44          17.99   53.40           0.55    0.80    0.97    0.70            0.62    0.60    0.54           0.96     1.03
C22        26.01   21.94   10.16          53.96   21.48   21.16          30.16   44.56           0.40    0.79    0.99    0.62            0.70    0.64    0.53           0.95     1.03
D1          3.79    4.08    2.18          23.94   -2.13    9.35           9.60  102.84           1.34    1.41    1.75    1.39            0.12    0.13    0.11           0.54     0.62
D2          3.76    4.00    1.28          23.67   -1.51   18.53          18.59   94.66           1.34    1.41    2.06    1.39            0.10    0.11    0.05           0.43     0.47
D3          3.76    4.06    0.78          23.87   -2.37   26.47          26.57   95.12           1.35    1.39    2.39    1.38            0.10    0.11    0.03           0.41     0.46
D4          3.80    4.16    0.28          24.19   -3.07   36.33          36.46   94.84           1.39    1.37    3.26    1.36            0.09    0.10    0.01           0.44     0.57
D5         16.50   17.38    8.90          48.73   -1.47   16.42          16.49   95.13           0.72    0.77    1.07    0.75            0.50    0.54    0.39           0.74     0.83
D6         16.57   17.65    4.76          49.07   -2.48   34.90          34.99   94.06           0.71    0.76    1.44    0.74            0.40    0.44    0.19           0.64     0.72
D7         16.10   17.16    2.18          48.46   -2.54   51.60          51.66   92.82           0.73    0.77    1.95    0.75            0.38    0.43    0.10           0.58     0.67
D8         16.42   17.74    0.69          49.17   -3.81   71.76          71.86   93.04           0.77    0.75    3.08    0.73            0.40    0.44    0.02           0.66     0.84
D9         44.75   46.94   24.12          74.15   -1.46   22.72          22.76   93.69           0.29    0.34    0.60    0.32            0.94    1.06    0.91           0.81     0.94
D10        44.70   47.25   13.83          74.35   -2.46   45.53          45.60   93.09           0.28    0.34    0.91    0.31            0.81    0.90    0.49           0.72     0.81
D11        44.39   47.09    6.61          74.25   -2.92   69.41          69.47   92.41           0.28    0.34    1.36    0.31            0.74    0.82    0.23           0.59     0.68
D12        44.49   47.27    2.46          74.36   -3.13   93.81          93.87   91.91           0.31    0.34    2.15    0.30            0.51    0.47    0.06           0.42     0.50
D13        54.18   62.86   62.12          83.37  -15.74  -10.61          18.98  213.99           0.38    0.15    0.13    0.22            0.52    0.46    0.23           0.37     0.45
D14        57.35   49.85   54.33          75.97   24.05  -15.41          28.57  327.35           0.14    0.39    0.17    0.29            0.64    0.81    0.45           0.66     0.87
D15        70.71   73.28   33.04          88.58    0.11   32.92          32.92   89.81           0.09    0.15    0.45    0.12            0.34    0.39    0.75           0.82     0.91
D16        32.52   33.82   28.53          64.81   -0.31   -1.02           1.15  244.87           0.46    0.48    0.49    0.47            0.81    0.84    1.00           0.90     0.99
D17        49.11   42.35   29.03          71.11   23.84    9.02          25.50   20.69           0.15    0.48    0.48    0.34            0.69    0.79    1.00           1.01     1.13
D18        49.37   58.80   34.38          81.18  -18.88   18.20          26.22  136.09           0.36    0.18    0.43    0.24            0.70    0.63    1.04           0.96     1.12
D19        39.66   41.19   53.21          70.31   -0.20  -23.97          23.98  269.51           0.45    0.38    0.18    0.40            0.81    0.93    0.50           0.72     0.94
D20         2.63    2.65    0.93          18.59    1.45   14.78          14.85   84.41           1.46    1.62    2.19    1.56            0.08    0.08    0.04           0.40     0.45
D21        29.17   26.76    1.30          58.74   13.45   78.77          79.91   80.31           0.40    0.66    2.46    0.53            0.63    0.64    0.05           0.64     0.78
D22        38.50   42.44   54.30          71.17   -7.57  -23.66          24.85  252.25           0.52    0.34    0.18    0.40            0.81    0.94    0.48           0.77     0.93
E1          5.17    5.94    3.24          29.25   -6.57   10.07          12.03  123.13           1.26    1.21    1.56    1.23            0.15    0.17    0.13           0.56     0.63
E2          4.61    5.78    2.00          28.84  -11.78   19.44          22.73  121.21           1.35    1.18    1.85    1.25            0.13    0.16    0.08           0.51     0.56
E3          4.27    5.86    1.19          29.07  -17.39   29.04          33.85  120.91           1.46    1.14    2.22    1.25            0.11    0.15    0.05           0.45     0.51
E4          3.61    5.72    0.43          28.70  -25.48   41.33          48.56  121.65           1.74    1.09    3.19    1.27            0.09    0.14    0.01           0.50     0.62
E5         23.58   26.91   14.83          58.89  -10.17   16.26          19.18  122.03           0.63    0.55    0.83    0.58            0.58    0.67    0.56           0.80     0.89
E6         21.29   26.73    8.95          58.72  -19.86   33.47          38.92  120.69           0.72    0.51    1.12    0.58            0.52    0.65    0.34           0.72     0.81
E7         19.45   26.90    4.78          58.88  -29.53   51.75          59.59  119.71           0.84    0.47    1.54    0.58            0.46    0.62    0.20           0.67     0.75
E8         19.19   28.08    2.68          59.96  -35.50   67.18          75.98  117.85           0.93    0.43    2.01    0.57            0.30    0.35    0.08           0.39     0.45
E9         43.06   47.03   31.99          74.20   -6.65    9.71          11.77  124.44           0.36    0.32    0.45    0.33            0.95    1.04    1.03           0.85     0.94
E10        41.04   47.19   24.89          74.30  -13.17   21.59          25.29  121.40           0.40    0.30    0.59    0.33            0.94    1.04    0.91           0.85     0.95
E11        39.46   47.42   19.47          74.46  -18.68   32.40          37.40  119.97           0.44    0.28    0.73    0.33            0.87    0.97    0.78           0.91     1.04
E12        36.91   47.29   13.74          74.37  -26.49   45.79          52.90  120.05           0.51    0.26    0.93    0.33            0.57    0.55    0.48           0.85     0.96
E13        50.26   59.86   61.46          81.76  -18.98  -12.74          22.86  213.86           0.44    0.16    0.13    0.25            0.55    0.51    0.29           0.41     0.48
E14        52.97   44.08   51.68          72.28   28.99  -18.91          34.61  326.89           0.15    0.47    0.19    0.33            0.66    0.79    0.49           0.69     0.89
E15        69.35   71.85   26.48          87.90    0.14   42.22          42.22   89.81           0.09    0.16    0.57    0.13            0.38    0.44    0.76           1.00     1.11
E16        23.58   24.70   20.54          56.77   -1.03   -0.32           1.26  194.40           0.60    0.62    0.65    0.61            0.75    0.78    0.92           0.96     1.07
E17        42.57   34.59   21.15          65.43   29.73   13.38          32.61   24.20           0.18    0.61    0.63    0.42            0.60    0.66    0.83           1.08     1.20
E18        43.91   54.24   27.22          78.60  -23.10   24.93          33.99  132.83           0.43    0.21    0.55    0.28            0.67    0.62    0.94           1.06     1.21
E19        32.03   33.29   49.75          64.39   -0.25  -30.36          30.36  269.53           0.58    0.47    0.21    0.50            0.68    0.79    0.49           0.72     0.91
E20         6.66    8.00    1.19          33.98  -10.34   37.46          38.87  105.42           1.18    1.05    2.26    1.09            0.18    0.22    0.04           0.47     0.57
E21        22.89   27.51    5.91          59.43  -15.56   47.02          49.53  108.31           0.65    0.52    1.38    0.56            0.61    0.74    0.27           0.81     0.89
E22         8.79   17.38   13.01          48.73  -54.01    3.58          54.13  176.21           1.74    0.56    0.92    0.84            0.28    0.46    0.58           0.97     1.05
F1          3.19    4.04    2.97          23.79  -11.11    2.55          11.40  167.08           1.54    1.35    1.58    1.42            0.10    0.13    0.12           0.54     0.61
F2          2.63    4.03    2.42          23.76  -20.90    6.86          22.00  161.83           1.76    1.28    1.72    1.44            0.10    0.14    0.11           0.55     0.62
F3          2.18    4.04    2.01          23.81  -30.18   10.67          32.02  160.53           2.02    1.23    1.85    1.45            0.07    0.12    0.09           0.52     0.58
F4          1.76    4.18    1.74          24.27  -41.82   14.23          44.18  161.21           2.46    1.15    1.98    1.46            0.05    0.11    0.07           0.52     0.60
F5         10.74   13.67    9.65          43.75  -16.96    5.22          17.75  162.92           1.05    0.80    1.03    0.89            0.37    0.47    0.45           0.81     0.92
F6          8.66   13.81    8.00          43.95  -34.55   11.50          36.42  161.59           1.34    0.72    1.15    0.91            0.30    0.44    0.36           0.75     0.84
F7          7.02   13.79    6.82          43.93  -49.52   16.21          52.11  161.87           1.70    0.67    1.27    0.92            0.24    0.42    0.31           0.77     0.86
F8          6.42   13.59    6.18          43.63  -54.43   18.53          57.50  161.20           1.85    0.65    1.33    0.94            0.17    0.32    0.26           0.70     0.77
F9         28.42   32.78   25.07          63.98  -11.99    3.46          12.50  163.97           0.59    0.45    0.56    0.50            0.86    0.98    1.05           0.96     1.10
F10        25.48   32.87   23.16          64.05  -24.20    7.10          25.23  163.68           0.72    0.41    0.61    0.51            0.70    0.84    0.92           0.99     1.10
F11        22.77   32.77   20.61          63.97  -35.69   11.96          37.64  161.48           0.87    0.37    0.68    0.52            0.66    0.85    0.88           0.96     1.08
F12        20.70   33.46   19.16          64.53  -47.72   15.94          50.32  161.53           1.04    0.33    0.73    0.52            0.44    0.50    0.73           1.01     1.15
F13        46.99   57.27   60.84          80.33  -21.75  -14.59          26.19  213.85           0.50    0.17    0.14    0.27            0.54    0.50    0.27           0.42     0.50
F14        48.36   38.24   48.64          68.20   34.34  -22.53          41.06  326.73           0.17    0.57    0.21    0.39            0.63    0.73    0.53           0.69     0.89
F15        67.97   70.23   20.75          87.11    0.54   51.56          51.56   89.40           0.09    0.17    0.71    0.14            0.38    0.46    0.74           1.05     1.20
F16        16.42   17.24   14.31          48.55   -1.17   -0.20           1.37  188.15           0.75    0.78    0.82    0.77            0.55    0.58    0.68           0.95     1.06
F17        36.62   27.77   14.84          59.67   35.91   17.62          40.00   26.11           0.20    0.76    0.79    0.50            0.50    0.53    0.69           1.11     1.27
