targets/wolf_faust/transmissive/E060829.it8
IT8.7/1
ORIGINATOR "Wolf Faust"
DESCRIPTOR "Ektachrome, Type 3, L* a* b* (light D50, viewing angle 2)"
MANUFACTURER "Wolf Faust - http://www.coloraid.de"
CREATED "December 05, 2006"
PROD_DATE "2006:08"
DIFFUSE_GEOMETRY "opal"
SERIAL "E060829 Batch Average Data"
MATERIAL "For Kodak Ektachrome Product Family"
KEYWORD "MEAN_DE" # Mean Delta E of samples compared to batch average
NUMBER_OF_FIELDS 18
BEGIN_DATA_FORMAT
SAMPLE_ID  XYZ_X   XYZ_Y   XYZ_Z          LAB_L   LAB_A   LAB_B          LAB_C   LAB_H          D_RED  D_GREEN  D_BLUE  D_VIS          STDEV_X STDEV_Y STDEV_Z        MEAN_DE  STDEV_DE
END_DATA_FORMAT
NUMBER_OF_SETS 288
BEGIN_DATA
A1          2.08    1.79    1.26          14.35    8.42    2.76           8.87   18.13           1.49    1.90    1.95    1.72            0.07    0.06    0.05           0.43     0.50
A2          2.64    1.82    1.07          14.53   19.11    5.59          19.91   16.29           1.30    2.07    2.01    1.67            0.09    0.06    0.05           0.55     0.59 
A3          3.18    1.79    0.89          14.35   29.55    8.09          30.64   15.32           1.15    2.36    2.06    1.64            0.09    0.05    0.04           0.48     0.52
A4          4.14    1.88    0.72          14.82   42.23   11.99          43.90   15.85           0.96    3.08    2.09    1.57            0.10    0.04    0.03           0.50     0.55 
A5          9.51    8.21    5.96          34.40   13.71    3.64          14.19   14.84           0.85    1.22    1.22    1.06            0.29    0.28    0.24           0.65     0.72
A6         11.37    8.18    5.06          34.34   28.20    7.92          29.29   15.68           0.69    1.36    1.28    1.03            0.30    0.23    0.21           0.63     0.69 
A7         13.56    8.17    4.26          34.34   43.05   12.35          44.78   16.00           0.54    1.56    1.35    0.99            0.29    0.20    0.15           0.60     0.65
A8         16.41    8.35    3.61          34.71   58.49   16.97          60.91   16.18           0.40    1.88    1.39    0.95            0.15    0.10    0.17           0.73     0.89 
A9         28.34   27.47   21.70          59.40    7.40    1.89           7.65   14.35           0.47    0.61    0.62    0.55            0.80    0.85    0.77           0.89     0.95
A10        30.16   27.25   20.65          59.20   15.27    3.62          15.70   13.34           0.39    0.65    0.64    0.54            0.77    0.76    0.75           0.83     0.90
A11        32.52   27.41   19.60          59.34   23.24    6.05          24.02   14.60           0.32    0.69    0.66    0.53            0.75    0.73    0.69           0.78     0.86
A12        36.49   27.55   17.79          59.48   36.33   10.24          37.75   15.73           0.21    0.77    0.70    0.51            0.59    0.62    0.73           0.93     1.06 
A13        72.26   76.25   65.23          89.98   -2.63   -2.21           3.44  219.87           0.15    0.11    0.10    0.12            0.33    0.26    0.32           0.34     0.38
A14        77.36   78.50   65.30          91.01    3.35   -0.49           3.40  351.65           0.08    0.12    0.10    0.10            0.17    0.29    0.33           0.40     0.43 
A15        77.80   79.71   61.86          91.55    1.88    3.76           4.21   63.28           0.08    0.11    0.13    0.10            0.12    0.16    0.50           0.39     0.43
A16        75.67   78.47   64.34          90.99    0.01    0.39           0.40   91.47           0.11    0.11    0.11    0.11            0.21    0.18    0.20           0.21     0.25
A17        77.07   78.19   63.98          90.87    3.39    0.52           3.44    8.73           0.08    0.12    0.11    0.10            0.14    0.22    0.24           0.35     0.38
A18        72.93   76.63   59.86          90.15   -1.98    3.32           3.86  120.76           0.13    0.12    0.15    0.12            0.30    0.24    0.24           0.20     0.21 
A19        72.44   74.53   64.51          89.17    1.22   -2.91           3.15  292.76           0.13    0.13    0.11    0.13            0.29    0.31    0.15           0.23     0.26
A20         6.19    2.91    1.80          19.69   46.36    5.72          46.71    7.03           0.80    2.63    1.68    1.39            0.13    0.06    0.07           0.54     0.59 
A21        26.03   18.19   14.25          49.72   39.83    1.96          39.89    2.82           0.33    1.02    0.79    0.68            0.61    0.50    0.64           0.86     0.94
A22        52.37   47.56   31.61          74.54   17.66   10.88          20.75   31.60           0.15    0.40    0.44    0.30            1.03    1.19    1.28           1.13     1.21
B1          3.13    2.79    1.57          19.19    7.80    7.32          10.71   43.15           1.33    1.67    1.87    1.53            0.10    0.09    0.06           0.59     0.64
B2          3.78    2.87    1.02          19.52   16.75   14.93          22.45   41.71           1.17    1.77    2.09    1.48            0.12    0.10    0.05           0.53     0.58
B3          4.33    2.84    0.58          19.40   25.06   22.43          33.63   41.82           1.06    1.91    2.38    1.46            0.13    0.09    0.03           0.58     0.68
B4          5.29    2.86    0.10          19.46   37.17   31.72          48.87   40.48           0.91    2.23    3.46    1.41            0.15    0.09    0.00           0.67     0.77
B5         12.30   11.03    6.29          39.63   11.87   11.15          16.28   43.20           0.75    1.06    1.21    0.93            0.35    0.34    0.23           0.63     0.71
B6         14.33   11.02    4.05          39.60   25.15   22.64          33.84   41.98           0.60    1.17    1.43    0.90            0.35    0.30    0.16           0.59     0.65
B7         16.54   11.02    2.44          39.61   38.13   34.04          51.12   41.75           0.48    1.30    1.69    0.87            0.31    0.24    0.08           0.52     0.59
B8         19.87   11.09    1.12          39.73   55.14   48.44          73.39   41.30           0.34    1.55    2.08    0.83            0.21    0.16    0.04           0.40     0.45
B9         33.56   33.31   25.20          64.40    5.12    3.96           6.49   37.59           0.41    0.51    0.55    0.47            0.90    0.96    0.85           0.94     1.02
B10        35.21   33.25   22.12          64.36   10.99    9.62          14.61   41.17           0.34    0.54    0.61    0.46            0.88    0.93    0.81           0.87     0.94
B11        37.11   33.51   20.21          64.57   16.40   13.79          21.43   40.06           0.29    0.56    0.66    0.45            0.84    0.86    0.69           0.81     0.89
B12        41.27   33.71   15.43          64.72   28.86   24.84          38.08   40.72           0.18    0.62    0.79    0.43            0.63    0.73    0.62           0.98     1.07
B13        64.99   70.46   62.57          87.22   -6.53   -4.41           7.88  214.06           0.22    0.14    0.12    0.16            0.41    0.37    0.23           0.24     0.27
B14        68.02   65.99   59.73          84.99    9.79   -5.45          11.20  330.90           0.11    0.22    0.14    0.17            0.55    0.65    0.41           0.45     0.49
B15        72.58   74.93   51.07          89.36    0.70   11.22          11.24   86.42           0.10    0.14    0.23    0.12            0.44    0.42    0.77           0.64     0.74
B16        58.62   60.82   50.23          82.28   -0.05   -0.04           0.41  190.91           0.22    0.22    0.23    0.22            0.83    0.89    0.93           0.62     0.67
B17        65.74   64.12   50.05          84.03    8.92    3.17           9.47   19.50           0.12    0.23    0.23    0.18            0.69    0.78    0.91           0.67     0.72
B18        63.56   69.40   52.11          86.70   -7.53    5.49           9.33  144.01           0.21    0.14    0.22    0.16            0.59    0.52    0.82           0.59     0.66
B19        60.65   62.85   59.84          83.36    0.12   -8.37           8.37  270.84           0.22    0.20    0.14    0.21            0.70    0.77    0.47           0.48     0.52
B20         4.76    2.89    0.93          19.58   30.01   16.43          34.22   28.70           0.99    2.02    2.09    1.44            0.11    0.07    0.04           0.52     0.57
B21        16.52   10.99    4.05          39.56   38.19   22.57          44.36   30.58           0.49    1.30    1.41    0.88            0.40    0.30    0.18           0.61     0.67
B22        32.54   27.52   16.57          59.44   22.88   12.99          26.31   29.57           0.31    0.69    0.75    0.52            0.88    0.87    0.74           0.94     1.03
C1          6.04    5.93    3.28          29.22    3.62    9.71          10.37   69.54           1.10    1.29    1.53    1.21            0.19    0.20    0.13           0.59     0.68
C2          6.52    5.97    2.02          29.34    8.25   20.15          21.77   67.74           1.02    1.32    1.81    1.19            0.19    0.18    0.08           0.52     0.58
C3          7.00    6.00    1.04          29.41   12.87   31.81          34.32   67.97           0.96    1.35    2.21    1.18            0.21    0.20    0.05           0.69     0.77
C4          7.63    5.96    0.26          29.30   19.40   45.65          49.60   66.97           0.90    1.42    3.30    1.16            0.19    0.16    0.01           0.70     0.78
C5         22.96   22.12   11.23          54.15    7.54   18.08          19.59   67.35           0.52    0.71    0.95    0.64            0.67    0.70    0.43           0.83     0.94
C6         24.88   22.19    6.16          54.22   15.60   36.89          40.05   67.07           0.43    0.75    1.28    0.62            0.63    0.64    0.26           0.80     0.91
C7         26.85   22.18    2.87          54.21   23.87   55.75          60.65   66.82           0.36    0.80    1.74    0.60            0.56    0.54    0.10           0.82     0.89
C8         30.29   22.46    0.54          54.51   35.94   83.72          91.11   66.77           0.28    0.89    3.16    0.57            0.50    0.46    0.01           0.74     0.85
C9         39.72   40.14   28.12          69.56    3.20    7.84           8.47   67.73           0.34    0.42    0.50    0.39            0.99    1.07    0.86           0.85     0.91
C10        41.12   40.34   24.16          69.70    6.92   14.99          16.51   65.19           0.30    0.44    0.58    0.38            0.94    1.03    0.83           0.86     0.93
C11        41.93   40.01   19.66          69.47   10.38   23.40          25.60   66.07           0.26    0.46    0.69    0.38            0.91    1.01    0.72           0.88     0.96
C12        45.92   40.06    9.42          69.51   21.90   50.40          54.96   66.52           0.15    0.51    1.09    0.35            0.63    0.80    0.35           0.89     0.99
C13        58.72   66.15   61.93          85.07  -11.86   -7.49          14.03  212.27           0.31    0.15    0.13    0.19            0.50    0.46    0.35           0.31     0.35
C14        62.16   57.47   56.42          80.44   16.23   -9.91          19.02  328.60           0.13    0.30    0.16    0.23            0.72    0.89    0.58           0.71     0.78
C15        70.89   73.58   41.94          88.72   -0.12   20.95          20.95   90.32           0.10    0.15    0.33    0.13            0.52    0.49    0.76           0.63     0.69
C16        44.65   46.57   38.40          73.91   -0.72    0.04           0.76  175.59           0.33    0.34    0.35    0.33            0.99    1.10    0.98           0.72     0.79
C17        56.86   52.59   38.64          77.63   15.70    6.13          16.86   21.30           0.14    0.35    0.35    0.26            0.82    0.96    1.00           0.77     0.84
C18        55.52   63.55   42.82          83.73  -13.91   11.24          17.88  141.07           0.29    0.16    0.32    0.21            0.68    0.59    0.91           0.71     0.78
C19        49.35   51.41   55.88          76.92   -0.59  -15.42          15.43  267.78           0.33    0.29    0.17    0.30            0.87    1.00    0.61           0.74     0.80
C20        11.83    8.63    1.07          35.25   27.52   41.39          49.71   56.38           0.67    1.31    2.19    0.99            0.28    0.22    0.05           0.74     0.81
C21        21.06   19.51   10.77          51.27   11.15   14.56          18.34   52.53           0.54    0.79    0.96    0.69            0.63    0.63    0.45           0.86     0.91
C22        26.67   22.43   10.52          54.47   21.98   20.86          30.30   43.49           0.38    0.79    0.97    0.61            0.74    0.71    0.46           0.88     0.96
D1          3.90    4.11    2.25          24.03   -0.86    8.80           8.84   95.56           1.32    1.41    1.72    1.38            0.11    0.12    0.08           0.56     0.61
D2          3.97    4.22    1.38          24.38   -1.36   18.48          18.53   94.21           1.31    1.39    2.02    1.36            0.12    0.13    0.06           0.57     0.67
D3          3.98    4.24    0.81          24.45   -1.59   26.94          26.99   93.38           1.32    1.38    2.37    1.36            0.11    0.12    0.03           0.49     0.58
D4          3.97    4.26    0.29          24.50   -2.00   36.85          36.90   93.10           1.36    1.36    3.26    1.35            0.11    0.12    0.01           0.60     0.71
D5         16.97   17.80    9.16          49.25   -1.04   16.40          16.43   93.63           0.70    0.77    1.06    0.74            0.47    0.54    0.35           0.78     0.89
D6         16.84   17.73    4.82          49.16   -1.41   34.79          34.82   92.31           0.69    0.77    1.43    0.74            0.47    0.53    0.18           0.78     0.88
D7         16.77   17.76    2.28          49.20   -1.98   51.94          51.98   92.18           0.70    0.76    1.92    0.73            0.40    0.47    0.09           0.79     0.87
D8         16.80   18.02    0.70          49.51   -3.16   72.23          72.30   92.50           0.75    0.75    3.08    0.72            0.39    0.45    0.02           0.80     0.89
D9         45.85   47.88   24.66          74.74   -0.87   22.75          22.77   92.20           0.28    0.33    0.59    0.31            0.91    1.02    0.80           0.80     0.86
D10        45.47   47.84   13.84          74.72   -1.86   46.12          46.16   92.31           0.27    0.33    0.91    0.31            0.79    0.91    0.49           0.78     0.86
D11        45.44   48.04    6.85          74.85   -2.50   69.41          69.45   92.06           0.27    0.33    1.34    0.30            0.66    0.75    0.19           0.70     0.76
D12        44.98   47.92    2.82          74.78   -3.49   91.60          91.66   92.18           0.30    0.33    2.03    0.30            0.46    0.41    0.06           0.47     0.52
D13        54.22   62.90   61.35          83.39  -15.71   -9.82          18.53  212.00           0.37    0.16    0.13    0.22            0.45    0.39    0.25           0.33     0.37
D14        56.80   49.99   53.27          76.06   22.32  -14.12          26.41  327.69           0.14    0.39    0.18    0.29            0.78    0.95    0.65           0.84     0.93
D15        69.32   72.13   34.43          88.03   -0.50   29.92          29.92   90.95           0.10    0.15    0.43    0.13            0.53    0.52    0.79           0.73     0.81
D16        33.29   34.64   28.95          65.46   -0.37   -0.59           0.73  232.38           0.45    0.47    0.48    0.46            0.90    0.98    0.94           0.82     0.89
D17        48.83   42.47   29.33          71.19   22.69    8.68          24.30   20.92           0.16    0.48    0.47    0.34            0.79    0.91    0.97           0.91     1.00
D18        49.27   58.63   34.94          81.09  -18.77   17.22          25.47  137.49           0.36    0.19    0.42    0.24            0.64    0.57    0.88           0.83     0.91
D19        40.04   41.61   52.03          70.60   -0.26  -22.19          22.19  269.32           0.44    0.38    0.20    0.40            0.89    1.01    0.64           0.87     0.95
D20         2.81    2.80    1.00          19.23    1.99   14.80          14.94   82.32           1.42    1.60    2.15    1.54            0.08    0.08    0.04           0.59     0.66
D21        30.05   27.51    1.37          59.44   13.81   79.06          80.26   80.09           0.38    0.65    2.42    0.52            0.72    0.74    0.05           1.00     1.11
D22        39.94   43.21   53.26          71.69   -5.30  -21.64          22.29  256.23           0.48    0.34    0.19    0.39            0.94    1.10    0.67           0.98     1.07
E1          5.27    5.99    3.30          29.37   -5.80    9.87          11.45  120.47           1.24    1.21    1.55    1.23            0.16    0.18    0.12           0.59     0.68
E2          4.81    6.00    2.13          29.40  -11.63   19.22          22.47  121.19           1.33    1.17    1.82    1.23            0.14    0.17    0.08           0.61     0.69
E3          4.36    5.91    1.22          29.18  -16.63   28.81          33.26  120.00           1.44    1.14    2.20    1.24            0.12    0.16    0.04           0.59     0.64
E4          3.88    5.99    0.44          29.39  -24.33   42.41          48.89  119.84           1.68    1.08    3.19    1.24            0.10    0.15    0.01           0.60     0.67
E5         24.23   27.69   14.91          59.60  -10.38   17.29          20.17  120.99           0.61    0.53    0.83    0.56            0.63    0.73    0.49           0.79     0.88
E6         22.24   27.75    9.12          59.66  -19.51   34.49          39.62  119.50           0.70    0.50    1.12    0.57            0.54    0.68    0.33           0.76     0.84
E7         20.06   27.52    4.95          59.45  -28.94   51.80          59.34  119.19           0.82    0.47    1.52    0.57            0.40    0.54    0.16           0.68     0.75
E8         18.86   27.83    2.83          59.73  -36.22   65.63          74.96  118.89           0.94    0.43    1.97    0.57            0.20    0.24    0.07           0.39     0.42
E9         43.77   47.50   31.99          74.51   -5.86   10.23          11.79  119.81           0.35    0.32    0.45    0.33            0.83    0.91    0.85           0.66     0.72
E10        41.98   48.00   25.36          74.82  -12.53   21.64          25.01  120.08           0.39    0.29    0.58    0.32            0.76    0.83    0.69           0.66     0.72
E11        39.91   47.89   19.73          74.75  -18.54   32.35          37.29  119.82           0.43    0.28    0.72    0.33            0.64    0.71    0.49           0.56     0.62
E12        37.94   48.09   14.44          74.88  -25.35   44.84          51.51  119.49           0.49    0.25    0.90    0.33            0.48    0.46    0.43           0.70     0.81
E13        50.29   59.91   60.66          81.79  -19.03  -11.90          22.45  212.01           0.44    0.16    0.14    0.25            0.40    0.35    0.25           0.32     0.36
E14        51.74   43.23   50.06          71.71   28.25  -18.09          33.55  327.37           0.16    0.48    0.20    0.34            0.68    0.80    0.59           0.80     0.89
E15        67.79   70.55   27.58          87.26   -0.51   39.26          39.27   90.75           0.10    0.17    0.55    0.14            0.48    0.50    0.78           0.85     0.97
E16        23.98   24.90   20.93          56.97   -0.15   -0.77           0.86  248.29           0.59    0.62    0.64    0.61            0.66    0.72    0.74           0.90     0.95
E17        41.74   33.94   21.31          64.91   29.46   12.16          31.88   22.42           0.19    0.62    0.62    0.43            0.63    0.69    0.79           0.94     1.02
E18        43.63   53.94   27.77          78.43  -23.17   23.70          33.15  134.36           0.43    0.21    0.54    0.28            0.65    0.59    0.85           0.93     1.03
E19        31.97   33.05   48.12          64.19    0.38  -28.83          28.83  270.74           0.57    0.48    0.23    0.50            0.75    0.86    0.60           0.84     0.94
E20         6.83    8.11    1.26          34.20   -9.54   36.92          38.13  104.50           1.16    1.05    2.22    1.09            0.19    0.23    0.06           0.68     0.76
E21        23.89   28.51    6.10          60.34  -15.08   47.69          50.02  107.55           0.63    0.50    1.36    0.54            0.66    0.80    0.22           0.84     0.92
E22         9.29   18.17   13.53          49.70  -54.02    3.82          54.15  175.95           1.70    0.55    0.90    0.81            0.25    0.42    0.51           0.73     0.81
F1          3.38    4.20    2.98          24.31  -10.15    3.38          10.70  161.61           1.50    1.34    1.58    1.40            0.10    0.12    0.10           0.54     0.60
F2          2.73    4.14    2.53          24.11  -20.57    6.61          21.61  162.18           1.74    1.28    1.70    1.43            0.08    0.11    0.08           0.42     0.49
F3          2.27    4.15    2.11          24.16  -29.84   10.38          31.59  160.83           1.99    1.22    1.83    1.44            0.06    0.10    0.07           0.50     0.55
F4          1.78    4.25    1.70          24.47  -42.24   14.96          44.81  160.50           2.46    1.14    2.00    1.45            0.05    0.11    0.05           0.54     0.61
F5         11.12   14.07    9.94          44.33  -16.70    5.26          17.51  162.53           1.03    0.79    1.01    0.88            0.34    0.43    0.34           0.78     0.85
F6          8.94   14.08    8.32          44.34  -33.78   10.96          35.51  162.03           1.32    0.72    1.13    0.90            0.24    0.36    0.28           0.64     0.69
F7          7.15   14.04    6.72          44.28  -49.80   17.24          52.70  160.90           1.69    0.66    1.28    0.92            0.15    0.28    0.21           0.59     0.64
F8          6.72   14.13    6.51          44.41  -54.60   18.37          57.61  161.40           1.83    0.64    1.30    0.92            0.12    0.24    0.17           0.47     0.51
F9         29.04   33.41   25.41          64.49  -11.81    3.73          12.39  162.48           0.58    0.44    0.56    0.49            0.90    1.03    0.95           0.78     0.93
F10        25.96   33.48   23.21          64.54  -24.31    7.84          25.55  162.13           0.71    0.40    0.61    0.50            0.62    0.76    0.76           0.72     0.79
F11        23.45   33.69   21.30          64.72  -35.83   11.83          37.73  161.73           0.86    0.36    0.67    0.51            0.47    0.60    0.57           0.56     0.61
F12        21.33   34.11   19.45          65.05  -46.96   16.21          49.68  160.97           1.01    0.32    0.73    0.51            0.28    0.31    0.51           0.69     0.77
F13        46.64   57.01   59.88          80.19  -22.11  -13.88          26.10  212.13           0.51    0.18    0.14    0.27            0.43    0.37    0.27           0.36     0.43
F14        47.36   37.62   47.09          67.74   33.56  -21.51          39.87  327.34           0.18    0.57    0.23    0.40            0.58    0.67    0.54           0.70     0.80
F15        66.38   68.90   21.53          86.45   -0.13   48.85          48.85   90.15           0.10    0.18    0.68    0.15            0.45    0.49    0.62           0.83     0.90
F16        16.78   17.55   14.56          48.94   -0.79   -0.20           0.90  192.16           0.74    0.77    0.81    0.76            0.49    0.53    0.51           0.74     0.80
F17        35.95   27.34   14.88          59.28   35.38   16.82          39.18   25.42           0.21    0.77    0.79    0.51            0.52    0.55    0.57           0.88     0.95
