targets/wolf_faust/transmissive/E060110.it8
IT8.7/1
ORIGINATOR "Wolf Faust"
DESCRIPTOR "Ektachrome, Type 3, L* a* b* (light D50, viewing angle 2)"
MANUFACTURER "Wolf Faust - http://www.coloraid.de"
CREATED "January 18, 2006"
PROD_DATE "2006:01"
DIFFUSE_GEOMETRY "opal"
SERIAL "E060110 Batch Average Data"
MATERIAL "For Kodak Ektachrome Product Family"
KEYWORD "MEAN_DE" # Mean Delta E of samples compared to batch average
NUMBER_OF_FIELDS 18
BEGIN_DATA_FORMAT
SAMPLE_ID  XYZ_X   XYZ_Y   XYZ_Z          LAB_L   LAB_A   LAB_B          LAB_C   LAB_H          D_RED  D_GREEN  D_BLUE  D_VIS          STDEV_X STDEV_Y STDEV_Z        MEAN_DE  STDEV_DE
END_DATA_FORMAT
NUMBER_OF_SETS 288
BEGIN_DATA
A1          1.99    1.71    1.18          13.89    8.41    2.94           8.91   19.29           1.51    1.92    1.98    1.74            0.06    0.06    0.05           0.43     0.45
A2          2.51    1.71    0.98          13.91   19.29    6.00          20.20   17.28           1.32    2.11    2.05    1.70            0.09    0.06    0.05           0.46     0.50 
A3          3.03    1.71    0.78          13.88   28.99    9.18          30.41   17.57           1.17    2.37    2.12    1.66            0.11    0.06    0.04           0.47     0.52
A4          3.91    1.76    0.63          14.20   41.55   12.62          43.42   16.90           0.98    3.09    2.15    1.59            0.10    0.04    0.03           0.45     0.51 
A5          9.30    8.15    5.70          34.28   12.59    4.64          13.42   20.23           0.87    1.21    1.24    1.06            0.31    0.29    0.26           0.63     0.69
A6         11.18    8.13    4.86          34.25   27.19    8.85          28.59   18.02           0.70    1.35    1.30    1.03            0.37    0.28    0.23           0.65     0.71 
A7         13.45    8.15    4.17          34.29   42.54   12.78          44.42   16.72           0.55    1.55    1.36    0.99            0.38    0.25    0.21           0.66     0.72
A8         16.56    8.34    3.43          34.67   59.47   18.08          62.17   16.91           0.39    1.92    1.41    0.94            0.20    0.13    0.18           0.77     0.87 
A9         27.74   27.14   21.48          59.10    6.33    1.81           6.60   15.93           0.48    0.61    0.62    0.56            0.82    0.85    0.88           0.95     1.05
A10        29.85   27.21   20.59          59.16   14.24    3.70          14.72   14.57           0.40    0.65    0.64    0.55            0.87    0.86    0.86           0.94     1.02
A11        32.45   27.57   19.87          59.49   22.39    5.75          23.13   14.41           0.32    0.68    0.65    0.53            0.82    0.78    0.85           0.97     1.06
A12        37.11   27.86   17.60          59.75   37.16   11.13          38.79   16.66           0.20    0.77    0.70    0.50            0.60    0.63    0.80           1.03     1.16 
A13        72.12   76.10   65.59          89.91   -2.62   -2.67           3.74  225.46           0.15    0.11    0.10    0.12            0.33    0.28    0.21           0.27     0.31
A14        77.98   78.90   65.67          91.19    3.80   -0.52           3.84  352.27           0.08    0.12    0.10    0.10            0.25    0.33    0.17           0.26     0.30 
A15        78.52   80.18   63.83          91.77    2.40    2.22           3.27   42.65           0.08    0.11    0.11    0.09            0.22    0.27    0.33           0.22     0.24
A16        75.87   78.58   65.19          91.04    0.20   -0.32           0.40  298.83           0.11    0.11    0.10    0.10            0.27    0.26    0.16           0.18     0.20
A17        77.79   78.74   64.75          91.12    3.76    0.22           3.77    3.32           0.08    0.12    0.11    0.10            0.24    0.33    0.21           0.21     0.24
A18        74.51   77.72   60.91          90.65   -0.88    3.13           3.26  105.64           0.11    0.11    0.14    0.11            0.34    0.33    0.33           0.25     0.27 
A19        74.00   75.71   65.22          89.72    2.07   -2.63           3.35  308.29           0.11    0.13    0.10    0.12            0.31    0.36    0.13           0.28     0.31
A20         5.83    2.72    1.61          18.90   45.78    6.35          46.22    7.90           0.83    2.69    1.72    1.42            0.14    0.06    0.07           0.59     0.64 
A21        25.92   18.19   14.20          49.72   39.42    2.08          39.48    3.02           0.34    1.01    0.79    0.68            0.58    0.46    0.63           0.88     0.95
A22        53.24   48.29   32.06          75.00   17.94   10.99          21.04   31.45           0.14    0.40    0.44    0.29            0.89    1.00    1.12           0.97     1.06
B1          3.05    2.74    1.49          18.95    7.57    7.77          10.85   45.73           1.34    1.68    1.90    1.54            0.10    0.09    0.07           0.49     0.52
B2          3.59    2.71    0.94          18.82   16.80   15.10          22.59   41.96           1.20    1.80    2.13    1.51            0.12    0.10    0.05           0.49     0.52
B3          4.22    2.75    0.54          18.99   25.29   22.54          33.88   41.71           1.07    1.94    2.41    1.47            0.12    0.08    0.03           0.40     0.43
B4          5.00    2.74    0.11          18.95   35.77   30.69          47.13   40.62           0.94    2.22    3.34    1.44            0.13    0.08    0.00           0.58     0.66
B5         11.79   10.57    5.96          38.83   11.78   11.26          16.30   43.69           0.77    1.08    1.24    0.95            0.37    0.34    0.26           0.68     0.73
B6         13.87   10.71    3.83          39.09   24.53   23.15          33.73   43.34           0.62    1.18    1.46    0.91            0.40    0.33    0.20           0.68     0.75
B7         16.05   10.70    2.32          39.06   37.71   34.16          50.89   42.17           0.50    1.31    1.71    0.89            0.40    0.30    0.12           0.60     0.66
B8         20.09   11.06    1.01          39.69   56.38   49.87          75.27   41.49           0.33    1.58    2.13    0.83            0.24    0.19    0.05           0.41     0.47
B9         33.22   33.27   24.86          64.37    4.05    4.54           6.09   48.09           0.42    0.51    0.56    0.47            0.98    1.04    1.08           0.99     1.08
B10        35.41   33.62   22.20          64.65   10.39    9.98          14.41   43.83           0.35    0.53    0.61    0.46            1.01    1.06    0.95           0.96     1.06
B11        36.94   33.47   19.90          64.54   15.97   14.38          21.50   41.99           0.29    0.56    0.67    0.45            0.99    1.03    0.94           1.06     1.15
B12        41.60   33.70   14.77          64.72   29.86   26.49          39.91   41.57           0.17    0.63    0.81    0.42            0.61    0.72    0.67           1.07     1.17
B13        64.65   70.39   63.77          87.19   -7.16   -5.62           9.10  218.15           0.23    0.13    0.11    0.16            0.50    0.43    0.23           0.31     0.35
B14        69.12   66.02   60.84          85.01   12.11   -6.53          13.75  331.67           0.10    0.22    0.13    0.17            0.46    0.61    0.28           0.44     0.56
B15        73.87   75.97   49.37          89.84    1.28   13.97          14.03   84.78           0.09    0.13    0.24    0.11            0.35    0.38    0.65           0.44     0.51
B16        58.29   60.77   50.62          82.25   -0.75   -0.53           0.95  213.27           0.22    0.22    0.22    0.22            0.84    0.88    0.95           0.52     0.59
B17        66.73   64.25   50.10          84.09   10.84    3.23          11.31   16.57           0.10    0.24    0.23    0.18            0.62    0.76    0.82           0.51     0.60
B18        63.63   69.72   52.11          86.86   -8.05    5.76           9.90  144.45           0.21    0.14    0.22    0.16            0.60    0.50    0.71           0.47     0.55
B19        60.18   62.56   61.15          83.21   -0.33   -9.94           9.95  268.08           0.23    0.20    0.13    0.21            0.63    0.67    0.26           0.48     0.54
B20         4.50    2.69    0.88          18.77   30.17   15.98          34.14   27.91           1.01    2.07    2.11    1.47            0.12    0.08    0.04           0.45     0.49
B21        16.15   10.76    3.78          39.17   37.82   23.55          44.56   31.91           0.50    1.31    1.44    0.89            0.42    0.30    0.17           0.60     0.66
B22        32.64   27.70   16.04          59.61   22.55   14.53          26.83   32.77           0.31    0.69    0.76    0.52            0.79    0.75    0.76           0.94     1.04
C1          5.89    5.81    3.12          28.92    3.35   10.35          10.88   72.08           1.11    1.29    1.56    1.22            0.18    0.19    0.16           0.59     0.63
C2          6.28    5.80    1.89          28.89    7.69   20.58          21.98   69.50           1.04    1.33    1.84    1.21            0.19    0.19    0.09           0.65     0.70
C3          6.73    5.82    1.02          28.94   12.11   31.20          33.47   68.79           0.98    1.36    2.21    1.19            0.19    0.18    0.05           0.56     0.62
C4          7.43    5.88    0.26          29.11   18.28   45.20          48.75   67.98           0.92    1.41    3.21    1.17            0.18    0.15    0.01           0.60     0.67
C5         22.62   22.03   10.99          54.05    6.40   18.67          19.74   71.06           0.53    0.71    0.96    0.64            0.69    0.74    0.46           0.87     0.95
C6         24.58   22.05    6.09          54.08   14.97   36.93          39.85   67.93           0.44    0.75    1.28    0.62            0.71    0.73    0.32           0.87     0.96
C7         26.69   22.33    2.93          54.37   22.53   55.65          60.03   67.96           0.37    0.79    1.72    0.60            0.64    0.65    0.15           0.75     0.84
C8         30.29   22.60    0.55          54.65   35.32   83.92          91.05   67.17           0.29    0.88    3.10    0.57            0.56    0.53    0.02           0.74     0.89
C9         38.94   39.56   27.39          69.14    2.55    8.35           8.74   73.03           0.35    0.43    0.52    0.40            1.07    1.15    1.11           0.95     1.05
C10        40.64   40.24   23.95          69.63    5.76   15.24          16.29   69.28           0.31    0.43    0.59    0.38            1.08    1.15    1.00           0.95     1.07
C11        41.74   40.15   19.35          69.57    9.37   24.22          25.97   68.85           0.27    0.45    0.70    0.38            0.98    1.06    0.86           0.97     1.06
C12        46.69   40.54    8.65          69.85   22.57   53.73          58.28   67.22           0.15    0.51    1.13    0.35            0.67    0.87    0.42           1.06     1.18
C13        58.90   66.42   63.26          85.21  -12.00   -8.55          14.74  215.47           0.31    0.14    0.12    0.19            0.49    0.41    0.20           0.36     0.41
C14        63.21   57.59   57.83          80.51   18.36  -11.25          21.53  328.49           0.12    0.31    0.15    0.23            0.64    0.82    0.40           0.68     0.80
C15        72.40   74.86   40.79          89.33    0.47   23.47          23.47   88.84           0.09    0.14    0.34    0.12            0.38    0.42    0.79           0.66     0.75
C16        43.91   45.98   38.38          73.53   -1.25   -0.58           1.42  203.65           0.34    0.34    0.35    0.34            0.99    1.06    1.15           0.81     0.89
C17        57.52   52.56   38.67          77.61   17.40    6.06          18.44   19.16           0.12    0.35    0.35    0.26            0.84    0.98    1.24           0.89     1.03
C18        55.77   63.94   42.89          83.93  -14.17   11.50          18.25  140.97           0.29    0.16    0.32    0.20            0.75    0.64    1.01           0.80     0.92
C19        49.05   51.26   57.44          76.84   -1.04  -17.18          17.22  266.53           0.34    0.29    0.15    0.30            0.92    1.03    0.47           0.82     0.93
C20        11.64    8.56    1.05          35.12   26.73   41.44          49.32   57.18           0.68    1.31    2.20    1.00            0.32    0.26    0.05           0.57     0.63
C21        20.62   19.22   10.48          50.93   10.49   14.89          18.22   54.82           0.55    0.79    0.98    0.69            0.64    0.63    0.51           0.86     0.94
C22        26.18   22.12   10.22          54.15   21.35   21.30          30.16   44.92           0.39    0.79    0.99    0.62            0.73    0.68    0.53           0.84     0.92
D1          3.91    4.15    2.17          24.15   -1.37    9.73           9.83   98.04           1.33    1.41    1.74    1.38            0.13    0.15    0.10           0.55     0.60
D2          3.78    4.05    1.40          23.82   -1.78   17.29          17.38   95.87           1.34    1.41    2.00    1.38            0.13    0.14    0.07           0.57     0.61
D3          3.91    4.15    0.77          24.17   -1.31   27.18          27.21   92.76           1.32    1.39    2.39    1.37            0.12    0.14    0.04           0.54     0.61
D4          3.85    4.17    0.29          24.23   -2.57   36.33          36.42   94.04           1.38    1.37    3.17    1.36            0.11    0.12    0.01           0.56     0.65
D5         16.54   17.46    8.77          48.83   -1.66   17.08          17.16   95.56           0.72    0.77    1.08    0.75            0.55    0.60    0.40           0.79     0.87
D6         16.64   17.72    4.71          49.15   -2.45   35.34          35.43   93.97           0.70    0.76    1.44    0.74            0.52    0.60    0.24           0.84     0.93
D7         16.30   17.36    2.16          48.70   -2.44   52.19          52.24   92.67           0.72    0.77    1.95    0.74            0.45    0.53    0.11           0.81     0.91
D8         16.46   17.82    0.70          49.27   -4.00   71.83          71.94   93.19           0.77    0.75    3.02    0.73            0.40    0.48    0.02           0.80     0.93
D9         45.60   47.99   24.70          74.81   -1.88   22.80          22.88   94.73           0.29    0.33    0.58    0.31            1.12    1.24    1.01           0.92     1.02
D10        44.98   47.61   13.54          74.57   -2.63   46.68          46.75   93.23           0.28    0.33    0.92    0.31            0.89    1.00    0.57           0.86     0.95
D11        44.72   47.48    6.57          74.49   -3.04   70.01          70.08   92.48           0.28    0.33    1.37    0.30            0.79    0.90    0.29           0.71     0.78
D12        44.80   47.75    2.54          74.67   -3.55   93.66          93.73   92.17           0.31    0.33    2.12    0.30            0.53    0.48    0.07           0.42     0.45
D13        54.57   63.25   62.69          83.57  -15.61  -10.81          18.99  214.71           0.37    0.15    0.12    0.22            0.53    0.46    0.22           0.41     0.46
D14        58.10   50.62   54.98          76.45   23.83  -15.29          28.31  327.32           0.13    0.39    0.16    0.28            0.74    0.92    0.52           0.82     0.95
D15        70.83   73.40   32.97          88.64    0.13   33.11          33.11   89.78           0.09    0.15    0.45    0.12            0.34    0.38    0.76           0.76     0.87
D16        32.45   33.95   28.38          64.92   -1.02   -0.60           1.24  209.79           0.47    0.48    0.49    0.47            0.88    0.94    1.01           0.87     0.95
D17        49.59   42.89   28.94          71.47   23.55    9.80          25.52   22.55           0.15    0.48    0.48    0.34            0.81    0.91    1.16           1.02     1.18
D18        49.61   59.10   34.57          81.34  -18.94   18.19          26.26  136.17           0.36    0.18    0.43    0.24            0.80    0.70    1.09           0.99     1.14
D19        39.80   41.53   53.72          70.54   -0.76  -24.13          24.15  268.18           0.46    0.38    0.18    0.40            0.94    1.08    0.57           0.96     1.11
D20         2.72    2.72    0.96          18.89    1.80   14.80          14.91   83.05           1.44    1.61    2.17    1.55            0.09    0.09    0.05           0.51     0.55
D21        29.46   26.99    1.28          58.96   13.63   79.36          80.53   80.26           0.39    0.66    2.46    0.53            0.75    0.76    0.05           0.88     1.06
D22        38.77   42.91   54.88          71.49   -8.08  -23.73          25.07  251.18           0.52    0.33    0.17    0.39            0.87    1.05    0.49           0.95     1.08
E1          5.24    6.06    3.24          29.56   -7.05   10.60          12.73  123.64           1.26    1.20    1.56    1.23            0.18    0.21    0.15           0.62     0.68
E2          4.61    5.80    1.99          28.91  -12.11   19.68          23.11  121.61           1.36    1.18    1.86    1.25            0.16    0.21    0.10           0.65     0.72
E3          4.46    6.01    1.23          29.44  -16.33   29.13          33.39  119.28           1.43    1.13    2.19    1.23            0.14    0.20    0.06           0.66     0.75
E4          3.73    5.82    0.44          28.94  -24.69   41.68          48.44  120.65           1.71    1.08    3.11    1.26            0.11    0.18    0.02           0.64     0.77
E5         23.79   27.31   14.49          59.25  -10.80   17.78          20.80  121.27           0.63    0.54    0.84    0.57            0.74    0.89    0.61           0.88     0.98
E6         21.65   27.23    8.88          59.18  -20.17   34.52          39.98  120.30           0.71    0.50    1.13    0.57            0.65    0.83    0.39           0.85     0.95
E7         19.57   27.07    4.73          59.03  -29.63   52.29          60.10  119.53           0.84    0.47    1.54    0.58            0.50    0.67    0.19           0.69     0.76
E8         19.27   28.33    2.75          60.18  -36.02   66.97          76.04  118.28           0.93    0.43    1.99    0.56            0.32    0.39    0.11           0.50     0.55
E9         43.49   47.70   31.86          74.63   -7.20   10.64          12.85  124.14           0.36    0.31    0.45    0.32            1.13    1.23    1.16           0.88     0.98
E10        41.17   47.54   25.09          74.53  -13.71   21.61          25.60  122.40           0.40    0.29    0.58    0.33            0.93    1.03    1.03           0.93     1.04
E11        39.73   47.92   19.65          74.77  -19.21   32.55          37.80  120.56           0.44    0.27    0.72    0.33            0.90    1.01    0.84           0.93     1.03
E12        37.26   47.68   13.63          74.62  -26.44   46.51          53.50  119.62           0.50    0.25    0.94    0.33            0.69    0.67    0.52           0.89     0.97
E13        50.84   60.40   62.03          82.05  -18.70  -12.79          22.66  214.37           0.44    0.16    0.13    0.24            0.61    0.53    0.24           0.49     0.56
E14        53.69   44.81   52.32          72.76   28.75  -18.78          34.34  326.85           0.15    0.46    0.18    0.33            0.78    0.94    0.56           0.85     1.02
E15        69.50   72.01   26.59          87.97    0.14   42.17          42.17   89.82           0.08    0.16    0.57    0.13            0.34    0.39    0.73           0.87     0.98
E16        23.68   24.90   20.65          56.97   -1.42   -0.22           1.50  187.27           0.60    0.61    0.64    0.61            0.74    0.79    0.85           0.88     0.96
E17        43.21   35.28   21.40          65.96   29.32   13.79          32.41   25.17           0.17    0.60    0.62    0.41            0.74    0.85    0.90           1.05     1.19
E18        44.30   54.68   27.53          78.85  -23.05   24.84          33.89  132.86           0.43    0.20    0.55    0.27            0.79    0.71    0.99           1.05     1.19
E19        32.39   33.79   50.35          64.79   -0.67  -30.34          30.35  268.72           0.58    0.46    0.21    0.50            0.79    0.93    0.54           0.96     1.11
E20         6.65    7.93    1.20          33.84   -9.83   37.08          38.37  104.85           1.18    1.06    2.24    1.10            0.20    0.25    0.06           0.61     0.68
E21        23.40   28.15    5.83          60.02  -15.81   48.41          50.93  108.09           0.64    0.51    1.39    0.55            0.69    0.86    0.27           0.84     0.95
E22         8.93   17.67   13.24          49.09  -54.38    3.57          54.50  176.25           1.74    0.55    0.91    0.83            0.27    0.43    0.55           0.81     0.87
F1          3.32    4.17    2.94          24.23  -10.79    3.58          11.37  161.68           1.52    1.34    1.59    1.40            0.12    0.16    0.15           0.68     0.72
F2          2.60    4.01    2.40          23.69  -21.17    6.95          22.28  161.82           1.77    1.28    1.72    1.44            0.09    0.13    0.11           0.61     0.67
F3          2.23    4.09    2.13          23.96  -29.85    9.78          31.42  161.86           2.01    1.22    1.81    1.45            0.08    0.13    0.10           0.61     0.66
F4          1.74    4.13    1.69          24.11  -41.69   14.50          44.14  160.82           2.46    1.15    2.00    1.46            0.06    0.13    0.09           0.65     0.72
F5         10.74   13.70    9.61          43.79  -17.18    5.43          18.02  162.47           1.06    0.80    1.03    0.89            0.38    0.49    0.41           0.75     0.84
F6          8.68   13.87    7.91          44.03  -34.75   11.98          36.76  160.98           1.35    0.72    1.16    0.90            0.30    0.46    0.37           0.80     0.88
F7          6.98   13.79    6.61          43.92  -49.93   17.13          52.79  161.06           1.71    0.67    1.28    0.92            0.22    0.39    0.28           0.72     0.78
F8          6.44   13.68    6.21          43.77  -54.80   18.65          57.88  161.21           1.86    0.65    1.33    0.93            0.19    0.36    0.29           0.72     0.79
F9         28.87   33.44   25.38          64.50  -12.55    3.83          13.12  163.03           0.59    0.44    0.56    0.49            0.91    1.06    1.01           0.91     1.01
F10        25.31   32.87   22.57          64.05  -24.95    8.22          26.27  161.77           0.73    0.41    0.63    0.51            0.77    0.95    0.99           0.91     1.03
F11        23.09   33.31   21.17          64.41  -36.12   11.56          37.93  162.25           0.87    0.37    0.67    0.51            0.69    0.90    0.82           0.86     0.95
F12        20.71   33.59   18.86          64.63  -48.14   16.77          50.98  160.80           1.04    0.33    0.74    0.52            0.46    0.53    0.69           0.94     1.01
F13        47.38   57.66   61.36          80.55  -21.61  -14.73          26.15  214.27           0.50    0.17    0.13    0.27            0.62    0.56    0.26           0.51     0.59
F14        49.02   38.86   49.28          68.65   34.18  -22.47          40.91  326.68           0.17    0.56    0.20    0.38            0.71    0.84    0.54           0.81     1.01
F15        68.31   70.63   21.11          87.30    0.45   51.17          51.17   89.50           0.09    0.17    0.70    0.13            0.38    0.45    0.64           0.92     1.00
F16        16.41   17.26   14.26          48.58   -1.29   -0.04           1.36  181.28           0.75    0.78    0.82    0.77            0.50    0.53    0.57           0.80     0.87
F17        36.83   27.93   14.64          59.82   35.94   18.38          40.37   27.07           0.20    0.76    0.80    0.50            0.59    0.64    0.68           1.00     1.14
