targets/wolf_faust/transmissive/E070509.it8
IT8.7/1
ORIGINATOR "Wolf Faust"
DESCRIPTOR "Ektachrome, Type 3, L* a* b* (light D50, viewing angle 2)"
MANUFACTURER "Wolf Faust - http://www.coloraid.de"
CREATED "May 08, 2007"
PROD_DATE "2006:08"
DIFFUSE_GEOMETRY "opal"
SERIAL "E070509 Batch Average Data"
MATERIAL "For Kodak Ektachrome Product Family"
KEYWORD "MEAN_DE" # Mean Delta E of samples compared to batch average
NUMBER_OF_FIELDS 18
BEGIN_DATA_FORMAT
SAMPLE_ID  XYZ_X   XYZ_Y   XYZ_Z          LAB_L   LAB_A   LAB_B          LAB_C   LAB_H          D_RED  D_GREEN  D_BLUE  D_VIS          STDEV_X STDEV_Y STDEV_Z        MEAN_DE  STDEV_DE
END_DATA_FORMAT
NUMBER_OF_SETS 288
BEGIN_DATA
A1          2.10    1.80    1.26          14.38    8.72    2.76           9.15   17.54           1.49    1.90    1.95    1.72            0.07    0.07    0.06           0.40     0.46
A2          2.71    1.86    1.08          14.73   19.62    5.81          20.46   16.50           1.28    2.07    2.01    1.66            0.08    0.06    0.05           0.41     0.44 
A3          3.23    1.81    0.89          14.45   29.88    8.30          31.01   15.52           1.14    2.36    2.06    1.63            0.09    0.05    0.03           0.40     0.43
A4          4.20    1.90    0.72          14.94   42.56   12.26          44.29   16.07           0.95    3.11    2.09    1.56            0.10    0.04    0.03           0.43     0.47 
A5          9.55    8.21    5.97          34.40   14.04    3.56          14.48   14.24           0.85    1.22    1.22    1.06            0.27    0.24    0.19           0.47     0.53
A6         11.45    8.20    5.09          34.40   28.51    7.91          29.59   15.50           0.68    1.36    1.28    1.02            0.28    0.21    0.17           0.50     0.54 
A7         13.74    8.32    4.34          34.65   42.86   12.42          44.63   16.16           0.54    1.54    1.34    0.99            0.31    0.21    0.17           0.52     0.57
A8         16.48    8.41    3.77          34.83   58.39   16.17          60.59   15.48           0.40    1.87    1.37    0.94            0.18    0.12    0.14           0.45     0.55 
A9         28.66   27.82   22.01          59.72    7.26    1.83           7.49   14.17           0.46    0.60    0.61    0.55            0.70    0.71    0.59           0.60     0.67
A10        30.54   27.54   20.91          59.47   15.52    3.57          15.92   12.97           0.39    0.65    0.63    0.54            0.66    0.65    0.57           0.61     0.68
A11        32.72   27.59   19.76          59.51   23.23    6.02          24.00   14.51           0.32    0.69    0.66    0.53            0.68    0.66    0.63           0.67     0.74
A12        36.43   27.51   17.69          59.44   36.26   10.39          37.73   15.98           0.21    0.77    0.70    0.51            0.50    0.53    0.57           0.72     0.82 
A13        72.32   76.23   65.20          89.97   -2.47   -2.19           3.30  221.61           0.15    0.11    0.10    0.12            0.29    0.23    0.11           0.19     0.23
A14        77.30   78.64   65.31          91.07    2.98   -0.40           3.01  352.40           0.09    0.12    0.10    0.10            0.20    0.24    0.12           0.13     0.17 
A15        77.72   79.70   62.31          91.55    1.74    3.31           3.74   62.32           0.08    0.11    0.13    0.10            0.22    0.21    0.26           0.15     0.17
A16        75.63   78.40   64.24          90.96    0.07    0.43           0.44   80.47           0.11    0.11    0.11    0.11            0.22    0.19    0.17           0.11     0.12
A17        77.02   78.38   64.07          90.95    2.93    0.58           2.98   11.25           0.09    0.12    0.11    0.10            0.24    0.27    0.21           0.12     0.15
A18        72.83   76.47   59.77          90.08   -1.88    3.28           3.79  119.82           0.13    0.12    0.15    0.12            0.29    0.24    0.28           0.21     0.23 
A19        72.67   74.81   64.35          89.30    1.12   -2.53           2.77  293.94           0.13    0.13    0.11    0.13            0.33    0.33    0.19           0.16     0.19
A20         6.21    2.91    1.78          19.69   46.50    5.89          46.88    7.22           0.80    2.65    1.68    1.39            0.14    0.06    0.07           0.56     0.61 
A21        26.21   18.32   14.22          49.87   39.93    2.30          40.00    3.30           0.33    1.02    0.79    0.68            0.55    0.46    0.55           0.69     0.78
A22        52.53   47.68   31.62          74.62   17.76   10.99          20.89   31.75           0.15    0.40    0.44    0.30            0.90    1.06    1.07           0.91     1.02
B1          3.18    2.85    1.61          19.42    7.68    7.22          10.54   43.24           1.33    1.67    1.86    1.52            0.10    0.10    0.06           0.42     0.47
B2          3.80    2.88    1.00          19.57   16.87   15.43          22.86   42.43           1.17    1.77    2.11    1.48            0.12    0.10    0.05           0.41     0.47
B3          4.33    2.85    0.61          19.42   25.03   21.96          33.29   41.26           1.06    1.91    2.36    1.46            0.12    0.09    0.03           0.42     0.46
B4          5.26    2.82    0.09          19.31   37.49   31.50          48.97   40.04           0.91    2.26    3.47    1.42            0.12    0.07    0.00           0.56     0.63
B5         12.32   11.04    6.31          39.64   12.02   11.04          16.32   42.57           0.75    1.06    1.21    0.93            0.34    0.33    0.23           0.53     0.60
B6         14.36   11.03    4.07          39.62   25.24   22.59          33.88   41.84           0.60    1.17    1.43    0.90            0.34    0.29    0.13           0.49     0.54
B7         16.69   11.12    2.46          39.78   38.21   34.14          51.24   41.78           0.48    1.30    1.69    0.87            0.33    0.25    0.09           0.47     0.51
B8         19.86   11.10    1.12          39.75   55.01   48.37          73.25   41.33           0.34    1.55    2.08    0.83            0.19    0.15    0.04           0.32     0.37
B9         33.79   33.60   25.17          64.63    4.94    4.41           6.63   41.76           0.40    0.51    0.55    0.47            0.79    0.85    0.72           0.66     0.74
B10        35.57   33.55   22.33          64.60   11.17    9.62          14.74   40.71           0.34    0.54    0.61    0.46            0.77    0.81    0.67           0.66     0.74
B11        37.44   33.81   20.39          64.81   16.44   13.84          21.49   40.10           0.29    0.56    0.66    0.45            0.81    0.83    0.66           0.69     0.76
B12        41.10   33.53   15.41          64.58   28.95   24.64          38.02   40.40           0.18    0.63    0.79    0.43            0.60    0.70    0.52           0.79     0.91
B13        64.81   70.27   62.13          87.13   -6.54   -4.14           7.74  212.37           0.22    0.14    0.13    0.16            0.50    0.46    0.33           0.26     0.30
B14        67.87   65.96   59.31          84.98    9.53   -5.05          10.79  332.10           0.12    0.22    0.14    0.17            0.61    0.75    0.49           0.46     0.54
B15        72.45   74.80   51.61          89.30    0.67   10.52          10.54   86.35           0.10    0.14    0.22    0.12            0.46    0.47    0.69           0.39     0.46
B16        58.51   60.66   50.47          82.19    0.05   -0.46           0.49  255.45           0.22    0.22    0.22    0.22            0.87    0.95    0.96           0.53     0.59
B17        65.63   64.03   50.33          83.98    8.86    2.78           9.28   17.40           0.12    0.23    0.22    0.18            0.73    0.86    0.94           0.53     0.62
B18        63.53   69.32   52.61          86.66   -7.42    4.88           8.88  146.76           0.21    0.14    0.21    0.16            0.60    0.54    0.78           0.47     0.54
B19        60.77   63.01   59.49          83.44    0.04   -7.87           7.87  270.25           0.22    0.20    0.14    0.20            0.80    0.87    0.56           0.49     0.54
B20         4.78    2.90    0.96          19.63   30.12   16.11          34.16   28.14           0.99    2.02    2.08    1.44            0.12    0.08    0.04           0.40     0.43
B21        16.57   11.02    4.08          39.61   38.26   22.51          44.39   30.47           0.48    1.30    1.41    0.88            0.40    0.30    0.18           0.57     0.62
B22        32.60   27.48   16.51          59.41   23.25   13.06          26.67   29.32           0.31    0.69    0.75    0.52            0.83    0.82    0.72           0.84     0.93
C1          6.12    6.00    3.30          29.40    3.78    9.89          10.59   69.11           1.09    1.28    1.53    1.21            0.19    0.19    0.12           0.49     0.54
C2          6.58    6.03    2.04          29.48    8.21   20.21          21.82   67.88           1.02    1.31    1.80    1.19            0.19    0.19    0.09           0.50     0.56
C3          7.21    6.21    1.10          29.94   12.58   31.84          34.23   68.44           0.95    1.33    2.18    1.16            0.20    0.18    0.05           0.50     0.56
C4          7.74    6.08    0.26          29.60   19.14   46.03          49.86   67.42           0.90    1.40    3.30    1.15            0.21    0.18    0.01           0.70     0.80
C5         23.17   22.30   11.42          54.34    7.65   17.85          19.42   66.80           0.52    0.71    0.95    0.63            0.63    0.66    0.39           0.68     0.75
C6         25.10   22.39    6.24          54.43   15.66   36.90          40.08   67.00           0.43    0.75    1.28    0.61            0.62    0.63    0.23           0.67     0.74
C7         26.98   22.38    2.98          54.42   23.48   55.32          60.09   67.00           0.36    0.80    1.72    0.60            0.58    0.55    0.10           0.66     0.72
C8         30.43   22.55    0.55          54.60   36.08   83.79          91.23   66.70           0.28    0.89    3.16    0.57            0.51    0.46    0.01           0.75     0.82
C9         40.13   40.57   28.30          69.87    3.15    8.07           8.67   68.67           0.34    0.42    0.50    0.39            0.91    0.99    0.78           0.67     0.74
C10        41.15   40.31   24.21          69.69    7.08   14.85          16.45   64.53           0.29    0.44    0.58    0.38            0.89    0.98    0.71           0.71     0.79
C11        42.00   40.07   19.60          69.51   10.41   23.59          25.78   66.18           0.26    0.46    0.69    0.38            0.89    0.98    0.66           0.77     0.85
C12        45.92   40.10    9.48          69.54   21.75   50.26          54.77   66.60           0.16    0.51    1.09    0.35            0.64    0.81    0.33           0.80     0.90
C13        58.47   65.87   61.40          84.93  -11.84   -7.21          13.86  211.34           0.31    0.15    0.13    0.20            0.51    0.49    0.45           0.34     0.39
C14        62.14   57.59   56.02          80.51   15.89   -9.38          18.45  329.46           0.13    0.30    0.16    0.23            0.83    1.03    0.70           0.75     0.86
C15        70.62   73.34   41.88          88.61   -0.20   20.83          20.83   90.56           0.10    0.15    0.33    0.13            0.53    0.54    0.98           0.72     0.85
C16        44.45   46.32   38.14          73.75   -0.61    0.11           0.66  168.49           0.33    0.34    0.36    0.34            1.10    1.20    1.13           0.75     0.84
C17        56.64   52.37   38.40          77.50   15.73    6.23          16.92   21.58           0.14    0.35    0.35    0.26            0.86    1.01    1.06           0.76     0.88
C18        55.36   63.33   42.66          83.61  -13.82   11.25          17.82  140.90           0.30    0.17    0.32    0.21            0.75    0.65    1.02           0.75     0.87
C19        49.33   51.40   55.43          76.92   -0.62  -14.95          14.97  267.59           0.33    0.29    0.17    0.30            0.94    1.09    0.66           0.78     0.87
C20        11.93    8.69    1.14          35.38   27.70   40.61          49.16   55.70           0.66    1.31    2.16    0.99            0.30    0.24    0.04           0.56     0.60
C21        21.45   19.88   10.95          51.69   11.15   14.70          18.45   52.82           0.53    0.78    0.96    0.68            0.63    0.62    0.43           0.70     0.76
C22        26.92   22.62   10.66          54.67   22.14   20.78          30.36   43.18           0.38    0.78    0.97    0.61            0.73    0.70    0.48           0.76     0.84
D1          3.94    4.15    2.27          24.17   -0.98    8.91           8.97   96.26           1.32    1.41    1.72    1.38            0.13    0.15    0.10           0.51     0.57
D2          3.99    4.22    1.39          24.39   -1.16   18.40          18.44   93.61           1.31    1.39    2.02    1.36            0.14    0.15    0.06           0.48     0.56
D3          3.99    4.24    0.81          24.43   -1.36   26.96          26.99   92.89           1.31    1.38    2.38    1.36            0.12    0.13    0.03           0.48     0.54
D4          3.98    4.28    0.29          24.58   -2.12   36.94          37.01   93.28           1.36    1.36    3.26    1.35            0.11    0.12    0.01           0.58     0.70
D5         17.06   17.90    9.21          49.37   -1.11   16.42          16.46   93.85           0.70    0.76    1.06    0.74            0.51    0.56    0.34           0.66     0.74
D6         16.97   17.87    4.87          49.33   -1.42   34.80          34.83   92.34           0.69    0.76    1.43    0.73            0.49    0.54    0.17           0.69     0.76
D7         16.95   17.98    2.36          49.46   -2.09   51.70          51.74   92.32           0.70    0.75    1.91    0.73            0.42    0.48    0.08           0.70     0.76
D8         16.85   18.05    0.70          49.55   -3.04   72.15          72.21   92.41           0.75    0.75    3.07    0.72            0.42    0.46    0.02           0.84     0.92
D9         46.01   48.00   24.95          74.82   -0.78   22.36          22.37   92.00           0.28    0.33    0.58    0.31            0.93    1.03    0.72           0.66     0.72
D10        45.45   47.77   13.94          74.68   -1.74   45.80          45.84   92.18           0.27    0.33    0.90    0.31            0.81    0.92    0.42           0.61     0.68
D11        45.36   48.14    7.01          74.91   -3.01   68.83          68.90   92.51           0.27    0.33    1.33    0.30            0.69    0.78    0.20           0.52     0.57
D12        44.91   47.84    2.88          74.72   -3.47   91.04          91.10   92.18           0.30    0.33    2.02    0.30            0.49    0.44    0.06           0.37     0.40
D13        54.01   62.66   60.87          83.26  -15.68   -9.57          18.37  211.40           0.37    0.16    0.14    0.22            0.52    0.46    0.31           0.35     0.40
D14        56.44   49.66   52.58          75.86   22.31  -13.72          26.19  328.40           0.15    0.39    0.19    0.29            0.76    0.93    0.62           0.78     0.92
D15        69.00   71.83   34.23          87.89   -0.57   29.97          29.98   91.09           0.10    0.16    0.43    0.13            0.51    0.53    0.91           0.75     0.93
D16        33.09   34.38   28.59          65.26   -0.19   -0.36           0.46  243.76           0.45    0.48    0.49    0.47            0.87    0.94    0.88           0.73     0.81
D17        48.57   42.20   28.91          71.00   22.81    9.04          24.53   21.60           0.16    0.48    0.48    0.35            0.75    0.87    0.95           0.84     0.96
D18        49.09   58.39   34.64          80.95  -18.65   17.42          25.52  136.98           0.36    0.19    0.43    0.24            0.75    0.67    0.99           0.85     0.98
D19        39.76   41.27   51.44          70.36   -0.12  -21.94          21.95  269.67           0.45    0.38    0.20    0.40            0.88    1.03    0.65           0.86     0.98
D20         2.84    2.84    1.01          19.39    1.84   14.89          15.00   82.94           1.42    1.60    2.15    1.53            0.08    0.09    0.04           0.43     0.48
D21        30.17   27.71    1.42          59.62   13.48   78.73          79.88   80.29           0.38    0.64    2.40    0.52            0.80    0.82    0.06           0.93     1.01
D22        40.03   43.20   52.82          71.68   -4.98  -21.18          21.76  256.75           0.47    0.35    0.19    0.38            0.96    1.13    0.68           0.91     1.02
E1          5.33    6.01    3.30          29.44   -5.45    9.96          11.35  118.69           1.23    1.22    1.55    1.23            0.18    0.21    0.13           0.49     0.57
E2          4.78    5.96    2.12          29.31  -11.58   19.14          22.37  121.18           1.33    1.17    1.83    1.24            0.15    0.19    0.08           0.45     0.55
E3          4.33    5.90    1.27          29.15  -16.84   28.07          32.74  120.97           1.44    1.14    2.18    1.24            0.13    0.18    0.05           0.50     0.58
E4          3.88    6.00    0.44          29.42  -24.46   42.34          48.89  120.01           1.68    1.07    3.17    1.24            0.12    0.17    0.01           0.61     0.74
E5         24.29   27.68   15.05          59.59  -10.07   16.92          19.69  120.75           0.61    0.54    0.83    0.56            0.69    0.80    0.53           0.66     0.77
E6         22.23   27.72    9.17          59.63  -19.41   34.24          39.36  119.55           0.70    0.50    1.12    0.57            0.61    0.76    0.30           0.67     0.75
E7         20.10   27.58    4.98          59.51  -29.01   51.74          59.32  119.27           0.82    0.46    1.52    0.57            0.48    0.64    0.18           0.63     0.69
E8         18.75   27.62    2.82          59.54  -35.96   65.34          74.59  118.83           0.94    0.44    1.97    0.58            0.29    0.34    0.06           0.35     0.39
E9         43.90   47.61   32.18          74.57   -5.77   10.05          11.59  119.87           0.35    0.32    0.45    0.32            1.02    1.14    0.98           0.73     0.80
E10        41.98   47.95   25.50          74.79  -12.40   21.33          24.67  120.17           0.39    0.29    0.58    0.32            0.86    0.96    0.76           0.64     0.71
E11        39.80   47.76   19.87          74.67  -18.55   31.91          36.91  120.18           0.43    0.28    0.72    0.33            0.75    0.84    0.59           0.63     0.69
E12        37.96   48.03   14.72          74.85  -25.14   44.05          50.72  119.72           0.49    0.25    0.89    0.33            0.57    0.55    0.38           0.54     0.62
E13        50.24   59.79   60.28          81.73  -18.90  -11.63          22.19  211.60           0.44    0.17    0.14    0.25            0.54    0.49    0.36           0.38     0.43
E14        51.59   43.15   49.54          71.65   28.09  -17.58          33.14  327.96           0.16    0.48    0.21    0.34            0.75    0.90    0.67           0.82     0.95
E15        67.46   70.22   27.26          87.11   -0.55   39.52          39.52   90.80           0.10    0.17    0.56    0.14            0.48    0.51    0.78           0.78     0.95
E16        23.98   24.94   20.76          57.01   -0.28   -0.35           0.54  226.00           0.59    0.62    0.64    0.61            0.71    0.76    0.70           0.78     0.84
E17        41.70   33.93   21.07          64.90   29.38   12.62          31.98   23.24           0.19    0.62    0.63    0.43            0.64    0.72    0.72           0.82     0.94
E18        43.49   53.72   27.50          78.29  -22.99   23.93          33.18  133.86           0.43    0.21    0.55    0.28            0.69    0.63    0.82           0.82     0.95
E19        32.00   33.12   47.78          64.25    0.24  -28.32          28.33  270.47           0.57    0.48    0.23    0.50            0.80    0.92    0.69           0.89     0.99
E20         6.86    8.11    1.26          34.20   -9.18   36.99          38.11  103.94           1.15    1.05    2.22    1.09            0.21    0.26    0.05           0.62     0.68
E21        23.99   28.58    6.09          60.40  -14.88   47.87          50.13  107.27           0.62    0.50    1.37    0.54            0.73    0.89    0.24           0.86     0.93
E22         9.14   17.91   13.44          49.38  -53.83    3.51          53.94  176.26           1.71    0.55    0.90    0.82            0.29    0.47    0.49           0.66     0.73
F1          3.42    4.22    3.05          24.37   -9.72    2.99          10.17  162.91           1.49    1.34    1.57    1.40            0.10    0.13    0.10           0.39     0.45
F2          2.70    4.10    2.52          23.98  -20.48    6.45          21.47  162.52           1.74    1.28    1.70    1.43            0.09    0.12    0.09           0.41     0.47
F3          2.27    4.13    2.10          24.11  -29.49   10.29          31.23  160.75           1.98    1.22    1.83    1.44            0.07    0.12    0.07           0.47     0.54
F4          1.78    4.26    1.76          24.51  -42.41   14.41          44.79  161.23           2.46    1.14    1.98    1.45            0.06    0.13    0.07           0.52     0.59
F5         11.27   14.23   10.01          44.55  -16.57    5.40          17.43  161.94           1.03    0.79    1.01    0.87            0.36    0.46    0.34           0.63     0.73
F6          8.90   13.98    8.36          44.20  -33.50   10.55          35.13  162.52           1.32    0.72    1.13    0.90            0.28    0.43    0.27           0.62     0.70
F7          7.15   14.04    6.75          44.29  -49.84   17.12          52.70  161.04           1.68    0.66    1.28    0.92            0.22    0.40    0.25           0.62     0.70
F8          6.62   13.93    6.51          44.13  -54.45   17.91          57.32  161.79           1.83    0.65    1.31    0.93            0.19    0.35    0.23           0.58     0.64
F9         29.10   33.44   25.61          64.51  -11.64    3.41          12.13  163.67           0.58    0.45    0.55    0.49            0.82    0.95    0.75           0.72     0.80
F10        25.91   33.39   23.07          64.47  -24.21    7.97          25.49  161.77           0.71    0.40    0.62    0.50            0.72    0.90    0.75           0.70     0.79
F11        23.43   33.62   21.38          64.66  -35.68   11.57          37.51  162.04           0.85    0.36    0.67    0.51            0.57    0.73    0.68           0.64     0.71
F12        21.23   33.90   19.54          64.88  -46.74   15.74          49.32  161.39           1.01    0.33    0.72    0.51            0.41    0.47    0.58           0.69     0.79
F13        46.70   56.99   59.55          80.17  -21.87  -13.58          25.74  211.84           0.50    0.18    0.15    0.27            0.52    0.47    0.35           0.37     0.43
F14        47.24   37.57   46.58          67.70   33.39  -20.97          39.42  327.87           0.18    0.57    0.23    0.40            0.69    0.80    0.61           0.83     0.95
F15        66.10   68.62   21.49          86.32   -0.14   48.70          48.70   90.17           0.10    0.18    0.69    0.15            0.45    0.50    0.65           0.78     0.92
F16        16.88   17.65   14.59          49.06   -0.76   -0.07           0.82  185.17           0.74    0.77    0.81    0.76            0.53    0.57    0.56           0.76     0.83
F17        36.03   27.43   14.90          59.37   35.26   16.91          39.11   25.62           0.21    0.77    0.79    0.51            0.53    0.57    0.56           0.80     0.90
