targets/wolf_faust/transmissive/E070508.it8
IT8.7/1
ORIGINATOR "Wolf Faust"
DESCRIPTOR "Ektachrome, Type 3, L* a* b* (light D50, viewing angle 2)"
MANUFACTURER "Wolf Faust - http://www.coloraid.de"
CREATED "May 08, 2007"
PROD_DATE "2006:08"
DIFFUSE_GEOMETRY "opal"
SERIAL "E070508 Batch Average Data"
MATERIAL "For Kodak Ektachrome Product Family"
KEYWORD "MEAN_DE" # Mean Delta E of samples compared to batch average
NUMBER_OF_FIELDS 18
BEGIN_DATA_FORMAT
SAMPLE_ID  XYZ_X   XYZ_Y   XYZ_Z          LAB_L   LAB_A   LAB_B          LAB_C   LAB_H          D_RED  D_GREEN  D_BLUE  D_VIS          STDEV_X STDEV_Y STDEV_Z        MEAN_DE  STDEV_DE
END_DATA_FORMAT
NUMBER_OF_SETS 288
BEGIN_DATA
A1          2.09    1.80    1.27          14.40    8.39    2.61           8.78   17.27           1.49    1.90    1.95    1.72            0.04    0.04    0.03           0.26     0.29
A2          2.62    1.81    1.07          14.48   18.88    5.59          19.69   16.50           1.31    2.07    2.01    1.67            0.05    0.04    0.02           0.27     0.30 
A3          3.18    1.79    0.89          14.34   29.52    8.08          30.61   15.31           1.15    2.36    2.06    1.64            0.06    0.03    0.02           0.33     0.38
A4          4.13    1.87    0.72          14.79   42.23   11.90          43.87   15.75           0.96    3.10    2.09    1.57            0.07    0.03    0.02           0.35     0.39 
A5          9.46    8.17    5.93          34.34   13.60    3.65          14.08   15.03           0.86    1.22    1.22    1.06            0.21    0.19    0.15           0.43     0.48
A6         11.30    8.15    5.05          34.29   27.91    7.90          29.01   15.80           0.69    1.36    1.29    1.03            0.24    0.19    0.16           0.45     0.50 
A7         13.58    8.17    4.30          34.33   43.21   12.09          44.87   15.63           0.54    1.56    1.34    0.99            0.27    0.17    0.13           0.46     0.51
A8         16.50    8.41    3.57          34.81   58.57   17.38          61.09   16.53           0.40    1.88    1.40    0.94            0.11    0.07    0.08           0.27     0.32 
A9         28.20   27.29   21.59          59.24    7.58    1.80           7.79   13.40           0.47    0.61    0.62    0.55            0.64    0.64    0.61           0.61     0.70
A10        30.34   27.44   20.83          59.38   15.16    3.57          15.57   13.24           0.39    0.65    0.63    0.54            0.59    0.57    0.55           0.60     0.65
A11        32.75   27.60   19.77          59.53   23.32    6.01          24.08   14.44           0.32    0.69    0.65    0.53            0.61    0.56    0.53           0.59     0.64
A12        36.69   27.73   17.88          59.64   36.26   10.31          37.70   15.87           0.21    0.76    0.70    0.50            0.47    0.50    0.57           0.64     0.79 
A13        72.09   76.08   64.89          89.90   -2.65   -2.01           3.33  217.17           0.15    0.11    0.11    0.12            0.20    0.16    0.15           0.21     0.24
A14        77.22   78.30   64.98          90.92    3.48   -0.35           3.51  302.90           0.08    0.12    0.10    0.10            0.16    0.18    0.14           0.20     0.23 
A15        77.71   79.56   61.49          91.49    1.99    4.01           4.47   63.59           0.08    0.11    0.13    0.10            0.12    0.14    0.14           0.08     0.09
A16        75.51   78.30   64.08          90.92    0.02    0.51           0.51   89.31           0.11    0.11    0.11    0.11            0.19    0.15    0.10           0.15     0.16
A17        76.99   78.02   63.71          90.79    3.55    0.65           3.61   10.34           0.08    0.12    0.11    0.10            0.17    0.20    0.09           0.14     0.16
A18        72.81   76.49   59.71          90.09   -1.97    3.36           3.89  120.33           0.13    0.12    0.15    0.12            0.28    0.23    0.19           0.17     0.19 
A19        72.37   74.44   64.28          89.13    1.23   -2.76           3.02  294.10           0.13    0.14    0.11    0.13            0.20    0.19    0.07           0.14     0.16
A20         6.22    2.92    1.78          19.73   46.50    5.94          46.87    7.28           0.80    2.65    1.68    1.39            0.12    0.05    0.04           0.45     0.49 
A21        25.93   18.11   14.18          49.63   39.83    1.97          39.88    2.82           0.33    1.02    0.79    0.68            0.44    0.35    0.49           0.63     0.73
A22        52.46   47.67   31.80          74.62   17.60   10.70          20.60   31.29           0.15    0.40    0.44    0.30            0.71    0.80    0.95           0.77     0.87
B1          3.12    2.77    1.57          19.08    8.02    7.06          10.69   41.36           1.33    1.68    1.87    1.53            0.08    0.07    0.04           0.38     0.42
B2          3.82    2.90    1.05          19.64   16.78   14.75          22.34   41.32           1.17    1.77    2.08    1.48            0.09    0.07    0.03           0.31     0.35
B3          4.34    2.85    0.58          19.44   25.10   22.62          33.79   42.02           1.06    1.91    2.39    1.46            0.09    0.06    0.02           0.29     0.33
B4          5.34    2.89    0.10          19.60   37.11   31.94          48.96   40.72           0.91    2.22    3.44    1.41            0.11    0.06    0.00           0.44     0.50
B5         12.39   11.13    6.34          39.80   11.79   11.19          16.25   43.50           0.75    1.06    1.21    0.93            0.27    0.25    0.17           0.49     0.55
B6         14.42   11.10    4.06          39.75   25.10   22.81          33.92   42.26           0.60    1.16    1.43    0.90            0.27    0.23    0.09           0.46     0.51
B7         16.72   11.14    2.46          39.82   38.19   34.21          51.28   41.85           0.48    1.29    1.69    0.87            0.32    0.24    0.07           0.46     0.50
B8         19.98   11.15    1.12          39.83   55.22   48.53          73.52   41.31           0.34    1.55    2.08    0.83            0.17    0.13    0.03           0.28     0.33
B9         33.79   33.52   25.62          64.57    5.21    3.51           6.29   33.93           0.40    0.51    0.54    0.47            0.78    0.81    0.73           0.71     0.78
B10        35.47   33.53   22.36          64.58   10.89    9.53          14.47   41.17           0.34    0.54    0.61    0.46            0.77    0.79    0.69           0.68     0.75
B11        36.99   33.36   20.09          64.44   16.56   13.83          21.58   39.85           0.29    0.57    0.66    0.45            0.79    0.79    0.66           0.67     0.78
B12        41.51   33.94   15.50          64.92   28.75   24.98          38.09   40.99           0.18    0.62    0.79    0.42            0.54    0.62    0.55           0.75     0.88
B13        64.96   70.42   62.36          87.20   -6.51   -4.23           7.76  213.03           0.22    0.14    0.13    0.16            0.32    0.29    0.15           0.19     0.22
B14        68.08   66.07   59.58          85.03    9.75   -5.23          11.07  331.78           0.11    0.22    0.14    0.17            0.61    0.73    0.47           0.43     0.50
B15        72.40   74.76   50.39          89.28    0.67   11.84          11.86   86.75           0.10    0.14    0.23    0.12            0.42    0.40    0.63           0.36     0.44
B16        58.69   60.88   49.92          82.32   -0.05    0.37           0.40  108.95           0.21    0.22    0.23    0.22            0.78    0.82    0.84           0.46     0.51
B17        65.62   63.99   49.45          83.96    8.92    3.74           9.67   22.73           0.12    0.23    0.23    0.18            0.69    0.80    0.88           0.48     0.57
B18        63.62   69.43   51.82          86.72   -7.46    5.83           9.47  142.02           0.21    0.14    0.22    0.16            0.60    0.51    0.70           0.47     0.53
B19        60.85   63.05   59.80          83.47    0.12   -8.15           8.15  270.83           0.22    0.20    0.14    0.20            0.64    0.68    0.39           0.38     0.45
B20         4.78    2.90    0.92          19.63   30.06   16.76          34.42   29.14           0.99    2.02    2.10    1.44            0.12    0.07    0.03           0.38     0.43
B21        16.69   11.12    4.13          39.78   38.21   22.46          44.32   30.45           0.48    1.30    1.40    0.87            0.35    0.26    0.14           0.52     0.57
B22        32.50   27.50   16.61          59.43   22.82   12.86          26.20   29.38           0.31    0.69    0.75    0.53            0.68    0.66    0.64           0.71     0.82
C1          6.03    5.94    3.31          29.25    3.39    9.54          10.13   70.45           1.10    1.28    1.53    1.21            0.13    0.13    0.09           0.39     0.43
C2          6.51    5.96    2.00          29.31    8.27   20.21          21.84   67.75           1.02    1.32    1.81    1.19            0.14    0.13    0.05           0.37     0.41
C3          6.94    5.92    1.01          29.21   13.06   31.86          34.43   67.70           0.96    1.36    2.22    1.18            0.14    0.12    0.03           0.38     0.43
C4          7.61    5.92    0.26          29.21   19.58   45.45          49.49   66.69           0.90    1.42    3.27    1.16            0.13    0.10    0.00           0.46     0.52
C5         23.14   22.31   11.30          54.35    7.48   18.20          19.68   67.66           0.52    0.71    0.95    0.63            0.49    0.49    0.34           0.59     0.65
C6         24.87   22.16    6.11          54.19   15.71   37.02          40.22   67.01           0.43    0.76    1.29    0.62            0.49    0.49    0.14           0.59     0.65
C7         26.92   22.18    2.86          54.21   24.13   55.85          60.84   66.64           0.36    0.81    1.74    0.60            0.50    0.47    0.09           0.57     0.65
C8         30.27   22.46    0.55          54.51   35.90   83.61          90.99   66.76           0.28    0.89    3.13    0.57            0.42    0.38    0.01           0.58     0.68
C9         39.83   40.23   28.33          69.63    3.26    7.61           8.29   66.80           0.34    0.42    0.50    0.39            0.84    0.90    0.81           0.68     0.76
C10        41.48   40.69   24.41          69.95    6.92   14.95          16.47   65.16           0.29    0.43    0.58    0.38            0.88    0.94    0.80           0.69     0.80
C11        42.20   40.24   19.80          69.63   10.50   23.38          25.63   65.82           0.26    0.45    0.69    0.37            0.74    0.79    0.53           0.61     0.68
C12        46.08   40.22    9.53          69.62   21.87   50.22          54.78   66.48           0.15    0.51    1.08    0.35            0.54    0.69    0.33           0.71     0.84
C13        58.78   66.19   61.78          85.09  -11.78   -7.31          13.87  211.80           0.30    0.15    0.13    0.19            0.34    0.29    0.18           0.24     0.27
C14        62.38   57.72   56.42          80.58   16.14   -9.67          18.82  329.08           0.13    0.30    0.16    0.23            0.65    0.81    0.47           0.61     0.70
C15        70.96   73.63   42.10          88.75   -0.07   20.79          20.79   90.20           0.10    0.15    0.33    0.12            0.41    0.40    0.69           0.47     0.60
C16        44.93   46.85   38.58          74.09   -0.70    0.11           0.75  168.44           0.33    0.34    0.35    0.33            0.94    1.00    0.96           0.64     0.70
C17        57.15   52.91   38.81          77.82   15.60    6.23          16.80   21.76           0.13    0.34    0.35    0.26            0.80    0.94    0.98           0.69     0.79
C18        55.64   63.62   42.94          83.77  -13.78   11.15          17.73  141.04           0.29    0.16    0.32    0.20            0.63    0.54    0.82           0.62     0.72
C19        49.56   51.66   55.87          77.07   -0.67  -15.14          15.16  267.47           0.33    0.29    0.17    0.30            0.81    0.90    0.54           0.62     0.70
C20        11.79    8.61    1.03          35.22   27.42   41.87          50.05   56.78           0.67    1.32    2.22    0.99            0.23    0.17    0.03           0.41     0.48
C21        20.94   19.38   10.75          51.12   11.19   14.37          18.21   52.08           0.54    0.79    0.97    0.69            0.58    0.58    0.43           0.68     0.77
C22        26.43   22.20   10.37          54.23   22.05   20.91          30.39   43.48           0.39    0.79    0.98    0.61            0.57    0.55    0.41           0.64     0.74
D1          3.87    4.07    2.24          23.90   -0.78    8.73           8.77   95.10           1.32    1.42    1.73    1.39            0.08    0.09    0.07           0.42     0.47
D2          3.96    4.22    1.39          24.38   -1.52   18.30          18.37   94.75           1.31    1.39    2.02    1.37            0.08    0.08    0.02           0.34     0.40
D3          3.95    4.22    0.81          24.38   -1.64   26.88          26.93   93.50           1.32    1.38    2.38    1.36            0.08    0.08    0.02           0.37     0.42
D4          3.93    4.21    0.28          24.36   -1.86   36.63          36.68   92.91           1.36    1.37    3.27    1.36            0.06    0.06    0.01           0.38     0.43
D5         16.88   17.68    9.11          49.10   -0.91   16.31          16.34   93.20           0.70    0.77    1.06    0.75            0.37    0.40    0.25           0.57     0.63
D6         16.72   17.57    4.78          48.96   -1.20   34.62          34.64   91.98           0.69    0.77    1.43    0.74            0.36    0.40    0.15           0.55     0.60
D7         16.88   17.88    2.28          49.35   -1.97   52.21          52.24   92.16           0.70    0.76    1.93    0.73            0.38    0.43    0.09           0.58     0.66
D8         16.88   18.13    0.71          49.65   -3.25   72.24          72.31   92.57           0.75    0.74    3.06    0.72            0.33    0.36    0.01           0.69     0.77
D9         46.12   48.16   24.91          74.92   -0.89   22.61          22.62   92.26           0.28    0.33    0.58    0.31            0.78    0.84    0.70           0.60     0.67
D10        45.70   48.09   14.00          74.88   -1.90   45.97          46.01   92.36           0.27    0.33    0.90    0.30            0.68    0.76    0.40           0.51     0.59
D11        45.61   48.12    6.84          74.90   -2.20   69.52          69.56   91.82           0.27    0.33    1.34    0.30            0.60    0.66    0.18           0.56     0.62
D12        45.08   47.97    2.82          74.81   -3.33   91.65          91.71   92.08           0.30    0.33    2.03    0.30            0.39    0.35    0.05           0.33     0.36
D13        54.20   62.85   61.12          83.36  -15.63   -9.64          18.37  211.66           0.37    0.16    0.14    0.22            0.37    0.33    0.24           0.27     0.31
D14        57.01   50.24   53.27          76.21   22.19  -13.86          26.16  328.01           0.14    0.38    0.18    0.28            0.71    0.87    0.56           0.71     0.83
D15        69.42   72.21   34.71          88.07   -0.44   29.58          29.58   90.86           0.10    0.15    0.43    0.13            0.43    0.44    0.77           0.63     0.79
D16        33.58   34.94   29.21          65.70   -0.41   -0.61           0.77  234.62           0.45    0.47    0.48    0.46            0.77    0.82    0.83           0.68     0.75
D17        49.14   42.81   29.58          71.43   22.53    8.67          24.14   21.04           0.16    0.47    0.47    0.34            0.81    0.91    1.00           0.83     0.95
D18        49.37   58.71   35.24          81.13  -18.65   16.86          25.14  137.90           0.36    0.19    0.42    0.24            0.69    0.61    0.94           0.84     0.95
D19        40.16   41.77   52.01          70.71   -0.36  -21.98          21.98  269.04           0.44    0.38    0.20    0.39            0.77    0.87    0.55           0.75     0.82
D20         2.79    2.78    1.01          19.15    2.06   14.59          14.73   81.97           1.43    1.61    2.15    1.54            0.06    0.06    0.03           0.34     0.38
D21        30.22   27.64    1.36          59.56   13.92   79.34          80.55   80.05           0.38    0.65    2.44    0.52            0.64    0.64    0.05           0.77     0.85
D22        39.92   43.28   53.22          71.74   -5.55  -21.52          22.22  255.53           0.48    0.34    0.19    0.38            0.81    0.93    0.52           0.79     0.87
E1          5.21    5.93    3.26          29.23   -5.99    9.86          11.54  121.25           1.25    1.22    1.56    1.23            0.09    0.10    0.09           0.37     0.43
E2          4.77    5.95    2.10          29.29  -11.61   19.22          22.46  121.13           1.33    1.17    1.83    1.24            0.10    0.12    0.06           0.35     0.40
E3          4.32    5.86    1.21          29.06  -16.58   28.76          33.20  119.97           1.44    1.14    2.21    1.25            0.08    0.11    0.03           0.36     0.42
E4          3.83    5.92    0.44          29.22  -24.26   42.11          48.60  119.94           1.68    1.08    3.17    1.25            0.05    0.08    0.01           0.36     0.46
E5         24.05   27.50   14.75          59.44  -10.41   17.40          20.28  120.90           0.62    0.54    0.84    0.57            0.48    0.56    0.36           0.54     0.61
E6         22.10   27.58    9.07          59.50  -19.46   34.39          39.51  119.50           0.70    0.50    1.12    0.57            0.50    0.62    0.22           0.58     0.65
E7         19.85   27.24    4.91          59.19  -28.86   51.57          59.10  119.24           0.82    0.47    1.52    0.58            0.38    0.50    0.11           0.55     0.60
E8         18.73   27.67    2.82          59.59  -36.23   65.40          74.76  118.98           0.94    0.44    1.97    0.58            0.22    0.25    0.05           0.32     0.36
E9         43.58   47.26   31.75          74.36   -5.77   10.33          11.83  119.17           0.35    0.32    0.45    0.33            0.80    0.88    0.76           0.56     0.64
E10        42.11   48.13   25.49          74.90  -12.49   21.54          24.90  120.13           0.39    0.29    0.58    0.32            0.68    0.74    0.61           0.56     0.62
E11        40.18   48.13   19.93          74.90  -18.38   32.19          37.07  119.73           0.43    0.27    0.71    0.32            0.60    0.65    0.47           0.50     0.56
E12        37.73   47.84   14.21          74.72  -25.33   45.16          51.78  119.29           0.49    0.26    0.91    0.33            0.53    0.50    0.32           0.54     0.60
E13        50.30   59.88   60.47          81.77  -18.93  -11.74          22.27  211.81           0.44    0.17    0.14    0.25            0.43    0.39    0.28           0.31     0.35
E14        51.90   43.39   50.06          71.82   28.21  -17.89          33.41  327.62           0.16    0.48    0.20    0.34            0.68    0.80    0.59           0.71     0.83
E15        67.91   70.65   27.85          87.32   -0.48   38.90          38.90   90.70           0.10    0.17    0.54    0.14            0.42    0.45    0.70           0.70     0.83
E16        24.17   25.06   21.20          57.13    0.01   -1.04           1.08  269.08           0.58    0.62    0.63    0.60            0.63    0.66    0.70           0.71     0.77
E17        42.06   34.25   21.68          65.16   29.37   11.85          31.67   21.97           0.18    0.62    0.61    0.42            0.60    0.65    0.73           0.78     0.88
E18        43.78   54.06   28.11          78.50  -23.01   23.27          32.73  134.69           0.43    0.21    0.54    0.28            0.63    0.57    0.81           0.82     0.96
E19        32.00   33.07   48.07          64.22    0.40  -28.73          28.73  270.80           0.57    0.48    0.23    0.50            0.65    0.73    0.51           0.71     0.78
E20         6.82    8.13    1.27          34.24   -9.76   36.92          38.18  104.81           1.16    1.05    2.22    1.09            0.16    0.19    0.04           0.51     0.56
E21        23.88   28.51    6.14          60.34  -15.08   47.50          49.83  107.62           0.63    0.50    1.36    0.54            0.61    0.76    0.22           0.68     0.77
E22         9.26   18.13   13.64          49.65  -53.96    3.43          54.08  176.36           1.70    0.55    0.89    0.82            0.22    0.36    0.45           0.61     0.68
F1          3.32    4.14    2.93          24.12  -10.32    3.42          10.88  161.68           1.51    1.34    1.59    1.41            0.07    0.08    0.09           0.41     0.46
F2          2.73    4.14    2.55          24.14  -20.61    6.45          21.60  162.63           1.74    1.28    1.69    1.43            0.06    0.08    0.07           0.32     0.38
F3          2.23    4.09    2.10          23.97  -29.92   10.12          31.58  161.31           2.00    1.23    1.83    1.45            0.03    0.07    0.04           0.29     0.36
F4          1.73    4.12    1.66          24.08  -41.96   14.76          44.48  160.62           2.47    1.16    2.02    1.46            0.03    0.06    0.03           0.29     0.38
F5         10.87   13.77    9.81          43.90  -16.61    4.93          17.33  163.49           1.04    0.80    1.02    0.89            0.25    0.32    0.26           0.49     0.55
F6          8.79   13.86    8.26          44.03  -33.71   10.63          35.35  162.51           1.33    0.73    1.13    0.90            0.24    0.34    0.28           0.52     0.60
F7          7.00   13.78    6.67          43.92  -49.65   16.85          52.44  161.26           1.70    0.67    1.28    0.92            0.17    0.30    0.17           0.48     0.55
F8          6.61   13.92    6.44          44.12  -54.48   18.20          57.44  161.53           1.83    0.65    1.31    0.93            0.14    0.27    0.18           0.48     0.54
F9         29.17   33.55   25.62          64.60  -11.77    3.56          12.30  163.18           0.57    0.44    0.55    0.49            0.66    0.73    0.65           0.62     0.69
F10        26.05   33.59   23.41          64.63  -24.32    7.62          25.49  162.61           0.71    0.40    0.61    0.50            0.58    0.69    0.62           0.60     0.67
F11        23.30   33.48   21.13          64.55  -35.76   11.88          37.68  161.62           0.86    0.36    0.67    0.51            0.47    0.61    0.60           0.56     0.65
F12        21.17   33.87   19.31          64.86  -46.92   16.18          49.64  160.98           1.02    0.33    0.73    0.52            0.33    0.39    0.48           0.60     0.74
F13        46.50   56.84   59.62          80.09  -22.09  -13.79          26.04  211.98           0.51    0.18    0.15    0.28            0.40    0.37    0.26           0.32     0.36
F14        47.46   37.72   47.01          67.81   33.51  -21.28          39.70  327.58           0.18    0.57    0.23    0.40            0.55    0.63    0.51           0.62     0.72
F15        66.42   68.93   21.66          86.47   -0.09   48.62          48.62   90.11           0.10    0.18    0.68    0.15            0.39    0.42    0.59           0.74     0.85
F16        16.81   17.57   14.67          48.96   -0.72   -0.45           0.88  212.45           0.74    0.77    0.80    0.76            0.47    0.50    0.50           0.66     0.72
F17        36.12   27.47   15.02          59.41   35.40   16.69          39.14   25.24           0.21    0.77    0.79    0.51            0.47    0.49    0.50           0.67     0.77
