targets/wolf_faust/transmissive/E080220.it8
IT8.7/1
ORIGINATOR "Wolf Faust"
DESCRIPTOR "Ektachrome, Type 3, L* a* b* (light D50, viewing angle 2)"
MANUFACTURER "Wolf Faust - http://www.coloraid.de"
CREATED "March 04, 2008"
PROD_DATE "2007:11"
DIFFUSE_GEOMETRY "opal"
SERIAL "E080220 Batch Average Data"
MATERIAL "For Kodak Ektachrome Product Family"
KEYWORD "MEAN_DE" # Mean Delta E of samples compared to batch average
NUMBER_OF_FIELDS 18
BEGIN_DATA_FORMAT
SAMPLE_ID  XYZ_X   XYZ_Y   XYZ_Z          LAB_L   LAB_A   LAB_B          LAB_C   LAB_H          D_RED  D_GREEN  D_BLUE  D_VIS          STDEV_X STDEV_Y STDEV_Z        MEAN_DE  STDEV_DE
END_DATA_FORMAT
NUMBER_OF_SETS 288
BEGIN_DATA
A1          2.29    1.96    1.39          15.26    9.05    2.67           9.45   16.45           1.45    1.86    1.91    1.68            0.05    0.04    0.05           0.34     0.40
A2          2.83    1.96    1.19          15.29   19.27    5.28          19.98   15.33           1.27    2.03    1.96    1.64            0.05    0.04    0.04           0.29     0.34 
A3          3.34    1.89    0.90          14.91   29.72    8.95          31.04   16.75           1.13    2.32    2.06    1.61            0.05    0.03    0.03           0.26     0.30
A4          4.27    1.96    0.75          15.30   42.04   12.22          43.78   16.20           0.95    2.93    2.08    1.55            0.06    0.03    0.02           0.32     0.36 
A5          9.96    8.53    6.30          35.07   14.43    3.21          14.79   12.54           0.83    1.20    1.19    1.04            0.17    0.14    0.19           0.53     0.60
A6         11.95    8.62    5.46          35.24   28.40    7.47          29.37   14.73           0.67    1.33    1.25    1.00            0.20    0.14    0.18           0.55     0.60 
A7         14.21    8.61    4.56          35.21   43.34   12.10          45.00   15.61           0.52    1.53    1.31    0.97            0.20    0.13    0.14           0.50     0.55
A8         16.69    8.58    3.84          35.15   58.17   16.28          60.40   15.63           0.39    1.84    1.37    0.94            0.09    0.06    0.12           0.65     0.72 
A9         29.55   28.57   22.51          60.40    7.80    2.03           8.08   14.61           0.44    0.59    0.60    0.53            0.52    0.48    0.72           0.79     0.87
A10        31.66   28.63   21.65          60.45   15.41    3.78          15.88   13.80           0.37    0.63    0.62    0.52            0.57    0.52    0.78           0.87     0.97
A11        33.79   28.65   20.56          60.47   22.91    6.01          23.70   14.71           0.30    0.67    0.64    0.51            0.45    0.39    0.62           0.79     0.86
A12        37.30   28.41   18.76          60.26   35.63    9.42          36.86   14.80           0.20    0.75    0.67    0.50            0.31    0.35    0.62           0.90     1.01 
A13        72.85   76.89   66.25          90.27   -2.69   -2.65           3.78  224.61           0.15    0.11    0.10    0.12            0.31    0.25    0.17           0.22     0.25
A14        78.43   79.55   66.32          91.48    3.46   -0.63           3.52  349.71           0.08    0.11    0.10    0.10            0.14    0.19    0.17           0.15     0.17 
A15        78.96   80.77   64.19          92.03    2.14    2.32           3.16   47.37           0.08    0.10    0.11    0.09            0.17    0.20    0.19           0.13     0.14
A16        76.29   79.17   65.38          91.31   -0.10   -0.04           0.19  184.79           0.11    0.11    0.10    0.10            0.15    0.13    0.18           0.17     0.19
A17        78.12   79.27   64.98          91.36    3.38    0.41           3.41    6.91           0.08    0.12    0.11    0.10            0.10    0.12    0.15           0.12     0.13
A18        74.23   77.81   61.43          90.69   -1.63    2.69           3.15  121.12           0.12    0.11    0.13    0.11            0.18    0.13    0.22           0.20     0.22 
A19        73.00   75.26   65.25          89.52    0.89   -3.02           3.15  286.49           0.13    0.13    0.10    0.12            0.24    0.23    0.14           0.19     0.22
A20         6.42    3.03    1.88          20.18   46.70    5.72          47.05    6.98           0.79    2.58    1.66    1.37            0.11    0.05    0.06           0.44     0.51 
A21        26.54   18.60   14.74          50.21   39.87    1.53          39.90    2.20           0.32    1.00    0.77    0.67            0.40    0.33    0.46           0.62     0.72
A22        53.92   49.33   32.87          75.65   16.86   10.88          20.07   32.81           0.14    0.38    0.43    0.28            0.67    0.81    0.92           0.77     0.91
B1          3.41    3.05    1.75          20.22    7.93    7.15          10.68   42.04           1.30    1.64    1.82    1.49            0.07    0.06    0.05           0.34     0.37
B2          3.90    2.94    1.08          19.79   17.40   14.57          22.70   39.94           1.16    1.77    2.06    1.47            0.08    0.06    0.04           0.31     0.35
B3          4.66    3.08    0.69          20.35   25.48   22.01          33.68   40.82           1.03    1.87    2.29    1.43            0.08    0.05    0.01           0.30     0.35
B4          5.44    2.94    0.13          19.82   37.35   31.73          49.01   40.35           0.90    2.21    3.21    1.40            0.07    0.03    0.00           0.32     0.38
B5         12.75   11.38    6.65          40.21   12.45   10.55          16.33   40.26           0.73    1.05    1.18    0.92            0.20    0.17    0.20           0.53     0.58
B6         14.75   11.34    4.42          40.15   25.38   21.44          33.23   40.19           0.59    1.15    1.39    0.89            0.19    0.14    0.11           0.44     0.49
B7         17.02   11.34    2.68          40.14   38.52   32.95          50.69   40.55           0.47    1.29    1.64    0.86            0.21    0.14    0.06           0.31     0.34
B8         20.13   11.33    1.27          40.13   54.72   47.07          72.18   40.70           0.33    1.53    2.01    0.83            0.11    0.09    0.04           0.36     0.41
B9         34.84   34.65   26.18          65.47    4.96    4.08           6.46   39.17           0.39    0.49    0.53    0.45            0.59    0.57    0.85           0.85     0.95
B10        36.36   34.24   23.33          65.15   11.42    8.67          14.35   37.17           0.33    0.53    0.59    0.45            0.70    0.71    0.81           0.87     0.96
B11        38.31   34.56   20.95          65.40   16.70   13.72          21.63   39.38           0.27    0.55    0.64    0.44            0.55    0.53    0.74           0.92     1.00
B12        41.97   34.53   16.18          65.38   28.17   24.14          37.10   40.58           0.18    0.61    0.77    0.42            0.42    0.44    0.56           0.97     1.09
B13        65.60   71.20   63.69          87.58   -6.73   -4.86           8.30  215.87           0.22    0.13    0.12    0.16            0.39    0.33    0.22           0.26     0.29
B14        68.84   66.50   60.67          85.25   10.45   -5.94          12.02  330.38           0.11    0.21    0.13    0.17            0.37    0.42    0.23           0.32     0.36
B15        73.82   76.06   51.24          89.89    1.00   11.94          11.98   85.20           0.09    0.13    0.23    0.11            0.30    0.30    0.53           0.38     0.44
B16        59.22   61.31   51.22          82.55    0.25   -0.69           0.75  290.15           0.21    0.22    0.22    0.21            0.61    0.64    0.66           0.39     0.42
B17        66.63   64.69   51.15          84.32    9.62    2.44           9.93   14.24           0.11    0.23    0.22    0.18            0.50    0.56    0.63           0.40     0.44
B18        64.59   70.52   53.30          87.25   -7.55    5.14           9.13  145.80           0.21    0.14    0.21    0.16            0.41    0.34    0.55           0.37     0.42
B19        61.51   63.63   60.95          83.77    0.37   -8.77           8.78  272.40           0.21    0.20    0.13    0.20            0.56    0.62    0.27           0.41     0.48
B20         5.07    3.07    1.02          20.31   30.73   16.32          34.80   27.98           0.96    1.99    2.04    1.41            0.10    0.06    0.03           0.33     0.37
B21        17.01   11.35    4.15          40.17   38.33   23.02          44.71   30.99           0.47    1.28    1.40    0.86            0.30    0.22    0.15           0.48     0.53
B22        33.92   28.81   17.49          60.61   22.74   12.84          26.12   29.45           0.29    0.67    0.72    0.51            0.61    0.59    0.60           0.70     0.83
C1          6.42    6.27    3.57          30.09    4.02    9.28          10.12   66.57           1.07    1.26    1.49    1.19            0.12    0.12    0.11           0.43     0.48
C2          6.83    6.23    2.19          29.99    8.65   19.64          21.46   66.23           1.00    1.30    1.76    1.17            0.13    0.12    0.07           0.34     0.37
C3          7.29    6.29    1.18          30.12   12.66   30.94          33.43   67.74           0.95    1.33    2.13    1.16            0.12    0.11    0.03           0.36     0.39
C4          8.20    6.45    0.32          30.51   19.36   46.53          50.40   67.41           0.87    1.38    3.06    1.13            0.13    0.10    0.01           0.39     0.45
C5         24.22   23.27   11.96          55.35    7.91   17.97          19.64   66.23           0.50    0.69    0.92    0.61            0.39    0.35    0.37           0.61     0.68
C6         26.20   23.40    6.66          55.48   15.72   36.82          40.04   66.88           0.41    0.73    1.24    0.59            0.32    0.29    0.19           0.52     0.56
C7         27.93   23.27    3.29          55.34   23.32   54.72          59.48   66.92           0.35    0.78    1.66    0.58            0.31    0.29    0.09           0.45     0.48
C8         31.05   23.19    0.66          55.27   35.51   82.90          90.18   66.81           0.27    0.87    2.84    0.56            0.19    0.16    0.01           0.28     0.30
C9         40.86   41.19   28.94          70.30    3.55    7.78           8.56   65.30           0.33    0.41    0.49    0.38            0.74    0.76    0.96           0.91     1.00
C10        41.92   41.18   24.73          70.30    6.77   14.97          16.44   65.60           0.29    0.43    0.57    0.37            0.72    0.76    0.88           0.92     1.02
C11        42.97   41.13   20.49          70.27   10.08   23.05          25.16   66.37           0.25    0.44    0.67    0.36            0.73    0.78    0.82           0.99     1.11
C12        46.91   41.22    9.92          70.33   21.15   50.16          54.44   67.14           0.15    0.49    1.06    0.34            0.42    0.55    0.43           0.93     1.05
C13        59.74   67.15   62.97          85.58  -11.59   -7.62          13.87  213.34           0.30    0.14    0.12    0.19            0.38    0.32    0.20           0.26     0.31
C14        63.17   58.43   57.56          80.98   16.26  -10.17          19.17  327.99           0.12    0.29    0.15    0.22            0.43    0.54    0.27           0.45     0.53
C15        72.39   74.96   43.04          89.38    0.23   20.70          20.70   89.35           0.09    0.14    0.32    0.12            0.35    0.32    0.78           0.67     0.78
C16        45.86   47.56   39.91          74.54    0.01   -0.87           0.93  265.66           0.32    0.33    0.33    0.32            0.84    0.87    0.97           0.66     0.75
C17        57.92   53.56   40.43          78.21   15.83    4.77          16.53   16.74           0.13    0.34    0.32    0.25            0.66    0.78    0.94           0.68     0.78
C18        57.14   65.07   44.57          84.52  -13.31   10.44          16.92  141.91           0.28    0.16    0.30    0.19            0.54    0.45    0.84           0.65     0.76
C19        50.96   52.90   57.22          77.82   -0.14  -15.27          15.28  269.44           0.31    0.28    0.16    0.29            0.75    0.88    0.43           0.65     0.76
C20        12.57    9.21    1.24          36.38   27.76   40.93          49.46   55.85           0.64    1.28    2.11    0.96            0.27    0.21    0.04           0.44     0.50
C21        21.95   20.31   11.46          52.18   11.43   13.99          18.07   50.75           0.52    0.77    0.93    0.67            0.48    0.46    0.40           0.64     0.74
C22        27.75   23.32   11.12          55.39   22.36   20.57          30.39   42.62           0.37    0.77    0.95    0.59            0.51    0.48    0.36           0.58     0.66
D1          4.22    4.41    2.45          24.98   -0.45    8.73           8.74   92.95           1.28    1.39    1.68    1.35            0.10    0.10    0.09           0.38     0.42
D2          4.25    4.49    1.58          25.22   -1.06   17.61          17.65   93.43           1.28    1.37    1.94    1.34            0.09    0.09    0.05           0.36     0.40
D3          4.21    4.44    0.89          25.08   -1.00   26.62          26.64   92.14           1.28    1.36    2.31    1.34            0.08    0.08    0.03           0.33     0.37
D4          4.12    4.39    0.33          24.93   -1.60   36.69          36.72   92.49           1.33    1.35    3.08    1.34            0.06    0.07    0.01           0.29     0.35
D5         18.08   18.89    9.66          50.56   -0.72   16.94          16.95   92.41           0.67    0.74    1.03    0.72            0.28    0.26    0.30           0.63     0.70
D6         17.70   18.64    5.28          50.26   -1.44   34.26          34.29   92.41           0.67    0.74    1.38    0.72            0.23    0.23    0.14           0.43     0.47
D7         17.62   18.58    2.56          50.19   -1.59   51.31          51.34   91.77           0.68    0.74    1.85    0.71            0.29    0.32    0.07           0.44     0.51
D8         17.47   18.60    0.79          50.21   -2.47   71.68          71.73   91.97           0.73    0.74    2.87    0.71            0.21    0.22    0.01           0.35     0.40
D9         46.85   48.99   25.46          75.44   -1.08   22.54          22.56   92.75           0.27    0.32    0.57    0.30            0.70    0.75    0.83           0.81     0.92
D10        46.57   48.78   14.57          75.32   -1.31   45.25          45.27   91.65           0.26    0.33    0.88    0.30            0.67    0.75    0.55           0.76     0.87
D11        46.25   48.86    7.30          75.37   -2.42   68.44          68.48   92.02           0.26    0.32    1.30    0.29            0.48    0.53    0.25           0.58     0.63
D12        46.09   48.86    2.82          75.36   -2.85   92.65          92.69   91.76           0.29    0.32    2.03    0.29            0.33    0.30    0.06           0.31     0.33
D13        55.43   64.03   62.32          83.98  -15.22   -9.75          18.07  212.65           0.36    0.15    0.13    0.21            0.35    0.29    0.19           0.25     0.30
D14        58.19   51.56   54.69          77.02   21.59  -13.99          25.73  327.05           0.14    0.37    0.17    0.27            0.52    0.67    0.37           0.61     0.72
D15        70.81   73.54   35.51          88.70   -0.20   29.55          29.55   90.39           0.09    0.15    0.42    0.12            0.37    0.34    0.90           0.93     1.06
D16        34.73   36.04   30.18          66.55   -0.07   -0.70           0.85  249.62           0.43    0.45    0.47    0.45            0.77    0.78    0.95           0.79     0.88
D17        50.19   43.99   30.81          72.22   21.95    8.10          23.40   20.23           0.15    0.46    0.45    0.33            0.65    0.76    1.04           0.97     1.11
D18        50.86   60.15   36.05          81.92  -18.07   17.08          24.87  136.65           0.35    0.18    0.41    0.23            0.61    0.54    0.98           0.82     1.01
D19        41.96   43.58   53.63          71.94   -0.19  -21.61          21.61  269.49           0.42    0.36    0.18    0.38            0.75    0.89    0.46           0.77     0.92
D20         3.02    2.98    1.12          19.98    2.50   14.39          14.61   80.14           1.39    1.58    2.09    1.51            0.07    0.06    0.03           0.32     0.35
D21        31.18   28.56    1.54          60.39   13.92   78.67          79.89   79.97           0.37    0.63    2.31    0.50            0.53    0.55    0.05           0.62     0.68
D22        40.67   44.20   54.46          72.36   -5.89  -21.78          22.57  254.86           0.48    0.33    0.18    0.38            0.72    0.86    0.45           0.69     0.84
E1          5.58    6.29    3.56          30.12   -5.40    9.37          10.81  119.96           1.21    1.20    1.51    1.21            0.13    0.14    0.12           0.44     0.49
E2          5.12    6.31    2.30          30.18  -11.14   18.96          21.99  120.44           1.30    1.15    1.78    1.21            0.10    0.13    0.07           0.37     0.42
E3          4.60    6.15    1.31          29.79  -16.06   28.66          32.85  119.27           1.40    1.13    2.16    1.22            0.08    0.10    0.04           0.31     0.36
E4          4.05    6.17    0.50          29.84  -23.86   42.10          48.39  119.54           1.64    1.07    3.02    1.23            0.05    0.08    0.01           0.33     0.37
E5         25.06   28.44   15.70          60.29   -9.74   16.50          19.16  120.55           0.60    0.52    0.80    0.55            0.39    0.39    0.43           0.62     0.70
E6         22.93   28.44    9.76          60.28  -19.01   33.35          38.39  119.68           0.68    0.49    1.08    0.55            0.31    0.34    0.26           0.46     0.51
E7         20.95   28.54    5.35          60.38  -28.63   51.34          58.78  119.14           0.79    0.45    1.47    0.56            0.26    0.33    0.15           0.40     0.46
E8         19.15   28.38    3.01          60.23  -36.88   65.09          74.82  119.53           0.94    0.42    1.92    0.57            0.16    0.18    0.06           0.27     0.31
E9         45.12   48.88   33.14          75.38   -5.69   10.00          11.51  119.69           0.33    0.30    0.43    0.31            0.67    0.71    0.91           0.77     0.86
E10        42.81   48.70   26.06          75.26  -11.94   21.17          24.30  119.43           0.37    0.29    0.56    0.32            0.68    0.74    0.86           0.79     0.92
E11        40.86   48.67   20.16          75.24  -17.72   32.30          36.84  118.76           0.42    0.27    0.71    0.32            0.70    0.76    0.72           0.76     0.86
E12        38.59   48.85   14.60          75.36  -25.34   45.26          51.87  119.25           0.48    0.25    0.90    0.32            0.46    0.46    0.51           0.81     0.92
E13        51.72   61.23   61.71          82.50  -18.34  -11.70          21.75  212.54           0.42    0.16    0.13    0.24            0.40    0.33    0.18           0.29     0.37
E14        53.39   45.15   51.74          72.99   27.01  -17.76          32.32  326.68           0.15    0.45    0.19    0.33            0.54    0.69    0.40           0.70     0.80
E15        69.22   71.93   28.46          87.93   -0.29   38.96          38.96   90.43           0.09    0.16    0.53    0.13            0.38    0.38    0.89           1.04     1.20
E16        25.25   26.21   21.88          58.24   -0.12   -0.47           0.69  237.71           0.56    0.60    0.62    0.58            0.61    0.62    0.78           0.77     0.86
E17        42.90   35.28   22.20          65.96   28.44   12.22          30.95   23.24           0.18    0.60    0.60    0.41            0.55    0.64    0.77           0.94     1.06
E18        45.29   55.53   28.56          79.35  -22.33   23.98          32.77  132.97           0.41    0.20    0.53    0.27            0.57    0.52    0.86           0.90     1.05
E19        33.94   35.15   49.94          65.86    0.17  -28.02          28.03  270.34           0.54    0.45    0.21    0.48            0.68    0.80    0.46           0.82     0.95
E20         7.25    8.56    1.35          35.11   -9.29   37.34          38.48  103.97           1.13    1.03    2.17    1.06            0.19    0.22    0.05           0.50     0.58
E21        24.85   29.56    6.61          61.27  -14.89   47.01          49.31  107.57           0.61    0.49    1.31    0.53            0.49    0.58    0.22           0.54     0.60
E22         9.54   18.60   14.25          50.22  -54.14    2.81          54.22  177.03           1.69    0.54    0.87    0.80            0.20    0.32    0.43           0.58     0.68
F1          3.62    4.49    3.22          25.21  -10.17    3.26          10.68  162.27           1.47    1.31    1.55    1.37            0.09    0.10    0.11           0.42     0.48
F2          2.95    4.40    2.74          24.94  -20.16    6.28          21.12  162.70           1.69    1.25    1.65    1.40            0.05    0.08    0.08           0.38     0.43
F3          2.50    4.48    2.30          25.19  -29.55   10.36          31.31  160.69           1.93    1.19    1.78    1.41            0.05    0.08    0.06           0.27     0.33
F4          1.87    4.42    1.82          25.00  -42.36   14.63          44.81  160.94           2.42    1.13    1.96    1.43            0.03    0.05    0.05           0.31     0.35
F5         11.79   14.81   10.50          45.37  -16.37    5.24          17.19  162.27           1.00    0.77    0.99    0.85            0.19    0.21    0.29           0.53     0.59
F6          9.57   14.88    8.80          45.47  -33.48   11.14          35.29  161.61           1.28    0.70    1.10    0.87            0.15    0.20    0.26           0.54     0.61
F7          7.53   14.57    7.26          45.04  -49.35   16.30          51.97  161.72           1.65    0.65    1.23    0.90            0.11    0.18    0.21           0.49     0.56
F8          7.00   14.62    6.69          45.11  -54.87   18.80          58.01  161.09           1.80    0.63    1.29    0.90            0.13    0.23    0.24           0.58     0.65
F9         30.31   34.68   26.45          65.50  -11.31    3.66          11.91  162.13           0.55    0.43    0.54    0.47            0.62    0.67    0.88           0.80     0.90
F10        26.91   34.49   24.26          65.35  -23.90    7.28          24.99  163.08           0.69    0.39    0.59    0.49            0.54    0.61    0.82           0.84     0.95
F11        23.85   33.90   21.75          64.88  -34.79   11.22          36.56  162.13           0.84    0.36    0.66    0.50            0.54    0.64    0.77           0.75     0.85
F12        21.02   33.93   19.56          64.91  -47.81   15.74          50.34  161.79           1.03    0.32    0.72    0.52            0.36    0.40    0.67           0.88     1.02
F13        48.10   58.38   60.98          80.95  -21.34  -13.67          25.34  212.65           0.48    0.17    0.14    0.26            0.44    0.38    0.21           0.36     0.40
F14        48.76   39.19   48.71          68.89   32.45  -21.40          38.87  326.59           0.17    0.54    0.21    0.38            0.51    0.62    0.40           0.64     0.78
F15        67.89   70.42   22.68          87.20   -0.01   47.92          47.92   90.01           0.09    0.17    0.66    0.14            0.35    0.35    0.71           0.96     1.12
F16        17.71   18.36   15.45          49.93    0.06   -0.75           0.85  260.39           0.71    0.75    0.78    0.74            0.41    0.41    0.53           0.72     0.80
F17        36.72   28.13   15.77          60.00   34.84   15.85          38.28   24.46           0.21    0.75    0.76    0.50            0.44    0.49    0.56           0.80     0.94
