targets/wolf_faust/transmissive/E080515.it8
IT8.7/1
ORIGINATOR "Wolf Faust"
DESCRIPTOR "Ektachrome, Type 3, L* a* b* (light D50, viewing angle 2)"
MANUFACTURER "Wolf Faust - http://www.coloraid.de"
CREATED "August 15, 2008"
PROD_DATE "2007:11"
DIFFUSE_GEOMETRY "opal"
SERIAL "E080515 Batch Average Data"
MATERIAL "For Kodak Ektachrome Product Family"
KEYWORD "MEAN_DE" # Mean Delta E of samples compared to batch average
NUMBER_OF_FIELDS 18
BEGIN_DATA_FORMAT
SAMPLE_ID  XYZ_X   XYZ_Y   XYZ_Z          LAB_L   LAB_A   LAB_B          LAB_C   LAB_H          D_RED  D_GREEN  D_BLUE  D_VIS          STDEV_X STDEV_Y STDEV_Z        MEAN_DE  STDEV_DE
END_DATA_FORMAT
NUMBER_OF_SETS 288
BEGIN_DATA
A1          2.31    1.98    1.36          15.39    8.91    3.23           9.48   19.91           1.45    1.86    1.92    1.67            0.05    0.04    0.04           0.35     0.40
A2          2.76    1.85    1.07          14.70   20.65    5.96          21.49   16.09           1.27    2.09    2.01    1.66            0.05    0.03    0.04           0.35     0.41 
A3          3.42    1.94    0.92          15.16   29.95    8.99          31.27   16.72           1.12    2.31    2.05    1.60            0.06    0.03    0.03           0.38     0.43
A4          4.27    1.95    0.72          15.24   42.27   12.74          44.15   16.78           0.95    3.01    2.10    1.55            0.07    0.03    0.02           0.32     0.37 
A5          9.95    8.54    6.21          35.09   14.28    3.66          14.75   14.40           0.83    1.20    1.20    1.04            0.19    0.17    0.20           0.49     0.55
A6         11.93    8.52    5.23          35.05   29.13    8.31          30.29   15.92           0.66    1.34    1.27    1.01            0.24    0.18    0.19           0.52     0.58 
A7         14.15    8.54    4.50          35.09   43.53   12.27          45.23   15.74           0.52    1.54    1.32    0.97            0.26    0.17    0.18           0.58     0.65
A8         16.78    8.60    3.75          35.21   58.43   16.90          60.83   16.13           0.39    1.85    1.38    0.94            0.13    0.09    0.15           0.59     0.71 
A9         28.99   27.90   21.68          59.80    8.22    2.61           8.65   17.57           0.45    0.61    0.62    0.54            0.62    0.62    0.77           0.82     0.92
A10        31.24   28.00   20.77          59.89   16.29    4.57          16.93   15.69           0.37    0.64    0.64    0.53            0.66    0.64    0.72           0.84     0.94
A11        33.48   28.17   19.83          60.04   23.69    6.76          24.64   15.93           0.30    0.68    0.65    0.52            0.62    0.59    0.68           0.79     0.89
A12        37.17   28.17   18.32          60.04   36.14   10.01          37.51   15.48           0.20    0.76    0.69    0.50            0.42    0.45    0.57           0.82     0.92 
A13        73.21   77.31   66.04          90.46   -2.75   -2.13           3.49  217.49           0.14    0.11    0.10    0.12            0.29    0.24    0.31           0.36     0.42
A14        78.66   79.89   66.00          91.63    3.25   -0.07           3.27  208.96           0.08    0.11    0.10    0.09            0.16    0.19    0.33           0.34     0.38 
A15        79.20   81.12   64.07          92.19    1.94    2.71           3.34   54.26           0.08    0.10    0.11    0.09            0.13    0.14    0.25           0.24     0.28
A16        76.62   79.57   65.52          91.49   -0.21    0.14           0.40  167.00           0.11    0.10    0.10    0.10            0.23    0.19    0.32           0.33     0.39
A17        78.32   79.59   64.68          91.50    3.17    0.94           3.31   16.59           0.08    0.11    0.11    0.10            0.15    0.19    0.28           0.27     0.31
A18        74.48   78.12   61.21          90.84   -1.74    3.15           3.60  118.91           0.12    0.11    0.14    0.11            0.21    0.18    0.18           0.19     0.22 
A19        73.24   75.55   64.88          89.65    0.81   -2.44           2.57  288.59           0.12    0.13    0.11    0.12            0.27    0.29    0.31           0.35     0.41
A20         6.39    3.02    1.83          20.11   46.62    6.06          47.01    7.41           0.79    2.60    1.67    1.38            0.13    0.06    0.06           0.44     0.50 
A21        26.56   18.46   14.31          50.04   40.65    2.35          40.72    3.31           0.32    1.02    0.78    0.67            0.41    0.34    0.43           0.57     0.66
A22        53.16   48.21   32.01          74.96   17.92   10.97          21.02   31.48           0.14    0.40    0.44    0.29            0.83    0.99    0.98           0.83     0.97
B1          3.39    3.01    1.67          20.09    8.24    7.69          11.27   43.01           1.29    1.65    1.85    1.49            0.07    0.06    0.04           0.35     0.40
B2          3.99    2.99    1.04          20.02   17.61   15.56          23.50   41.45           1.15    1.76    2.09    1.46            0.06    0.05    0.03           0.33     0.38
B3          4.63    3.07    0.66          20.32   25.19   22.58          33.83   41.87           1.03    1.87    2.33    1.43            0.07    0.04    0.02           0.31     0.33
B4          5.45    2.96    0.12          19.88   37.26   32.08          49.17   40.73           0.90    2.21    3.36    1.40            0.06    0.03    0.00           0.26     0.31
B5         12.81   11.38    6.49          40.20   12.86   11.24          17.08   41.15           0.73    1.05    1.20    0.92            0.25    0.23    0.20           0.48     0.54
B6         14.74   11.26    4.16          40.01   25.90   22.69          34.43   41.21           0.59    1.16    1.42    0.89            0.26    0.22    0.16           0.52     0.58
B7         17.12   11.35    2.60          40.16   38.92   33.69          51.48   40.88           0.47    1.29    1.66    0.86            0.30    0.22    0.10           0.47     0.51
B8         20.04   11.18    1.18          39.89   55.26   47.78          73.05   40.84           0.33    1.55    2.05    0.83            0.14    0.11    0.04           0.31     0.36
B9         34.64   34.28   25.45          65.18    5.52    4.87           7.39   41.22           0.39    0.50    0.55    0.46            0.68    0.69    0.87           0.85     0.97
B10        36.26   33.99   22.38          64.95   11.97   10.12          15.69   40.17           0.33    0.54    0.61    0.45            0.69    0.71    0.80           0.89     0.98
B11        38.17   34.23   20.41          65.14   17.38   14.36          22.56   39.55           0.27    0.56    0.66    0.44            0.65    0.67    0.67           0.78     0.90
B12        41.66   33.95   15.66          64.92   29.19   24.61          38.18   40.13           0.18    0.62    0.79    0.42            0.46    0.54    0.48           0.74     0.85
B13        66.13   71.77   63.79          87.86   -6.72   -4.49           8.08  213.72           0.21    0.13    0.12    0.15            0.35    0.33    0.23           0.27     0.30
B14        69.05   66.53   60.59          85.27   10.85   -5.83          12.32  331.73           0.10    0.22    0.13    0.17            0.42    0.50    0.24           0.42     0.47
B15        74.47   76.77   51.13          90.21    0.92   12.62          12.65   85.82           0.09    0.13    0.23    0.11            0.30    0.31    0.34           0.26     0.29
B16        59.48   61.39   50.93          82.59    0.67   -0.30           0.77  305.43           0.21    0.22    0.22    0.21            0.68    0.73    0.71           0.45     0.50
B17        66.81   64.71   50.85          84.33    9.98    2.80          10.37   15.65           0.10    0.23    0.22    0.18            0.57    0.66    0.72           0.49     0.53
B18        65.13   71.11   53.11          87.54   -7.59    5.85           9.58  142.40           0.20    0.13    0.21    0.15            0.48    0.42    0.60           0.39     0.47
B19        61.83   63.82   60.98          83.87    0.68   -8.62           8.65  274.49           0.21    0.20    0.13    0.20            0.56    0.64    0.30           0.43     0.51
B20         5.12    3.10    0.94          20.43   30.86   17.78          35.62   29.95           0.96    1.99    2.09    1.41            0.10    0.06    0.03           0.37     0.42
B21        17.07   11.29    4.15          40.07   39.07   22.84          45.26   30.31           0.47    1.30    1.40    0.86            0.29    0.21    0.13           0.44     0.49
B22        33.77   28.37   16.98          60.22   23.90   13.34          27.38   29.16           0.29    0.68    0.74    0.51            0.66    0.66    0.56           0.70     0.80
C1          6.37    6.16    3.35          29.81    4.68   10.25          11.27   65.45           1.07    1.28    1.53    1.19            0.14    0.13    0.11           0.43     0.51
C2          6.88    6.29    2.14          30.13    8.59   20.33          22.07   67.10           1.00    1.30    1.78    1.17            0.15    0.13    0.08           0.40     0.45
C3          7.31    6.24    1.14          30.00   13.37   31.39          34.12   66.93           0.94    1.34    2.16    1.16            0.12    0.11    0.04           0.38     0.43
C4          8.05    6.27    0.30          30.09   19.83   46.20          50.28   66.77           0.88    1.40    3.18    1.14            0.11    0.09    0.01           0.32     0.37
C5         24.05   23.08   11.81          55.15    8.04   18.07          19.78   66.00           0.50    0.70    0.93    0.62            0.45    0.47    0.31           0.63     0.69
C6         25.72   22.83    6.49          54.89   16.26   36.54          39.99   66.01           0.42    0.75    1.25    0.60            0.49    0.50    0.24           0.60     0.66
C7         27.72   22.99    3.12          55.06   23.66   55.38          60.22   66.86           0.35    0.79    1.69    0.59            0.39    0.39    0.10           0.54     0.59
C8         31.02   23.08    0.61          55.16   35.89   83.54          90.93   66.75           0.27    0.87    3.04    0.56            0.30    0.29    0.01           0.41     0.47
C9         40.75   40.87   28.44          70.08    4.18    8.21           9.22   62.89           0.32    0.42    0.50    0.38            0.71    0.76    0.89           0.84     0.95
C10        41.53   40.72   23.91          69.97    7.00   15.90          17.38   66.19           0.29    0.43    0.59    0.38            0.72    0.77    0.81           0.87     0.98
C11        43.18   41.17   20.32          70.29   10.58   23.43          25.71   65.68           0.25    0.44    0.67    0.36            0.74    0.80    0.71           0.84     0.96
C12        46.80   40.89    9.62          70.10   21.83   50.75          55.25   66.73           0.15    0.50    1.08    0.35            0.50    0.64    0.35           0.81     0.92
C13        60.32   67.75   63.16          85.88  -11.53   -7.29          13.64  212.31           0.29    0.14    0.12    0.18            0.35    0.30    0.13           0.27     0.30
C14        63.47   58.57   57.58          81.05   16.61  -10.06          19.42  328.82           0.12    0.29    0.15    0.22            0.53    0.68    0.33           0.52     0.66
C15        72.83   75.45   42.54          89.60    0.16   21.71          21.71   89.58           0.09    0.14    0.32    0.11            0.37    0.36    0.60           0.47     0.55
C16        45.87   47.39   39.30          74.44    0.49   -0.26           0.60  326.27           0.31    0.34    0.34    0.32            0.83    0.89    0.83           0.57     0.66
C17        57.94   53.42   39.85          78.12   16.22    5.38          17.09   18.34           0.13    0.34    0.33    0.25            0.69    0.83    0.87           0.62     0.74
C18        57.55   65.55   44.11          84.77  -13.35   11.43          17.58  139.48           0.27    0.15    0.30    0.19            0.56    0.49    0.83           0.64     0.73
C19        51.17   52.96   57.24          77.85    0.26  -15.23          15.23  270.96           0.31    0.28    0.16    0.28            0.77    0.87    0.44           0.65     0.76
C20        12.52    9.12    1.12          36.21   28.10   42.39          50.86   56.46           0.64    1.29    2.18    0.97            0.29    0.23    0.04           0.50     0.55
C21        22.11   20.37   11.17          52.25   11.84   14.99          19.11   51.69           0.52    0.77    0.95    0.67            0.49    0.47    0.36           0.61     0.69
C22        27.70   23.12   10.70          55.19   23.07   21.52          31.55   43.01           0.36    0.78    0.97    0.59            0.53    0.50    0.35           0.61     0.69
D1          4.23    4.44    2.48          25.08   -0.66    8.67           8.70   94.34           1.29    1.38    1.68    1.35            0.09    0.09    0.09           0.43     0.51
D2          4.27    4.48    1.54          25.20   -0.70   18.04          18.05   92.23           1.27    1.37    1.96    1.34            0.08    0.08    0.05           0.35     0.40
D3          4.13    4.36    0.86          24.83   -0.98   26.79          26.81   92.10           1.29    1.37    2.34    1.34            0.08    0.08    0.03           0.28     0.33
D4          4.06    4.35    0.32          24.78   -1.84   36.60          36.65   92.88           1.34    1.36    3.15    1.34            0.07    0.07    0.01           0.34     0.42
D5         17.80   18.47    9.51          50.06   -0.09   16.58          16.58   90.31           0.67    0.76    1.04    0.73            0.36    0.38    0.25           0.56     0.64
D6         17.67   18.45    4.97          50.04   -0.63   35.48          35.49   91.02           0.67    0.75    1.42    0.72            0.32    0.36    0.17           0.54     0.60
D7         17.40   18.38    2.46          49.96   -1.73   51.68          51.71   91.92           0.68    0.75    1.88    0.72            0.32    0.36    0.09           0.51     0.57
D8         17.25   18.34    0.77          49.90   -2.32   71.61          71.65   91.86           0.73    0.74    2.97    0.71            0.27    0.30    0.02           0.45     0.52
D9         46.78   48.74   24.62          75.29   -0.62   23.77          23.78   91.50           0.27    0.33    0.59    0.30            0.78    0.88    0.88           0.92     1.01
D10        46.56   48.57   14.17          75.18   -0.77   46.07          46.07   90.96           0.25    0.33    0.90    0.30            0.67    0.75    0.48           0.75     0.84
D11        46.15   48.52    7.02          75.15   -1.78   69.21          69.23   91.47           0.26    0.33    1.33    0.29            0.57    0.65    0.22           0.50     0.56
D12        45.98   48.64    2.62          75.23   -2.59   93.97          94.00   91.58           0.29    0.33    2.11    0.29            0.35    0.35    0.06           0.33     0.36
D13        55.93   64.57   62.54          84.26  -15.17   -9.48          17.89  212.01           0.35    0.15    0.12    0.21            0.36    0.32    0.16           0.29     0.33
D14        58.10   51.21   54.47          76.80   22.30  -14.13          26.40  327.64           0.14    0.37    0.17    0.27            0.57    0.71    0.43           0.63     0.72
D15        71.04   73.80   34.36          88.83   -0.26   31.40          31.40   90.47           0.09    0.15    0.43    0.12            0.44    0.45    0.77           0.69     0.82
D16        34.48   35.56   29.19          66.18    0.66    0.26           0.78  110.65           0.43    0.46    0.48    0.45            0.68    0.71    0.75           0.62     0.69
D17        49.92   43.52   29.89          71.91   22.58    9.00          24.31   21.72           0.15    0.47    0.47    0.33            0.65    0.75    0.80           0.70     0.83
D18        51.31   60.62   35.55          82.17  -17.99   18.21          25.60  134.66           0.34    0.18    0.41    0.23            0.58    0.52    0.83           0.67     0.83
D19        41.97   43.35   53.53          71.79    0.49  -21.76          21.77  271.29           0.42    0.36    0.18    0.38            0.79    0.89    0.45           0.75     0.88
D20         3.04    2.97    1.07          19.90    3.15   14.85          15.19   78.03           1.38    1.59    2.12    1.51            0.07    0.07    0.04           0.33     0.36
D21        30.92   28.07    1.51          59.95   14.86   78.28          79.68   79.25           0.36    0.64    2.34    0.51            0.49    0.49    0.04           0.54     0.61
D22        40.39   43.92   54.34          72.17   -5.94  -21.98          22.77  254.86           0.48    0.33    0.18    0.38            0.70    0.82    0.44           0.67     0.78
E1          5.52    6.21    3.45          29.93   -5.23    9.79          11.10  118.10           1.21    1.20    1.53    1.21            0.12    0.12    0.11           0.37     0.42
E2          5.02    6.16    2.22          29.80  -10.72   19.08          21.89  119.33           1.30    1.17    1.80    1.22            0.10    0.12    0.07           0.36     0.41
E3          4.59    6.15    1.33          29.79  -16.21   28.42          32.72  119.70           1.41    1.13    2.15    1.22            0.08    0.10    0.03           0.32     0.38
E4          3.96    6.07    0.49          29.60  -24.04   41.82          48.24  119.90           1.65    1.07    3.08    1.24            0.07    0.09    0.01           0.36     0.41
E5         24.88   28.06   15.15          59.94   -9.01   17.27          19.48  117.56           0.59    0.53    0.82    0.56            0.48    0.55    0.35           0.60     0.67
E6         22.69   27.98    9.51          59.87  -18.34   33.48          38.17  118.72           0.68    0.50    1.09    0.56            0.46    0.56    0.29           0.61     0.67
E7         20.81   28.25    5.16          60.12  -28.18   51.86          59.02  118.52           0.79    0.46    1.50    0.56            0.36    0.48    0.15           0.46     0.53
E8         19.00   28.12    2.82          60.00  -36.64   66.11          75.58  118.99           0.94    0.43    1.98    0.57            0.21    0.26    0.05           0.26     0.30
E9         45.22   48.92   32.14          75.40   -5.52   11.54          12.80  115.61           0.33    0.30    0.45    0.31            0.80    0.86    0.94           0.82     0.91
E10        42.91   48.72   25.43          75.27  -11.71   22.30          25.19  117.71           0.37    0.29    0.58    0.32            0.75    0.84    0.83           0.78     0.91
E11        41.09   48.77   20.08          75.31  -17.32   32.57          36.89  118.00           0.41    0.27    0.71    0.32            0.68    0.75    0.62           0.70     0.79
E12        38.69   49.00   14.39          75.45  -25.40   45.95          52.51  118.94           0.48    0.25    0.91    0.32            0.52    0.52    0.44           0.65     0.74
E13        52.04   61.62   61.87          82.71  -18.40  -11.50          21.70  212.02           0.42    0.16    0.13    0.23            0.38    0.33    0.20           0.31     0.35
E14        53.48   45.06   51.60          72.93   27.50  -17.70          32.71  327.24           0.15    0.46    0.19    0.33            0.56    0.70    0.45           0.66     0.78
E15        69.47   72.19   27.54          88.06   -0.29   40.69          40.69   90.40           0.09    0.16    0.55    0.13            0.39    0.41    0.66           0.71     0.82
E16        25.07   25.92   21.10          57.95    0.33    0.57           0.75   84.15           0.56    0.60    0.64    0.59            0.57    0.57    0.59           0.64     0.71
E17        43.11   35.39   21.93          66.05   28.69   12.88          31.45   24.17           0.18    0.60    0.61    0.41            0.53    0.59    0.64           0.62     0.78
E18        45.57   55.85   28.08          79.53  -22.28   25.08          33.55  131.63           0.41    0.20    0.54    0.26            0.56    0.52    0.70           0.71     0.83
E19        33.80   34.83   49.74          65.62    0.73  -28.22          28.24  271.47           0.54    0.46    0.21    0.48            0.70    0.80    0.48           0.77     0.90
E20         7.17    8.47    1.37          34.93   -9.34   36.77          37.93  104.25           1.13    1.03    2.17    1.07            0.19    0.23    0.05           0.54     0.58
E21        24.75   29.20    6.30          60.96  -13.97   47.84          49.84  106.28           0.60    0.50    1.35    0.53            0.52    0.62    0.21           0.61     0.68
E22         9.42   18.36   13.95          49.93  -53.95    3.09          54.04  176.73           1.69    0.54    0.88    0.81            0.19    0.31    0.35           0.52     0.59
F1          3.60    4.41    3.11          24.98   -9.50    3.62          10.17  159.15           1.46    1.32    1.57    1.38            0.08    0.08    0.10           0.40     0.49
F2          2.98    4.43    2.68          25.06  -20.14    7.01          21.33  160.81           1.68    1.25    1.67    1.39            0.05    0.07    0.07           0.38     0.44
F3          2.50    4.45    2.29          25.10  -29.19   10.31          30.96  160.55           1.92    1.20    1.78    1.41            0.05    0.07    0.06           0.38     0.43
F4          1.86    4.37    1.77          24.87  -41.99   14.95          44.57  160.41           2.41    1.13    1.98    1.44            0.04    0.08    0.04           0.36     0.41
F5         11.67   14.59   10.34          45.06  -15.90    5.19          16.72  161.94           1.00    0.78    0.99    0.86            0.22    0.26    0.25           0.45     0.53
F6          9.41   14.55    8.54          45.01  -32.77   11.29          34.66  160.99           1.27    0.71    1.12    0.88            0.18    0.27    0.21           0.44     0.49
F7          7.46   14.41    7.00          44.81  -49.05   16.97          51.90  160.92           1.64    0.65    1.26    0.90            0.16    0.28    0.18           0.49     0.54
F8          6.93   14.47    6.57          44.90  -54.62   18.98          57.83  160.84           1.80    0.63    1.30    0.91            0.15    0.27    0.18           0.55     0.59
F9         30.03   34.21   25.54          65.12  -10.76    4.60          11.71  156.93           0.55    0.44    0.56    0.48            0.65    0.72    0.73           0.75     0.85
F10        26.72   34.15   23.62          65.08  -23.51    8.00          24.84  161.23           0.69    0.40    0.61    0.49            0.58    0.69    0.71           0.70     0.80
F11        24.09   34.15   21.44          65.08  -34.59   12.18          36.68  160.60           0.83    0.36    0.67    0.50            0.49    0.62    0.62           0.67     0.76
F12        21.11   34.06   19.31          65.01  -47.83   16.43          50.57  161.04           1.03    0.32    0.73    0.51            0.32    0.37    0.55           0.66     0.80
F13        48.40   58.74   61.14          81.15  -21.39  -13.47          25.28  212.21           0.48    0.17    0.14    0.26            0.45    0.40    0.24           0.37     0.41
F14        48.98   39.28   48.61          68.95   32.77  -21.19          39.02  327.12           0.17    0.55    0.21    0.38            0.55    0.65    0.46           0.61     0.77
F15        68.13   70.63   21.95          87.30    0.07   49.50          49.50   89.92           0.09    0.17    0.68    0.13            0.36    0.40    0.60           0.77     0.91
F16        17.51   18.11   14.87          49.63    0.24    0.19           0.48  176.77           0.71    0.76    0.80    0.74            0.42    0.42    0.47           0.59     0.65
F17        36.89   28.22   15.44          60.08   35.02   16.81          38.85   25.64           0.20    0.75    0.78    0.50            0.45    0.48    0.49           0.63     0.77
