targets/wolf_faust/transmissive/E090401.it8
IT8.7/1
ORIGINATOR "Wolf Faust"
DESCRIPTOR "Ektachrome, Type 3, L* a* b* (light D50, viewing angle 2)"
MANUFACTURER "Wolf Faust - http://www.coloraid.de"
CREATED "May 19, 2009"
PROD_DATE "2008:05"
DIFFUSE_GEOMETRY "opal"
SERIAL "E090401 Batch Average Data"
MATERIAL "For Kodak Ektachrome Product Family"
KEYWORD "MEAN_DE" # Mean Delta E of samples compared to batch average
NUMBER_OF_FIELDS 18
BEGIN_DATA_FORMAT
SAMPLE_ID  XYZ_X   XYZ_Y   XYZ_Z          LAB_L   LAB_A   LAB_B          LAB_C   LAB_H          D_RED  D_GREEN  D_BLUE  D_VIS          STDEV_X STDEV_Y STDEV_Z        MEAN_DE  STDEV_DE
END_DATA_FORMAT
NUMBER_OF_SETS 288
BEGIN_DATA
A1          2.39    2.00    1.53          15.47   10.19    1.35          10.28    7.54           1.42    1.87    1.85    1.67            0.09    0.08    0.07           0.43     0.52
A2          3.14    2.19    1.41          16.46   19.74    4.44          20.24   12.68           1.23    1.97    1.88    1.59            0.12    0.08    0.08           0.48     0.60 
A3          3.68    2.10    1.08          15.99   30.39    7.99          31.43   14.74           1.09    2.26    1.97    1.57            0.11    0.07    0.07           0.51     0.65
A4          4.49    2.06    0.86          15.80   42.80   11.07          44.21   14.51           0.93    2.93    2.01    1.53            0.12    0.05    0.03           0.50     0.62 
A5         10.66    9.14    6.81          36.24   14.73    3.01          15.04   11.53           0.80    1.17    1.16    1.01            0.38    0.31    0.30           0.71     0.86
A6         12.77    9.17    6.11          36.31   29.35    6.25          30.01   12.02           0.64    1.30    1.19    0.98            0.41    0.31    0.31           0.69     0.89 
A7         14.87    9.07    5.02          36.11   43.47   11.23          44.90   14.48           0.51    1.49    1.27    0.95            0.47    0.29    0.25           0.76     0.91
A8         16.70    8.53    4.09          35.06   58.61   14.61          60.41   14.00           0.39    1.86    1.33    0.94            0.19    0.12    0.20           0.65     0.87 
A9         31.31   30.31   24.39          61.91    7.81    1.14           7.92   48.17           0.42    0.57    0.56    0.51            1.09    1.10    1.15           0.98     1.21
A10        33.28   30.17   23.41          61.79   15.37    2.74          15.62   10.07           0.35    0.60    0.58    0.50            1.09    1.08    1.10           1.03     1.24
A11        35.46   30.23   21.91          61.84   22.68    5.69          23.40   14.06           0.29    0.64    0.61    0.49            0.97    0.95    1.01           0.97     1.16
A12        38.67   29.83   20.56          61.50   34.66    7.81          35.54   12.67           0.20    0.72    0.63    0.48            0.73    0.80    1.03           1.10     1.37 
A13        73.80   77.71   65.91          90.65   -2.33   -1.68           2.88  215.73           0.14    0.11    0.10    0.11            0.40    0.34    0.32           0.32     0.38
A14        78.95   80.32   65.91          91.83    2.99    0.35           3.02    6.76           0.08    0.11    0.10    0.09            0.34    0.42    0.45           0.34     0.40 
A15        79.18   81.16   63.36          92.20    1.81    3.43           3.88   62.09           0.07    0.10    0.12    0.09            0.31    0.34    0.45           0.25     0.29
A16        76.91   79.73   65.05          91.56    0.05    0.71           0.72   87.31           0.10    0.10    0.11    0.10            0.45    0.43    0.40           0.33     0.36
A17        78.54   79.93   64.71          91.65    2.93    1.18           3.16   21.90           0.08    0.11    0.11    0.09            0.38    0.45    0.45           0.28     0.33
A18        75.12   78.56   61.79          91.03   -1.27    2.93           3.20  113.56           0.11    0.11    0.13    0.10            0.43    0.37    0.33           0.31     0.35 
A19        73.80   76.20   64.60          89.95    0.67   -1.65           1.79  292.69           0.12    0.12    0.11    0.12            0.44    0.45    0.31           0.35     0.40
A20         6.80    3.22    2.04          20.90   47.52    5.34          47.82    6.41           0.77    2.55    1.62    1.35            0.26    0.12    0.12           0.74     0.91 
A21        27.74   19.56   16.06          51.33   39.87    0.21          39.87  120.30           0.31    0.98    0.73    0.65            0.76    0.66    0.82           1.00     1.19
A22        55.31   50.94   34.63          76.64   16.13   10.01          18.99   31.80           0.14    0.36    0.40    0.27            1.18    1.42    1.44           1.13     1.36
B1          3.64    3.22    2.02          20.91    8.57    5.60          10.24   33.13           1.27    1.62    1.75    1.47            0.14    0.12    0.10           0.50     0.61
B2          4.26    3.23    1.22          20.95   17.56   14.61          22.84   39.76           1.12    1.72    2.00    1.43            0.15    0.12    0.08           0.48     0.59
B3          4.86    3.16    0.76          20.66   26.72   21.35          34.20   38.63           1.00    1.88    2.24    1.41            0.16    0.11    0.04           0.46     0.59
B4          5.88    3.23    0.14          20.95   37.53   33.41          50.25   41.67           0.87    2.13    3.19    1.36            0.17    0.10    0.00           0.57     0.79
B5         13.60   12.13    7.26          41.41   12.75   10.04          16.23   38.20           0.71    1.02    1.14    0.89            0.54    0.47    0.33           0.74     0.90
B6         15.81   12.19    4.90          41.51   25.76   21.15          33.33   39.39           0.56    1.12    1.34    0.86            0.50    0.41    0.27           0.82     0.96
B7         17.74   11.87    2.91          41.00   38.62   32.74          50.64   40.29           0.45    1.26    1.60    0.84            0.56    0.39    0.15           0.72     0.84
B8         20.76   11.80    1.45          40.90   54.40   46.08          71.29   40.27           0.32    1.49    1.95    0.81            0.23    0.19    0.07           0.47     0.58
B9         36.85   36.51   28.06          66.90    5.49    3.36           6.46   31.12           0.37    0.47    0.50    0.43            1.20    1.25    1.29           1.02     1.26
B10        38.70   36.61   25.00          66.97   11.16    8.76          14.19   38.08           0.31    0.50    0.56    0.42            1.19    1.22    1.13           1.04     1.25
B11        40.06   36.26   22.84          66.71   16.53   12.30          20.61   36.63           0.26    0.53    0.60    0.42            1.13    1.16    1.10           1.02     1.25
B12        43.46   36.14   17.89          66.62   27.23   22.32          35.21   39.33           0.17    0.58    0.72    0.40            0.81    0.95    0.90           1.14     1.37
B13        67.42   72.87   64.23          88.38   -6.15   -4.01           7.34  213.07           0.20    0.12    0.11    0.15            0.63    0.55    0.35           0.33     0.42
B14        70.40   68.32   61.32          86.17    9.85   -5.00          11.05  333.09           0.10    0.20    0.13    0.16            0.55    0.67    0.33           0.45     0.58
B15        75.30   77.58   52.62          90.59    1.01   11.63          11.67   85.04           0.08    0.12    0.21    0.10            0.38    0.40    0.46           0.27     0.34
B16        61.51   63.65   53.02          83.78    0.31   -0.53           0.68  305.02           0.19    0.20    0.20    0.20            1.02    1.07    1.06           0.56     0.67
B17        68.36   66.64   52.78          85.32    9.10    2.38           9.41   14.66           0.10    0.21    0.20    0.17            0.82    0.93    0.93           0.51     0.63
B18        66.43   72.16   54.70          88.04   -6.86    5.00           8.50  143.93           0.19    0.13    0.19    0.15            0.71    0.60    0.72           0.51     0.60
B19        62.98   65.18   61.32          84.58    0.30   -7.74           7.75  272.18           0.20    0.19    0.13    0.19            0.90    0.94    0.43           0.51     0.67
B20         5.24    3.12    1.15          20.53   31.93   14.83          35.21   24.91           0.94    2.01    1.98    1.40            0.19    0.12    0.07           0.57     0.72
B21        18.17   12.28    4.76          41.65   38.17   22.11          44.11   30.08           0.45    1.24    1.33    0.83            0.53    0.41    0.24           0.75     0.88
B22        35.17   29.94   18.63          61.59   22.76   12.03          25.75   27.83           0.28    0.65    0.69    0.49            1.19    1.16    1.01           1.15     1.35
C1          6.91    6.69    3.80          31.09    4.71    9.50          10.60   63.62           1.04    1.24    1.46    1.16            0.26    0.25    0.19           0.54     0.68
C2          7.42    6.81    2.48          31.36    8.48   19.50          21.27   66.51           0.97    1.26    1.70    1.14            0.27    0.25    0.13           0.54     0.68
C3          7.85    6.74    1.32          31.19   13.25   31.03          33.74   66.88           0.91    1.30    2.07    1.13            0.27    0.24    0.07           0.48     0.64
C4          8.57    6.70    0.34          31.11   20.04   47.31          51.38   67.04           0.85    1.36    3.06    1.11            0.27    0.21    0.01           0.66     0.90
C5         25.40   24.52   12.89          56.59    7.61   17.46          19.05   66.46           0.48    0.67    0.89    0.59            1.03    1.01    0.67           0.96     1.13
C6         27.28   24.51    7.43          56.59   15.33   35.53          38.69   66.66           0.40    0.71    1.18    0.58            1.02    0.97    0.40           0.99     1.13
C7         29.42   24.73    3.63          56.80   22.77   54.93          59.46   67.48           0.33    0.74    1.61    0.56            0.81    0.79    0.19           0.84     1.01
C8         32.11   24.21    0.67          56.29   34.96   84.37          91.33   67.49           0.26    0.84    2.94    0.54            0.68    0.64    0.02           0.85     1.05
C9         43.47   43.82   31.51          72.10    3.61    6.82           7.72   62.14           0.30    0.38    0.45    0.35            1.33    1.42    1.32           0.95     1.17
C10        43.64   43.08   26.48          71.60    6.27   14.14          15.47   66.09           0.28    0.40    0.54    0.35            1.49    1.57    1.25           1.03     1.25
C11        44.59   42.83   21.81          71.43    9.79   22.42          24.46   66.42           0.24    0.42    0.64    0.35            1.40    1.48    1.08           1.00     1.24
C12        48.39   43.04   10.98          71.58   19.84   48.90          52.78   67.92           0.14    0.47    1.01    0.33            0.82    1.06    0.56           1.14     1.34
C13        61.52   68.78   63.52          86.39  -10.91   -6.76          12.84  211.76           0.28    0.13    0.12    0.18            0.73    0.64    0.36           0.40     0.52
C14        64.90   60.56   58.44          82.14   15.16   -9.06          17.66  329.13           0.11    0.27    0.14    0.21            0.80    1.01    0.51           0.74     0.90
C15        73.71   76.32   44.51          90.01    0.25   19.97          19.97   89.27           0.08    0.13    0.30    0.11            0.47    0.49    0.76           0.49     0.63
C16        48.00   49.79   41.80          75.93   -0.02   -0.92           0.99  272.21           0.30    0.31    0.31    0.30            1.41    1.54    1.35           0.85     1.06
C17        59.60   55.54   42.26          79.34   14.95    4.39          15.59   16.33           0.12    0.32    0.31    0.24            1.13    1.34    1.40           0.91     1.11
C18        58.97   66.71   46.41          85.36  -12.49    9.68          15.80  142.27           0.26    0.15    0.28    0.18            0.89    0.75    1.08           0.75     0.95
C19        52.84   55.03   57.98          79.05   -0.58  -13.91          13.93  267.58           0.30    0.26    0.15    0.27            1.15    1.31    0.62           0.88     1.09
C20        13.31    9.78    1.35          37.44   28.02   41.38          49.97   55.90           0.62    1.25    2.06    0.94            0.46    0.37    0.08           0.74     0.88
C21        23.61   22.01   12.68          54.03   10.93   13.65          17.49   51.29           0.50    0.73    0.89    0.64            0.89    0.90    0.62           1.04     1.25
C22        28.84   24.39   11.84          56.46   22.01   20.25          29.91   42.60           0.35    0.75    0.92    0.57            1.05    0.99    0.62           1.06     1.27
D1          4.57    4.78    2.80          26.08   -0.48    7.84           7.86   93.50           1.25    1.35    1.62    1.32            0.17    0.17    0.11           0.48     0.58
D2          4.51    4.69    1.76          25.82   -0.17   16.69          16.69   90.60           1.24    1.36    1.88    1.32            0.16    0.17    0.07           0.48     0.59
D3          4.46    4.73    1.00          25.95   -1.39   26.37          26.40   93.01           1.26    1.34    2.24    1.31            0.17    0.18    0.05           0.53     0.64
D4          4.52    4.81    0.37          26.18   -1.51   38.20          38.23   92.27           1.29    1.32    3.03    1.30            0.16    0.16    0.01           0.71     0.87
D5         19.18   20.00   10.68          51.83   -0.51   15.82          15.83   91.88           0.65    0.72    0.98    0.69            0.69    0.73    0.51           0.87     1.04
D6         18.95   20.03    5.99          51.86   -1.85   33.62          33.67   93.15           0.64    0.71    1.31    0.69            0.70    0.75    0.31           0.85     1.02
D7         18.76   19.95    2.84          51.77   -2.45   51.79          51.85   92.71           0.66    0.71    1.79    0.68            0.67    0.73    0.15           0.86     1.05
D8         18.49   19.68    0.83          51.46   -2.49   73.15          73.19   91.95           0.70    0.71    2.88    0.68            0.61    0.63    0.03           0.95     1.21
D9         48.69   50.78   27.04          76.53   -0.74   21.69          21.70   91.96           0.26    0.31    0.54    0.29            1.44    1.53    1.22           0.96     1.15
D10        48.17   50.40   15.53          76.31   -1.17   44.56          44.58   91.51           0.24    0.31    0.85    0.28            1.30    1.40    0.72           0.82     1.02
D11        47.57   50.31    7.81          76.25   -2.58   67.94          67.99   92.18           0.25    0.31    1.26    0.28            1.14    1.20    0.32           0.71     0.87
D12        47.22   49.91    2.89          76.01   -2.50   93.25          93.28   91.53           0.27    0.32    2.02    0.28            0.71    0.65    0.09           0.43     0.55
D13        57.17   65.62   62.87          84.80  -14.45   -8.87          16.95  211.54           0.34    0.14    0.12    0.20            0.70    0.60    0.33           0.42     0.55
D14        59.72   53.47   55.49          78.15   20.40  -12.90          24.13  327.69           0.13    0.35    0.16    0.26            0.87    1.09    0.61           0.83     1.06
D15        72.07   74.83   37.07          89.31   -0.18   28.41          28.41   90.35           0.08    0.14    0.39    0.12            0.53    0.53    0.93           0.72     0.92
D16        36.54   37.93   31.86          67.96   -0.12   -0.85           0.94  262.86           0.41    0.43    0.44    0.42            1.33    1.44    1.26           1.01     1.22
D17        51.40   45.38   32.09          73.13   21.20    7.72          22.57   20.00           0.15    0.44    0.43    0.32            1.09    1.28    1.30           1.02     1.29
D18        52.85   61.95   38.30          82.88  -17.04   15.65          23.14  137.46           0.33    0.17    0.38    0.22            0.89    0.76    1.18           0.91     1.18
D19        43.87   45.81   54.54          73.42   -0.88  -20.05          20.07  267.45           0.40    0.33    0.18    0.35            1.11    1.29    0.70           1.01     1.23
D20         3.25    3.19    1.22          20.77    2.95   14.26          14.57   78.33           1.35    1.56    2.04    1.48            0.15    0.14    0.06           0.50     0.61
D21        32.86   30.20    1.72          61.82   13.80   79.12          80.31   80.10           0.34    0.60    2.24    0.48            1.01    1.02    0.08           0.97     1.26
D22        42.44   46.60   55.42          73.93   -7.29  -20.10          21.39  250.03           0.46    0.30    0.17    0.35            1.13    1.31    0.66           0.94     1.21
E1          6.04    6.79    4.07          31.31   -5.44    8.25           9.89  123.40           1.18    1.16    1.44    1.18            0.24    0.27    0.19           0.59     0.72
E2          5.53    6.76    2.54          31.24  -10.81   18.75          21.65  119.95           1.26    1.13    1.73    1.18            0.22    0.27    0.13           0.60     0.73
E3          5.04    6.74    1.54          31.19  -16.45   28.36          32.78  120.12           1.36    1.09    2.06    1.19            0.21    0.28    0.08           0.65     0.80
E4          4.37    6.61    0.53          30.89  -23.91   43.18          49.36  118.98           1.59    1.04    2.98    1.20            0.17    0.24    0.02           0.76     0.94
E5         27.02   30.58   17.28          62.14   -9.64   15.98          18.67  121.12           0.56    0.49    0.76    0.52            0.96    1.09    0.75           0.87     1.08
E6         24.42   30.17   10.79          61.79  -19.00   32.64          37.77  120.21           0.65    0.47    1.03    0.53            0.84    1.02    0.50           0.91     1.07
E7         22.10   30.13    6.03          61.76  -29.21   50.47          58.31  120.06           0.77    0.43    1.40    0.53            0.68    0.86    0.24           0.81     1.01
E8         19.98   29.33    3.16          61.07  -36.34   65.52          74.92  119.01           0.91    0.41    1.89    0.55            0.43    0.52    0.12           0.48     0.60
E9         47.45   51.41   35.41          76.92   -5.79    9.37          11.03  121.78           0.32    0.28    0.40    0.29            1.27    1.37    1.37           0.86     1.06
E10        45.34   51.38   28.18          76.90  -11.67   20.40          23.51  119.80           0.35    0.27    0.53    0.29            1.16    1.24    1.11           0.90     1.07
E11        43.05   51.00   22.31          76.67  -17.33   30.47          35.06  119.64           0.39    0.25    0.66    0.30            1.02    1.08    0.85           0.84     1.03
E12        40.22   50.47   15.71          76.35  -24.51   44.18          50.53  119.02           0.46    0.24    0.86    0.30            0.76    0.71    0.57           0.80     1.01
E13        53.28   62.68   62.18          83.27  -17.62  -10.83          20.69  211.58           0.40    0.15    0.13    0.23            0.69    0.60    0.33           0.43     0.58
E14        54.83   46.91   52.52          74.12   25.75  -16.65          30.67  327.12           0.15    0.43    0.18    0.31            0.87    1.07    0.69           0.90     1.13
E15        70.51   73.28   30.38          88.58   -0.31   36.97          36.98   90.48           0.09    0.15    0.50    0.12            0.55    0.56    0.96           0.82     1.10
E16        26.78   27.80   23.62          59.70   -0.10   -1.29           1.32  266.22           0.54    0.57    0.58    0.56            1.01    1.07    0.91           0.92     1.11
E17        44.63   37.16   24.39          67.39   27.32   10.58          29.30   21.15           0.17    0.56    0.56    0.39            0.89    1.03    1.09           1.12     1.34
E18        47.32   57.42   31.01          80.42  -21.21   21.93          30.51  134.06           0.39    0.19    0.49    0.25            0.86    0.76    1.01           0.90     1.18
E19        35.60   37.11   50.87          67.35   -0.59  -26.50          26.51  268.69           0.51    0.42    0.20    0.45            1.01    1.19    0.72           1.07     1.30
E20         7.88    9.28    1.57          36.50   -9.40   37.19          38.36  104.19           1.09    0.99    2.09    1.03            0.31    0.38    0.08           0.69     0.88
E21        26.60   31.46    7.15          62.88  -14.55   47.54          49.72  107.02           0.58    0.46    1.27    0.50            0.88    1.03    0.30           0.92     1.15
E22        10.18   19.58   15.45          51.35  -54.04    1.72          54.07  178.18           1.66    0.52    0.83    0.78            0.36    0.58    0.61           0.79     0.94
F1          3.95    4.83    3.65          26.25   -9.72    2.12           9.96  167.72           1.43    1.28    1.48    1.34            0.16    0.18    0.15           0.55     0.65
F2          3.28    4.87    3.09          26.35  -20.49    6.12          21.39  163.38           1.64    1.21    1.60    1.36            0.13    0.18    0.13           0.54     0.63
F3          2.64    4.72    2.64          25.91  -29.88    8.81          31.15  163.56           1.91    1.17    1.70    1.39            0.11    0.19    0.11           0.57     0.68
F4          2.00    4.68    2.09          25.80  -42.77   13.38          44.82  162.63           2.39    1.11    1.88    1.41            0.08    0.17    0.08           0.63     0.75
F5         12.43   15.53   11.32          46.34  -16.18    4.37          16.76  164.89           0.98    0.75    0.95    0.83            0.55    0.66    0.52           0.83     1.00
F6         10.29   15.83    9.75          46.74  -33.28   10.05          34.76  163.19           1.24    0.68    1.05    0.84            0.43    0.63    0.46           0.82     0.98
F7          8.16   15.60    7.94          46.44  -49.64   16.05          52.17  162.09           1.60    0.62    1.19    0.87            0.32    0.54    0.34           0.80     0.94
F8          7.47   15.44    7.39          46.23  -55.13   17.82          57.94  162.08           1.77    0.61    1.24    0.88            0.26    0.46    0.30           0.70     0.83
F9         32.17   36.77   28.75          67.09  -11.43    2.55          11.72  167.41           0.53    0.40    0.50    0.45            1.12    1.24    1.15           0.85     1.07
F10        28.75   36.57   26.09          66.94  -23.52    6.77          24.48  163.94           0.66    0.37    0.56    0.46            0.93    1.11    0.97           0.81     0.99
F11        25.71   36.19   23.69          66.66  -34.49   10.60          36.08  162.92           0.80    0.34    0.61    0.48            0.78    0.96    0.81           0.72     0.89
F12        22.29   35.38   21.31          66.04  -46.79   14.10          48.87  163.24           1.00    0.31    0.68    0.50            0.50    0.56    0.71           0.83     1.01
F13        49.88   60.01   61.49          81.84  -20.38  -12.62          23.97  211.77           0.46    0.16    0.13    0.25            0.67    0.60    0.36           0.41     0.57
F14        50.21   40.92   49.52          70.12   31.05  -20.21          37.05  326.94           0.16    0.52    0.21    0.36            0.80    0.95    0.69           0.81     1.06
F15        69.04   71.66   24.23          87.80   -0.10   46.05          46.05   90.13           0.09    0.16    0.62    0.13            0.50    0.53    0.76           0.74     1.00
F16        19.04   19.74   16.80          51.53    0.03   -1.20           1.26  272.36           0.68    0.72    0.74    0.71            0.73    0.79    0.67           0.91     1.08
F17        38.36   29.88   17.56          61.54   33.49   14.32          36.42   23.15           0.20    0.71    0.71    0.48            0.72    0.80    0.77           0.96     1.18
