targets/wolf_faust/transmissive/E091111.it8
IT8.7/1
ORIGINATOR "Wolf Faust"
DESCRIPTOR "Ektachrome, Type 3, L* a* b* (light D50, viewing angle 2)"
MANUFACTURER "Wolf Faust - http://www.coloraid.de"
CREATED "November 16, 2009"
PROD_DATE "2008:05"
DIFFUSE_GEOMETRY "opal"
SERIAL "E091111 Batch Average Data"
MATERIAL "For Kodak Ektachrome Product Family"
KEYWORD "MEAN_DE" # Mean Delta E of samples compared to batch average
NUMBER_OF_FIELDS 18
BEGIN_DATA_FORMAT
SAMPLE_ID  XYZ_X   XYZ_Y   XYZ_Z          LAB_L   LAB_A   LAB_B          LAB_C   LAB_H          D_RED  D_GREEN  D_BLUE  D_VIS          STDEV_X STDEV_Y STDEV_Z        MEAN_DE  STDEV_DE
END_DATA_FORMAT
NUMBER_OF_SETS 288
BEGIN_DATA
A1          2.40    2.00    1.50          15.50   10.18    1.71          10.33    9.52           1.42    1.87    1.86    1.67            0.10    0.08    0.05           0.43     0.56
A2          3.22    2.24    1.43          16.70   20.09    4.66          20.63   13.07           1.22    1.97    1.87    1.58            0.06    0.04    0.03           0.44     0.51 
A3          3.78    2.15    1.12          16.23   30.88    7.90          31.87   14.35           1.07    2.26    1.96    1.56            0.05    0.03    0.05           0.46     0.55
A4          4.67    2.14    0.89          16.19   43.51   11.39          44.98   14.67           0.91    2.93    2.00    1.51            0.04    0.02    0.01           0.14     0.17 
A5         11.25    9.67    7.27          37.24   14.87    2.82          15.14   10.75           0.78    1.14    1.12    0.99            0.12    0.13    0.05           0.39     0.47
A6         13.30    9.56    6.34          37.04   29.72    6.42          30.41   12.19           0.62    1.28    1.17    0.96            0.17    0.15    0.07           0.42     0.49 
A7         15.53    9.47    5.27          36.88   44.13   11.22          45.54   14.27           0.49    1.47    1.25    0.93            0.23    0.16    0.12           0.39     0.45
A8         17.10    8.79    4.36          35.57   58.62   13.89          60.24   13.33           0.38    1.83    1.30    0.93            0.27    0.19    0.07           0.35     0.48 
A9         32.66   31.63   25.46          63.04    7.87    1.13           7.96    8.18           0.41    0.55    0.54    0.49            0.36    0.44    0.35           0.57     0.65
A10        34.66   31.50   24.37          62.93   15.31    2.89          15.59   10.73           0.34    0.58    0.56    0.48            0.34    0.46    0.15           0.61     0.79
A11        36.73   31.39   22.87          62.83   22.68    5.53          23.35   13.71           0.27    0.62    0.59    0.47            0.37    0.46    0.33           0.56     0.71
A12        39.43   30.61   21.35          62.18   34.13    7.35          34.92   12.17           0.19    0.70    0.61    0.47            0.26    0.32    0.13           0.57     0.69 
A13        74.87   78.71   66.42          91.10   -2.08   -1.38           2.50  213.46           0.13    0.10    0.10    0.11            0.34    0.29    0.18           0.20     0.25
A14        79.66   81.17   66.51          92.21    2.77    0.43           2.80    8.94           0.07    0.10    0.10    0.09            0.15    0.16    0.21           0.12     0.14 
A15        79.84   81.92   63.84          92.54    1.67    3.54           3.92   64.61           0.07    0.10    0.12    0.08            0.20    0.19    0.34           0.21     0.26
A16        77.70   80.60   65.56          91.95   -0.04    0.89           0.90   92.82           0.10    0.10    0.10    0.09            0.12    0.13    0.33           0.23     0.27
A17        79.20   80.69   65.15          91.99    2.76    1.35           3.07   25.98           0.07    0.11    0.11    0.09            0.15    0.15    0.29           0.18     0.21
A18        75.62   79.17   61.74          91.31   -1.45    3.45           3.74  112.89           0.11    0.10    0.13    0.10            0.15    0.17    0.28           0.24     0.28 
A19        74.32   76.73   64.96          90.20    0.68   -1.56           1.71  293.71           0.12    0.12    0.11    0.12            0.17    0.19    0.26           0.15     0.19
A20         7.11    3.35    2.13          21.41   48.39    5.36          48.69    6.32           0.74    2.54    1.60    1.33            0.06    0.04    0.03           0.23     0.26 
A21        28.52   20.15   16.60          52.00   40.04    0.05          40.04  144.08           0.30    0.96    0.71    0.64            0.21    0.23    0.14           0.53     0.65
A22        56.40   52.18   35.56          77.39   15.61    9.95          18.52   32.52           0.13    0.35    0.39    0.26            0.48    0.64    0.33           0.70     0.83
B1          3.74    3.31    2.03          21.25    8.69    6.08          10.62   34.97           1.25    1.60    1.74    1.45            0.06    0.08    0.04           0.50     0.61
B2          4.38    3.32    1.24          21.28   17.78   14.90          23.20   39.96           1.11    1.71    1.99    1.42            0.10    0.09    0.05           0.37     0.46
B3          5.00    3.24    0.73          21.00   26.95   22.36          35.02   39.69           0.99    1.87    2.26    1.40            0.10    0.10    0.02           0.43     0.61
B4          6.01    3.29    0.13          21.16   38.03   34.07          51.06   41.85           0.86    2.13    3.32    1.36            0.07    0.04    0.00           0.27     0.33
B5         14.30   12.76    7.69          42.40   12.94   10.01          16.36   37.72           0.69    1.00    1.11    0.87            0.16    0.17    0.08           0.35     0.43
B6         16.39   12.62    5.04          42.19   26.14   21.59          33.91   39.55           0.55    1.10    1.32    0.84            0.16    0.15    0.08           0.40     0.48
B7         18.63   12.51    3.09          42.01   39.02   33.08          51.15   40.29           0.43    1.23    1.57    0.82            0.20    0.18    0.07           0.31     0.35
B8         21.08   12.04    1.48          41.28   54.32   46.36          71.41   40.48           0.32    1.47    1.94    0.80            0.16    0.13    0.03           0.26     0.31
B9         38.41   38.11   29.38          68.10    5.41    3.24           6.33   31.02           0.35    0.45    0.48    0.41            0.42    0.57    0.33           0.65     0.78
B10        40.18   38.06   26.06          68.06   11.11    8.74          14.14   38.21           0.29    0.48    0.54    0.40            0.34    0.46    0.32           0.58     0.69
B11        41.47   37.64   23.73          67.75   16.41   12.39          20.57   37.05           0.25    0.51    0.58    0.40            0.34    0.46    0.19           0.66     0.79
B12        44.35   37.12   18.53          67.37   26.62   22.19          34.65   39.81           0.16    0.56    0.70    0.39            0.34    0.44    0.18           0.60     0.70
B13        68.52   73.97   64.68          88.91   -6.00   -3.53           6.96  210.42           0.19    0.12    0.11    0.14            0.18    0.15    0.07           0.18     0.20
B14        71.37   69.54   61.90          86.77    9.30   -4.53          10.34  334.04           0.10    0.19    0.12    0.15            0.27    0.36    0.16           0.32     0.40
B15        76.07   78.47   53.13          91.00    0.82   11.78          11.80   86.03           0.08    0.12    0.21    0.10            0.10    0.08    0.37           0.35     0.42
B16        62.77   64.99   53.68          84.48    0.25   -0.05           0.55  172.29           0.19    0.19    0.20    0.19            0.26    0.37    0.19           0.51     0.61
B17        69.27   67.83   53.31          85.92    8.50    2.83           8.96   18.45           0.10    0.20    0.20    0.16            0.20    0.31    0.18           0.42     0.52
B18        67.27   73.04   54.79          88.47   -6.83    5.63           8.86  140.50           0.18    0.12    0.19    0.14            0.20    0.17    0.26           0.32     0.37
B19        64.15   66.40   61.72          85.20    0.29   -7.06           7.07  272.31           0.19    0.18    0.13    0.18            0.16    0.24    0.08           0.33     0.41
B20         5.35    3.18    1.15          20.76   32.27   15.28          35.71   25.34           0.93    2.00    1.98    1.40            0.18    0.10    0.05           0.51     0.67
B21        18.76   12.65    4.88          42.23   38.73   22.48          44.78   30.13           0.44    1.22    1.32    0.82            0.20    0.18    0.07           0.39     0.48
B22        36.70   31.32   19.64          62.78   22.77   11.88          25.70   27.56           0.26    0.63    0.67    0.47            0.38    0.46    0.20           0.77     0.92
C1          7.10    6.89    3.89          31.55    4.61    9.71          10.76   64.57           1.02    1.23    1.45    1.15            0.08    0.13    0.05           0.60     0.76
C2          7.60    6.97    2.49          31.74    8.67   20.01          21.81   66.57           0.96    1.25    1.70    1.13            0.07    0.07    0.04           0.37     0.46
C3          8.07    6.92    1.32          31.62   13.48   31.72          34.46   66.98           0.90    1.29    2.07    1.11            0.11    0.11    0.04           0.26     0.31
C4          8.86    6.93    0.32          31.64   20.31   48.42          52.51   67.24           0.84    1.35    3.15    1.09            0.13    0.13    0.00           0.51     0.69
C5         26.73   25.76   13.76          57.81    7.88   17.17          18.90   65.33           0.46    0.64    0.85    0.57            0.22    0.25    0.21           0.41     0.52
C6         28.55   25.70    7.85          57.75   15.39   35.86          39.02   66.76           0.38    0.68    1.16    0.55            0.22    0.26    0.11           0.54     0.68
C7         30.40   25.58    3.73          57.63   22.90   55.72          60.25   67.65           0.32    0.73    1.59    0.54            0.28    0.30    0.08           0.46     0.57
C8         32.89   24.85    0.66          56.93   35.00   85.62          92.50   67.76           0.25    0.83    3.01    0.53            0.50    0.45    0.01           0.54     0.75
C9         44.96   45.34   32.71          73.11    3.62    6.72           7.65   61.63           0.29    0.37    0.43    0.34            0.40    0.51    0.22           0.53     0.66
C10        45.68   45.17   28.15          73.00    6.15   13.71          15.03   65.78           0.26    0.38    0.51    0.33            0.37    0.49    0.28           0.62     0.78
C11        46.56   44.84   23.23          72.78    9.58   21.99          23.99   66.45           0.22    0.40    0.61    0.33            0.42    0.54    0.26           0.72     0.86
C12        49.35   44.16   11.37          72.33   19.21   48.99          52.62   68.59           0.14    0.45    0.99    0.32            0.33    0.41    0.16           0.56     0.66
C13        62.77   70.01   64.06          87.00  -10.65   -6.22          12.33  210.28           0.26    0.13    0.11    0.17            0.17    0.15    0.14           0.16     0.18
C14        65.96   61.85   59.01          82.83   14.56   -8.45          16.84  329.87           0.11    0.26    0.14    0.20            0.24    0.32    0.15           0.31     0.39
C15        74.63   77.33   45.42          90.47    0.14   19.67          19.67   89.60           0.08    0.12    0.29    0.10            0.15    0.15    0.50           0.45     0.57
C16        49.63   51.44   43.04          76.95    0.08   -0.73           0.85  250.26           0.28    0.30    0.30    0.29            0.29    0.44    0.30           0.65     0.77
C17        60.77   56.86   43.35          80.10   14.45    4.31          15.09   16.64           0.12    0.30    0.29    0.23            0.38    0.53    0.34           0.60     0.72
C18        60.10   67.82   47.22          85.91  -12.18    9.67          15.55  141.55           0.25    0.14    0.27    0.18            0.15    0.19    0.37           0.32     0.37
C19        54.09   56.28   58.43          79.78   -0.45  -13.14          13.15  268.02           0.28    0.25    0.15    0.26            0.29    0.42    0.16           0.39     0.49
C20        13.86   10.18    1.37          38.17   28.42   42.33          50.99   56.12           0.60    1.23    2.06    0.92            0.10    0.10    0.04           0.35     0.42
C21        24.61   22.90   13.20          54.96   11.27   13.78          17.81   50.68           0.48    0.72    0.87    0.62            0.24    0.29    0.18           0.71     0.85
C22        30.26   25.61   12.48          57.66   22.24   20.44          30.21   42.57           0.33    0.72    0.89    0.55            0.29    0.31    0.08           0.68     0.81
D1          4.76    4.97    2.86          26.64   -0.40    8.28           8.29   92.80           1.23    1.33    1.60    1.30            0.04    0.05    0.03           0.29     0.36
D2          4.50    4.68    1.71          25.78   -0.15   17.16          17.16   90.50           1.24    1.36    1.90    1.32            0.18    0.17    0.06           0.55     0.71
D3          4.59    4.87    0.99          26.34   -1.36   27.18          27.21   92.86           1.25    1.32    2.26    1.30            0.11    0.14    0.04           0.47     0.59
D4          4.62    4.91    0.36          26.47   -1.48   38.93          38.96   92.17           1.28    1.31    3.10    1.29            0.05    0.06    0.01           0.30     0.34
D5         19.89   20.74   11.05          52.66   -0.54   16.06          16.08   91.91           0.63    0.70    0.97    0.68            0.24    0.34    0.14           0.64     0.77
D6         19.59   20.66    6.04          52.58   -1.64   34.59          34.63   92.72           0.63    0.70    1.31    0.67            0.17    0.19    0.16           0.63     0.78
D7         19.42   20.60    2.87          52.51   -2.21   52.82          52.87   92.40           0.64    0.69    1.79    0.67            0.17    0.20    0.06           0.40     0.52
D8         19.21   20.39    0.82          52.28   -2.27   74.72          74.76   91.74           0.68    0.70    2.95    0.67            0.24    0.26    0.01           0.47     0.55
D9         50.69   52.88   28.73          77.80   -0.78   21.03          21.04   92.12           0.24    0.29    0.51    0.27            0.29    0.38    0.24           0.48     0.59
D10        50.10   52.48   16.50          77.56   -1.31   44.38          44.40   91.69           0.23    0.29    0.81    0.27            0.26    0.37    0.15           0.49     0.58
D11        49.32   52.12    8.24          77.35   -2.51   68.18          68.22   92.11           0.24    0.29    1.23    0.26            0.25    0.29    0.08           0.36     0.45
D12        48.37   50.90    2.94          76.62   -1.93   93.90          93.92   91.18           0.26    0.31    2.01    0.27            0.30    0.33    0.09           0.36     0.49
D13        58.31   66.77   63.34          85.39  -14.18   -8.31          16.44  210.37           0.33    0.14    0.12    0.19            0.16    0.15    0.11           0.16     0.18
D14        61.09   55.09   56.30          79.09   19.55  -12.11          23.00  328.23           0.12    0.33    0.16    0.25            0.33    0.44    0.21           0.42     0.50
D15        73.00   75.84   38.06          89.79   -0.26   27.86          27.86   90.54           0.08    0.13    0.38    0.11            0.11    0.09    0.31           0.34     0.42
D16        38.08   39.49   33.06          69.10    0.02   -0.71           0.85  253.48           0.39    0.41    0.42    0.41            0.40    0.51    0.37           0.55     0.70
D17        52.97   47.14   33.68          74.28   20.36    7.30          21.64   19.73           0.14    0.42    0.41    0.30            0.27    0.37    0.25           0.51     0.63
D18        54.21   63.26   39.38          83.58  -16.54   15.40          22.60  137.06           0.31    0.16    0.36    0.21            0.16    0.16    0.33           0.40     0.47
D19        45.18   47.14   55.10          74.28   -0.79  -19.15          19.17  267.64           0.38    0.32    0.17    0.34            0.27    0.38    0.13           0.43     0.51
D20         3.40    3.34    1.27          21.36    2.98   14.72          15.03   78.55           1.33    1.53    2.03    1.46            0.05    0.05    0.02           0.34     0.39
D21        34.01   31.28    1.75          62.74   13.85   80.43          81.61   80.23           0.33    0.59    2.25    0.46            0.39    0.46    0.01           0.65     0.79
D22        43.88   48.10   55.98          74.89   -7.16  -19.03          20.34  249.38           0.44    0.29    0.17    0.34            0.54    0.56    0.16           0.58     0.69
E1          6.19    6.95    4.13          31.69   -5.41    8.53          10.10  122.38           1.17    1.15    1.43    1.16            0.09    0.12    0.05           0.47     0.54
E2          5.68    6.95    2.60          31.69  -10.95   19.09          22.01  119.85           1.25    1.11    1.71    1.17            0.10    0.14    0.04           0.43     0.52
E3          5.16    6.89    1.53          31.56  -16.60   29.08          33.49  119.72           1.35    1.08    2.07    1.18            0.09    0.14    0.02           0.45     0.60
E4          4.47    6.77    0.53          31.28  -24.15   43.99          50.18  118.77           1.59    1.03    3.03    1.19            0.07    0.10    0.01           0.41     0.50
E5         27.98   31.64   17.84          63.04   -9.69   16.26          18.93  120.81           0.55    0.48    0.74    0.50            0.29    0.42    0.29           0.78     0.94
E6         25.38   31.32   11.15          62.78  -19.14   33.18          38.31  119.98           0.64    0.45    1.01    0.51            0.32    0.47    0.14           0.68     0.83
E7         22.90   31.11    6.18          62.60  -29.18   51.23          58.96  119.66           0.76    0.42    1.39    0.52            0.30    0.37    0.08           0.56     0.64
E8         20.53   29.94    3.16          61.60  -35.89   66.35          75.43  118.41           0.89    0.41    1.89    0.54            0.24    0.28    0.07           0.39     0.44
E9         48.98   53.00   36.52          77.88   -5.70    9.45          11.03  121.13           0.30    0.27    0.39    0.28            0.36    0.42    0.34           0.49     0.55
E10        46.92   53.08   29.37          77.92  -11.56   20.20          23.28  119.79           0.34    0.25    0.50    0.28            0.34    0.38    0.35           0.43     0.50
E11        44.44   52.49   23.08          77.57  -17.10   30.54          35.00  119.25           0.38    0.24    0.64    0.28            0.33    0.37    0.37           0.47     0.56
E12        41.35   51.61   16.26          77.05  -24.00   44.05          50.16  118.59           0.44    0.23    0.84    0.29            0.18    0.17    0.21           0.38     0.51
E13        54.35   63.78   62.62          83.85  -17.37  -10.26          20.18  210.57           0.39    0.14    0.12    0.22            0.10    0.09    0.08           0.15     0.17
E14        56.05   48.32   53.27          75.02   24.95  -15.92          29.59  327.47           0.14    0.41    0.18    0.30            0.39    0.50    0.27           0.45     0.58
E15        71.37   74.22   31.24          89.03   -0.41   36.41          36.41   90.64           0.08    0.14    0.49    0.12            0.12    0.09    0.26           0.29     0.40
E16        27.97   29.00   24.59          60.78    0.04   -1.20           1.25  261.60           0.52    0.55    0.56    0.54            0.26    0.35    0.28           0.72     0.85
E17        45.62   38.21   25.30          68.17   26.78   10.27          28.69   20.98           0.16    0.55    0.54    0.38            0.23    0.32    0.15           0.56     0.70
E18        48.59   58.67   31.92          81.11  -20.69   21.71          29.99  133.62           0.37    0.18    0.47    0.24            0.19    0.17    0.20           0.27     0.34
E19        36.75   38.33   51.42          68.26   -0.67  -25.55          25.56  268.49           0.50    0.41    0.20    0.44            0.30    0.42    0.21           0.51     0.61
E20         8.17    9.61    1.59          37.14   -9.44   38.00          39.15  103.95           1.07    0.98    2.08    1.01            0.09    0.12    0.03           0.40     0.47
E21        27.69   32.70    7.41          63.92  -14.59   48.21          50.37  106.83           0.56    0.45    1.25    0.48            0.35    0.46    0.06           0.74     0.92
E22        10.54   20.21   15.88          52.07  -54.32    1.90          54.36  178.00           1.64    0.50    0.82    0.77            0.12    0.24    0.16           0.66     0.82
F1          4.08    4.98    3.73          26.69   -9.79    2.34          10.08  166.62           1.41    1.27    1.47    1.33            0.10    0.12    0.06           0.56     0.67
F2          3.37    4.99    3.15          26.72  -20.60    6.34          21.55  162.89           1.63    1.20    1.59    1.34            0.11    0.14    0.07           0.49     0.58
F3          2.70    4.83    2.68          26.25  -30.25    9.07          31.58  163.31           1.90    1.16    1.70    1.37            0.11    0.17    0.10           0.48     0.57
F4          2.07    4.85    2.12          26.31  -43.46   13.94          45.64  162.22           2.39    1.09    1.88    1.39            0.06    0.14    0.04           0.61     0.80
F5         13.15   16.40   11.97          47.49  -16.33    4.39          16.91  164.98           0.96    0.73    0.92    0.81            0.20    0.30    0.18           0.64     0.77
F6         10.65   16.35   10.04          47.43  -33.53   10.26          35.07  162.99           1.23    0.66    1.03    0.83            0.19    0.32    0.18           0.72     0.84
F7          8.43   16.10    8.17          47.10  -50.07   16.28          52.65  161.98           1.59    0.61    1.17    0.85            0.17    0.31    0.15           0.51     0.62
F8          7.70   15.90    7.55          46.84  -55.53   18.23          58.45  161.82           1.76    0.59    1.23    0.87            0.14    0.26    0.10           0.53     0.61
F9         33.14   37.84   29.62          67.89  -11.41    2.53          11.70  167.56           0.52    0.39    0.48    0.44            0.97    1.14    0.95           0.90     1.08
F10        30.00   38.04   27.22          68.05  -23.47    6.73          24.42  164.02           0.64    0.35    0.53    0.44            0.41    0.51    0.41           0.55     0.66
F11        26.77   37.53   24.73          67.67  -34.46   10.43          36.01  163.16           0.78    0.32    0.59    0.46            0.29    0.40    0.33           0.61     0.71
F12        23.22   36.50   22.16          66.90  -46.26   13.89          48.31  163.28           0.97    0.30    0.66    0.48            0.50    0.55    0.18           0.66     0.87
F13        50.91   61.11   61.98          82.44  -20.17  -12.08          23.51  210.91           0.44    0.15    0.13    0.24            0.18    0.17    0.10           0.21     0.24
F14        51.33   42.17   50.25          70.99   30.30  -19.54          36.05  327.17           0.16    0.50    0.20    0.35            0.41    0.51    0.35           0.49     0.63
F15        69.84   72.53   25.05          88.23   -0.20   45.29          45.29   90.26           0.08    0.16    0.60    0.12            0.12    0.09    0.22           0.29     0.40
F16        19.86   20.53   17.53          52.43    0.31   -1.35           1.40  282.02           0.66    0.71    0.72    0.69            0.17    0.21    0.18           0.40     0.50
F17        39.12   30.64   18.16          62.20   33.07   14.09          35.95   23.07           0.19    0.69    0.70    0.47            0.18    0.21    0.24           0.57     0.73
