targets/wolf_faust/transmissive/E100505.it8
IT8.7/1
ORIGINATOR "Wolf Faust"
DESCRIPTOR "Ektachrome, Type 3, L* a* b* (light D50, viewing angle 2)"
MANUFACTURER "Wolf Faust - http://www.coloraid.de"
CREATED "April 28, 2010"
PROD_DATE "2009:01"
DIFFUSE_GEOMETRY "opal"
SERIAL "E100505 Batch Average Data"
MATERIAL "For Kodak Ektachrome Product Family"
KEYWORD "MEAN_DE" # Mean Delta E of samples compared to batch average
NUMBER_OF_FIELDS 18
BEGIN_DATA_FORMAT
SAMPLE_ID  XYZ_X   XYZ_Y   XYZ_Z          LAB_L   LAB_A   LAB_B          LAB_C   LAB_H          D_RED  D_GREEN  D_BLUE  D_VIS          STDEV_X STDEV_Y STDEV_Z        MEAN_DE  STDEV_DE
END_DATA_FORMAT
NUMBER_OF_SETS 288
BEGIN_DATA
A1          2.75    2.31    1.71          17.01   10.48    1.96          10.67   10.56           1.37    1.80    1.80    1.61            0.09    0.07    0.06           0.44     0.51
A2          3.23    2.18    1.31          16.38   21.62    5.61          22.34   14.55           1.20    2.02    1.91    1.59            0.11    0.07    0.06           0.49     0.56 
A3          3.92    2.23    1.13          16.64   31.18    8.43          32.30   15.12           1.06    2.24    1.95    1.55            0.12    0.07    0.05           0.47     0.54
A4          4.80    2.19    0.87          16.47   43.94   12.11          45.58   15.41           0.90    2.96    2.01    1.50            0.12    0.05    0.03           0.44     0.52 
A5         11.82   10.22    7.42          38.23   14.58    3.90          15.10   14.98           0.76    1.12    1.12    0.96            0.42    0.37    0.32           0.73     0.86
A6         13.82    9.93    6.22          37.72   30.09    8.15          31.18   15.16           0.61    1.27    1.19    0.94            0.45    0.34    0.26           0.71     0.86 
A7         16.11    9.89    5.40          37.64   44.20   11.92          45.78   15.10           0.47    1.45    1.24    0.91            0.45    0.30    0.25           0.60     0.74
A8         17.55    9.09    4.37          36.16   58.50   14.86          60.36   14.25           0.38    1.80    1.31    0.91            0.22    0.15    0.20           0.62     0.81 
A9         33.43   32.70   25.59          63.90    6.78    2.41           7.22   19.61           0.40    0.53    0.54    0.48            1.18    1.23    1.07           0.99     1.22
A10        35.53   32.54   24.06          63.78   14.55    4.96          15.38   18.82           0.33    0.57    0.57    0.47            1.19    1.20    1.06           0.96     1.21
A11        37.69   32.53   23.33          63.77   21.73    6.29          22.63   16.15           0.27    0.60    0.58    0.46            1.10    1.11    1.07           1.03     1.26
A12        40.13   31.45   21.18          62.88   33.32    8.93          34.50   14.98           0.19    0.68    0.62    0.46            0.78    0.86    0.94           1.10     1.36 
A13        74.92   78.65   65.82          91.08   -1.86   -0.87           2.06  205.12           0.13    0.10    0.10    0.11            0.43    0.33    0.37           0.28     0.35
A14        79.70   81.24   66.30          92.24    2.70    0.69           2.79   14.38           0.07    0.10    0.10    0.09            0.29    0.31    0.38           0.18     0.21 
A15        79.89   81.87   64.37          92.52    1.86    2.99           3.52   58.06           0.07    0.10    0.11    0.08            0.22    0.21    0.38           0.24     0.26
A16        78.33   80.94   65.96          92.10    0.57    0.78           0.98   54.68           0.09    0.10    0.10    0.09            0.40    0.31    0.24           0.27     0.32
A17        79.61   81.10   65.86          92.18    2.79    0.99           2.96   19.62           0.07    0.10    0.10    0.09            0.25    0.29    0.24           0.18     0.20
A18        76.67   79.82   63.06          91.61   -0.61    2.67           2.76  102.70           0.10    0.10    0.12    0.10            0.53    0.40    0.38           0.34     0.40 
A19        75.60   77.93   65.87          90.75    0.93   -1.47           1.75  302.46           0.11    0.12    0.10    0.11            0.47    0.43    0.22           0.24     0.30
A20         7.04    3.30    2.11          21.22   48.51    5.22          48.79    6.14           0.75    2.59    1.60    1.34            0.19    0.09    0.08           0.49     0.64 
A21        29.36   21.09   16.98          53.05   38.74    1.00          38.76    1.48           0.29    0.93    0.71    0.62            0.73    0.62    0.75           0.79     1.01
A22        57.27   53.42   35.79          78.12   14.60   10.91          18.23   36.74           0.13    0.34    0.39    0.25            1.13    1.34    1.41           0.98     1.27
B1          4.02    3.62    2.10          22.37    7.96    7.33          10.82   42.64           1.23    1.55    1.73    1.42            0.14    0.11    0.07           0.49     0.56
B2          4.71    3.62    1.30          22.36   17.42   16.06          23.69   42.68           1.08    1.66    1.98    1.38            0.16    0.12    0.06           0.44     0.53
B3          5.32    3.49    0.73          21.89   27.02   24.03          36.16   41.65           0.97    1.83    2.28    1.37            0.16    0.11    0.03           0.45     0.54
B4          6.29    3.42    0.12          21.63   39.11   34.95          52.45   41.78           0.83    2.14    3.38    1.34            0.15    0.08    0.00           0.53     0.65
B5         14.74   13.18    7.70          43.03   12.88   11.08          16.99   40.70           0.67    0.98    1.12    0.85            0.51    0.46    0.32           0.75     0.86
B6         17.05   13.30    5.25          43.21   25.39   22.26          33.77   41.25           0.54    1.07    1.31    0.82            0.55    0.45    0.23           0.65     0.78
B7         19.45   13.18    3.12          43.03   38.74   34.66          51.98   41.81           0.42    1.20    1.57    0.80            0.53    0.39    0.14           0.60     0.70
B8         21.40   12.27    1.45          41.64   54.27   47.44          72.08   41.16           0.31    1.46    1.95    0.80            0.27    0.21    0.06           0.38     0.48
B9         39.35   39.34   29.09          68.98    4.53    5.26           6.96   49.21           0.34    0.44    0.49    0.40            1.35    1.43    1.22           1.00     1.24
B10        41.39   39.50   26.17          69.10   10.32   10.36          14.64   45.08           0.28    0.46    0.54    0.39            1.30    1.37    1.16           1.01     1.25
B11        42.42   38.76   23.67          68.57   15.72   13.94          21.02   41.55           0.24    0.49    0.59    0.39            1.29    1.36    1.13           1.06     1.33
B12        45.27   38.26   18.27          68.20   25.64   24.21          35.27   43.37           0.16    0.55    0.71    0.38            0.96    1.15    0.87           1.11     1.43
B13        68.58   74.05   64.66          88.94   -6.02   -3.44           6.94  209.74           0.19    0.12    0.11    0.14            0.70    0.60    0.48           0.41     0.50
B14        72.23   70.35   62.25          87.17    9.40   -4.18          10.29  336.06           0.09    0.19    0.12    0.15            0.73    0.86    0.53           0.47     0.62
B15        76.63   78.95   53.20          91.21    1.00   12.09          12.13   85.25           0.08    0.12    0.21    0.10            0.58    0.57    0.84           0.41     0.55
B16        63.63   66.07   54.56          85.03   -0.18   -0.04           0.34  210.66           0.18    0.19    0.19    0.18            1.11    1.17    1.13           0.56     0.70
B17        70.36   68.88   54.09          86.44    8.59    2.89           9.06   18.59           0.09    0.20    0.19    0.15            0.93    1.05    1.08           0.53     0.69
B18        67.89   73.57   55.62          88.72   -6.56    5.20           8.37  141.65           0.18    0.12    0.19    0.14            0.79    0.65    0.89           0.53     0.68
B19        65.22   67.76   62.61          85.89   -0.27   -6.74           6.75  267.73           0.19    0.17    0.12    0.17            0.84    0.88    0.40           0.44     0.60
B20         5.66    3.40    1.15          21.58   32.25   16.66          36.30   27.32           0.91    1.96    1.99    1.37            0.19    0.12    0.06           0.47     0.58
B21        19.27   13.03    5.00          42.81   38.85   22.87          45.08   30.48           0.43    1.21    1.31    0.81            0.54    0.41    0.22           0.57     0.71
B22        37.69   32.53   19.98          63.77   21.73   12.91          25.28   30.70           0.26    0.60    0.66    0.46            1.09    1.09    0.96           0.98     1.21
C1          7.73    7.60    4.39          33.14    3.80    9.49          10.23   68.18           1.00    1.18    1.39    1.11            0.26    0.26    0.16           0.59     0.67
C2          8.05    7.47    2.66          32.84    8.01   20.57          22.07   68.73           0.94    1.21    1.67    1.10            0.27    0.25    0.10           0.55     0.64
C3          8.70    7.51    1.46          32.94   13.27   32.29          34.91   67.65           0.87    1.25    2.02    1.08            0.27    0.24    0.06           0.53     0.62
C4          9.25    7.33    0.35          32.54   19.67   49.56          53.32   68.35           0.82    1.32    3.16    1.07            0.24    0.20    0.01           0.61     0.76
C5         27.79   27.08   13.84          59.04    6.81   19.11          20.29   70.36           0.45    0.62    0.86    0.55            0.89    0.91    0.58           0.86     1.03
C6         29.94   27.23    7.76          59.18   14.52   38.69          41.32   69.43           0.36    0.65    1.17    0.53            0.90    0.90    0.34           0.84     1.02
C7         31.32   26.57    3.89          58.57   22.27   56.31          60.56   68.42           0.31    0.71    1.57    0.53            0.83    0.83    0.16           0.74     0.96
C8         33.97   25.92    0.71          57.96   34.33   86.61          93.17   68.37           0.24    0.80    3.01    0.52            0.64    0.61    0.02           0.71     0.94
C9         45.89   46.77   32.53          74.03    2.26    8.60           8.91   75.27           0.29    0.35    0.44    0.32            1.35    1.46    1.29           0.90     1.15
C10        46.76   46.51   27.87          73.86    5.44   15.69          16.61   70.86           0.25    0.37    0.52    0.32            1.35    1.49    1.18           0.93     1.21
C11        48.05   46.60   23.42          73.93    8.78   23.63          25.21   69.62           0.21    0.38    0.61    0.31            1.31    1.46    1.06           1.03     1.31
C12        50.40   45.47   11.31          73.19   18.29   50.69          53.89   70.16           0.13    0.43    1.00    0.30            0.87    1.14    0.51           1.01     1.29
C13        62.96   70.12   64.11          87.05  -10.43   -6.18          12.13  210.66           0.26    0.13    0.11    0.17            0.69    0.56    0.34           0.44     0.55
C14        67.17   63.22   59.66          83.56   14.10   -7.85          16.14  330.90           0.10    0.25    0.14    0.19            0.86    1.07    0.54           0.68     0.91
C15        75.12   77.76   45.43          90.67    0.30   20.00          20.00   89.15           0.08    0.12    0.29    0.10            0.50    0.49    0.95           0.61     0.83
C16        50.78   52.95   43.77          77.84   -0.74   -0.09           0.87  188.28           0.28    0.28    0.29    0.28            1.50    1.64    1.53           0.92     1.13
C17        62.11   58.45   44.18          80.99   13.76    4.83          14.59   19.32           0.11    0.29    0.29    0.22            1.19    1.41    1.48           0.85     1.16
C18        60.73   68.31   47.76          86.16  -11.78    9.48          15.12  141.22           0.25    0.14    0.26    0.17            0.98    0.81    1.28           0.82     1.09
C19        55.40   58.05   59.35          80.76   -1.43  -12.36          12.44  263.35           0.28    0.23    0.14    0.24            1.17    1.29    0.61           0.74     1.00
C20        14.27   10.54    1.32          38.79   28.29   44.04          52.35   57.29           0.59    1.22    2.09    0.91            0.45    0.35    0.06           0.57     0.71
C21        24.94   23.39   13.19          55.46   10.53   14.68          18.07   54.34           0.48    0.70    0.87    0.61            0.91    0.89    0.63           0.85     1.04
C22        30.94   26.43   13.04          58.43   21.46   20.24          29.50   43.32           0.33    0.70    0.87    0.54            0.95    0.89    0.62           0.78     0.98
D1          5.18    5.43    2.90          27.91   -0.65   10.21          10.23   93.67           1.20    1.29    1.61    1.26            0.17    0.18    0.10           0.50     0.57
D2          4.95    5.23    1.78          27.37   -1.12   19.07          19.10   93.37           1.21    1.30    1.89    1.27            0.16    0.17    0.07           0.53     0.60
D3          4.98    5.28    1.02          27.53   -1.48   28.76          28.79   92.94           1.22    1.29    2.25    1.26            0.16    0.17    0.03           0.55     0.65
D4          4.85    5.19    0.37          27.27   -1.97   40.08          40.13   92.81           1.26    1.28    3.15    1.26            0.14    0.14    0.01           0.54     0.68
D5         20.90   22.11   11.57          54.14   -1.99   17.03          17.15   96.64           0.62    0.67    0.95    0.65            0.75    0.81    0.49           0.82     0.97
D6         20.62   21.92    6.41          53.93   -2.44   35.27          35.35   93.95           0.61    0.67    1.28    0.65            0.72    0.79    0.28           0.80     0.97
D7         20.56   21.93    3.01          53.94   -2.79   54.28          54.36   92.94           0.62    0.66    1.77    0.64            0.69    0.76    0.12           0.78     1.00
D8         20.02   21.35    0.87          53.32   -2.75   75.71          75.76   92.08           0.67    0.68    2.95    0.65            0.61    0.65    0.02           0.87     1.15
D9         51.60   54.01   28.85          78.46   -1.24   22.00          22.03   93.24           0.24    0.28    0.51    0.26            1.30    1.43    1.21           0.90     1.15
D10        51.06   53.82   16.43          78.35   -2.18   45.92          45.97   92.72           0.22    0.28    0.82    0.25            1.16    1.31    0.71           0.77     0.98
D11        50.19   53.12    8.34          77.94   -2.73   68.82          68.88   92.27           0.23    0.29    1.23    0.26            1.01    1.09    0.31           0.60     0.73
D12        48.57   51.03    2.89          76.70   -1.73   94.36          94.38   91.05           0.26    0.31    2.03    0.27            0.73    0.63    0.08           0.50     0.59
D13        58.64   66.97   63.50          85.49  -13.83   -8.30          16.13  210.97           0.32    0.14    0.12    0.19            0.71    0.58    0.34           0.46     0.60
D14        62.18   56.39   56.89          79.83   18.90  -11.46          22.10  328.78           0.12    0.32    0.15    0.24            0.94    1.21    0.62           0.87     1.19
D15        73.45   76.23   37.97          89.97   -0.12   28.31          28.31   90.23           0.08    0.13    0.38    0.11            0.56    0.56    1.08           0.79     1.09
D16        38.87   40.43   33.23          69.76   -0.36    0.21           0.61  158.64           0.39    0.40    0.42    0.39            1.46    1.57    1.45           1.05     1.29
D17        53.78   48.10   33.94          74.88   19.81    7.99          21.36   21.93           0.14    0.41    0.41    0.29            1.15    1.36    1.46           1.05     1.40
D18        54.69   63.59   39.49          83.75  -16.09   15.56          22.38  135.99           0.31    0.16    0.36    0.21            1.00    0.85    1.36           0.96     1.33
D19        46.29   48.58   55.82          75.18   -1.53  -18.35          18.42  265.19           0.38    0.31    0.17    0.33            1.21    1.38    0.69           0.95     1.26
D20         3.51    3.54    1.30          22.09    1.58   15.49          15.57   84.19           1.33    1.50    2.02    1.44            0.14    0.14    0.06           0.46     0.56
D21        34.48   31.82    1.66          63.19   13.55   82.15          83.26   80.63           0.33    0.58    2.31    0.46            1.00    1.01    0.07           0.94     1.21
D22        44.10   48.79   56.39          75.31   -8.40  -18.73          20.53  245.81           0.45    0.28    0.16    0.33            1.19    1.38    0.69           0.92     1.22
E1          6.71    7.65    4.26          33.23   -6.57   10.39          12.30  122.33           1.14    1.10    1.43    1.12            0.25    0.28    0.16           0.60     0.70
E2          6.21    7.63    2.87          33.18  -11.56   19.56          22.73  120.59           1.21    1.07    1.67    1.13            0.22    0.26    0.12           0.57     0.68
E3          5.58    7.46    1.54          32.83  -17.04   31.19          35.55  118.65           1.32    1.04    2.09    1.14            0.20    0.26    0.06           0.57     0.69
E4          4.73    7.20    0.56          32.25  -24.97   45.12          51.57  118.96           1.57    1.00    3.06    1.16            0.14    0.20    0.01           0.62     0.76
E5         28.88   32.88   18.24          64.06  -10.56   17.14          20.13  121.65           0.54    0.46    0.73    0.49            0.97    1.11    0.75           0.83     1.02
E6         26.46   32.61   11.17          63.83  -19.21   34.98          39.90  118.77           0.62    0.43    1.01    0.49            0.91    1.11    0.49           0.86     1.06
E7         23.30   31.45    6.03          62.88  -28.59   52.42          59.71  118.61           0.74    0.41    1.40    0.51            0.68    0.85    0.22           0.67     0.84
E8         21.06   30.30    3.06          61.91  -34.70   67.61          76.00  117.17           0.87    0.41    1.92    0.53            0.43    0.50    0.10           0.44     0.54
E9         50.04   54.39   36.92          78.68   -6.33   10.31          12.10  121.61           0.30    0.26    0.38    0.27            1.31    1.41    1.33           0.82     1.03
E10        47.60   53.92   29.42          78.41  -11.79   20.99          24.08  119.34           0.33    0.24    0.51    0.27            1.19    1.28    1.17           0.92     1.11
E11        44.91   52.97   23.38          77.85  -17.00   30.49          34.91  119.14           0.37    0.24    0.63    0.28            1.09    1.16    0.95           0.84     1.04
E12        41.50   51.67   16.12          77.08  -23.69   44.46          50.38  118.05           0.44    0.23    0.84    0.29            0.78    0.72    0.62           0.83     1.05
E13        54.77   64.05   62.90          83.99  -16.93  -10.29          19.81  211.29           0.38    0.14    0.12    0.22            0.70    0.57    0.30           0.51     0.63
E14        57.63   50.25   54.20          76.21   23.69  -14.86          27.96  327.90           0.13    0.39    0.17    0.28            0.97    1.24    0.68           1.02     1.34
E15        71.77   74.55   31.26          89.18   -0.23   36.65          36.65   90.37           0.08    0.14    0.49    0.11            0.61    0.62    1.07           0.96     1.29
E16        28.72   30.00   24.75          61.64   -0.81    0.01           1.01  183.29           0.52    0.53    0.56    0.53            1.09    1.15    1.16           1.04     1.23
E17        46.67   39.48   25.53          69.09   25.79   11.47          28.24   23.96           0.16    0.53    0.54    0.37            0.97    1.12    1.19           1.14     1.44
E18        48.98   58.93   32.01          81.25  -20.26   21.84          29.79  132.88           0.37    0.18    0.47    0.24            0.99    0.86    1.29           1.09     1.45
E19        37.93   39.98   52.26          69.44   -1.98  -24.44          24.52  265.34           0.49    0.39    0.19    0.42            1.19    1.38    0.78           1.06     1.41
E20         8.38    9.91    1.59          37.68   -9.94   38.91          40.16  104.33           1.07    0.96    2.09    1.00            0.29    0.34    0.07           0.59     0.74
E21        27.89   33.10    7.67          64.23  -15.20   47.74          50.10  107.66           0.56    0.44    1.24    0.48            0.92    1.10    0.38           0.80     0.99
E22        10.64   20.37   16.14          52.25  -54.34    1.59          54.37  178.32           1.64    0.50    0.81    0.76            0.38    0.59    0.72           0.73     0.97
F1          4.34    5.36    3.91          27.73  -10.62    3.01          11.04  164.22           1.40    1.23    1.45    1.29            0.17    0.20    0.15           0.54     0.64
F2          3.62    5.35    3.20          27.71  -21.05    7.71          22.42  159.89           1.60    1.17    1.58    1.31            0.13    0.18    0.13           0.52     0.64
F3          2.89    5.14    2.80          27.13  -30.54    9.64          32.03  162.49           1.87    1.13    1.68    1.35            0.11    0.18    0.11           0.55     0.63
F4          2.16    5.07    2.18          26.92  -44.02   14.41          46.32  161.87           2.38    1.07    1.86    1.37            0.07    0.15    0.08           0.48     0.58
F5         13.88   17.30   12.41          48.63  -16.57    5.08          17.33  162.98           0.93    0.71    0.91    0.79            0.52    0.64    0.48           0.75     0.93
F6         11.15   17.10   10.17          48.38  -33.97   11.49          35.86  161.31           1.21    0.64    1.03    0.81            0.44    0.64    0.41           0.73     0.93
F7          8.66   16.40    8.01          47.49  -49.74   17.56          52.75  160.55           1.56    0.60    1.19    0.85            0.30    0.51    0.30           0.64     0.79
F8          7.95   16.34    7.71          47.42  -55.76   18.60          58.78  161.55           1.74    0.58    1.22    0.85            0.24    0.42    0.29           0.57     0.69
F9         34.10   38.99   29.62          68.74  -11.69    3.98          12.36  161.24           0.51    0.38    0.49    0.42            1.11    1.24    1.14           0.91     1.09
F10        30.63   38.81   27.27          68.60  -23.54    7.62          24.74  162.07           0.63    0.34    0.54    0.43            1.05    1.24    1.09           0.89     1.07
F11        27.32   38.28   25.06          68.22  -34.67   10.81          36.32  162.70           0.77    0.31    0.59    0.45            0.87    1.05    1.02           0.83     1.02
F12        22.83   36.02   21.96          66.54  -46.45   13.68          48.43  163.60           0.98    0.30    0.66    0.49            0.54    0.59    0.82           0.85     1.12
F13        51.46   61.47   62.25          82.63  -19.55  -12.01          22.95  211.56           0.43    0.15    0.13    0.24            0.74    0.62    0.34           0.53     0.67
F14        52.92   44.08   51.23          72.28   28.86  -18.41          34.23  327.46           0.15    0.47    0.19    0.33            0.91    1.12    0.71           1.01     1.29
F15        70.39   73.03   25.43          88.46   -0.06   45.03          45.03   90.08           0.08    0.15    0.60    0.12            0.55    0.59    0.99           0.96     1.36
F16        20.58   21.43   17.86          53.41   -0.42   -0.39           0.81  211.77           0.65    0.68    0.71    0.67            0.76    0.80    0.82           0.95     1.12
F17        40.09   31.72   18.60          63.11   32.19   14.71          35.40   24.54           0.19    0.67    0.69    0.45            0.79    0.87    0.92           1.08     1.37
