targets/wolf_faust/transmissive/E100221.it8
IT8.7/1
ORIGINATOR "Wolf Faust"
DESCRIPTOR "Ektachrome, Type 3, L* a* b* (light D50, viewing angle 2)"
MANUFACTURER "Wolf Faust - http://www.coloraid.de"
CREATED "February 21, 2010"
PROD_DATE "2009:01"
DIFFUSE_GEOMETRY "opal"
SERIAL "E100221 Batch Average Data"
MATERIAL "For Kodak Ektachrome Product Family"
KEYWORD "MEAN_DE" # Mean Delta E of samples compared to batch average
NUMBER_OF_FIELDS 18
BEGIN_DATA_FORMAT
SAMPLE_ID  XYZ_X   XYZ_Y   XYZ_Z          LAB_L   LAB_A   LAB_B          LAB_C   LAB_H          D_RED  D_GREEN  D_BLUE  D_VIS          STDEV_X STDEV_Y STDEV_Z        MEAN_DE  STDEV_DE
END_DATA_FORMAT
NUMBER_OF_SETS 288
BEGIN_DATA
A1          2.65    2.23    1.64          16.64   10.29    2.15          10.52   11.78           1.38    1.82    1.83    1.62            0.06    0.06    0.04           0.30     0.35
A2          3.13    2.10    1.24          16.03   21.39    5.91          22.20   15.44           1.22    2.03    1.94    1.60            0.06    0.04    0.04           0.27     0.31 
A3          3.80    2.16    1.09          16.30   30.88    8.48          32.03   15.35           1.07    2.26    1.97    1.56            0.08    0.05    0.03           0.33     0.36
A4          4.67    2.14    0.84          16.20   43.48   12.16          45.15   15.62           0.91    2.97    2.03    1.51            0.06    0.03    0.02           0.32     0.36 
A5         11.52    9.99    7.26          37.82   14.29    3.83          14.79   15.00           0.77    1.13    1.13    0.97            0.23    0.22    0.16           0.43     0.50
A6         13.40    9.63    5.97          37.16   29.82    8.32          30.96   15.59           0.62    1.28    1.21    0.96            0.19    0.16    0.15           0.39     0.45 
A7         15.79    9.68    5.26          37.25   44.02   11.93          45.61   15.17           0.48    1.46    1.25    0.92            0.25    0.17    0.13           0.37     0.42
A8         17.40    8.99    4.17          35.97   58.57   15.66          60.62   14.97           0.38    1.81    1.33    0.92            0.13    0.09    0.10           0.36     0.47 
A9         32.48   31.80   24.82          63.17    6.62    2.52           7.09   20.77           0.41    0.54    0.56    0.49            0.53    0.57    0.56           0.56     0.64
A10        34.62   31.70   23.32          63.10   14.45    5.13          15.33   19.54           0.34    0.58    0.58    0.48            0.51    0.52    0.52           0.57     0.63
A11        36.86   31.76   22.61          63.14   21.75    6.57          22.72   16.80           0.28    0.61    0.59    0.47            0.48    0.49    0.54           0.55     0.65
A12        39.66   30.91   20.58          62.43   33.77    9.34          35.04   15.46           0.19    0.69    0.63    0.46            0.48    0.54    0.59           0.78     0.87 
A13        74.79   78.58   65.69          91.04   -2.00   -0.80           2.16  201.70           0.13    0.10    0.10    0.11            0.17    0.15    0.13           0.13     0.15
A14        79.68   81.21   66.23          92.23    2.71    0.74           2.81   15.19           0.07    0.10    0.10    0.09            0.21    0.23    0.21           0.12     0.13 
A15        79.92   81.91   64.44          92.54    1.84    2.96           3.49   58.02           0.07    0.10    0.11    0.08            0.17    0.16    0.30           0.20     0.25
A16        78.30   80.92   65.90          92.10    0.53    0.82           0.99   56.23           0.09    0.10    0.10    0.09            0.22    0.20    0.27           0.19     0.21
A17        79.57   81.06   65.83          92.16    2.78    0.99           2.96   19.55           0.07    0.10    0.10    0.09            0.25    0.27    0.31           0.17     0.19
A18        76.66   79.85   63.15          91.62   -0.67    2.62           2.70  104.30           0.10    0.10    0.12    0.10            0.23    0.20    0.30           0.22     0.25 
A19        75.32   77.69   65.83          90.64    0.84   -1.63           1.83  297.23           0.11    0.12    0.10    0.11            0.25    0.25    0.16           0.13     0.15
A20         6.93    3.26    2.04          21.06   48.18    5.67          48.52    6.71           0.75    2.59    1.62    1.34            0.07    0.03    0.06           0.31     0.37 
A21        28.88   20.72   16.34          52.64   38.67    1.79          38.71    2.64           0.30    0.94    0.73    0.63            0.37    0.33    0.34           0.43     0.52
A22        56.70   52.78   34.91          77.75   14.82   11.50          18.76   37.82           0.13    0.34    0.40    0.26            0.55    0.71    0.66           0.59     0.72
B1          3.89    3.50    2.00          21.96    7.89    7.62          10.97   43.97           1.24    1.57    1.76    1.43            0.07    0.07    0.05           0.27     0.34
B2          4.56    3.50    1.24          21.95   17.21   16.08          23.56   43.05           1.10    1.67    2.00    1.40            0.06    0.05    0.03           0.24     0.29
B3          5.15    3.38    0.69          21.49   26.71   23.94          35.87   41.87           0.98    1.84    2.30    1.38            0.07    0.06    0.02           0.27     0.31
B4          6.14    3.33    0.12          21.32   38.75   34.46          51.86   41.64           0.84    2.15    3.40    1.35            0.07    0.04    0.00           0.23     0.30
B5         14.35   12.84    7.49          42.52   12.71   11.04          16.84   40.96           0.69    0.99    1.13    0.86            0.24    0.24    0.20           0.48     0.58
B6         16.57   12.92    5.06          42.64   25.22   22.24          33.62   41.40           0.55    1.09    1.33    0.83            0.25    0.23    0.13           0.47     0.54
B7         19.10   12.94    3.01          42.67   38.58   34.81          51.96   42.06           0.43    1.21    1.59    0.81            0.20    0.17    0.08           0.30     0.35
B8         21.24   12.13    1.38          41.42   54.49   47.81          72.49   41.27           0.32    1.47    1.98    0.80            0.13    0.12    0.03           0.31     0.37
B9         38.38   38.40   28.32          68.31    4.38    5.35           6.92   50.68           0.35    0.45    0.50    0.41            0.53    0.61    0.54           0.57     0.64
B10        40.54   38.69   25.43          68.52   10.25   10.64          14.78   46.07           0.29    0.47    0.55    0.40            0.61    0.68    0.52           0.62     0.72
B11        41.56   37.92   22.99          67.96   15.81   14.13          21.21   41.79           0.25    0.50    0.60    0.40            0.52    0.59    0.54           0.62     0.72
B12        44.79   37.67   17.70          67.78   26.12   24.73          35.97   43.43           0.16    0.56    0.73    0.38            0.47    0.59    0.45           0.76     0.95
B13        68.32   73.86   64.74          88.85   -6.20   -3.68           7.21  210.63           0.19    0.12    0.11    0.14            0.20    0.16    0.19           0.25     0.29
B14        72.12   70.14   62.30          87.07    9.62   -4.41          10.58  335.37           0.09    0.19    0.12    0.15            0.19    0.27    0.12           0.25     0.33
B15        76.64   78.95   53.32          91.21    1.05   11.94          11.99   84.97           0.08    0.12    0.21    0.10            0.11    0.09    0.19           0.16     0.19
B16        63.35   65.81   54.56          84.90   -0.24   -0.27           0.42  230.08           0.18    0.19    0.19    0.18            0.37    0.45    0.35           0.30     0.34
B17        70.12   68.53   54.04          86.27    8.82    2.64           9.21   16.68           0.09    0.20    0.19    0.15            0.24    0.31    0.31           0.24     0.29
B18        67.62   73.36   55.63          88.62   -6.72    5.01           8.39  143.29           0.18    0.12    0.19    0.14            0.19    0.17    0.21           0.18     0.20
B19        64.81   67.37   62.50          85.69   -0.34   -6.98           6.99  267.20           0.19    0.17    0.12    0.18            0.26    0.30    0.08           0.22     0.28
B20         5.56    3.35    1.12          21.40   31.96   16.74          36.08   27.64           0.92    1.96    2.00    1.37            0.06    0.04    0.02           0.20     0.23
B21        18.88   12.76    4.78          42.40   38.65   23.33          45.15   31.11           0.43    1.22    1.33    0.82            0.26    0.21    0.14           0.40     0.47
B22        36.98   31.89   19.18          63.25   21.69   13.66          25.64   32.21           0.27    0.61    0.68    0.46            0.52    0.56    0.40           0.52     0.63
C1          7.46    7.35    4.21          32.58    3.68    9.59          10.27   68.97           1.01    1.19    1.41    1.12            0.12    0.12    0.11           0.32     0.41
C2          7.79    7.23    2.56          32.32    7.86   20.49          21.95   69.01           0.95    1.23    1.69    1.11            0.10    0.10    0.07           0.33     0.40
C3          8.49    7.34    1.41          32.57   13.09   32.21          34.77   67.87           0.88    1.26    2.04    1.09            0.12    0.11    0.04           0.28     0.33
C4          9.06    7.18    0.34          32.20   19.51   49.12          52.85   68.33           0.83    1.32    3.17    1.08            0.13    0.12    0.01           0.33     0.43
C5         27.09   26.38   13.38          58.39    6.83   19.22          20.40   70.45           0.46    0.63    0.87    0.56            0.41    0.45    0.33           0.57     0.68
C6         29.25   26.56    7.52          58.57   14.53   38.57          41.21   69.35           0.37    0.67    1.19    0.54            0.42    0.46    0.18           0.55     0.65
C7         30.66   25.96    3.76          57.99   22.35   56.17          60.45   68.30           0.32    0.72    1.59    0.54            0.36    0.40    0.10           0.53     0.64
C8         33.57   25.57    0.70          57.62   34.39   86.18          92.79   68.24           0.25    0.81    3.00    0.52            0.28    0.31    0.02           0.40     0.47
C9         45.05   45.93   31.84          73.49    2.22    8.70           8.99   75.65           0.29    0.36    0.45    0.33            0.64    0.72    0.53           0.58     0.67
C10        45.90   45.67   27.21          73.33    5.38   15.85          16.74   71.25           0.26    0.38    0.53    0.33            0.61    0.70    0.50           0.58     0.66
C11        47.36   45.93   22.73          73.50    8.74   24.19          25.72   70.13           0.22    0.39    0.62    0.32            0.53    0.61    0.45           0.56     0.67
C12        50.02   44.97   11.03          72.87   18.70   50.97          54.29   69.85           0.13    0.44    1.01    0.31            0.47    0.64    0.25           0.68     0.84
C13        62.66   69.88   64.14          86.94  -10.61   -6.41          12.40  211.14           0.27    0.13    0.11    0.17            0.26    0.22    0.07           0.19     0.25
C14        66.91   62.82   59.53          83.35   14.43   -8.08          16.54  330.77           0.10    0.25    0.14    0.19            0.29    0.40    0.08           0.37     0.52
C15        74.99   77.61   45.15          90.60    0.33   20.21          20.22   89.08           0.08    0.12    0.29    0.10            0.12    0.14    0.24           0.19     0.24
C16        50.04   52.23   43.22          77.42   -0.88   -0.14           0.91  191.04           0.29    0.29    0.30    0.28            0.55    0.63    0.42           0.41     0.51
C17        61.70   57.92   43.74          80.69   14.06    4.86          14.88   19.06           0.11    0.30    0.29    0.22            0.49    0.62    0.55           0.49     0.59
C18        60.24   67.93   47.40          85.97  -12.11    9.56          15.43  141.73           0.25    0.14    0.27    0.18            0.33    0.27    0.40           0.36     0.42
C19        54.72   57.36   59.16          80.38   -1.48  -12.83          12.91  263.41           0.29    0.24    0.14    0.25            0.42    0.47    0.12           0.34     0.46
C20        14.02   10.36    1.29          38.47   28.12   43.93          52.16   57.38           0.60    1.22    2.11    0.91            0.15    0.12    0.03           0.29     0.34
C21        24.34   22.83   12.64          54.90   10.39   15.24          18.45   55.69           0.49    0.71    0.89    0.62            0.37    0.38    0.32           0.58     0.65
C22        30.32   25.89   12.50          57.93   21.34   20.85          29.84   44.33           0.34    0.71    0.89    0.55            0.43    0.44    0.27           0.52     0.61
D1          5.00    5.25    2.79          27.43   -0.75   10.20          10.23   94.19           1.21    1.31    1.62    1.28            0.08    0.09    0.07           0.31     0.37
D2          4.78    5.06    1.71          26.91   -1.24   19.05          19.10   93.73           1.23    1.31    1.91    1.29            0.10    0.11    0.05           0.37     0.45
D3          4.86    5.17    1.00          27.20   -1.55   28.62          28.66   93.10           1.23    1.30    2.27    1.27            0.07    0.08    0.03           0.29     0.36
D4          4.74    5.09    0.37          26.98   -2.08   39.58          39.64   93.01           1.27    1.29    3.13    1.27            0.07    0.08    0.01           0.27     0.36
D5         20.31   21.51   11.25          53.50   -2.08   16.91          17.04   97.02           0.63    0.68    0.96    0.66            0.33    0.37    0.30           0.51     0.62
D6         20.01   21.27    6.19          53.24   -2.45   35.04          35.13   94.00           0.62    0.68    1.30    0.66            0.33    0.39    0.17           0.47     0.59
D7         20.09   21.44    2.91          53.43   -2.83   54.09          54.16   93.00           0.63    0.67    1.79    0.65            0.25    0.32    0.08           0.43     0.49
D8         19.53   20.84    0.86          52.77   -2.80   74.97          75.02   92.14           0.68    0.69    2.94    0.66            0.25    0.29    0.02           0.37     0.48
D9         50.80   53.20   28.09          77.99   -1.31   22.41          22.45   93.35           0.24    0.29    0.52    0.27            0.55    0.64    0.47           0.48     0.57
D10        50.40   53.14   15.94          77.96   -2.21   46.38          46.43   92.73           0.23    0.29    0.83    0.26            0.45    0.53    0.31           0.49     0.56
D11        49.60   52.52    8.13          77.59   -2.79   68.99          69.04   92.31           0.23    0.29    1.24    0.26            0.40    0.45    0.14           0.45     0.51
D12        48.14   50.70    2.86          76.50   -2.06   94.24          94.26   91.25           0.26    0.31    2.04    0.27            0.31    0.31    0.06           0.28     0.32
D13        58.35   66.74   63.51          85.37  -14.03   -8.50          16.41  211.22           0.33    0.14    0.12    0.19            0.28    0.23    0.12           0.20     0.25
D14        61.91   55.99   56.78          79.61   19.26  -11.73          22.55  328.66           0.12    0.32    0.16    0.24            0.33    0.46    0.16           0.40     0.56
D15        73.31   76.09   37.53          89.90   -0.11   28.78          28.78   90.22           0.08    0.13    0.39    0.11            0.14    0.16    0.32           0.31     0.34
D16        37.95   39.54   32.44          69.14   -0.55    0.28           0.75  165.76           0.40    0.41    0.43    0.40            0.51    0.58    0.64           0.62     0.70
D17        53.30   47.57   33.18          74.55   20.03    8.51          21.77   23.02           0.14    0.41    0.42    0.30            0.54    0.71    0.52           0.66     0.81
D18        54.13   63.14   38.73          83.51  -16.48   16.15          23.08  135.59           0.31    0.16    0.37    0.21            0.39    0.32    0.48           0.42     0.54
D19        45.57   47.82   55.55          74.71   -1.54  -18.88          18.95  265.33           0.38    0.31    0.17    0.33            0.55    0.66    0.24           0.54     0.71
D20         3.43    3.46    1.26          21.80    1.56   15.60          15.68   84.29           1.34    1.51    2.04    1.44            0.05    0.06    0.03           0.30     0.34
D21        33.98   31.36    1.63          62.81   13.47   81.83          82.93   80.65           0.33    0.59    2.32    0.46            0.39    0.42    0.04           0.41     0.49
D22        43.45   48.12   56.17          74.90   -8.48  -19.20          20.99  246.17           0.45    0.29    0.17    0.34            0.52    0.63    0.28           0.45     0.62
E1          6.50    7.43    4.11          32.76   -6.69   10.51          12.46  122.50           1.16    1.12    1.45    1.14            0.12    0.14    0.11           0.40     0.46
E2          5.99    7.36    2.77          32.61  -11.51   19.33          22.50  120.78           1.23    1.09    1.68    1.14            0.10    0.13    0.08           0.36     0.44
E3          5.39    7.21    1.47          32.28  -16.93   31.05          35.37  118.60           1.34    1.06    2.11    1.16            0.09    0.12    0.04           0.34     0.38
E4          4.61    7.02    0.54          31.86  -24.82   44.64          51.08  119.08           1.58    1.01    3.07    1.17            0.07    0.11    0.01           0.29     0.39
E5         28.13   32.05   17.68          63.38  -10.57   17.19          20.18  121.59           0.55    0.47    0.75    0.50            0.40    0.50    0.37           0.55     0.64
E6         25.77   31.76   10.76          63.15  -19.09   35.04          39.90  118.58           0.63    0.44    1.03    0.51            0.39    0.50    0.20           0.56     0.66
E7         22.73   30.75    5.82          62.29  -28.59   52.34          59.64  118.64           0.75    0.42    1.42    0.52            0.27    0.38    0.11           0.40     0.45
E8         20.80   30.03    3.02          61.68  -34.99   67.51          76.04  117.40           0.88    0.41    1.93    0.54            0.16    0.20    0.04           0.20     0.23
E9         49.24   53.59   36.19          78.22   -6.48   10.51          12.35  121.64           0.30    0.26    0.39    0.27            0.43    0.48    0.41           0.41     0.45
E10        46.89   53.23   28.76          78.01  -12.04   21.34          24.50  119.43           0.34    0.25    0.52    0.28            0.39    0.42    0.40           0.51     0.57
E11        44.15   52.22   22.74          77.41  -17.24   30.90          35.39  119.16           0.38    0.24    0.65    0.29            0.37    0.43    0.29           0.37     0.42
E12        40.90   51.13   15.62          76.76  -24.14   45.09          51.14  118.16           0.44    0.23    0.86    0.30            0.27    0.26    0.26           0.39     0.48
E13        54.50   63.84   62.84          83.88  -17.12  -10.42          20.04  211.33           0.38    0.14    0.12    0.22            0.25    0.21    0.10           0.20     0.25
E14        57.34   49.84   54.10          75.97   24.04  -15.17          28.42  327.75           0.13    0.39    0.17    0.29            0.41    0.56    0.24           0.50     0.69
E15        71.70   74.47   30.83          89.14   -0.22   37.23          37.24   90.34           0.08    0.14    0.49    0.11            0.23    0.25    0.51           0.53     0.61
E16        27.91   29.21   23.98          60.97   -0.99    0.22           1.10  168.40           0.53    0.54    0.58    0.54            0.43    0.49    0.51           0.57     0.67
E17        46.18   38.93   24.68          68.70   26.12   12.28          28.86   25.19           0.16    0.54    0.56    0.37            0.49    0.62    0.50           0.73     0.88
E18        48.36   58.41   31.15          80.97  -20.72   22.65          30.70  132.45           0.37    0.18    0.48    0.24            0.38    0.33    0.43           0.42     0.53
E19        37.15   39.13   51.92          68.84   -1.86  -25.10          25.17  265.76           0.50    0.40    0.20    0.43            0.52    0.62    0.26           0.54     0.73
E20         8.17    9.67    1.55          37.24   -9.88   38.61          39.85  104.36           1.08    0.97    2.10    1.01            0.11    0.14    0.04           0.34     0.38
E21        27.24   32.34    7.35          63.62  -15.12   47.96          50.29  107.50           0.57    0.45    1.26    0.49            0.34    0.42    0.16           0.43     0.50
E22        10.46   20.11   15.68          51.96  -54.44    2.20          54.49  177.68           1.64    0.51    0.82    0.77            0.14    0.23    0.37           0.52     0.62
F1          4.20    5.20    3.78          27.30  -10.66    3.11          11.11  163.71           1.41    1.25    1.47    1.31            0.07    0.09    0.08           0.26     0.31
F2          3.49    5.17    3.08          27.22  -20.89    7.72          22.27  159.71           1.62    1.18    1.60    1.33            0.06    0.09    0.07           0.31     0.35
F3          2.79    4.98    2.68          26.66  -30.40    9.73          31.92  162.25           1.89    1.15    1.70    1.36            0.04    0.08    0.06           0.30     0.37
F4          2.11    4.93    2.12          26.55  -43.63   14.34          45.93  161.81           2.38    1.08    1.88    1.38            0.03    0.08    0.05           0.29     0.37
F5         13.45   16.81   12.00          48.01  -16.60    5.21          17.40  162.58           0.95    0.72    0.92    0.80            0.20    0.26    0.28           0.50     0.60
F6         10.81   16.63    9.80          47.79  -33.83   11.67          35.79  160.97           1.22    0.65    1.05    0.82            0.17    0.26    0.20           0.47     0.56
F7          8.42   15.99    7.78          46.96  -49.55   17.53          52.56  160.52           1.58    0.61    1.20    0.86            0.09    0.17    0.11           0.30     0.37
F8          7.75   15.99    7.46          46.97  -55.65   18.80          58.74  161.33           1.75    0.59    1.24    0.86            0.07    0.15    0.10           0.35     0.40
F9         33.39   38.25   29.02          68.20  -11.85    4.02          12.52  161.30           0.52    0.39    0.50    0.43            0.45    0.53    0.54           0.60     0.66
F10        30.10   38.22   26.81          68.19  -23.70    7.67          24.91  162.09           0.64    0.35    0.54    0.44            0.29    0.37    0.33           0.49     0.56
F11        26.81   37.72   24.64          67.81  -34.89   10.82          36.53  162.77           0.78    0.32    0.59    0.46            0.27    0.35    0.35           0.41     0.48
F12        22.45   35.62   21.42          66.23  -46.83   14.19          48.93  163.14           0.99    0.31    0.68    0.49            0.15    0.17    0.28           0.35     0.43
F13        51.08   61.17   62.18          82.47  -19.85  -12.23          23.31  211.63           0.44    0.15    0.13    0.24            0.25    0.22    0.08           0.18     0.25
F14        52.58   43.63   51.06          71.98   29.28  -18.74          34.76  327.38           0.15    0.48    0.19    0.34            0.37    0.49    0.23           0.47     0.66
F15        70.17   72.78   24.73          88.34   -0.01   46.06          46.06   90.02           0.08    0.16    0.61    0.12            0.11    0.14    0.37           0.50     0.59
F16        19.97   20.82   17.29          52.75   -0.49   -0.24           0.70  196.49           0.66    0.70    0.73    0.68            0.32    0.36    0.45           0.55     0.66
F17        39.66   31.24   17.96          62.71   32.58   15.40          36.04   25.29           0.19    0.68    0.70    0.46            0.33    0.41    0.44           0.64     0.79
