targets/wolf_faust/transmissive/E100701.it8
IT8.7/1
ORIGINATOR "Wolf Faust"
DESCRIPTOR "Ektachrome, Type 3, L* a* b* (light D50, viewing angle 2)"
MANUFACTURER "Wolf Faust - http://www.coloraid.de"
CREATED "August 18, 2010"
PROD_DATE "2009:01"
DIFFUSE_GEOMETRY "opal"
SERIAL "E100701 Batch Average Data"
MATERIAL "For Kodak Ektachrome Product Family"
KEYWORD "MEAN_DE" # Mean Delta E of samples compared to batch average
NUMBER_OF_FIELDS 18
BEGIN_DATA_FORMAT
SAMPLE_ID  XYZ_X   XYZ_Y   XYZ_Z          LAB_L   LAB_A   LAB_B          LAB_C   LAB_H          D_RED  D_GREEN  D_BLUE  D_VIS          STDEV_X STDEV_Y STDEV_Z        MEAN_DE  STDEV_DE
END_DATA_FORMAT
NUMBER_OF_SETS 288
BEGIN_DATA
A1          2.64    2.22    1.66          16.62   10.11    1.90          10.29   10.62           1.39    1.82    1.82    1.62            0.04    0.03    0.03           0.25     0.28
A2          3.22    2.19    1.28          16.44   21.16    6.08          22.02   16.03           1.21    2.00    1.93    1.59            0.04    0.03    0.02           0.24     0.27 
A3          3.90    2.24    1.16          16.70   30.73    8.08          31.77   14.73           1.06    2.22    1.94    1.54            0.05    0.03    0.02           0.21     0.26
A4          4.76    2.18    0.85          16.40   43.78   12.35          45.49   15.75           0.90    2.96    2.02    1.51            0.04    0.02    0.01           0.21     0.26 
A5         11.65   10.15    7.39          38.10   14.00    3.79          14.51   15.11           0.77    1.12    1.12    0.97            0.16    0.14    0.15           0.44     0.52
A6         13.73   10.00    6.35          37.83   29.02    7.75          30.04   14.95           0.61    1.25    1.18    0.94            0.17    0.14    0.13           0.44     0.52 
A7         15.87    9.78    5.37          37.45   43.64   11.74          45.19   15.06           0.48    1.45    1.24    0.92            0.15    0.11    0.18           0.59     0.72
A8         17.96    9.43    4.53          36.80   57.96   15.01          59.87   14.52           0.37    1.75    1.29    0.90            0.06    0.05    0.14           0.61     0.73 
A9         33.24   32.62   26.13          63.85    6.37    1.37           6.56   11.90           0.41    0.53    0.53    0.48            0.46    0.46    0.78           0.78     0.94
A10        35.40   32.50   24.89          63.75   14.25    3.38          14.66   13.31           0.33    0.56    0.55    0.47            0.45    0.45    0.69           0.78     0.90
A11        37.46   32.40   23.32          63.67   21.41    6.13          22.28   15.95           0.27    0.60    0.58    0.46            0.41    0.42    0.65           0.65     0.81
A12        40.36   31.75   21.33          63.13   32.93    9.05          34.15   15.36           0.19    0.67    0.62    0.45            0.29    0.32    0.55           0.71     0.83 
A13        74.74   78.58   65.64          91.04   -2.10   -0.75           2.24  199.55           0.13    0.10    0.10    0.11            0.16    0.15    0.15           0.15     0.18
A14        79.77   81.32   66.19          92.28    2.68    0.85           2.81   17.71           0.07    0.10    0.10    0.09            0.12    0.12    0.19           0.14     0.16 
A15        80.04   82.07   64.46          92.60    1.79    3.06           3.55   59.58           0.07    0.10    0.11    0.08            0.14    0.14    0.22           0.15     0.19
A16        78.43   81.08   65.87          92.17    0.50    0.97           1.10   62.63           0.09    0.10    0.10    0.09            0.12    0.11    0.22           0.17     0.19
A17        79.20   80.52   65.35          91.92    3.09    1.03           3.26   18.49           0.07    0.11    0.10    0.09            0.14    0.14    0.24           0.18     0.20
A18        76.63   79.87   63.25          91.62   -0.76    2.53           2.65  106.76           0.10    0.10    0.12    0.10            0.23    0.17    0.14           0.19     0.24 
A19        75.31   77.68   65.77          90.63    0.83   -1.59           1.80  297.85           0.11    0.12    0.10    0.11            0.19    0.17    0.11           0.13     0.17
A20         7.08    3.36    2.21          21.43   48.07    4.73          48.31    5.62           0.75    2.53    1.58    1.33            0.07    0.03    0.03           0.34     0.40 
A21        29.28   21.08   17.11          53.04   38.47    0.67          38.48    0.99           0.30    0.92    0.70    0.62            0.29    0.28    0.30           0.52     0.59
A22        57.59   53.86   36.67          78.38   14.27   10.10          17.49   35.27           0.13    0.33    0.38    0.25            0.49    0.60    0.59           0.53     0.64
B1          4.09    3.69    2.16          22.60    8.04    7.13          10.75   41.55           1.22    1.55    1.72    1.41            0.05    0.04    0.04           0.26     0.30
B2          4.70    3.59    1.26          22.26   17.68   16.38          24.11   42.81           1.08    1.67    2.00    1.39            0.06    0.05    0.03           0.26     0.30
B3          5.46    3.67    0.78          22.55   25.80   24.19          35.37   43.16           0.97    1.77    2.25    1.35            0.07    0.05    0.02           0.28     0.31
B4          6.23    3.41    0.13          21.60   38.53   34.84          51.94   42.12           0.84    2.13    3.40    1.34            0.07    0.04    0.00           0.24     0.28
B5         14.59   13.17    7.83          43.02   12.06   10.53          16.01   41.13           0.68    0.98    1.11    0.86            0.21    0.22    0.20           0.44     0.51
B6         17.01   13.31    5.31          43.22   25.16   21.96          33.40   41.11           0.54    1.07    1.30    0.82            0.22    0.21    0.14           0.42     0.48
B7         19.10   13.01    3.18          42.78   38.08   33.80          50.92   41.59           0.43    1.20    1.56    0.80            0.23    0.20    0.09           0.40     0.46
B8         21.37   12.29    1.49          41.67   54.02   46.92          71.55   40.98           0.32    1.45    1.94    0.80            0.13    0.11    0.05           0.36     0.43
B9         38.98   39.10   29.69          68.82    4.11    4.00           5.76   43.82           0.35    0.44    0.48    0.40            0.61    0.64    0.91           0.82     0.98
B10        41.06   39.32   26.73          68.98    9.88    9.18          13.49   42.83           0.29    0.46    0.53    0.39            0.55    0.58    0.77           0.78     0.91
B11        42.47   39.13   24.15          68.84   14.74   13.51          20.00   42.47           0.24    0.48    0.58    0.38            0.42    0.44    0.62           0.75     0.87
B12        45.43   38.49   18.72          68.38   25.37   23.51          34.59   42.82           0.16    0.54    0.70    0.38            0.27    0.33    0.39           0.61     0.69
B13        68.31   73.80   64.37          88.83   -6.11   -3.37           6.98  208.85           0.19    0.12    0.11    0.14            0.26    0.21    0.27           0.26     0.32
B14        72.15   70.30   62.09          87.14    9.34   -4.07          10.19  336.47           0.09    0.19    0.12    0.15            0.24    0.29    0.26           0.26     0.31
B15        76.65   78.91   53.99          91.19    1.13   11.20          11.25   84.24           0.08    0.12    0.20    0.10            0.13    0.12    0.23           0.17     0.20
B16        63.65   66.15   55.33          85.07   -0.30   -0.79           0.85  248.98           0.18    0.18    0.18    0.18            0.35    0.36    0.34           0.25     0.29
B17        70.44   68.95   54.72          86.48    8.58    2.29           8.88   14.93           0.09    0.20    0.19    0.15            0.26    0.31    0.30           0.25     0.30
B18        67.76   73.43   56.30          88.65   -6.56    4.37           7.88  146.31           0.18    0.12    0.18    0.14            0.34    0.27    0.32           0.26     0.31
B19        64.89   67.46   62.46          85.74   -0.37   -6.86           6.87  266.94           0.19    0.17    0.12    0.17            0.39    0.41    0.16           0.23     0.31
B20         5.58    3.35    1.11          21.39   32.20   16.88          36.36   27.65           0.92    1.97    2.01    1.37            0.11    0.07    0.01           0.38     0.50
B21        18.93   12.78    4.92          42.43   38.71   22.60          44.83   30.27           0.43    1.22    1.32    0.81            0.25    0.21    0.12           0.42     0.47
B22        37.30   32.36   20.08          63.64   21.03   12.46          24.44   30.64           0.27    0.60    0.66    0.46            0.50    0.54    0.46           0.62     0.73
C1          7.62    7.48    4.36          32.86    3.94    9.20          10.01   66.85           1.00    1.18    1.40    1.11            0.09    0.10    0.08           0.34     0.39
C2          8.06    7.51    2.65          32.94    7.66   20.84          22.20   69.80           0.94    1.21    1.68    1.10            0.11    0.11    0.06           0.38     0.44
C3          8.58    7.46    1.44          32.84   12.67   32.40          34.78   68.64           0.88    1.25    2.04    1.08            0.11    0.11    0.03           0.40     0.47
C4          9.06    7.23    0.35          32.32   19.02   49.14          52.69   68.83           0.84    1.32    3.14    1.08            0.12    0.10    0.01           0.36     0.43
C5         27.70   27.11   14.28          59.08    6.32   18.01          19.09   70.67           0.45    0.62    0.84    0.55            0.38    0.43    0.32           0.52     0.62
C6         29.32   26.80    7.74          58.78   13.89   38.08          40.54   69.96           0.37    0.66    1.17    0.54            0.37    0.39    0.18           0.53     0.59
C7         31.37   26.84    4.00          58.83   21.37   56.07          60.01   69.14           0.31    0.70    1.56    0.52            0.42    0.46    0.12           0.55     0.63
C8         33.94   26.09    0.73          58.12   33.54   86.50          92.77   68.81           0.25    0.79    2.99    0.51            0.29    0.30    0.02           0.35     0.42
C9         45.48   46.52   33.27          73.88    1.79    7.23           7.45   76.06           0.29    0.35    0.43    0.33            0.60    0.63    0.89           0.72     0.84
C10        46.67   46.60   28.66          73.93    4.92   14.48          15.30   71.21           0.25    0.36    0.50    0.32            0.53    0.58    0.82           0.76     0.90
C11        47.92   46.80   23.91          74.06    7.84   22.95          24.25   71.13           0.22    0.38    0.60    0.31            0.42    0.45    0.64           0.74     0.90
C12        50.65   45.84   11.83          73.44   17.91   49.53          52.67   70.12           0.13    0.43    0.98    0.30            0.31    0.42    0.34           0.64     0.78
C13        62.61   69.83   63.77          86.91  -10.61   -6.10          12.24  209.88           0.26    0.13    0.12    0.17            0.20    0.16    0.30           0.30     0.36
C14        67.55   63.76   59.81          83.84   13.74   -7.52          15.66  331.31           0.10    0.24    0.14    0.19            0.23    0.27    0.17           0.26     0.31
C15        75.13   77.71   45.98          90.65    0.39   19.31          19.31   88.83           0.08    0.12    0.28    0.10            0.11    0.10    0.37           0.34     0.40
C16        51.24   53.81   44.63          78.35   -1.69   -0.27           1.74  188.46           0.28    0.27    0.28    0.27            0.44    0.45    0.57           0.46     0.53
C17        62.79   59.34   45.00          81.48   13.24    4.66          14.04   19.40           0.11    0.28    0.28    0.21            0.27    0.34    0.49           0.43     0.49
C18        60.53   68.15   48.27          86.08  -11.89    8.74          14.76  143.71           0.25    0.14    0.26    0.17            0.37    0.29    0.52           0.44     0.52
C19        55.38   58.29   59.50          80.90   -2.05  -12.27          12.44  260.49           0.28    0.23    0.14    0.24            0.47    0.51    0.20           0.35     0.47
C20        14.01   10.35    1.36          38.46   28.13   43.01          51.39   56.82           0.60    1.22    2.07    0.91            0.25    0.20    0.03           0.47     0.59
C21        24.99   23.60   13.32          55.69    9.78   14.71          17.67   56.37           0.48    0.69    0.87    0.61            0.41    0.42    0.34           0.60     0.71
C22        30.47   26.19   13.04          58.21   20.66   19.84          28.65   43.83           0.34    0.70    0.87    0.55            0.41    0.41    0.34           0.61     0.69
D1          5.10    5.39    2.99          27.83   -1.18    9.39           9.46   97.16           1.21    1.29    1.59    1.26            0.06    0.07    0.03           0.27     0.32
D2          5.11    5.43    1.95          27.92   -1.46   18.31          18.37   94.56           1.20    1.28    1.84    1.26            0.08    0.08    0.03           0.32     0.36
D3          4.93    5.24    1.01          27.41   -1.58   28.81          28.85   93.13           1.22    1.29    2.27    1.27            0.09    0.10    0.02           0.30     0.36
D4          4.81    5.20    0.38          27.30   -2.55   39.99          40.07   93.66           1.27    1.28    3.13    1.27            0.07    0.08    0.01           0.32     0.37
D5         20.54   21.76   11.61          53.77   -2.11   16.27          16.41   97.43           0.63    0.67    0.94    0.66            0.35    0.39    0.29           0.52     0.62
D6         20.38   21.80    6.39          53.81   -3.06   35.14          35.27   94.98           0.62    0.67    1.29    0.65            0.34    0.40    0.19           0.58     0.66
D7         20.18   21.62    2.97          53.62   -3.25   54.04          54.14   93.44           0.63    0.67    1.78    0.65            0.30    0.34    0.07           0.48     0.55
D8         19.67   21.10    0.88          53.06   -3.32   75.11          75.19   92.53           0.68    0.68    2.93    0.65            0.26    0.28    0.01           0.41     0.48
D9         51.60   54.24   29.31          78.60   -1.83   21.47          21.55   94.87           0.24    0.27    0.50    0.26            0.51    0.55    0.84           0.78     0.96
D10        50.60   53.49   17.42          78.17   -2.59   43.27          43.35   93.42           0.23    0.28    0.79    0.26            0.39    0.42    0.47           0.67     0.79
D11        49.79   52.82    8.32          77.77   -3.03   68.57          68.64   92.53           0.23    0.29    1.23    0.26            0.32    0.36    0.24           0.53     0.70
D12        48.51   51.23    3.11          76.82   -2.40   92.97          93.01   91.48           0.26    0.30    1.97    0.27            0.21    0.18    0.04           0.30     0.34
D13        58.12   66.54   63.15          85.27  -14.16   -8.33          16.42  210.46           0.33    0.14    0.12    0.19            0.20    0.16    0.24           0.29     0.33
D14        62.59   56.95   57.14          80.15   18.48  -11.16          21.59  328.86           0.12    0.31    0.15    0.23            0.24    0.26    0.18           0.25     0.29
D15        73.47   76.22   38.58          89.96   -0.05   27.47          27.47   90.09           0.08    0.13    0.37    0.11            0.20    0.19    0.65           0.65     0.74
D16        38.92   40.90   34.07          70.11   -1.65   -0.46           1.78  193.91           0.40    0.39    0.41    0.39            0.45    0.47    0.74           0.66     0.74
D17        54.50   49.08   34.82          75.50   19.02    7.76          20.55   22.16           0.13    0.39    0.40    0.29            0.37    0.42    0.78           0.70     0.78
D18        54.20   63.22   39.99          83.56  -16.50   14.57          22.01  138.58           0.31    0.16    0.35    0.21            0.34    0.29    0.73           0.69     0.80
D19        46.08   48.71   56.00          75.27   -2.48  -18.40          18.56  262.33           0.38    0.30    0.17    0.33            0.50    0.56    0.28           0.47     0.58
D20         3.56    3.53    1.27          22.07    2.34   15.90          16.08   81.64           1.32    1.50    2.04    1.43            0.07    0.07    0.02           0.36     0.44
D21        34.40   31.93    1.74          63.28   12.89   81.43          82.45   81.01           0.33    0.58    2.27    0.46            0.40    0.37    0.03           0.42     0.55
D22        44.58   49.15   56.54          75.55   -7.97  -18.48          20.13  246.66           0.44    0.28    0.16    0.33            0.41    0.49    0.26           0.45     0.54
E1          6.50    7.44    4.35          32.80   -6.81    9.16          11.42  126.66           1.16    1.11    1.42    1.14            0.10    0.12    0.08           0.36     0.42
E2          6.00    7.40    2.81          32.69  -11.70   19.16          22.45  121.42           1.23    1.08    1.68    1.14            0.09    0.11    0.06           0.36     0.40
E3          5.55    7.41    1.58          32.72  -16.95   30.49          34.89  119.07           1.32    1.05    2.07    1.14            0.08    0.11    0.01           0.34     0.41
E4          4.78    7.25    0.56          32.36  -24.75   45.18          51.52  118.71           1.56    1.00    3.05    1.16            0.07    0.10    0.01           0.29     0.35
E5         28.66   32.72   18.08          63.93  -10.87   17.24          20.39  122.24           0.55    0.46    0.74    0.49            0.38    0.45    0.42           0.54     0.65
E6         26.22   32.50   11.42          63.75  -19.84   34.06          39.42  120.23           0.62    0.43    1.00    0.50            0.39    0.48    0.30           0.54     0.64
E7         23.13   31.41    6.16          62.85  -29.20   51.73          59.40  119.44           0.75    0.41    1.39    0.52            0.26    0.34    0.13           0.39     0.46
E8         20.78   30.16    3.26          61.79  -35.51   66.00          74.95  118.28           0.88    0.40    1.87    0.54            0.18    0.20    0.05           0.32     0.37
E9         50.03   54.41   37.79          78.70   -6.42    9.12          11.16  125.23           0.30    0.25    0.37    0.27            0.52    0.51    0.84           0.69     0.83
E10        47.07   53.51   29.75          78.17  -12.22   20.04          23.47  121.41           0.34    0.25    0.50    0.28            0.47    0.46    0.75           0.77     0.92
E11        44.91   53.12   23.70          77.95  -17.37   30.03          34.70  120.06           0.37    0.24    0.63    0.28            0.35    0.33    0.55           0.71     0.86
E12        41.39   51.65   16.79          77.07  -24.00   42.84          49.11  119.26           0.44    0.23    0.82    0.29            0.31    0.27    0.31           0.58     0.68
E13        54.58   63.89   62.69          83.91  -17.01  -10.24          19.86  211.03           0.38    0.14    0.12    0.22            0.22    0.18    0.21           0.27     0.30
E14        57.99   50.75   54.48          76.53   23.22  -14.62          27.44  327.80           0.13    0.38    0.17    0.28            0.22    0.28    0.18           0.29     0.35
E15        72.00   74.77   32.18          89.28   -0.21   35.42          35.42   90.33           0.08    0.14    0.47    0.11            0.15    0.14    0.61           0.76     0.84
E16        29.15   30.64   25.72          62.20   -1.50   -0.76           1.79  203.62           0.51    0.52    0.54    0.52            0.29    0.29    0.64           0.75     0.84
E17        47.29   40.27   26.45          69.66   25.09   10.82          27.33   23.32           0.16    0.52    0.52    0.36            0.26    0.31    0.57           0.63     0.71
E18        48.92   58.91   32.81          81.24  -20.36   20.60          28.96  134.68           0.37    0.18    0.46    0.24            0.33    0.27    0.56           0.64     0.74
E19        37.98   40.16   52.47          69.58   -2.39  -24.42          24.54  264.41           0.49    0.38    0.19    0.42            0.46    0.52    0.26           0.50     0.64
E20         8.43   10.05    1.67          37.93  -10.56   38.48          39.91  105.35           1.07    0.95    2.06    1.00            0.15    0.18    0.03           0.35     0.43
E21        27.66   32.90    7.80          64.08  -15.41   46.98          49.44  108.16           0.56    0.44    1.23    0.48            0.39    0.44    0.16           0.45     0.54
E22        10.62   20.24   16.43          52.11  -53.91    0.63          53.91  179.33           1.64    0.50    0.80    0.77            0.12    0.19    0.25           0.32     0.39
F1          4.37    5.38    3.89          27.79  -10.46    3.23          10.95  162.84           1.39    1.23    1.46    1.29            0.06    0.07    0.08           0.33     0.37
F2          3.57    5.31    3.17          27.61  -21.37    7.68          22.71  160.23           1.61    1.17    1.59    1.32            0.05    0.07    0.06           0.25     0.28
F3          2.93    5.24    2.77          27.42  -31.17   10.35          32.84  161.63           1.87    1.12    1.69    1.34            0.04    0.07    0.06           0.32     0.38
F4          2.15    5.03    2.15          26.83  -43.85   14.52          46.20  161.68           2.37    1.07    1.88    1.38            0.03    0.06    0.03           0.29     0.32
F5         13.81   17.35   12.73          48.69  -17.25    4.29          17.78  166.05           0.94    0.70    0.89    0.79            0.23    0.30    0.34           0.56     0.68
F6         11.08   17.08   10.25          48.35  -34.35   11.18          36.12  161.97           1.21    0.64    1.03    0.81            0.20    0.30    0.29           0.59     0.66
F7          8.68   16.43    8.39          47.53  -49.73   16.19          52.30  161.96           1.57    0.60    1.16    0.85            0.12    0.20    0.20           0.35     0.43
F8          7.97   16.34    7.86          47.42  -55.55   18.02          58.40  162.03           1.73    0.58    1.21    0.85            0.09    0.16    0.14           0.37     0.43
F9         34.18   39.31   30.00          68.97  -12.40    3.77          12.97  163.13           0.51    0.37    0.48    0.42            0.53    0.58    0.76           0.77     0.89
F10        30.62   38.91   27.64          68.68  -23.91    7.12          24.95  163.43           0.64    0.34    0.53    0.43            0.47    0.52    0.67           0.68     0.80
F11        26.93   37.77   25.37          67.85  -34.58    9.59          35.89  164.50           0.78    0.32    0.58    0.46            0.36    0.41    0.63           0.66     0.78
F12        22.55   35.67   22.36          66.27  -46.57   12.42          48.20  165.07           0.99    0.31    0.65    0.49            0.24    0.27    0.56           0.72     0.85
F13        51.11   61.13   62.00          82.45  -19.71  -12.08          23.12  211.51           0.44    0.15    0.13    0.24            0.30    0.25    0.06           0.29     0.34
F14        53.28   44.59   51.57          72.62   28.32  -18.19          33.67  327.28           0.15    0.46    0.19    0.33            0.31    0.39    0.32           0.40     0.46
F15        70.46   73.11   26.10          88.50   -0.09   43.91          43.91   90.11           0.08    0.15    0.58    0.12            0.22    0.23    0.60           0.80     0.89
F16        20.80   21.84   18.46          53.85   -1.23   -0.96           1.68  212.60           0.65    0.67    0.70    0.67            0.32    0.31    0.55           0.81     0.90
F17        40.64   32.43   19.20          63.70   31.37   14.40          34.52   24.65           0.19    0.66    0.67    0.44            0.27    0.29    0.52           0.73     0.80
