targets/wolf_faust/transmissive/E101212.it8
IT8.7/1
ORIGINATOR "Wolf Faust"
DESCRIPTOR "Ektachrome, Type 3, L* a* b* (light D50, viewing angle 2)"
MANUFACTURER "Wolf Faust - http://www.coloraid.de"
CREATED "December 16, 2010"
PROD_DATE "2010:12"
DIFFUSE_GEOMETRY "opal"
SERIAL "E101212 Batch Average Data"
MATERIAL "For Kodak Ektachrome Product Family"
KEYWORD "MEAN_DE" # Mean Delta E of samples compared to batch average
NUMBER_OF_FIELDS 18
BEGIN_DATA_FORMAT
SAMPLE_ID  XYZ_X   XYZ_Y   XYZ_Z          LAB_L   LAB_A   LAB_B          LAB_C   LAB_H          D_RED  D_GREEN  D_BLUE  D_VIS          STDEV_X STDEV_Y STDEV_Z        MEAN_DE  STDEV_DE
END_DATA_FORMAT
NUMBER_OF_SETS 288
BEGIN_DATA
A1          2.25    1.91    1.42          15.00    9.30    1.80           9.47   10.95           1.45    1.88    1.90    1.69            0.05    0.05    0.03           0.35     0.41
A2          2.71    1.86    1.09          14.74   19.51    5.69          20.33   16.25           1.28    2.07    2.00    1.66            0.04    0.04    0.03           0.33     0.39 
A3          3.30    1.88    0.93          14.85   29.30    8.32          30.46   15.86           1.13    2.32    2.05    1.62            0.03    0.03    0.03           0.34     0.40
A4          4.20    1.89    0.75          14.92   42.61   11.57          44.15   15.19           0.95    3.11    2.06    1.56            0.02    0.01    0.02           0.29     0.37 
A5          9.71    8.35    6.15          34.69   14.09    3.24          14.47   12.96           0.84    1.21    1.20    1.05            0.12    0.11    0.14           0.57     0.66
A6         11.62    8.35    5.28          34.71   28.36    7.46          29.33   14.74           0.68    1.34    1.26    1.02            0.17    0.12    0.15           0.54     0.62 
A7         13.94    8.47    4.62          34.94   42.88   11.32          44.35   14.78           0.53    1.53    1.31    0.98            0.19    0.10    0.11           0.53     0.61
A8         16.63    8.50    3.67          35.01   58.46   17.10          60.91   16.30           0.39    1.86    1.38    0.94            0.11    0.07    0.09           0.45     0.50 
A9         29.13   28.33   22.72          60.18    7.11    1.25           7.23    9.90           0.45    0.59    0.60    0.54            0.64    0.63    0.77           0.67     0.80
A10        31.32   28.42   21.60          60.27   14.98    3.56          15.41   13.34           0.38    0.63    0.62    0.53            0.48    0.45    0.64           0.74     0.86
A11        33.33   28.21   20.19          60.08   22.99    6.09          23.79   14.83           0.31    0.67    0.65    0.52            0.55    0.47    0.57           0.66     0.77
A12        37.12   28.31   18.61          60.17   35.43    9.60          36.72   15.16           0.20    0.74    0.68    0.50            0.34    0.33    0.55           0.73     0.83 
A13        72.40   77.40   60.03          90.50   -4.61    3.76           5.95  140.86           0.14    0.10    0.15    0.11            0.43    0.41    0.31           0.22     0.27
A14        75.92   78.18   59.45          90.86    1.09    4.96           5.08   77.60           0.08    0.11    0.15    0.10            0.30    0.41    0.32           0.28     0.34 
A15        78.03   81.36   60.72          92.29   -0.82    6.15           6.20   97.59           0.08    0.09    0.14    0.09            0.27    0.31    0.24           0.18     0.20
A16        67.84   70.58   57.41          87.28   -0.47    0.86           0.99  118.54           0.15    0.15    0.17    0.15            0.48    0.56    0.34           0.34     0.40
A17        77.70   80.91   60.34          92.09   -0.62    6.18           6.21   95.71           0.08    0.09    0.15    0.09            0.28    0.33    0.25           0.19     0.21
A18        74.75   78.95   58.83          91.21   -2.81    6.18           6.79  114.46           0.11    0.10    0.16    0.10            0.44    0.44    0.42           0.26     0.29 
A19        64.20   68.40   57.04          86.20   -3.93   -0.63           3.98  189.07           0.19    0.16    0.17    0.17            0.48    0.54    0.30           0.32     0.38
A20         6.27    2.97    1.91          19.94   46.14    4.98          46.41    6.16           0.80    2.59    1.64    1.38            0.06    0.03    0.07           0.45     0.53 
A21        26.36   18.38   14.98          49.95   40.24    0.48          40.25   45.69           0.32    1.01    0.76    0.67            0.27    0.21    0.33           0.48     0.58
A22        54.12   49.50   32.90          75.76   16.92   11.01          20.19   33.04           0.14    0.38    0.43    0.28            0.43    0.52    0.66           0.68     0.74
B1          3.28    2.89    1.65          19.62    8.53    7.08          11.08   39.71           1.30    1.67    1.85    1.51            0.05    0.06    0.05           0.35     0.38
B2          3.88    2.98    1.12          19.96   16.36   14.25          21.69   41.06           1.16    1.75    2.06    1.47            0.05    0.05    0.03           0.35     0.40
B3          4.44    2.90    0.63          19.63   25.58   22.01          33.74   40.71           1.04    1.91    2.36    1.45            0.03    0.04    0.02           0.28     0.33
B4          5.23    2.92    0.19          19.71   35.35   30.37          46.61   40.67           0.92    2.15    3.05    1.41            0.03    0.03    0.01           0.23     0.27
B5         12.47   11.08    6.40          39.72   12.70   10.78          16.66   40.33           0.74    1.06    1.21    0.93            0.21    0.20    0.14           0.57     0.66
B6         14.46   11.12    4.25          39.78   25.23   21.75          33.31   40.76           0.60    1.16    1.41    0.90            0.24    0.19    0.12           0.56     0.63
B7         16.57   11.03    2.62          39.62   38.23   32.59          50.24   40.45           0.48    1.30    1.66    0.87            0.15    0.11    0.07           0.46     0.57
B8         19.89   11.13    1.26          39.79   54.96   46.58          72.05   40.28           0.34    1.54    2.03    0.83            0.15    0.10    0.03           0.30     0.33
B9         34.83   34.73   26.22          65.54    4.63    4.12           6.21   41.55           0.39    0.49    0.54    0.45            0.77    0.78    0.84           0.67     0.80
B10        36.27   34.35   22.90          65.24   10.78    9.63          14.45   41.73           0.33    0.52    0.60    0.45            0.67    0.65    0.68           0.68     0.81
B11        38.29   34.76   20.69          65.56   15.95   14.52          21.57   42.30           0.27    0.54    0.65    0.43            0.62    0.59    0.56           0.63     0.74
B12        42.03   34.73   16.62          65.53   27.68   23.35          36.22   40.14           0.17    0.60    0.76    0.42            0.35    0.38    0.49           0.68     0.79
B13        61.23   68.33   56.81          86.17  -10.63   -0.44          10.64  182.34           0.25    0.14    0.18    0.18            0.49    0.51    0.40           0.33     0.37
B14        66.05   64.29   53.96          84.11    9.23   -0.98           9.29  353.96           0.11    0.22    0.19    0.18            0.51    0.65    0.39           0.43     0.52
B15        71.79   75.32   49.13          89.54   -1.75   13.72          13.84   97.27           0.11    0.12    0.25    0.12            0.49    0.51    0.82           0.55     0.65
B16        53.97   56.10   46.45          79.67   -0.32   -0.18           0.46  200.34           0.24    0.25    0.27    0.25            0.56    0.62    0.67           0.47     0.52
B17        63.58   61.78   46.90          82.79    9.37    4.68          10.47   26.51           0.12    0.25    0.26    0.20            0.49    0.59    0.68           0.43     0.51
B18        59.45   66.95   48.88          85.48  -11.85    7.00          13.77  149.47           0.25    0.14    0.25    0.18            0.49    0.50    0.73           0.49     0.58
B19        55.94   58.35   52.99          80.93   -0.79   -5.42           5.49  261.63           0.24    0.23    0.20    0.24            0.52    0.62    0.34           0.44     0.53
B20         4.86    2.95    1.06          19.83   30.26   14.96          33.75   26.30           0.98    2.01    2.03    1.43            0.05    0.03    0.03           0.41     0.48
B21        16.70   11.13    4.26          39.79   38.23   21.74          43.98   29.62           0.48    1.29    1.39    0.87            0.27    0.18    0.13           0.49     0.56
B22        33.52   28.39   17.63          60.24   22.95   11.89          25.85   27.39           0.30    0.67    0.72    0.51            0.31    0.29    0.30           0.44     0.51
C1          6.38    6.23    3.46          29.97    4.05    9.79          10.60   67.55           1.07    1.27    1.52    1.19            0.08    0.10    0.07           0.44     0.48
C2          6.74    6.26    2.21          30.05    7.52   19.59          20.98   69.01           1.01    1.29    1.77    1.18            0.08    0.10    0.07           0.43     0.50
C3          7.15    6.11    1.12          29.68   13.19   31.10          33.79   67.02           0.94    1.34    2.19    1.17            0.07    0.09    0.03           0.42     0.47
C4          7.76    6.15    0.43          29.79   18.50   43.18          46.98   66.80           0.89    1.38    2.90    1.15            0.08    0.09    0.01           0.43     0.51
C5         23.58   22.74   11.68          54.80    7.46   17.86          19.36   67.32           0.51    0.70    0.94    0.62            0.38    0.36    0.27           0.62     0.69
C6         25.72   23.03    6.52          55.10   15.38   36.78          39.87   67.31           0.41    0.73    1.26    0.60            0.39    0.37    0.19           0.57     0.63
C7         27.72   23.04    3.28          55.12   23.45   54.35          59.20   66.66           0.35    0.78    1.68    0.59            0.25    0.23    0.07           0.47     0.57
C8         30.90   23.38    0.83          55.47   34.11   80.00          86.97   66.91           0.27    0.84    2.81    0.56            0.31    0.28    0.02           0.42     0.50
C9         40.73   41.15   29.11          70.28    3.26    7.45           8.13   66.34           0.32    0.41    0.49    0.38            0.83    0.87    0.89           0.68     0.82
C10        41.81   41.48   24.44          70.51    5.56   15.85          16.80   70.68           0.29    0.42    0.58    0.37            0.74    0.77    0.72           0.68     0.82
C11        43.07   41.37   20.33          70.43    9.66   23.65          25.54   67.78           0.25    0.43    0.68    0.36            0.66    0.68    0.55           0.65     0.76
C12        46.89   41.64   10.94          70.62   19.83   47.37          51.35   67.28           0.15    0.48    1.02    0.34            0.36    0.44    0.26           0.53     0.65
C13        54.23   63.17   55.83          83.53  -16.30   -3.97          16.78  193.68           0.35    0.15    0.18    0.22            0.49    0.54    0.40           0.32     0.37
C14        60.09   55.53   50.93          79.35   16.10   -5.89          17.15  339.93           0.13    0.31    0.21    0.24            0.45    0.57    0.36           0.44     0.52
C15        69.69   73.69   38.48          88.78   -2.93   25.57          25.74   96.53           0.11    0.13    0.38    0.13            0.46    0.49    0.81           0.67     0.79
C16        41.58   43.21   35.68          71.70   -0.26   -0.03           0.51  172.53           0.35    0.37    0.39    0.37            0.47    0.49    0.65           0.58     0.66
C17        55.48   51.23   36.08          76.82   15.80    8.24          17.83   27.52           0.14    0.36    0.38    0.27            0.39    0.43    0.75           0.57     0.70
C18        50.85   60.68   38.94          82.20  -19.33   13.62          23.65  144.86           0.35    0.17    0.37    0.23            0.42    0.43    0.83           0.73     0.87
C19        45.63   47.37   49.63          74.42   -0.12  -12.92          12.92  269.45           0.35    0.32    0.22    0.33            0.42    0.53    0.38           0.45     0.50
C20        12.20    8.89    1.13          35.78   27.82   41.45          49.92   56.13           0.65    1.30    2.19    0.98            0.12    0.12    0.03           0.46     0.56
C21        22.10   20.55   11.49          52.46   10.93   14.37          18.05   52.73           0.52    0.76    0.94    0.66            0.28    0.28    0.29           0.56     0.63
C22        27.32   22.99   10.94          55.06   22.11   20.55          30.18   42.91           0.37    0.77    0.96    0.60            0.27    0.25    0.21           0.49     0.55
D1          4.11    4.34    2.41          24.77   -1.08    8.74           8.81   97.03           1.30    1.39    1.70    1.36            0.06    0.08    0.05           0.44     0.47
D2          4.11    4.38    1.58          24.90   -1.62   16.96          17.04   95.47           1.29    1.37    1.96    1.35            0.05    0.07    0.03           0.40     0.45
D3          4.05    4.29    0.90          24.61   -1.19   25.65          25.68   92.65           1.29    1.38    2.33    1.35            0.05    0.07    0.02           0.41     0.47
D4          4.12    4.35    0.48          24.81   -1.13   33.78          33.80   91.91           1.30    1.36    2.85    1.34            0.06    0.08    0.01           0.35     0.41
D5         17.54   18.45    9.21          50.03   -1.32   17.56          17.61   94.30           0.68    0.75    1.06    0.73            0.29    0.31    0.21           0.56     0.62
D6         17.43   18.43    5.19          50.02   -1.87   34.31          34.37   93.12           0.67    0.74    1.40    0.72            0.17    0.19    0.12           0.43     0.48
D7         17.41   18.57    2.56          50.18   -2.64   51.24          51.31   92.95           0.68    0.73    1.89    0.71            0.15    0.16    0.05           0.39     0.46
D8         17.66   18.81    1.02          50.47   -2.56   68.39          68.44   92.15           0.70    0.72    2.75    0.70            0.20    0.23    0.02           0.45     0.52
D9         46.68   48.78   25.38          75.31   -0.97   22.44          22.46   92.49           0.27    0.32    0.58    0.30            0.82    0.90    0.79           0.72     0.84
D10        46.14   48.66   14.16          75.24   -2.19   46.17          46.23   92.71           0.26    0.32    0.90    0.30            0.68    0.77    0.36           0.61     0.72
D11        46.38   49.24    7.13          75.60   -3.06   69.52          69.59   92.52           0.25    0.31    1.35    0.29            0.51    0.57    0.17           0.56     0.64
D12        45.37   48.53    1.98          75.15   -4.03   99.49          99.57   92.32           0.30    0.32    2.51    0.29            0.38    0.38    0.03           0.41     0.46
D13        48.39   58.79   54.92          81.18  -21.52   -7.07          22.65  198.19           0.45    0.17    0.19    0.26            0.42    0.45    0.37           0.30     0.34
D14        54.68   47.92   47.96          74.77   22.58  -10.39          24.86  335.29           0.15    0.41    0.23    0.30            0.40    0.48    0.32           0.42     0.51
D15        68.23   72.44   30.33          88.18   -3.51   36.36          36.53   95.51           0.11    0.14    0.51    0.13            0.44    0.49    0.59           0.64     0.72
D16        31.23   32.65   26.96          63.88   -0.94   -0.03           1.08  179.32           0.48    0.49    0.52    0.49            0.37    0.39    0.52           0.61     0.69
D17        48.59   42.54   27.26          71.24   21.82   12.18          24.99   29.14           0.16    0.47    0.51    0.34            0.32    0.34    0.64           0.61     0.76
D18        43.58   55.04   30.95          79.07  -26.05   19.68          32.66  142.94           0.45    0.19    0.49    0.28            0.49    0.57    0.66           0.70     0.87
D19        36.66   38.00   46.44          68.02    0.06  -20.26          20.26  270.17           0.47    0.42    0.25    0.43            0.30    0.37    0.32           0.39     0.44
D20         3.00    2.95    1.15          19.86    2.63   13.68          13.93   79.13           1.38    1.59    2.09    1.51            0.03    0.04    0.03           0.33     0.38
D21        31.35   28.76    1.55          60.56   13.80   78.86          80.05   80.08           0.36    0.62    2.40    0.50            0.29    0.28    0.03           0.54     0.63
D22        41.07   44.37   49.09          72.47   -5.15  -15.66          16.49  251.81           0.43    0.33    0.23    0.37            0.27    0.35    0.27           0.37     0.42
E1          5.54    6.32    3.51          30.20   -6.15    9.84          11.61  122.02           1.22    1.19    1.53    1.21            0.07    0.10    0.07           0.41     0.45
E2          4.87    5.96    2.24          29.30  -10.43   18.03          20.83  120.04           1.30    1.18    1.80    1.23            0.06    0.08    0.04           0.33     0.38
E3          4.62    6.17    1.28          29.83  -16.01   29.09          33.21  118.82           1.39    1.12    2.21    1.22            0.09    0.12    0.04           0.41     0.49
E4          4.07    6.10    0.70          29.65  -22.67   37.88          44.14  120.90           1.57    1.08    2.76    1.24            0.07    0.10    0.01           0.38     0.43
E5         24.97   28.38   15.37          60.22   -9.85   17.22          19.84  119.79           0.59    0.52    0.82    0.55            0.44    0.49    0.35           0.62     0.72
E6         22.73   28.20    9.63          60.07  -19.02   33.43          38.46  119.64           0.67    0.49    1.10    0.56            0.18    0.23    0.23           0.51     0.60
E7         20.76   28.35    5.57          60.21  -28.83   49.98          57.70  119.98           0.78    0.45    1.47    0.56            0.10    0.14    0.10           0.36     0.46
E8         18.00   28.02    1.94          59.91  -41.41   73.61          84.46  119.36           1.03    0.41    2.45    0.57            0.09    0.11    0.03           0.26     0.29
E9         45.11   48.96   33.08          75.42   -5.91   10.17          11.77  120.21           0.33    0.30    0.44    0.31            0.78    0.86    0.85           0.66     0.75
E10        42.78   48.90   26.18          75.38  -12.55   21.16          24.61  120.69           0.37    0.28    0.57    0.32            0.75    0.86    0.73           0.69     0.78
E11        41.09   49.09   20.53          75.51  -18.18   31.98          36.79  119.62           0.41    0.26    0.71    0.31            0.65    0.77    0.60           0.69     0.78
E12        37.52   49.25   12.00          75.60  -29.82   52.78          60.62  119.47           0.51    0.23    1.04    0.32            0.36    0.40    0.24           0.46     0.52
E13        44.04   55.44   54.26          79.29  -25.69   -9.62          27.43  200.53           0.53    0.18    0.20    0.29            0.35    0.38    0.36           0.28     0.32
E14        49.34   40.72   44.90          69.98   29.32  -15.04          32.95  332.85           0.16    0.51    0.25    0.37            0.32    0.37    0.29           0.36     0.44
E15        67.16   71.37   23.89          87.66   -3.61   46.43          46.57   94.45           0.10    0.15    0.64    0.13            0.39    0.44    0.45           0.58     0.68
E16        23.02   23.93   20.07          56.02   -0.23   -0.66           0.78  221.87           0.60    0.63    0.66    0.62            0.28    0.29    0.45           0.62     0.69
E17        41.91   34.36   19.96          65.25   28.55   15.47          32.48   28.44           0.18    0.61    0.66    0.42            0.23    0.24    0.44           0.57     0.71
E18        38.22   50.78   24.83          76.54  -31.62   25.54          40.65  141.08           0.54    0.21    0.61    0.32            0.32    0.34    0.56           0.67     0.84
E19        29.35   29.98   43.24          61.64    1.69  -27.37          27.43  273.52           0.58    0.52    0.28    0.54            0.26    0.32    0.28           0.39     0.45
E20         7.14    8.51    1.50          35.02   -9.95   35.35          36.73  105.73           1.13    1.02    2.14    1.07            0.05    0.09    0.04           0.42     0.48
E21        24.79   29.56    6.57          61.27  -15.13   47.18          49.55  107.78           0.60    0.49    1.34    0.53            0.30    0.36    0.11           0.64     0.72
E22         8.80   18.48   14.00          50.07  -59.69    3.19          59.77  176.94           1.86    0.52    0.89    0.81            0.09    0.13    0.21           0.42     0.48
F1          3.62    4.44    3.32          25.07   -9.58    2.27           9.84  166.64           1.46    1.32    1.53    1.38            0.07    0.09    0.06           0.36     0.41
F2          2.90    4.31    2.64          24.68  -19.80    6.67          20.90  161.39           1.68    1.26    1.69    1.41            0.06    0.08    0.05           0.31     0.35
F3          2.39    4.23    2.24          24.41  -28.32    9.55          29.89  161.35           1.91    1.22    1.80    1.43            0.05    0.08    0.05           0.31     0.35
F4          1.58    4.24    1.61          24.45  -47.41   15.88          50.01  161.48           2.70    1.12    2.09    1.46            0.04    0.08    0.05           0.36     0.40
F5         11.57   14.53   10.37          44.98  -16.21    4.98          16.96  162.93           1.01    0.78    1.00    0.86            0.15    0.20    0.21           0.43     0.49
F6          9.18   14.14    8.44          44.44  -32.25   10.66          33.96  161.71           1.27    0.72    1.13    0.89            0.10    0.14    0.16           0.45     0.51
F7          7.33   14.24    7.19          44.58  -49.34   15.79          51.81  162.25           1.65    0.66    1.25    0.91            0.08    0.12    0.16           0.39     0.49
F8          5.83   14.83    5.81          45.40  -68.45   23.29          72.31  161.21           2.25    0.57    1.43    0.91            0.05    0.08    0.09           0.39     0.44
F9         30.14   34.60   26.78          65.43  -11.68    2.98          12.06  165.70           0.55    0.43    0.53    0.47            0.55    0.63    0.65           0.63     0.72
F10        26.82   34.35   23.84          65.24  -23.78    7.86          25.05  161.72           0.68    0.39    0.60    0.49            0.47    0.59    0.66           0.69     0.78
F11        24.15   34.40   22.23          65.28  -35.14   10.98          36.82  162.65           0.82    0.35    0.65    0.50            0.38    0.52    0.57           0.60     0.69
F12        20.18   34.43   18.96          65.30  -53.58   17.69          56.43  161.73           1.11    0.30    0.75    0.51            0.22    0.28    0.42           0.69     0.80
F13        39.99   52.19   53.65          77.40  -29.70  -12.23          32.12  202.38           0.63    0.19    0.20    0.32            0.33    0.36    0.32           0.29     0.33
F14        44.15   34.05   41.75          65.00   36.23  -19.70          41.24  331.46           0.19    0.63    0.28    0.44            0.27    0.30    0.26           0.34     0.43
F15        66.24   70.27   18.41          87.13   -3.34   56.53          56.63   93.38           0.10    0.16    0.79    0.14            0.39    0.47    0.44           0.60     0.72
F16        15.85   16.43   13.92          47.53    0.02   -0.96           1.02  275.54           0.75    0.80    0.83    0.79            0.18    0.20    0.35           0.61     0.68
F17        35.49   26.84   13.73          58.83   35.77   19.03          40.52   28.01           0.21    0.78    0.83    0.52            0.19    0.21    0.33           0.58     0.72
