targets/wolf_faust/transmissive/E110220.it8
IT8.7/1
ORIGINATOR "Wolf Faust"
DESCRIPTOR "Ektachrome, Type 3, L* a* b* (light D50, viewing angle 2)"
MANUFACTURER "Wolf Faust - http://www.coloraid.de"
CREATED "March 15, 2011"
PROD_DATE "2010:12"
DIFFUSE_GEOMETRY "opal"
SERIAL "E110220 Batch Average Data"
MATERIAL "For Kodak Ektachrome Product Family"
KEYWORD "MEAN_DE" # Mean Delta E of samples compared to batch average
NUMBER_OF_FIELDS 18
BEGIN_DATA_FORMAT
SAMPLE_ID  XYZ_X   XYZ_Y   XYZ_Z          LAB_L   LAB_A   LAB_B          LAB_C   LAB_H          D_RED  D_GREEN  D_BLUE  D_VIS          STDEV_X STDEV_Y STDEV_Z        MEAN_DE  STDEV_DE
END_DATA_FORMAT
NUMBER_OF_SETS 288
BEGIN_DATA
A1          2.26    1.92    1.38          15.09    9.01    2.48           9.35   15.36           1.45    1.87    1.91    1.69            0.02    0.03    0.04           0.31     0.35
A2          2.71    1.87    1.05          14.79   19.29    6.32          20.30   18.13           1.28    2.06    2.03    1.66            0.02    0.02    0.03           0.29     0.34 
A3          3.28    1.87    0.88          14.80   29.18    9.11          30.57   17.34           1.13    2.31    2.08    1.62            0.02    0.01    0.01           0.34     0.38
A4          4.17    1.88    0.70          14.86   42.52   12.48          44.32   16.35           0.95    3.09    2.10    1.56            0.04    0.02    0.01           0.35     0.38 
A5          9.77    8.42    5.97          34.84   13.93    4.33          14.60   17.25           0.84    1.20    1.22    1.05            0.14    0.12    0.09           0.52     0.57
A6         11.63    8.36    5.02          34.72   28.42    8.80          29.75   17.20           0.67    1.34    1.29    1.02            0.11    0.06    0.05           0.43     0.47 
A7         13.94    8.45    4.39          34.91   43.00   12.55          44.80   16.26           0.53    1.53    1.33    0.98            0.10    0.05    0.07           0.37     0.41
A8         16.61    8.50    3.53          35.01   58.36   17.97          61.06   17.11           0.39    1.86    1.40    0.94            0.11    0.07    0.05           0.25     0.28 
A9         29.37   28.71   22.11          60.53    6.56    3.00           7.22   24.55           0.45    0.58    0.61    0.53            0.23    0.22    0.23           0.47     0.52
A10        31.41   28.66   20.85          60.48   14.36    5.42          15.36   20.67           0.37    0.62    0.64    0.52            0.27    0.21    0.24           0.46     0.52
A11        33.58   28.57   19.61          60.39   22.48    7.84          23.81   19.23           0.30    0.66    0.66    0.51            0.49    0.41    0.27           0.43     0.49
A12        37.32   28.65   18.22          60.47   34.75   10.96          36.44   17.51           0.20    0.73    0.69    0.49            0.16    0.14    0.24           0.35     0.42 
A13        72.53   77.55   59.35          90.57   -4.63    4.56           6.50  135.47           0.13    0.10    0.16    0.11            0.37    0.33    0.30           0.29     0.32
A14        75.86   78.23   58.75          90.89    0.87    5.70           5.77   81.32           0.08    0.11    0.16    0.10            0.27    0.31    0.32           0.27     0.31 
A15        77.99   81.39   60.06          92.30   -0.97    6.83           6.90   98.08           0.08    0.09    0.15    0.09            0.26    0.29    0.30           0.21     0.24
A16        67.73   70.57   56.68          87.28   -0.69    1.60           1.75  113.42           0.15    0.15    0.17    0.15            0.50    0.54    0.32           0.40     0.46
A17        77.70   80.98   59.69          92.12   -0.77    6.89           6.93   96.37           0.08    0.09    0.15    0.09            0.24    0.27    0.26           0.22     0.25
A18        74.77   79.06   57.94          91.26   -2.98    7.18           7.77  112.53           0.11    0.10    0.17    0.10            0.32    0.30    0.29           0.23     0.25 
A19        64.20   68.57   56.45          86.29   -4.29    0.13           4.31  178.21           0.19    0.15    0.18    0.17            0.40    0.42    0.22           0.41     0.47
A20         6.13    2.91    1.75          19.68   45.77    6.15          46.18    7.65           0.81    2.60    1.68    1.39            0.05    0.02    0.03           0.26     0.31 
A21        25.98   18.16   14.13          49.69   39.81    2.19          39.87    3.15           0.33    1.01    0.79    0.68            0.18    0.13    0.20           0.44     0.48
A22        53.87   49.39   31.60          75.69   16.58   12.85          20.98   37.77           0.14    0.38    0.45    0.28            0.30    0.35    0.51           0.53     0.59
B1          3.31    2.93    1.62          19.76    8.30    7.76          11.36   43.07           1.30    1.66    1.87    1.51            0.02    0.02    0.03           0.26     0.28
B2          3.89    3.00    1.09          20.05   16.12   14.86          21.93   42.65           1.16    1.74    2.08    1.47            0.02    0.03    0.03           0.34     0.41
B3          4.44    2.90    0.61          19.64   25.53   22.39          33.95   41.25           1.04    1.91    2.38    1.45            0.04    0.03    0.02           0.36     0.42
B4          5.21    2.90    0.18          19.65   35.38   30.46          46.68   40.73           0.92    2.15    3.08    1.41            0.05    0.03    0.01           0.28     0.31
B5         12.63   11.26    6.26          40.02   12.48   11.94          17.27   43.74           0.73    1.05    1.22    0.92            0.15    0.11    0.06           0.48     0.53
B6         14.58   11.23    4.10          39.96   25.19   22.94          34.07   42.32           0.59    1.15    1.44    0.89            0.16    0.11    0.05           0.42     0.46
B7         16.61   11.06    2.54          39.69   38.14   33.31          50.64   41.14           0.48    1.29    1.68    0.87            0.16    0.10    0.04           0.41     0.46
B8         19.92   11.13    1.19          39.80   55.03   47.52          72.71   40.81           0.33    1.54    2.07    0.83            0.10    0.08    0.03           0.30     0.35
B9         35.28   35.33   25.66          66.01    4.13    5.89           7.20   54.87           0.38    0.48    0.55    0.45            0.29    0.27    0.29           0.50     0.55
B10        36.60   34.83   22.46          65.62   10.24   11.10          15.10   47.29           0.32    0.51    0.61    0.44            0.29    0.26    0.27           0.52     0.59
B11        38.58   35.18   20.22          65.89   15.48   16.04          22.29   46.03           0.27    0.53    0.67    0.43            0.38    0.34    0.24           0.36     0.41
B12        42.26   35.07   16.24          65.80   27.19   24.70          36.73   42.26           0.17    0.59    0.77    0.41            0.18    0.19    0.22           0.35     0.41
B13        61.26   68.47   56.02          86.24  -10.87    0.50          10.89  177.36           0.25    0.14    0.18    0.18            0.47    0.45    0.27           0.34     0.38
B14        66.20   64.63   53.36          84.29    8.78   -0.02           8.78  179.88           0.11    0.22    0.20    0.18            0.27    0.33    0.24           0.29     0.34
B15        72.05   75.70   48.56          89.72   -1.96   14.68          14.81   97.58           0.10    0.12    0.26    0.12            0.31    0.30    0.36           0.26     0.31
B16        53.91   56.22   45.65          79.74   -0.76    0.88           1.20  130.57           0.24    0.25    0.28    0.25            0.50    0.48    0.46           0.39     0.43
B17        63.52   61.88   45.94          82.85    8.98    5.91          10.75   33.34           0.12    0.24    0.27    0.20            0.34    0.38    0.53           0.36     0.40
B18        59.44   67.09   47.85          85.55  -12.19    8.31          14.76  145.72           0.25    0.14    0.27    0.18            0.44    0.39    0.56           0.45     0.49
B19        55.88   58.46   52.36          80.99   -1.21   -4.63           4.79  255.35           0.24    0.23    0.21    0.24            0.47    0.48    0.21           0.46     0.52
B20         4.73    2.87    0.97          19.52   29.98   15.77          33.87   27.74           0.99    2.02    2.07    1.44            0.04    0.02    0.02           0.34     0.39
B21        16.52   11.01    3.96          39.60   38.08   23.18          44.58   31.32           0.48    1.29    1.43    0.88            0.15    0.10    0.07           0.34     0.37
B22        33.22   28.22   16.83          60.09   22.56   13.45          26.27   30.80           0.30    0.67    0.74    0.51            0.23    0.22    0.26           0.45     0.49
C1          6.45    6.33    3.36          30.23    3.70   10.93          11.54   71.28           1.06    1.26    1.54    1.18            0.05    0.05    0.05           0.31     0.35
C2          6.81    6.35    2.17          30.27    7.20   20.35          21.59   70.50           1.00    1.28    1.79    1.17            0.05    0.06    0.04           0.44     0.50
C3          7.19    6.16    1.09          29.80   13.03   31.71          34.28   67.66           0.94    1.34    2.21    1.16            0.06    0.06    0.03           0.49     0.55
C4          7.75    6.15    0.42          29.78   18.47   43.50          47.26   67.00           0.89    1.38    2.94    1.15            0.07    0.06    0.01           0.37     0.42
C5         24.00   23.26   11.51          55.34    7.03   19.29          20.53   69.99           0.50    0.68    0.95    0.61            0.24    0.22    0.12           0.44     0.50
C6         26.12   23.44    6.30          55.52   15.21   38.48          41.38   68.43           0.41    0.72    1.29    0.59            0.28    0.24    0.06           0.41     0.45
C7         28.02   23.35    3.20          55.43   23.28   55.46          60.15   67.23           0.34    0.77    1.70    0.58            0.27    0.22    0.04           0.46     0.49
C8         31.11   23.59    0.81          55.67   34.01   80.69          87.57   67.15           0.27    0.84    2.85    0.56            0.26    0.21    0.01           0.36     0.41
C9         41.25   41.87   28.52          70.78    2.72    9.26           9.65   73.65           0.32    0.40    0.50    0.37            0.35    0.35    0.36           0.50     0.58
C10        42.26   42.09   24.10          70.93    5.09   17.19          17.93   73.51           0.28    0.41    0.59    0.36            0.35    0.34    0.27           0.44     0.48
C11        43.36   41.77   19.90          70.71    9.31   25.01          26.69   69.59           0.24    0.43    0.69    0.36            0.34    0.31    0.21           0.36     0.40
C12        47.21   42.02   10.60          70.89   19.56   48.90          52.67   68.19           0.15    0.47    1.04    0.34            0.21    0.26    0.15           0.29     0.33
C13        54.37   63.47   55.08          83.69  -16.60   -2.91          16.86  189.93           0.35    0.15    0.19    0.22            0.44    0.43    0.29           0.34     0.38
C14        60.15   55.78   50.31          79.49   15.62   -4.95          16.39  342.44           0.13    0.31    0.22    0.24            0.25    0.29    0.29           0.30     0.34
C15        69.95   74.06   38.03          88.95   -3.09   26.47          26.65   96.66           0.10    0.13    0.39    0.12            0.31    0.29    0.38           0.37     0.41
C16        41.47   43.27   34.96          71.74   -0.77    1.07           1.35  126.21           0.35    0.37    0.40    0.37            0.49    0.46    0.43           0.43     0.48
C17        55.40   51.29   35.11          76.85   15.45    9.67          18.23   32.02           0.14    0.35    0.40    0.27            0.33    0.37    0.54           0.43     0.49
C18        50.76   60.73   37.82          82.23  -19.69   15.17          24.86  142.39           0.35    0.17    0.39    0.23            0.43    0.41    0.60           0.58     0.65
C19        45.28   47.16   48.89          74.29   -0.55  -12.31          12.32  267.45           0.35    0.33    0.23    0.34            0.51    0.52    0.25           0.48     0.56
C20        11.94    8.72    1.06          35.45   27.45   41.84          50.04   56.73           0.66    1.30    2.23    0.99            0.11    0.07    0.02           0.50     0.56
C21        21.68   20.23   10.69          52.10   10.52   16.22          19.34   57.05           0.52    0.77    0.98    0.67            0.30    0.28    0.17           0.44     0.50
C22        27.01   22.79   10.37          54.86   21.75   21.98          30.92   45.31           0.37    0.77    0.99    0.60            0.16    0.14    0.09           0.36     0.40
D1          4.14    4.40    2.34          24.94   -1.37    9.59           9.69   98.10           1.29    1.38    1.72    1.35            0.03    0.04    0.05           0.26     0.32
D2          4.13    4.42    1.52          25.01   -1.76   17.91          18.00   95.61           1.29    1.37    1.99    1.35            0.03    0.05    0.03           0.32     0.35
D3          4.08    4.34    0.89          24.76   -1.42   26.13          26.17   93.11           1.29    1.37    2.35    1.35            0.03    0.05    0.02           0.36     0.44
D4          4.14    4.39    0.46          24.93   -1.27   34.28          34.30   92.13           1.30    1.36    2.88    1.34            0.02    0.03    0.01           0.23     0.28
D5         17.82   18.83    9.04          50.49   -1.80   18.94          19.03   95.44           0.67    0.74    1.08    0.72            0.19    0.18    0.15           0.43     0.49
D6         17.68   18.74    5.05          50.38   -2.07   35.63          35.69   93.32           0.67    0.74    1.42    0.71            0.19    0.19    0.06           0.32     0.37
D7         17.57   18.76    2.48          50.40   -2.75   52.28          52.35   93.01           0.68    0.73    1.91    0.71            0.17    0.16    0.02           0.46     0.50
D8         17.76   18.92    0.99          50.60   -2.57   69.05          69.10   92.13           0.70    0.72    2.78    0.70            0.18    0.17    0.02           0.41     0.45
D9         47.06   49.33   24.86          75.66   -1.40   23.95          23.99   93.34           0.26    0.31    0.59    0.30            0.37    0.39    0.32           0.44     0.48
D10        46.65   49.27   13.83          75.62   -2.40   47.69          47.75   92.88           0.25    0.31    0.92    0.29            0.30    0.33    0.14           0.37     0.43
D11        46.61   49.42    6.86          75.71   -2.93   70.82          70.89   92.37           0.25    0.31    1.37    0.29            0.31    0.32    0.07           0.37     0.41
D12        45.57   48.57    1.91          75.19   -3.56  100.24         100.31   92.04           0.30    0.32    2.55    0.29            0.32    0.25    0.02           0.40     0.45
D13        48.52   59.08   54.19          81.34  -21.87   -6.02          22.68  195.38           0.44    0.16    0.20    0.25            0.39    0.38    0.27           0.33     0.37
D14        54.91   48.37   47.56          75.06   21.97   -9.45          23.91  336.73           0.14    0.40    0.24    0.30            0.17    0.21    0.19           0.23     0.28
D15        68.46   72.75   29.81          88.33   -3.63   37.44          37.62   95.54           0.10    0.14    0.52    0.13            0.28    0.27    0.33           0.37     0.42
D16        31.14   32.71   26.34          63.93   -1.47    1.12           1.88  142.52           0.48    0.49    0.53    0.49            0.39    0.35    0.31           0.49     0.56
D17        48.49   42.54   26.45          71.24   21.55   13.56          25.46   32.17           0.16    0.47    0.53    0.34            0.22    0.23    0.37           0.37     0.44
D18        43.58   55.21   29.99          79.16  -26.48   21.35          34.01  141.13           0.45    0.19    0.51    0.28            0.35    0.34    0.45           0.48     0.55
D19        36.28   37.76   45.69          67.84   -0.43  -19.68          19.69  268.75           0.47    0.42    0.26    0.44            0.40    0.41    0.20           0.47     0.54
D20         2.90    2.86    1.06          19.46    2.60   14.32          14.56   79.69           1.40    1.60    2.14    1.53            0.02    0.03    0.02           0.37     0.42
D21        30.99   28.39    1.46          60.24   13.85   79.29          80.49   80.09           0.36    0.63    2.45    0.50            0.23    0.19    0.02           0.41     0.49
D22        40.37   43.75   48.20          72.06   -5.52  -15.35          16.31  250.23           0.44    0.34    0.24    0.38            0.34    0.39    0.21           0.43     0.49
E1          5.56    6.37    3.41          30.33   -6.50   10.75          12.56  121.15           1.21    1.18    1.55    1.20            0.04    0.06    0.06           0.30     0.33
E2          4.94    6.07    2.20          29.60  -10.86   18.88          21.78  119.91           1.30    1.17    1.82    1.23            0.05    0.07    0.05           0.32     0.37
E3          4.68    6.27    1.27          30.09  -16.36   29.73          33.94  118.82           1.39    1.11    2.22    1.22            0.04    0.06    0.03           0.35     0.39
E4          4.09    6.15    0.69          29.78  -22.89   38.36          44.67  120.82           1.57    1.08    2.78    1.23            0.03    0.05    0.01           0.26     0.30
E5         25.36   28.94   15.10          60.73  -10.37   18.76          21.44  118.95           0.58    0.51    0.83    0.54            0.30    0.32    0.25           0.49     0.55
E6         22.86   28.42    9.37          60.27  -19.29   34.65          39.66  119.10           0.67    0.49    1.12    0.55            0.18    0.21    0.11           0.45     0.50
E7         20.81   28.42    5.38          60.26  -28.79   50.99          58.56  119.45           0.78    0.45    1.49    0.56            0.15    0.18    0.02           0.31     0.35
E8         18.14   28.10    1.87          59.98  -41.01   74.37          84.93  118.87           1.03    0.41    2.48    0.57            0.08    0.05    0.02           0.23     0.28
E9         45.50   49.52   32.32          75.77   -6.33   11.91          13.49  118.00           0.32    0.29    0.45    0.31            0.39    0.40    0.39           0.48     0.52
E10        43.07   49.33   25.52          75.65  -12.84   22.78          26.15  119.42           0.37    0.28    0.58    0.31            0.26    0.26    0.33           0.48     0.54
E11        41.34   49.43   19.81          75.72  -18.31   33.84          38.48  118.42           0.40    0.26    0.73    0.31            0.35    0.37    0.16           0.43     0.50
E12        37.66   49.35   11.52          75.67  -29.62   54.30          61.85  118.61           0.50    0.23    1.06    0.32            0.41    0.46    0.15           0.37     0.43
E13        44.08   55.66   53.57          79.42  -26.11   -8.66          27.51  198.36           0.53    0.18    0.21    0.29            0.38    0.39    0.34           0.32     0.35
E14        49.48   41.04   44.50          70.20   28.75  -14.17          32.05  333.76           0.16    0.51    0.26    0.36            0.16    0.18    0.19           0.23     0.28
E15        67.35   71.60   23.43          87.78   -3.69   47.48          47.62   94.44           0.10    0.15    0.65    0.13            0.22    0.21    0.21           0.29     0.33
E16        22.84   23.88   19.29          55.96   -0.85    0.88           1.27  133.86           0.60    0.63    0.68    0.62            0.32    0.28    0.19           0.45     0.53
E17        41.78   34.29   19.26          65.19   28.39   16.83          33.01   30.66           0.18    0.61    0.68    0.42            0.11    0.13    0.17           0.28     0.33
E18        38.09   50.75   23.94          76.52  -31.93   27.12          41.90  139.66           0.54    0.21    0.63    0.32            0.28    0.28    0.31           0.41     0.46
E19        28.98   29.77   42.54          61.45    1.07  -26.82          26.84  272.28           0.59    0.53    0.29    0.55            0.34    0.34    0.17           0.47     0.55
E20         7.03    8.39    1.41          34.79  -10.08   36.02          37.40  105.63           1.14    1.03    2.18    1.07            0.05    0.07    0.03           0.40     0.48
E21        24.49   29.25    6.19          61.00  -15.24   48.41          50.75  107.48           0.61    0.49    1.38    0.53            0.19    0.20    0.06           0.33     0.38
E22         8.58   18.23   13.01          49.77  -60.32    5.35          60.55  174.93           1.87    0.52    0.94    0.82            0.06    0.09    0.11           0.33     0.38
F1          3.62    4.47    3.21          25.17  -10.04    3.23          10.55  162.18           1.46    1.31    1.56    1.37            0.04    0.05    0.06           0.24     0.29
F2          2.94    4.40    2.59          24.94  -20.31    7.47          21.64  159.81           1.68    1.25    1.70    1.40            0.04    0.05    0.04           0.26     0.31
F3          2.44    4.33    2.20          24.75  -28.88   10.52          30.74  159.99           1.91    1.21    1.82    1.42            0.03    0.06    0.04           0.25     0.30
F4          1.60    4.29    1.56          24.62  -47.64   16.70          50.48  160.68           2.70    1.11    2.11    1.45            0.02    0.05    0.03           0.30     0.34
F5         11.73   14.81   10.18          45.38  -16.83    6.25          17.96  159.64           1.00    0.77    1.01    0.85            0.11    0.14    0.15           0.41     0.48
F6          9.28   14.39    8.25          44.79  -32.90   11.99          35.02  159.98           1.27    0.71    1.14    0.89            0.08    0.14    0.12           0.35     0.39
F7          7.37   14.37    6.94          44.77  -49.73   17.13          52.60  161.00           1.65    0.65    1.27    0.91            0.06    0.12    0.09           0.27     0.33
F8          5.88   14.96    5.69          45.58  -68.63   24.15          72.75  160.61           2.25    0.57    1.44    0.91            0.04    0.06    0.07           0.25     0.30
F9         30.50   35.17   26.27          65.88  -12.27    4.62          13.12  159.36           0.55    0.42    0.55    0.47            0.21    0.21    0.25           0.40     0.46
F10        27.01   34.73   23.18          65.53  -24.27    9.59          26.10  158.44           0.68    0.39    0.62    0.48            0.22    0.27    0.34           0.45     0.51
F11        24.20   34.62   21.38          65.45  -35.66   12.93          37.93  160.08           0.82    0.35    0.67    0.50            0.17    0.24    0.25           0.37     0.43
F12        20.16   34.50   18.06          65.36  -53.92   19.75          57.42  159.89           1.10    0.30    0.78    0.51            0.10    0.12    0.20           0.44     0.51
F13        40.06   52.43   53.03          77.54  -30.08  -11.32          32.14  200.62           0.62    0.19    0.21    0.32            0.31    0.33    0.32           0.30     0.34
F14        44.26   34.31   41.36          65.21   35.64  -18.85          40.32  332.13           0.19    0.63    0.29    0.43            0.13    0.15    0.15           0.23     0.28
F15        66.38   70.40   17.88          87.19   -3.30   57.80          57.89   93.27           0.10    0.16    0.81    0.14            0.24    0.24    0.20           0.31     0.38
F16        15.73   16.42   13.33          47.52   -0.62    0.59           0.90  136.44           0.75    0.80    0.85    0.79            0.19    0.17    0.12           0.38     0.46
F17        35.37   26.79   13.18          58.78   35.60   20.43          41.05   29.85           0.21    0.78    0.86    0.52            0.07    0.10    0.11           0.28     0.35
