targets/wolf_faust/transmissive/E110803.it8
IT8.7/1
ORIGINATOR "Wolf Faust"
DESCRIPTOR "Ektachrome, Type 3, L* a* b* (light D50, viewing angle 2)"
MANUFACTURER "Wolf Faust - http://www.coloraid.de"
CREATED "August 02, 2011"
PROD_DATE "2010:12"
DIFFUSE_GEOMETRY "opal"
SERIAL "E110803 Batch Average Data"
MATERIAL "For Kodak Ektachrome Product Family"
KEYWORD "MEAN_DE" # Mean Delta E of samples compared to batch average
NUMBER_OF_FIELDS 18
BEGIN_DATA_FORMAT
SAMPLE_ID  XYZ_X   XYZ_Y   XYZ_Z          LAB_L   LAB_A   LAB_B          LAB_C   LAB_H          D_RED  D_GREEN  D_BLUE  D_VIS          STDEV_X STDEV_Y STDEV_Z        MEAN_DE  STDEV_DE
END_DATA_FORMAT
NUMBER_OF_SETS 288
BEGIN_DATA
A1          2.19    1.86    1.25          14.76    9.05    3.61           9.75   21.73           1.46    1.89    1.97    1.70            0.03    0.04    0.03           0.37     0.42
A2          2.71    1.85    1.04          14.69   19.68    6.31          20.67   17.77           1.28    2.07    2.03    1.66            0.03    0.03    0.04           0.40     0.48 
A3          3.22    1.84    0.89          14.64   29.01    8.64          30.27   16.58           1.14    2.32    2.07    1.63            0.03    0.02    0.03           0.39     0.47
A4          4.12    1.86    0.66          14.71   42.40   12.87          44.31   16.89           0.96    3.13    2.12    1.57            0.03    0.01    0.02           0.31     0.36 
A5          9.59    8.30    5.89          34.60   13.53    4.27          14.19   17.51           0.84    1.21    1.23    1.05            0.12    0.12    0.15           0.57     0.64
A6         11.41    8.23    4.85          34.45   28.01    9.25          29.50   18.28           0.68    1.35    1.31    1.02            0.10    0.06    0.13           0.54     0.66 
A7         13.69    8.32    4.13          34.65   42.55   13.61          44.67   17.74           0.54    1.53    1.37    0.99            0.15    0.08    0.10           0.51     0.61
A8         16.58    8.49    3.65          34.98   58.32   17.16          60.80   16.39           0.39    1.86    1.39    0.94            0.12    0.07    0.10           0.34     0.47 
A9         29.33   28.70   21.72          60.52    6.44    3.76           7.47   30.22           0.45    0.58    0.62    0.53            0.44    0.40    0.47           0.50     0.62
A10        31.24   28.49   20.36          60.33   14.39    6.16          15.65   23.17           0.37    0.62    0.65    0.52            0.40    0.37    0.35           0.43     0.51
A11        33.51   28.51   19.30          60.35   22.46    8.42          23.99   20.54           0.30    0.67    0.67    0.51            0.38    0.34    0.35           0.44     0.52
A12        37.66   29.09   17.90          60.86   34.17   12.35          36.34   19.87           0.20    0.72    0.70    0.49            0.30    0.31    0.39           0.47     0.59 
A13        72.19   77.32   58.09          90.47   -4.90    5.65           7.48  130.96           0.13    0.10    0.17    0.11            0.36    0.37    0.33           0.31     0.38
A14        75.71   78.16   57.52          90.85    0.69    6.90           6.94   84.20           0.08    0.11    0.17    0.10            0.32    0.44    0.39           0.41     0.47 
A15        77.87   81.36   58.93          92.29   -1.16    7.94           8.03   98.27           0.08    0.09    0.16    0.09            0.25    0.33    0.32           0.29     0.35
A16        66.78   69.97   55.42          86.98   -1.51    2.41           2.85  122.44           0.15    0.15    0.19    0.16            0.61    0.75    0.32           0.54     0.68
A17        77.52   80.90   58.48          92.09   -0.98    8.04           8.11   96.91           0.08    0.09    0.17    0.09            0.27    0.37    0.37           0.32     0.38
A18        74.63   79.01   56.72          91.24   -3.16    8.39           8.97  110.65           0.10    0.10    0.18    0.10            0.46    0.48    0.58           0.37     0.46 
A19        64.24   68.62   55.36          86.32   -4.33    1.33           4.55  163.10           0.19    0.15    0.19    0.17            0.49    0.61    0.37           0.50     0.62
A20         6.01    2.83    1.66          19.33   45.97    6.54          46.43    8.10           0.81    2.66    1.71    1.40            0.10    0.05    0.06           0.52     0.59 
A21        25.81   18.07   13.70          49.58   39.57    3.16          39.70    4.56           0.33    1.02    0.81    0.68            0.29    0.24    0.28           0.54     0.62
A22        53.91   49.50   30.73          75.76   16.38   14.33          21.77   41.18           0.14    0.38    0.47    0.28            0.41    0.53    0.45           0.53     0.63
B1          3.22    2.86    1.55          19.46    8.13    8.02          11.42   44.59           1.31    1.67    1.90    1.52            0.03    0.05    0.05           0.43     0.50
B2          3.88    2.97    1.09          19.93   16.51   14.65          22.07   41.58           1.16    1.75    2.08    1.47            0.04    0.05    0.04           0.55     0.62
B3          4.41    2.86    0.57          19.49   25.86   22.90          34.54   41.53           1.04    1.92    2.42    1.45            0.04    0.04    0.02           0.42     0.49
B4          5.14    2.86    0.18          19.46   35.29   30.08          46.37   40.45           0.93    2.16    3.08    1.42            0.06    0.04    0.01           0.31     0.36
B5         12.37   11.08    6.17          39.71   12.04   11.81          16.87   44.45           0.74    1.06    1.23    0.93            0.16    0.16    0.15           0.48     0.56
B6         14.49   11.21    3.98          39.93   24.76   23.65          34.24   43.69           0.60    1.15    1.46    0.89            0.18    0.15    0.11           0.54     0.62
B7         16.51   11.01    2.43          39.59   38.03   34.05          51.05   41.84           0.48    1.29    1.71    0.87            0.18    0.13    0.07           0.51     0.58
B8         19.82   11.08    1.21          39.71   54.92   47.18          72.40   40.66           0.34    1.54    2.06    0.83            0.08    0.07    0.04           0.34     0.44
B9         34.79   34.91   25.07          65.67    3.91    6.37           7.48   58.39           0.39    0.49    0.56    0.45            0.43    0.42    0.46           0.49     0.58
B10        36.72   35.06   22.41          65.79    9.87   11.52          15.17   49.39           0.32    0.51    0.62    0.44            0.53    0.52    0.45           0.51     0.60
B11        38.39   35.12   19.83          65.84   15.07   16.76          22.54   48.02           0.27    0.53    0.68    0.43            0.47    0.45    0.35           0.51     0.59
B12        42.20   35.03   15.95          65.77   27.16   25.37          37.16   43.04           0.17    0.59    0.78    0.41            0.31    0.33    0.36           0.47     0.58
B13        60.79   68.09   54.64          86.05  -11.16    1.63          11.28  171.67           0.25    0.14    0.20    0.18            0.52    0.57    0.43           0.44     0.52
B14        65.80   64.29   51.94          84.12    8.67    1.22           8.77    8.07           0.11    0.22    0.21    0.18            0.60    0.75    0.42           0.50     0.67
B15        71.81   75.55   47.34          89.65   -2.16   15.98          16.12   97.70           0.10    0.12    0.27    0.12            0.61    0.66    0.88           0.52     0.65
B16        53.45   55.90   44.23          79.55   -1.14    2.29           2.57  116.69           0.25    0.26    0.29    0.25            0.84    0.97    0.68           0.59     0.74
B17        63.31   61.79   44.62          82.80    8.72    7.41          11.45   40.38           0.12    0.24    0.29    0.20            0.67    0.83    0.57           0.54     0.68
B18        59.07   66.81   46.74          85.41  -12.43    9.36          15.57  143.06           0.25    0.15    0.28    0.18            0.59    0.63    0.77           0.55     0.69
B19        55.45   58.12   51.03          80.80   -1.48   -3.49           3.81  246.64           0.25    0.23    0.22    0.24            0.69    0.83    0.45           0.62     0.79
B20         4.66    2.83    0.92          19.33   29.87   16.27          34.02   28.57           1.00    2.03    2.11    1.45            0.08    0.05    0.04           0.57     0.66
B21        16.33   10.88    3.68          39.38   37.93   24.60          45.21   32.96           0.49    1.30    1.47    0.88            0.25    0.17    0.10           0.58     0.67
B22        33.34   28.46   16.10          60.30   22.06   15.56          27.00   35.19           0.30    0.67    0.77    0.51            0.49    0.46    0.40           0.54     0.64
C1          6.31    6.21    3.24          29.93    3.49   11.24          11.77   72.77           1.07    1.26    1.56    1.19            0.03    0.06    0.06           0.49     0.57
C2          6.73    6.23    1.99          29.99    7.68   21.52          22.85   70.37           1.00    1.29    1.84    1.18            0.08    0.11    0.07           0.52     0.61
C3          6.98    6.04    1.12          29.50   12.26   30.79          33.14   68.28           0.96    1.34    2.20    1.18            0.09    0.11    0.03           0.65     0.75
C4          7.72    6.21    0.43          29.93   17.49   43.44          46.83   68.07           0.90    1.37    2.92    1.15            0.11    0.11    0.01           0.51     0.61
C5         23.96   23.30   11.34          55.38    6.68   19.86          20.96   71.41           0.50    0.68    0.96    0.61            0.25    0.27    0.28           0.55     0.62
C6         25.70   23.13    6.31          55.21   14.82   37.87          40.67   68.63           0.42    0.73    1.29    0.60            0.23    0.22    0.16           0.48     0.54
C7         27.92   23.44    3.06          55.52   22.51   56.64          60.95   68.32           0.35    0.76    1.74    0.58            0.24    0.23    0.07           0.45     0.52
C8         31.18   23.82    0.84          55.91   33.24   80.64          87.22   67.60           0.27    0.83    2.83    0.55            0.25    0.22    0.02           0.30     0.37
C9         40.93   41.63   27.79          70.61    2.44   10.19          10.48   76.53           0.32    0.40    0.52    0.37            0.45    0.48    0.46           0.47     0.54
C10        42.01   41.83   23.67          70.75    5.09   17.67          18.39   73.92           0.28    0.41    0.60    0.37            0.51    0.55    0.50           0.54     0.65
C11        43.40   41.93   19.65          70.82    8.95   25.74          27.25   70.83           0.24    0.43    0.70    0.36            0.60    0.61    0.41           0.46     0.56
C12        47.13   41.96   10.65          70.84   19.56   48.65          52.43   68.10           0.15    0.47    1.04    0.34            0.37    0.45    0.22           0.34     0.49
C13        53.87   63.03   53.74          83.46  -16.88   -1.88          16.99  186.35           0.35    0.15    0.21    0.22            0.52    0.55    0.39           0.48     0.57
C14        59.96   55.73   49.04          79.46   15.32   -3.56          15.73  346.94           0.13    0.31    0.23    0.24            0.58    0.72    0.36           0.52     0.73
C15        69.67   73.81   37.18          88.83   -3.21   27.43          27.62   96.67           0.10    0.13    0.40    0.12            0.55    0.61    0.76           0.52     0.66
C16        41.15   43.14   33.93          71.65   -1.37    2.41           2.79  120.21           0.36    0.37    0.42    0.37            0.72    0.80    0.65           0.61     0.73
C17        55.45   51.51   34.20          76.98   15.00   11.21          18.72   36.77           0.13    0.35    0.41    0.27            0.55    0.66    0.51           0.46     0.58
C18        50.37   60.36   37.02          82.03  -19.87   15.93          25.47  141.29           0.35    0.17    0.40    0.23            0.52    0.56    0.74           0.64     0.76
C19        44.83   46.91   47.63          74.13   -1.15  -11.12          11.18  264.07           0.35    0.33    0.25    0.34            0.64    0.75    0.41           0.64     0.84
C20        11.76    8.61    1.08          35.21   27.24   41.23          49.42   56.55           0.66    1.31    2.23    0.99            0.20    0.15    0.05           0.69     0.79
C21        21.23   19.69   10.29          51.48   11.04   16.45          19.81   56.13           0.53    0.78    1.00    0.68            0.42    0.39    0.31           0.67     0.76
C22        26.92   22.67   10.06          54.73   21.90   22.78          31.60   46.12           0.37    0.78    1.01    0.60            0.39    0.33    0.26           0.60     0.68
D1          4.05    4.23    2.30          24.43   -0.49    9.08           9.09   93.08           1.29    1.40    1.73    1.37            0.04    0.06    0.06           0.36     0.43
D2          4.23    4.39    1.50          24.92   -0.09   17.93          17.93   90.29           1.26    1.38    1.99    1.35            0.06    0.09    0.04           0.53     0.62
D3          4.01    4.24    0.84          24.45   -1.07   26.41          26.44   92.32           1.30    1.38    2.38    1.36            0.07    0.10    0.04           0.70     0.83
D4          4.05    4.31    0.47          24.66   -1.42   33.64          33.67   92.41           1.31    1.36    2.86    1.35            0.08    0.11    0.01           0.51     0.70
D5         17.76   18.86    9.32          50.53   -2.28   18.02          18.17   97.22           0.68    0.73    1.06    0.72            0.20    0.24    0.28           0.56     0.66
D6         17.55   18.61    4.92          50.23   -2.12   36.04          36.11   93.36           0.67    0.74    1.44    0.72            0.17    0.19    0.10           0.38     0.42
D7         17.40   18.54    2.41          50.14   -2.55   52.45          52.51   92.78           0.68    0.73    1.94    0.71            0.15    0.18    0.07           0.40     0.47
D8         17.42   18.71    1.01          50.35   -3.34   68.30          68.39   92.80           0.71    0.72    2.76    0.71            0.16    0.17    0.01           0.30     0.36
D9         46.86   49.26   24.04          75.61   -1.77   25.37          25.43   93.99           0.26    0.32    0.61    0.30            0.40    0.44    0.45           0.49     0.58
D10        46.37   48.95   13.74          75.42   -2.33   47.59          47.65   92.80           0.25    0.32    0.93    0.30            0.51    0.56    0.33           0.48     0.56
D11        46.06   48.99    7.02          75.45   -3.30   69.70          69.78   92.71           0.26    0.31    1.36    0.29            0.52    0.58    0.14           0.49     0.59
D12        45.37   48.44    1.97          75.10   -3.76   99.49          99.56   92.16           0.30    0.32    2.52    0.29            0.48    0.48    0.02           0.39     0.52
D13        48.31   58.84   52.96          81.20  -21.84   -4.93          22.40  192.70           0.44    0.17    0.21    0.26            0.49    0.51    0.35           0.51     0.59
D14        54.65   48.22   46.24          74.96   21.70   -8.05          23.15  339.65           0.14    0.40    0.25    0.30            0.51    0.62    0.33           0.51     0.72
D15        68.30   72.59   29.76          88.25   -3.65   37.40          37.58   95.58           0.10    0.14    0.52    0.13            0.52    0.60    0.61           0.51     0.62
D16        31.06   32.66   25.88          63.88   -1.55    1.85           2.47  130.74           0.48    0.49    0.55    0.49            0.56    0.62    0.59           0.67     0.76
D17        48.57   42.70   26.16          71.35   21.34   14.23          25.65   33.70           0.15    0.47    0.54    0.34            0.49    0.57    0.50           0.49     0.59
D18        43.54   55.08   29.85          79.09  -26.28   21.45          33.92  140.79           0.45    0.19    0.51    0.28            0.52    0.55    0.66           0.65     0.78
D19        36.03   37.57   44.47          67.70   -0.64  -18.44          18.46  268.01           0.47    0.42    0.27    0.44            0.60    0.70    0.39           0.66     0.88
D20         2.83    2.80    1.01          19.22    2.49   14.60          14.81   80.32           1.41    1.61    2.17    1.53            0.06    0.07    0.04           0.56     0.66
D21        30.57   28.07    1.44          59.95   13.56   79.11          80.26   80.27           0.37    0.63    2.48    0.51            0.53    0.53    0.04           0.65     0.83
D22        39.95   43.30   46.95          71.76   -5.51  -14.42          15.44  249.07           0.44    0.34    0.25    0.38            0.62    0.75    0.38           0.64     0.85
E1          5.50    6.30    3.41          30.16   -6.54   10.46          12.34  122.01           1.22    1.19    1.55    1.21            0.07    0.10    0.06           0.38     0.45
E2          4.88    5.97    2.11          29.33  -10.46   19.22          21.88  118.55           1.30    1.18    1.85    1.23            0.07    0.11    0.06           0.50     0.60
E3          4.56    6.16    1.29          29.81  -16.60   29.00          33.42  119.79           1.40    1.12    2.22    1.23            0.09    0.13    0.04           0.57     0.67
E4          4.02    6.04    0.69          29.50  -22.74   37.78          44.10  121.05           1.57    1.08    2.78    1.24            0.09    0.13    0.01           0.36     0.50
E5         24.97   28.69   14.55          60.51  -11.10   19.77          22.67  119.32           0.59    0.51    0.86    0.55            0.26    0.31    0.38           0.50     0.65
E6         22.73   28.40    9.31          60.25  -19.80   34.82          40.06  119.63           0.68    0.49    1.12    0.56            0.19    0.26    0.25           0.47     0.55
E7         20.64   28.33    5.17          60.18  -29.29   51.92          59.61  119.42           0.79    0.45    1.53    0.56            0.18    0.24    0.11           0.35     0.41
E8         17.90   27.82    1.91          59.73  -41.19   73.54          84.29  119.25           1.03    0.41    2.46    0.58            0.15    0.17    0.02           0.32     0.37
E9         44.86   49.06   31.58          75.49   -6.94   12.54          14.34  119.00           0.33    0.30    0.47    0.31            0.53    0.59    0.74           0.61     0.75
E10        42.80   49.08   24.88          75.50  -12.98   23.65          26.98  118.76           0.37    0.28    0.60    0.31            0.46    0.52    0.50           0.53     0.63
E11        40.68   48.82   19.71          75.34  -18.70   33.39          38.26  119.25           0.41    0.26    0.73    0.32            0.51    0.58    0.40           0.42     0.51
E12        37.30   49.00   11.59          75.45  -29.89   53.72          61.48  119.09           0.51    0.23    1.06    0.32            0.45    0.48    0.29           0.48     0.58
E13        43.38   55.00   52.27          79.04  -26.55   -7.90          27.70  196.57           0.54    0.18    0.22    0.29            0.45    0.48    0.34           0.44     0.52
E14        49.13   40.76   43.18          70.01   28.63  -12.88          31.39  335.79           0.16    0.51    0.28    0.36            0.43    0.53    0.28           0.48     0.69
E15        67.13   71.39   23.15          87.67   -3.72   47.82          47.97   94.45           0.10    0.15    0.66    0.13            0.49    0.57    0.47           0.49     0.59
E16        22.26   23.39   18.71          55.47   -1.34    1.27           1.89  137.19           0.61    0.64    0.70    0.63            0.40    0.44    0.43           0.60     0.68
E17        41.61   34.13   18.84          65.06   28.43   17.54          33.41   31.67           0.18    0.61    0.69    0.42            0.43    0.48    0.46           0.52     0.63
E18        37.55   50.21   23.67          76.20  -32.26   27.07          42.12  140.01           0.55    0.21    0.64    0.32            0.42    0.47    0.51           0.58     0.70
E19        28.17   29.09   41.19          60.86    0.49  -26.13          26.14  271.06           0.60    0.53    0.30    0.56            0.45    0.54    0.35           0.59     0.79
E20         6.99    8.32    1.29          34.64   -9.79   37.35          38.61  104.69           1.14    1.03    2.26    1.08            0.12    0.15    0.04           0.52     0.60
E21        24.31   29.05    6.10          60.82  -15.25   48.50          50.84  107.45           0.61    0.49    1.39    0.54            0.39    0.48    0.13           0.56     0.67
E22         7.91   17.20   12.79          48.52  -60.79    3.81          60.91  176.41           1.96    0.55    0.95    0.85            0.11    0.20    0.24           0.40     0.49
F1          3.55    4.40    3.22          24.94  -10.08    2.77          10.46  164.63           1.47    1.32    1.56    1.38            0.06    0.08    0.07           0.40     0.48
F2          2.80    4.13    2.44          24.11  -19.11    7.32          20.46  159.05           1.68    1.29    1.73    1.42            0.06    0.10    0.05           0.51     0.62
F3          2.36    4.35    2.16          24.79  -30.56   11.00          32.48  160.22           1.96    1.20    1.84    1.42            0.06    0.12    0.07           0.52     0.63
F4          1.61    4.35    1.61          24.80  -47.98   16.49          50.73  161.03           2.70    1.11    2.10    1.45            0.04    0.09    0.04           0.34     0.42
F5         11.49   14.55   10.00          45.01  -16.95    6.23          18.06  159.83           1.01    0.78    1.02    0.86            0.19    0.27    0.23           0.43     0.55
F6          9.18   14.34    8.24          44.71  -33.37   11.90          35.43  160.37           1.28    0.71    1.15    0.89            0.15    0.23    0.21           0.50     0.58
F7          7.24   14.13    6.72          44.42  -49.49   17.50          52.49  160.53           1.64    0.66    1.29    0.91            0.10    0.17    0.11           0.33     0.37
F8          5.74   14.67    5.64          45.18  -68.44   23.70          72.43  160.90           2.25    0.58    1.45    0.92            0.09    0.16    0.08           0.31     0.35
F9         30.15   34.85   25.42          65.63  -12.50    5.68          13.75  155.58           0.55    0.42    0.57    0.47            0.44    0.50    0.70           0.70     0.83
F10        26.77   34.58   22.91          65.42  -24.77    9.93          26.69  158.17           0.68    0.39    0.63    0.49            0.33    0.40    0.55           0.56     0.68
F11        23.93   34.21   21.03          65.13  -35.45   13.08          37.78  159.75           0.82    0.36    0.68    0.50            0.25    0.34    0.35           0.33     0.42
F12        19.87   34.06   17.45          65.01  -53.85   20.53          57.64  159.13           1.10    0.30    0.80    0.52            0.14    0.16    0.35           0.56     0.77
F13        39.44   51.80   51.74          77.16  -30.40  -10.56          32.18  199.16           0.63    0.19    0.22    0.32            0.39    0.41    0.34           0.40     0.45
F14        44.22   34.45   40.30          65.32   35.08  -17.29          39.11  333.76           0.18    0.62    0.30    0.43            0.38    0.42    0.30           0.41     0.57
F15        66.28   70.31   17.88          87.15   -3.34   57.71          57.81   93.31           0.10    0.16    0.81    0.14            0.44    0.51    0.36           0.39     0.53
F16        15.67   16.48   13.12          47.59   -1.24    1.31           1.85  133.56           0.76    0.80    0.87    0.79            0.27    0.29    0.29           0.58     0.65
F17        35.61   27.10   12.99          59.07   35.14   21.43          41.16   31.37           0.21    0.77    0.87    0.51            0.33    0.34    0.30           0.53     0.60
