targets/wolf_faust/transmissive/E110411.it8
IT8.7/1
ORIGINATOR "Wolf Faust"
DESCRIPTOR "Ektachrome, Type 3, L* a* b* (light D50, viewing angle 2)"
MANUFACTURER "Wolf Faust - http://www.coloraid.de"
CREATED "June 14, 2011"
PROD_DATE "2010:12"
DIFFUSE_GEOMETRY "opal"
SERIAL "E110411 Batch Average Data"
MATERIAL "For Kodak Ektachrome Product Family"
KEYWORD "MEAN_DE" # Mean Delta E of samples compared to batch average
NUMBER_OF_FIELDS 18
BEGIN_DATA_FORMAT
SAMPLE_ID  XYZ_X   XYZ_Y   XYZ_Z          LAB_L   LAB_A   LAB_B          LAB_C   LAB_H          D_RED  D_GREEN  D_BLUE  D_VIS          STDEV_X STDEV_Y STDEV_Z        MEAN_DE  STDEV_DE
END_DATA_FORMAT
NUMBER_OF_SETS 288
BEGIN_DATA
A1          2.21    1.91    1.29          15.01    8.45    3.44           9.12   22.19           1.46    1.87    1.96    1.69            0.02    0.02    0.02           0.28     0.34
A2          2.73    1.88    1.10          14.87   19.32    5.75          20.16   16.58           1.28    2.06    2.00    1.66            0.03    0.02    0.03           0.25     0.30 
A3          3.24    1.86    0.92          14.74   28.92    8.24          30.07   15.91           1.14    2.31    2.05    1.62            0.04    0.02    0.02           0.22     0.25
A4          4.13    1.86    0.70          14.76   42.42   12.23          44.15   16.08           0.96    3.12    2.10    1.57            0.03    0.02    0.02           0.20     0.29 
A5          9.71    8.45    6.22          34.90   13.24    3.26          13.64   13.84           0.84    1.20    1.20    1.05            0.15    0.12    0.16           0.54     0.61
A6         11.55    8.38    5.09          34.75   27.72    8.50          29.00   17.05           0.68    1.34    1.29    1.02            0.18    0.12    0.15           0.59     0.70 
A7         13.84    8.46    4.37          34.93   42.30   12.70          44.17   16.71           0.53    1.52    1.34    0.98            0.18    0.10    0.16           0.64     0.75
A8         16.61    8.52    3.80          35.05   58.14   16.34          60.39   15.70           0.40    1.85    1.37    0.94            0.13    0.08    0.13           0.51     0.60 
A9         29.40   28.69   22.44          60.51    6.76    2.34           7.18   19.08           0.45    0.58    0.61    0.53            0.58    0.58    0.59           0.77     0.89
A10        31.33   28.49   20.94          60.33   14.74    4.99          15.58   18.70           0.37    0.63    0.64    0.53            0.58    0.52    0.60           0.76     0.89
A11        33.52   28.47   19.59          60.31   22.64    7.74          23.93   18.87           0.30    0.67    0.67    0.51            0.58    0.51    0.47           0.68     0.79
A12        37.74   29.11   18.24          60.88   34.36   11.64          36.28   18.70           0.20    0.72    0.69    0.49            0.34    0.37    0.48           0.70     0.84 
A13        72.77   77.79   58.81          90.68   -4.62    5.30           7.03  131.11           0.13    0.10    0.16    0.11            0.39    0.41    0.21           0.20     0.24
A14        76.03   78.39   58.16          90.96    0.89    6.43           6.50   82.11           0.08    0.11    0.17    0.10            0.38    0.52    0.32           0.26     0.37 
A15        78.10   81.50   59.42          92.35   -0.96    7.55           7.62   97.21           0.08    0.09    0.16    0.09            0.28    0.35    0.33           0.19     0.22
A16        67.52   70.60   56.16          87.29   -1.21    2.16           2.48  119.31           0.15    0.15    0.18    0.15            0.73    0.80    0.38           0.37     0.50
A17        77.98   81.33   59.27          92.28   -0.87    7.58           7.63   96.57           0.08    0.09    0.16    0.09            0.20    0.24    0.29           0.18     0.21
A18        75.25   79.51   57.77          91.46   -2.87    7.69           8.21  110.44           0.10    0.10    0.17    0.10            0.42    0.41    0.43           0.23     0.29 
A19        64.95   69.21   56.01          86.61   -3.99    1.14           4.15  163.97           0.18    0.15    0.18    0.16            0.47    0.45    0.26           0.27     0.32
A20         6.17    2.91    1.80          19.66   46.24    5.61          46.58    6.91           0.81    2.63    1.67    1.39            0.02    0.01    0.03           0.23     0.27 
A21        26.42   18.57   14.53          50.18   39.51    2.00          39.56    2.90           0.32    1.00    0.78    0.67            0.23    0.22    0.20           0.48     0.59
A22        54.34   49.84   32.22          75.97   16.56   12.39          20.69   36.79           0.13    0.37    0.44    0.28            0.38    0.46    0.57           0.62     0.72
B1          3.27    2.94    1.63          19.80    7.51    7.62          10.70   45.42           1.31    1.65    1.87    1.51            0.03    0.03    0.04           0.36     0.40
B2          3.94    3.06    1.15          20.30   15.78   14.45          21.40   42.48           1.16    1.72    2.05    1.46            0.03    0.03    0.02           0.34     0.39
B3          4.49    2.95    0.59          19.82   25.41   23.01          34.28   42.15           1.04    1.90    2.41    1.44            0.03    0.02    0.02           0.37     0.46
B4          5.21    2.93    0.19          19.74   35.00   30.37          46.34   40.95           0.92    2.13    3.06    1.41            0.03    0.02    0.01           0.14     0.17
B5         12.47   11.20    6.41          39.92   11.80   11.07          16.19   43.16           0.74    1.05    1.21    0.92            0.17    0.15    0.16           0.60     0.69
B6         14.64   11.39    4.12          40.24   24.35   23.29          33.70   43.72           0.60    1.14    1.44    0.89            0.25    0.19    0.11           0.56     0.66
B7         16.73   11.24    2.53          39.99   37.56   33.97          50.65   42.13           0.48    1.28    1.69    0.87            0.26    0.16    0.08           0.66     0.78
B8         19.95   11.24    1.27          39.99   54.40   46.82          71.77   40.72           0.34    1.52    2.04    0.83            0.11    0.08    0.03           0.26     0.32
B9         34.96   34.97   25.60          65.72    4.26    5.52           6.98   52.11           0.38    0.49    0.55    0.45            0.68    0.67    0.69           0.75     0.91
B10        36.94   35.19   22.91          65.89   10.14   10.73          14.77   46.59           0.32    0.51    0.61    0.44            0.66    0.63    0.66           0.76     0.86
B11        38.60   35.24   20.30          65.93   15.34   15.95          22.14   46.10           0.27    0.53    0.67    0.43            0.62    0.57    0.48           0.61     0.69
B12        42.12   34.91   16.19          65.68   27.31   24.63          36.78   42.04           0.17    0.60    0.78    0.41            0.39    0.43    0.41           0.61     0.74
B13        61.15   68.31   55.32          86.16  -10.77    1.10          10.83  174.19           0.25    0.14    0.19    0.18            0.47    0.52    0.36           0.35     0.40
B14        65.96   64.34   52.50          84.14    8.92    0.65           8.95    4.19           0.11    0.22    0.21    0.18            0.53    0.69    0.41           0.43     0.58
B15        71.86   75.41   48.04          89.58   -1.78   15.05          15.15   96.74           0.10    0.12    0.26    0.12            0.69    0.73    1.00           0.70     0.80
B16        53.79   56.00   45.51          79.61   -0.52    0.84           1.03  124.46           0.24    0.26    0.28    0.25            0.82    0.89    1.01           0.56     0.65
B17        63.62   61.92   46.15          82.87    9.13    5.69          10.77   31.87           0.12    0.24    0.27    0.20            0.67    0.78    1.01           0.63     0.72
B18        59.83   67.37   48.52          85.69  -11.87    7.79          14.20  146.77           0.25    0.14    0.26    0.18            0.53    0.49    0.74           0.56     0.64
B19        56.35   58.91   51.88          81.24   -1.13   -3.67           3.85  252.99           0.24    0.23    0.21    0.23            0.44    0.43    0.27           0.33     0.38
B20         4.83    2.94    1.01          19.82   29.95   15.66          33.80   27.61           0.98    2.00    2.06    1.43            0.03    0.02    0.02           0.24     0.29
B21        16.78   11.26    3.94          40.02   37.69   24.05          44.71   32.55           0.48    1.28    1.44    0.87            0.19    0.17    0.04           0.48     0.53
B22        34.23   29.23   17.24          60.98   22.22   14.04          26.29   32.29           0.29    0.65    0.73    0.50            0.44    0.45    0.41           0.67     0.77
C1          6.38    6.34    3.37          30.27    2.85   10.87          11.24   75.30           1.07    1.25    1.54    1.19            0.09    0.09    0.06           0.31     0.36
C2          6.84    6.40    2.08          30.40    6.95   21.39          22.50   72.00           1.00    1.27    1.82    1.17            0.07    0.06    0.04           0.39     0.45
C3          7.11    6.22    1.15          29.95   11.61   31.09          33.18   69.53           0.96    1.32    2.19    1.16            0.09    0.06    0.02           0.41     0.51
C4          7.90    6.42    0.46          30.46   16.97   43.89          47.05   68.87           0.89    1.35    2.88    1.13            0.06    0.07    0.01           0.25     0.30
C5         24.13   23.46   11.85          55.54    6.71   18.62          19.79   70.18           0.50    0.68    0.94    0.61            0.37    0.36    0.25           0.55     0.62
C6         25.85   23.28    6.48          55.36   14.81   37.40          40.22   68.40           0.41    0.73    1.27    0.60            0.34    0.33    0.17           0.52     0.61
C7         28.04   23.56    3.11          55.64   22.48   56.45          60.76   68.28           0.34    0.76    1.73    0.58            0.37    0.33    0.09           0.55     0.66
C8         31.35   23.99    0.87          56.08   33.14   80.50          87.05   67.62           0.27    0.82    2.80    0.55            0.30    0.28    0.02           0.43     0.52
C9         41.12   41.65   28.77          70.63    2.95    8.60           9.10   70.94           0.32    0.40    0.50    0.37            0.71    0.76    0.82           0.84     0.98
C10        42.23   41.92   24.19          70.81    5.52   16.83          17.72   71.82           0.28    0.41    0.59    0.36            0.65    0.66    0.70           0.77     0.86
C11        43.56   41.98   20.21          70.85    9.29   24.62          26.32   69.32           0.24    0.43    0.68    0.36            0.76    0.74    0.48           0.68     0.77
C12        47.07   41.86   10.84          70.77   19.69   47.93          51.82   67.67           0.15    0.47    1.03    0.34            0.35    0.43    0.24           0.58     0.69
C13        54.23   63.25   54.35          83.58  -16.49   -2.33          16.66  188.04           0.34    0.15    0.20    0.22            0.38    0.45    0.37           0.31     0.36
C14        60.18   55.90   49.57          79.56   15.41   -4.00          15.93  345.45           0.13    0.31    0.23    0.24            0.51    0.62    0.39           0.41     0.55
C15        69.84   73.83   37.96          88.84   -2.86   26.38          26.53   96.21           0.10    0.13    0.39    0.12            0.59    0.64    1.07           0.94     1.11
C16        41.64   43.45   35.31          71.85   -0.77    0.78           1.18  141.77           0.35    0.37    0.40    0.36            0.75    0.78    1.07           0.73     0.87
C17        55.83   51.78   35.61          77.15   15.24    9.48          17.96   31.84           0.13    0.35    0.39    0.27            0.52    0.60    0.81           0.78     0.88
C18        51.07   60.87   38.55          82.31  -19.20   14.32          23.96  143.31           0.35    0.17    0.38    0.23            0.59    0.58    0.82           0.67     0.76
C19        45.81   47.83   48.51          74.72   -0.87  -11.13          11.17  265.54           0.34    0.32    0.24    0.33            0.47    0.47    0.26           0.44     0.50
C20        12.29    9.07    1.18          36.12   26.94   41.38          49.38   56.94           0.65    1.28    2.18    0.97            0.12    0.09    0.03           0.49     0.61
C21        21.90   20.30   11.00          52.18   11.18   15.38          19.02   53.99           0.52    0.77    0.96    0.67            0.27    0.27    0.22           0.49     0.56
C22        27.63   23.32   10.81          55.40   21.87   21.54          30.70   44.57           0.36    0.76    0.97    0.59            0.32    0.30    0.25           0.57     0.65
D1          4.13    4.36    2.42          24.84   -1.07    8.76           8.83   96.96           1.29    1.39    1.70    1.36            0.05    0.05    0.05           0.33     0.38
D2          4.34    4.57    1.59          25.47   -0.93   17.88          17.90   92.97           1.26    1.36    1.96    1.33            0.06    0.07    0.02           0.40     0.46
D3          4.12    4.41    0.88          24.99   -1.81   26.72          26.78   93.87           1.29    1.36    2.37    1.34            0.04    0.05    0.02           0.40     0.46
D4          4.17    4.48    0.49          25.19   -2.06   34.10          34.16   93.45           1.31    1.34    2.83    1.33            0.03    0.04    0.01           0.26     0.31
D5         17.94   19.06    9.70          50.76   -2.30   17.14          17.30   97.63           0.68    0.73    1.04    0.71            0.26    0.28    0.20           0.48     0.55
D6         17.67   18.76    5.16          50.40   -2.25   35.12          35.19   93.66           0.67    0.73    1.42    0.71            0.23    0.24    0.09           0.57     0.65
D7         17.57   18.74    2.50          50.38   -2.66   52.08          52.15   92.92           0.68    0.73    1.92    0.71            0.18    0.20    0.05           0.56     0.72
D8         17.65   19.00    1.04          50.68   -3.52   68.40          68.49   92.95           0.71    0.72    2.73    0.70            0.13    0.18    0.02           0.44     0.50
D9         46.92   49.11   24.71          75.52   -1.20   23.99          24.02   92.85           0.26    0.32    0.59    0.30            0.65    0.67    0.66           0.89     1.06
D10        46.67   49.16   14.17          75.55   -2.04   46.68          46.72   92.50           0.25    0.32    0.91    0.29            0.66    0.70    0.43           0.76     0.86
D11        46.26   49.12    7.16          75.52   -3.09   69.27          69.33   92.56           0.26    0.31    1.35    0.29            0.65    0.67    0.14           0.57     0.70
D12        45.26   48.38    2.01          75.06   -3.95   99.08          99.16   92.28           0.30    0.32    2.50    0.29            0.54    0.57    0.02           0.46     0.57
D13        48.63   59.08   53.55          81.33  -21.54   -5.34          22.19  193.91           0.44    0.17    0.21    0.25            0.36    0.40    0.35           0.27     0.31
D14        54.89   48.42   46.75          75.09   21.77   -8.44          23.35  338.81           0.14    0.40    0.25    0.30            0.47    0.56    0.44           0.38     0.52
D15        68.44   72.60   30.28          88.26   -3.37   36.57          36.73   95.27           0.10    0.14    0.51    0.13            0.60    0.66    0.87           0.87     1.01
D16        31.63   33.11   26.83          64.25   -1.10    0.84           1.45  147.26           0.47    0.49    0.53    0.48            0.62    0.64    0.66           0.70     0.82
D17        48.99   43.08   27.31          71.61   21.34   12.72          24.84   30.78           0.15    0.46    0.52    0.34            0.43    0.48    0.62           0.70     0.80
D18        44.17   55.59   31.18          79.38  -25.70   19.87          32.49  142.29           0.44    0.19    0.49    0.27            0.51    0.52    0.73           0.66     0.77
D19        36.90   38.42   45.31          68.33   -0.47  -18.37          18.38  268.52           0.46    0.41    0.26    0.43            0.40    0.41    0.30           0.41     0.47
D20         2.97    2.96    1.09          19.90    2.02   14.56          14.70   82.10           1.39    1.58    2.13    1.51            0.03    0.04    0.03           0.38     0.48
D21        31.28   28.75    1.52          60.56   13.55   79.14          80.30   80.28           0.36    0.62    2.43    0.50            0.26    0.20    0.02           0.49     0.57
D22        41.13   44.45   47.80          72.53   -5.20  -14.08          15.01  249.72           0.43    0.33    0.24    0.37            0.45    0.51    0.37           0.48     0.55
E1          5.58    6.45    3.56          30.52   -7.09   10.05          12.30  125.20           1.22    1.17    1.53    1.20            0.06    0.07    0.07           0.36     0.42
E2          4.98    6.14    2.19          29.76  -10.99   19.21          22.13  119.76           1.30    1.17    1.83    1.22            0.06    0.08    0.05           0.29     0.34
E3          4.68    6.34    1.33          30.25  -17.01   29.18          33.77  120.24           1.39    1.11    2.20    1.21            0.04    0.07    0.02           0.28     0.33
E4          4.13    6.18    0.72          29.87  -22.82   37.94          44.28  121.03           1.56    1.08    2.75    1.23            0.05    0.08    0.02           0.29     0.35
E5         25.16   28.85   15.17          60.65  -10.88   18.43          21.40  120.57           0.59    0.51    0.83    0.54            0.43    0.48    0.26           0.48     0.54
E6         22.94   28.61    9.75          60.43  -19.63   33.63          38.94  120.27           0.67    0.48    1.10    0.55            0.31    0.39    0.15           0.52     0.60
E7         20.74   28.43    5.37          60.28  -29.20   51.08          58.84  119.76           0.79    0.45    1.50    0.56            0.25    0.35    0.08           0.49     0.55
E8         18.09   28.09    1.96          59.97  -41.19   73.51          84.26  119.27           1.02    0.41    2.44    0.57            0.08    0.10    0.01           0.18     0.21
E9         45.12   49.12   32.95          75.52   -6.33   10.54          12.30  121.06           0.33    0.30    0.44    0.31            0.82    0.90    1.00           0.85     0.97
E10        43.28   49.45   25.84          75.73  -12.55   22.35          25.64  119.34           0.36    0.28    0.58    0.31            0.76    0.82    0.82           0.80     0.93
E11        40.98   49.04   20.48          75.48  -18.37   32.04          36.93  119.83           0.41    0.26    0.71    0.32            0.64    0.75    0.49           0.61     0.69
E12        37.51   49.24   12.03          75.60  -29.83   52.68          60.54  119.52           0.50    0.23    1.04    0.32            0.43    0.49    0.23           0.35     0.43
E13        43.69   55.23   52.78          79.17  -26.19   -8.22          27.46  197.43           0.53    0.18    0.21    0.29            0.35    0.38    0.37           0.27     0.32
E14        49.34   40.96   43.67          70.15   28.60  -13.23          31.51  335.17           0.16    0.51    0.27    0.36            0.38    0.43    0.33           0.33     0.44
E15        67.23   71.38   23.48          87.67   -3.47   47.19          47.32   94.20           0.10    0.15    0.65    0.13            0.53    0.60    0.50           0.54     0.68
E16        22.65   23.73   19.38          55.81   -1.02    0.43           1.23  162.29           0.61    0.63    0.68    0.63            0.46    0.45    0.52           0.69     0.82
E17        42.03   34.55   19.72          65.40   28.26   16.24          32.60   29.87           0.18    0.60    0.67    0.42            0.29    0.33    0.48           0.64     0.81
E18        38.18   50.81   25.11          76.56  -31.84   25.07          40.53  141.79           0.54    0.21    0.61    0.32            0.31    0.32    0.59           0.71     0.88
E19        28.99   29.92   42.04          61.59    0.51  -25.96          25.97  271.13           0.59    0.52    0.29    0.54            0.32    0.32    0.28           0.36     0.41
E20         7.23    8.64    1.38          35.29  -10.27   37.32          38.71  105.40           1.13    1.02    2.21    1.06            0.11    0.09    0.02           0.41     0.50
E21        25.06   29.85    6.51          61.52  -15.09   47.87          50.20  107.50           0.59    0.48    1.35    0.52            0.29    0.33    0.10           0.42     0.47
E22         8.28   17.73   13.86          49.17  -60.34    2.01          60.37  178.09           1.93    0.53    0.90    0.84            0.05    0.12    0.18           0.45     0.56
F1          3.65    4.53    3.36          25.36  -10.47    2.48          10.76  166.68           1.46    1.31    1.53    1.37            0.04    0.06    0.07           0.29     0.35
F2          2.91    4.30    2.58          24.65  -19.56    7.07          20.79  160.14           1.67    1.27    1.70    1.41            0.03    0.05    0.03           0.29     0.37
F3          2.44    4.47    2.25          25.18  -30.79   10.83          32.64  160.62           1.94    1.19    1.82    1.41            0.04    0.07    0.04           0.35     0.43
F4          1.64    4.40    1.68          24.96  -47.92   16.05          50.54  161.49           2.68    1.10    2.07    1.44            0.03    0.07    0.05           0.33     0.42
F5         11.62   14.69   10.46          45.20  -16.84    5.05          17.58  163.30           1.01    0.77    1.00    0.86            0.16    0.18    0.25           0.46     0.56
F6          9.37   14.58    8.65          45.06  -33.27   10.96          35.03  161.78           1.27    0.71    1.12    0.88            0.11    0.20    0.13           0.50     0.57
F7          7.32   14.21    7.00          44.53  -49.20   16.51          51.89  161.45           1.64    0.66    1.27    0.91            0.10    0.18    0.14           0.50     0.56
F8          5.84   14.85    5.96          45.43  -68.41   22.64          72.06  161.69           2.24    0.57    1.42    0.91            0.06    0.13    0.14           0.38     0.46
F9         30.35   34.94   26.41          65.70  -12.05    4.07          12.73  161.35           0.55    0.42    0.55    0.47            0.72    0.82    0.86           0.77     0.89
F10        26.98   34.68   23.87          65.50  -24.27    8.26          25.64  161.21           0.68    0.39    0.61    0.48            0.49    0.62    0.65           0.67     0.75
F11        24.14   34.33   21.89          65.22  -34.98   11.54          36.84  161.75           0.82    0.36    0.66    0.50            0.42    0.57    0.54           0.54     0.65
F12        20.17   34.38   18.11          65.27  -53.48   19.48          56.92  159.98           1.09    0.30    0.78    0.51            0.14    0.19    0.27           0.41     0.47
F13        39.84   52.13   52.32          77.36  -30.01  -10.85          31.91  199.88           0.62    0.19    0.22    0.32            0.26    0.30    0.32           0.22     0.25
F14        44.52   34.75   40.80          65.56   34.92  -17.54          39.08  333.34           0.18    0.62    0.29    0.43            0.32    0.34    0.31           0.30     0.38
F15        66.33   70.27   18.06          87.13   -3.14   57.30          57.39   93.14           0.10    0.16    0.80    0.14            0.57    0.65    0.49           0.58     0.76
F16        15.99   16.79   13.68          47.99   -1.13    0.47           1.33  157.16           0.75    0.79    0.84    0.78            0.30    0.33    0.40           0.62     0.74
F17        35.93   27.45   13.61          59.38   34.87   20.31          40.36   30.21           0.21    0.76    0.84    0.51            0.29    0.31    0.40           0.64     0.80
