targets/wolf_faust/transmissive/E111007.it8
IT8.7/1
ORIGINATOR "Wolf Faust"
DESCRIPTOR "Ektachrome, Type 3, L* a* b* (light D50, viewing angle 2)"
MANUFACTURER "Wolf Faust - http://www.coloraid.de"
CREATED "October 10, 2011"
PROD_DATE "2011:09"
DIFFUSE_GEOMETRY "opal"
SERIAL "E111007 Batch Average Data"
MATERIAL "For Kodak Ektachrome Product Family"
KEYWORD "MEAN_DE" # Mean Delta E of samples compared to batch average
NUMBER_OF_FIELDS 18
BEGIN_DATA_FORMAT
SAMPLE_ID  XYZ_X   XYZ_Y   XYZ_Z          LAB_L   LAB_A   LAB_B          LAB_C   LAB_H          D_RED  D_GREEN  D_BLUE  D_VIS          STDEV_X STDEV_Y STDEV_Z        MEAN_DE  STDEV_DE
END_DATA_FORMAT
NUMBER_OF_SETS 288
BEGIN_DATA
A1          2.26    1.91    1.32          15.02    9.49    3.12           9.99   18.22           1.45    1.88    1.94    1.69            0.06    0.04    0.04           0.48     0.54
A2          2.79    1.88    1.08          14.85   20.53    6.03          21.39   16.37           1.27    2.08    2.01    1.65            0.03    0.02    0.02           0.23     0.27 
A3          3.36    1.89    0.97          14.92   30.03    7.82          31.03   14.60           1.12    2.34    2.02    1.61            0.04    0.02    0.02           0.20     0.22
A4          4.16    1.90    0.76          14.95   41.94   11.43          43.47   15.24           0.96    3.04    2.07    1.56            0.06    0.03    0.02           0.25     0.31 
A5          9.85    8.54    6.17          35.08   13.57    3.81          14.10   15.70           0.84    1.19    1.20    1.04            0.13    0.11    0.14           0.34     0.38
A6         11.77    8.41    5.22          34.82   28.98    7.92          30.05   15.29           0.67    1.35    1.27    1.01            0.16    0.12    0.13           0.40     0.46 
A7         13.87    8.39    4.55          34.78   43.06   11.45          44.56   14.89           0.53    1.54    1.31    0.98            0.23    0.14    0.10           0.37     0.43
A8         17.01    8.48    3.70          34.97   60.76   16.81          63.04   15.46           0.38    1.94    1.37    0.94            0.13    0.08    0.09           0.37     0.43 
A9         29.68   29.02   22.67          60.80    6.55    2.41           6.98   20.16           0.45    0.58    0.60    0.53            0.54    0.55    0.49           0.50     0.58
A10        31.79   28.93   21.14          60.72   14.73    5.26          15.64   19.65           0.37    0.62    0.63    0.52            0.53    0.50    0.45           0.51     0.58
A11        33.75   28.67   20.26          60.49   22.68    6.64          23.64   16.31           0.30    0.66    0.64    0.51            0.43    0.40    0.42           0.51     0.57
A12        38.32   28.79   18.67          60.60   37.46   10.21          38.83   15.24           0.19    0.75    0.67    0.49            0.34    0.34    0.47           0.63     0.71 
A13        72.58   77.60   62.83          90.60   -4.63    1.16           4.77  165.90           0.14    0.10    0.13    0.11            0.45    0.46    0.26           0.32     0.35
A14        77.92   79.66   62.42          91.53    2.22    3.18           3.88   55.12           0.07    0.11    0.13    0.10            0.35    0.49    0.31           0.34     0.38 
A15        79.90   82.77   63.11          92.91    0.19    4.89           4.89   87.70           0.07    0.08    0.12    0.08            0.24    0.34    0.26           0.28     0.31
A16        75.11   78.23   62.41          90.88   -0.65    2.06           2.17  107.14           0.10    0.11    0.13    0.11            0.41    0.48    0.25           0.32     0.36
A17        79.35   81.93   62.72          92.54    0.69    4.62           4.68   81.42           0.07    0.09    0.13    0.08            0.25    0.36    0.26           0.29     0.33
A18        76.65   80.43   61.04          91.88   -1.82    5.12           5.43  109.54           0.09    0.09    0.14    0.09            0.38    0.43    0.40           0.25     0.30 
A19        67.71   70.77   60.23          87.37   -1.15   -1.84           2.19  237.75           0.16    0.15    0.14    0.15            0.40    0.52    0.23           0.38     0.45
A20         6.34    2.97    1.85          19.94   46.87    5.60          47.20    6.81           0.79    2.64    1.66    1.38            0.08    0.04    0.04           0.28     0.34 
A21        26.55   18.70   14.80          50.33   39.38    1.59          39.41    2.31           0.33    0.99    0.77    0.67            0.24    0.19    0.33           0.52     0.59
A22        54.01   49.60   32.89          75.82   16.36   11.15          19.80   34.26           0.14    0.37    0.43    0.28            0.49    0.54    0.70           0.65     0.72
B1          3.26    2.88    1.66          19.57    8.45    6.98          10.96   39.58           1.31    1.67    1.85    1.51            0.06    0.04    0.03           0.39     0.46
B2          3.91    2.96    1.07          19.87   17.11   14.90          22.69   41.06           1.16    1.76    2.09    1.47            0.04    0.03    0.01           0.20     0.23
B3          4.42    2.87    0.65          19.52   25.86   21.41          33.57   39.62           1.04    1.93    2.34    1.45            0.04    0.03    0.02           0.23     0.26
B4          5.37    2.97    0.15          19.91   36.08   31.56          47.94   41.18           0.91    2.16    3.27    1.40            0.06    0.04    0.00           0.25     0.29
B5         12.90   11.53    6.62          40.46   12.33   11.10          16.59   41.99           0.73    1.04    1.19    0.91            0.17    0.16    0.15           0.39     0.43
B6         14.57   11.19    4.06          39.89   25.41   23.10          34.34   42.27           0.59    1.16    1.44    0.89            0.17    0.14    0.09           0.36     0.42
B7         16.96   11.37    2.63          40.20   37.92   33.48          50.58   41.44           0.47    1.27    1.66    0.86            0.21    0.15    0.06           0.37     0.42
B8         20.53   11.19    1.03          39.90   57.61   49.94          76.24   40.92           0.31    1.59    2.14    0.83            0.17    0.11    0.02           0.21     0.24
B9         35.25   35.24   26.32          65.94    4.33    4.62           6.34   46.69           0.39    0.48    0.53    0.45            0.58    0.59    0.60           0.68     0.75
B10        36.81   35.01   23.33          65.75   10.34    9.69          14.18   43.12           0.33    0.51    0.59    0.44            0.56    0.57    0.52           0.65     0.72
B11        38.37   34.83   20.93          65.61   16.00   14.12          21.34   41.42           0.27    0.54    0.64    0.43            0.52    0.51    0.48           0.58     0.66
B12        43.00   35.05   15.27          65.79   29.46   27.06          40.00   42.57           0.16    0.60    0.80    0.41            0.39    0.42    0.39           0.57     0.66
B13        62.75   68.79   58.46          86.40   -8.10   -1.74           8.28  192.12           0.23    0.14    0.16    0.17            0.55    0.60    0.39           0.35     0.40
B14        68.98   67.17   56.19          85.59    9.29   -0.80           9.33  355.11           0.10    0.20    0.17    0.16            0.41    0.54    0.32           0.37     0.46
B15        73.82   76.30   51.89          90.00    0.52   11.41          11.43   87.40           0.09    0.12    0.22    0.11            0.48    0.57    0.72           0.46     0.52
B16        56.15   58.58   48.22          81.06   -0.82    0.14           0.89  168.61           0.23    0.23    0.25    0.23            0.40    0.51    0.56           0.45     0.50
B17        67.42   65.97   49.22          84.98    8.52    5.76          10.29   34.05           0.10    0.21    0.24    0.17            0.51    0.61    0.63           0.44     0.50
B18        61.35   67.82   51.22          85.92   -9.26    5.11          10.58  151.09           0.23    0.14    0.23    0.18            0.43    0.48    0.57           0.40     0.45
B19        58.27   60.71   55.44          82.22   -0.66   -5.81           5.86  263.47           0.23    0.21    0.18    0.22            0.40    0.48    0.22           0.40     0.47
B20         4.99    2.96    0.99          19.90   31.62   16.05          35.46   26.91           0.96    2.04    2.06    1.43            0.05    0.03    0.02           0.21     0.23
B21        16.91   11.28    4.08          40.05   38.27   23.23          44.77   31.26           0.47    1.28    1.41    0.87            0.14    0.10    0.10           0.34     0.41
B22        33.75   28.68   17.24          60.50   22.62   13.22          26.20   30.30           0.30    0.66    0.73    0.51            0.27    0.24    0.32           0.44     0.51
C1          6.23    6.04    3.35          29.51    4.49    9.74          10.72   65.27           1.08    1.28    1.53    1.20            0.07    0.07    0.06           0.21     0.24
C2          6.67    6.09    2.09          29.64    8.57   19.93          21.70   66.72           1.01    1.31    1.80    1.18            0.07    0.07    0.04           0.29     0.33
C3          7.17    6.12    1.13          29.71   13.24   30.92          33.63   66.81           0.94    1.34    2.18    1.17            0.05    0.04    0.02           0.20     0.22
C4          7.83    6.24    0.36          30.00   18.25   44.88          48.45   67.87           0.89    1.38    3.07    1.14            0.08    0.06    0.01           0.26     0.29
C5         24.01   23.19   11.69          55.27    7.39   18.61          20.02   68.34           0.50    0.69    0.94    0.62            0.36    0.35    0.32           0.48     0.57
C6         26.09   23.61    6.74          55.69   14.36   36.82          39.52   68.69           0.41    0.72    1.24    0.59            0.36    0.34    0.17           0.43     0.50
C7         27.80   23.22    3.19          55.30   23.01   55.32          59.92   67.42           0.35    0.77    1.70    0.58            0.25    0.22    0.06           0.33     0.39
C8         30.65   23.22    0.71          55.29   33.94   81.87          88.62   67.48           0.28    0.85    2.99    0.56            0.37    0.30    0.01           0.39     0.47
C9         41.16   41.69   28.69          70.66    2.94    8.79           9.27   71.44           0.32    0.40    0.50    0.37            0.64    0.67    0.72           0.65     0.72
C10        42.26   41.80   24.76          70.73    5.95   15.65          16.74   69.16           0.28    0.41    0.57    0.37            0.60    0.63    0.65           0.67     0.74
C11        43.60   42.07   20.54          70.92    9.10   24.05          25.72   69.28           0.24    0.42    0.67    0.36            0.51    0.54    0.49           0.59     0.67
C12        47.61   41.59    9.00          70.58   21.98   53.74          58.06   67.76           0.13    0.49    1.13    0.34            0.35    0.43    0.24           0.52     0.60
C13        55.96   63.97   57.50          83.95  -13.75   -4.98          14.63  199.92           0.32    0.15    0.17    0.21            0.44    0.48    0.34           0.31     0.36
C14        62.95   58.22   53.03          80.86   16.25   -5.59          17.18  341.01           0.11    0.29    0.19    0.22            0.35    0.46    0.26           0.35     0.45
C15        71.75   74.67   42.28          89.24   -0.52   21.41          21.42   91.41           0.09    0.13    0.33    0.12            0.45    0.53    0.76           0.59     0.67
C16        43.85   45.78   37.86          73.40   -0.84   -0.11           0.93  185.05           0.34    0.34    0.36    0.34            0.52    0.56    0.62           0.51     0.57
C17        59.20   55.12   38.28          79.11   14.99    9.17          17.57   31.45           0.11    0.32    0.35    0.24            0.40    0.46    0.64           0.52     0.59
C18        52.73   61.61   41.89          82.71  -16.58   10.64          19.70  147.32           0.32    0.17    0.33    0.22            0.48    0.52    0.66           0.49     0.56
C19        47.45   49.16   51.84          75.55    0.12  -13.44          13.44  270.51           0.33    0.31    0.20    0.32            0.42    0.50    0.25           0.39     0.47
C20        12.28    8.94    1.09          35.87   27.99   42.16          50.60   56.42           0.65    1.30    2.22    0.98            0.10    0.08    0.02           0.26     0.30
C21        21.83   20.27   11.22          52.14   10.99   14.65          18.32   53.10           0.52    0.77    0.95    0.67            0.19    0.18    0.25           0.47     0.55
C22        27.64   23.37   10.97          55.45   21.71   21.12          30.29   44.20           0.37    0.76    0.96    0.59            0.23    0.20    0.25           0.51     0.57
D1          4.17    4.31    2.38          24.68    0.21    8.79           8.80   88.66           1.28    1.40    1.70    1.36            0.09    0.07    0.05           0.42     0.48
D2          4.27    4.49    1.49          25.23   -0.91   18.60          18.62   92.80           1.27    1.37    2.00    1.34            0.05    0.05    0.03           0.34     0.40
D3          4.11    4.32    0.86          24.70   -0.79   26.55          26.56   91.70           1.29    1.38    2.37    1.35            0.07    0.06    0.02           0.28     0.33
D4          4.12    4.40    0.40          24.95   -1.73   35.54          35.58   92.78           1.32    1.35    3.03    1.34            0.04    0.04    0.01           0.28     0.32
D5         17.97   18.88    9.63          50.55   -1.25   17.02          17.06   94.21           0.67    0.74    1.04    0.72            0.19    0.21    0.21           0.43     0.49
D6         17.73   18.82    5.15          50.48   -2.20   35.30          35.37   93.57           0.67    0.73    1.41    0.71            0.25    0.25    0.13           0.39     0.43
D7         17.39   18.53    2.45          50.13   -2.57   52.07          52.14   92.83           0.68    0.73    1.92    0.71            0.16    0.17    0.05           0.25     0.28
D8         17.62   19.03    0.90          50.72   -3.88   70.67          70.77   93.14           0.72    0.71    2.91    0.70            0.19    0.20    0.02           0.30     0.33
D9         47.47   49.83   25.81          75.97   -1.60   22.81          22.87   94.01           0.26    0.31    0.57    0.29            0.62    0.67    0.70           0.67     0.74
D10        46.78   49.37   14.47          75.68   -2.30   46.15          46.20   92.86           0.25    0.31    0.89    0.29            0.63    0.70    0.38           0.56     0.62
D11        46.27   49.25    7.16          75.60   -3.41   69.40          69.48   92.81           0.26    0.31    1.34    0.29            0.44    0.47    0.13           0.41     0.48
D12        45.98   49.16    1.81          75.55   -3.99  101.87         101.95   92.24           0.30    0.31    2.63    0.29            0.37    0.37    0.02           0.32     0.40
D13        49.67   59.39   56.55          81.50  -19.45   -8.22          21.12  202.91           0.42    0.17    0.17    0.25            0.33    0.41    0.30           0.31     0.35
D14        56.98   49.74   49.83          75.91   23.43  -10.58          25.71  335.70           0.13    0.39    0.21    0.28            0.33    0.41    0.27           0.34     0.43
D15        69.98   73.22   33.08          88.55   -1.33   32.79          32.82   92.32           0.09    0.14    0.46    0.12            0.45    0.52    0.77           0.71     0.83
D16        32.82   34.42   28.18          65.29   -1.30    0.37           1.40  165.00           0.46    0.47    0.50    0.47            0.41    0.43    0.53           0.45     0.53
D17        51.38   45.16   28.35          73.00   21.76   13.38          25.55   31.57           0.13    0.44    0.50    0.32            0.38    0.42    0.62           0.64     0.73
D18        45.15   56.05   33.28          79.64  -23.98   17.15          29.49  144.44           0.43    0.19    0.45    0.27            0.47    0.52    0.68           0.56     0.66
D19        37.70   38.84   48.27          68.64    0.79  -21.34          21.36  272.10           0.46    0.41    0.23    0.42            0.29    0.37    0.21           0.39     0.45
D20         3.02    2.98    1.07          19.96    2.68   14.97          15.21   79.85           1.38    1.58    2.14    1.51            0.05    0.04    0.02           0.31     0.34
D21        31.10   28.80    1.54          60.61   12.70   79.00          80.01   80.87           0.36    0.61    2.41    0.50            0.33    0.32    0.03           0.33     0.38
D22        41.45   44.24   50.48          72.39   -3.62  -17.38          17.76  258.22           0.43    0.34    0.21    0.37            0.37    0.44    0.26           0.33     0.43
E1          5.45    6.18    3.40          29.87   -5.84   10.00          11.59  120.27           1.22    1.20    1.54    1.22            0.09    0.07    0.07           0.38     0.44
E2          5.11    6.30    2.23          30.14  -11.09   19.54          22.47  119.58           1.29    1.15    1.81    1.21            0.09    0.08    0.04           0.36     0.41
E3          4.68    6.29    1.35          30.12  -16.35   28.76          33.09  119.62           1.39    1.11    2.17    1.22            0.10    0.10    0.03           0.35     0.42
E4          4.37    6.46    0.60          30.53  -22.33   41.32          46.97  118.39           1.54    1.06    2.94    1.21            0.05    0.06    0.01           0.33     0.40
E5         25.19   28.93   15.58          60.72  -11.04   17.55          20.74  122.20           0.60    0.51    0.81    0.54            0.34    0.38    0.43           0.60     0.68
E6         22.86   28.55    9.53          60.38  -19.75   34.30          39.58  119.94           0.68    0.48    1.10    0.55            0.27    0.33    0.24           0.48     0.56
E7         20.63   28.39    5.21          60.24  -29.56   51.80          59.65  119.71           0.79    0.45    1.52    0.56            0.15    0.21    0.10           0.27     0.32
E8         17.74   27.98    1.87          59.87  -42.65   74.23          85.61  119.88           1.05    0.40    2.49    0.58            0.06    0.10    0.03           0.27     0.33
E9         45.46   49.56   33.42          75.80   -6.54   10.31          12.21  122.43           0.33    0.29    0.43    0.31            0.58    0.64    0.77           0.60     0.69
E10        42.80   49.13   26.15          75.53  -13.12   21.46          25.16  121.45           0.37    0.28    0.57    0.31            0.50    0.54    0.62           0.63     0.70
E11        40.96   49.04   20.47          75.47  -18.43   32.05          36.97  119.91           0.41    0.26    0.71    0.32            0.50    0.57    0.55           0.68     0.75
E12        37.27   48.86   12.23          75.36  -29.61   51.70          59.58  119.80           0.51    0.23    1.02    0.32            0.43    0.49    0.36           0.60     0.68
E13        44.87   55.92   56.09          79.57  -24.50  -11.07          26.88  204.32           0.52    0.17    0.18    0.28            0.29    0.34    0.29           0.25     0.28
E14        51.36   42.09   46.67          70.93   30.59  -15.51          34.30  333.12           0.15    0.50    0.23    0.35            0.25    0.32    0.21           0.31     0.38
E15        68.62   71.95   25.55          87.94   -1.62   43.91          43.94   92.12           0.09    0.15    0.60    0.13            0.33    0.43    0.64           0.78     0.87
E16        24.09   25.33   20.49          57.40   -1.48    0.85           1.74  151.74           0.59    0.60    0.65    0.60            0.25    0.26    0.41           0.48     0.54
E17        44.29   36.41   20.21          66.83   28.74   17.69          33.75   31.60           0.16    0.58    0.65    0.40            0.30    0.31    0.46           0.62     0.69
E18        39.08   51.38   26.27          76.91  -30.47   23.64          38.57  142.20           0.52    0.20    0.58    0.31            0.39    0.47    0.51           0.53     0.60
E19        30.08   30.71   45.16          62.26    1.78  -28.66          28.72  273.55           0.58    0.51    0.25    0.53            0.28    0.35    0.20           0.40     0.47
E20         7.14    8.46    1.41          34.92   -9.54   36.28          37.51  104.73           1.13    1.03    2.18    1.07            0.09    0.09    0.03           0.32     0.35
E21        24.53   29.36    6.38          61.10  -15.51   47.75          50.21  107.99           0.61    0.49    1.36    0.53            0.29    0.34    0.14           0.36     0.41
E22         8.92   18.89   13.76          50.56  -60.73    4.69          60.91  175.58           1.86    0.51    0.90    0.80            0.11    0.19    0.30           0.47     0.55
F1          3.61    4.39    3.09          24.92   -9.15    3.62           9.85  158.38           1.45    1.32    1.57    1.38            0.08    0.07    0.08           0.50     0.56
F2          2.86    4.30    2.61          24.63  -20.27    6.80          21.38  161.46           1.70    1.26    1.69    1.41            0.06    0.06    0.05           0.36     0.41
F3          2.43    4.39    2.26          24.93  -29.91   10.25          31.62  161.08           1.94    1.20    1.80    1.42            0.03    0.05    0.04           0.29     0.32
F4          1.63    4.51    1.70          25.29  -49.54   16.41          52.19  161.67           2.76    1.09    2.07    1.43            0.02    0.06    0.04           0.29     0.34
F5         11.70   14.81   10.25          45.37  -16.96    6.02          18.00  160.47           1.01    0.77    1.00    0.85            0.14    0.17    0.30           0.55     0.64
F6          9.39   14.80    8.64          45.36  -34.45   11.55          36.34  161.46           1.29    0.70    1.12    0.88            0.11    0.16    0.17           0.41     0.49
F7          7.63   14.93    7.18          45.53  -50.61   17.48          53.54  160.95           1.64    0.63    1.25    0.89            0.08    0.15    0.15           0.34     0.41
F8          5.57   14.52    5.68          44.97  -69.48   23.18          73.25  161.55           2.32    0.58    1.44    0.92            0.07    0.15    0.14           0.39     0.46
F9         30.30   35.06   26.82          65.79  -12.64    3.52          13.12  164.47           0.56    0.42    0.53    0.47            0.42    0.47    0.64           0.58     0.67
F10        26.66   34.32   23.88          65.22  -24.33    7.76          25.55  162.33           0.69    0.39    0.60    0.49            0.38    0.46    0.63           0.60     0.70
F11        24.28   34.79   21.93          65.58  -35.92   12.09          37.90  161.40           0.83    0.35    0.66    0.49            0.29    0.40    0.54           0.61     0.72
F12        19.61   34.13   18.57          65.07  -55.39   18.13          58.29  161.88           1.14    0.30    0.77    0.52            0.16    0.19    0.40           0.63     0.74
F13        40.62   52.67   55.65          77.68  -28.95  -13.87          32.10  205.61           0.62    0.18    0.18    0.32            0.26    0.31    0.31           0.22     0.25
F14        45.27   34.28   42.99          65.18   38.69  -20.95          44.00  331.56           0.17    0.64    0.26    0.43            0.23    0.26    0.21           0.27     0.33
F15        67.62   70.83   19.63          87.40   -1.48   54.36          54.38   91.56           0.09    0.16    0.75    0.13            0.34    0.44    0.51           0.72     0.84
F16        16.75   17.45   14.42          48.83   -0.43   -0.05           0.61  185.17           0.73    0.77    0.81    0.76            0.17    0.18    0.28           0.48     0.55
F17        37.22   27.99   13.69          59.88   37.00   20.92          42.51   29.48           0.19    0.76    0.83    0.50            0.24    0.24    0.30           0.49     0.56
