targets/wolf_faust/transmissive/E120104.it8
IT8.7/1
ORIGINATOR "Wolf Faust"
DESCRIPTOR "Ektachrome, Type 3, L* a* b* (light D50, viewing angle 2)"
MANUFACTURER "Wolf Faust - http://www.coloraid.de"
CREATED "January 04, 2012"
PROD_DATE "2011:09"
DIFFUSE_GEOMETRY "opal"
SERIAL "E120104 Batch Average Data"
MATERIAL "For Kodak Ektachrome Product Family"
KEYWORD "MEAN_DE" # Mean Delta E of samples compared to batch average
NUMBER_OF_FIELDS 18
BEGIN_DATA_FORMAT
SAMPLE_ID  XYZ_X   XYZ_Y   XYZ_Z          LAB_L   LAB_A   LAB_B          LAB_C   LAB_H          D_RED  D_GREEN  D_BLUE  D_VIS          STDEV_X STDEV_Y STDEV_Z        MEAN_DE  STDEV_DE
END_DATA_FORMAT
NUMBER_OF_SETS 288
BEGIN_DATA
A1          2.26    1.91    1.30          15.03    9.34    3.32           9.92   19.58           1.45    1.88    1.95    1.69            0.06    0.05    0.04           0.36     0.41
A2          2.77    1.87    1.06          14.80   20.31    6.26          21.26   17.12           1.27    2.08    2.02    1.66            0.04    0.03    0.02           0.23     0.27 
A3          3.32    1.88    0.97          14.84   29.70    7.67          30.68   14.47           1.13    2.33    2.03    1.62            0.07    0.04    0.03           0.26     0.32
A4          4.14    1.89    0.76          14.92   41.77   11.39          43.29   15.25           0.96    3.01    2.07    1.57            0.05    0.02    0.02           0.28     0.34 
A5          9.72    8.46    5.96          34.91   13.25    4.50          13.99   18.77           0.84    1.19    1.22    1.05            0.13    0.12    0.11           0.34     0.40
A6         11.65    8.35    5.07          34.71   28.64    8.49          29.88   16.51           0.68    1.35    1.28    1.02            0.16    0.12    0.11           0.32     0.38 
A7         13.78    8.35    4.41          34.70   42.88   12.09          44.55   15.74           0.54    1.54    1.33    0.98            0.18    0.11    0.09           0.33     0.40
A8         17.06    8.51    3.58          35.02   60.78   17.70          63.31   16.23           0.37    1.94    1.39    0.93            0.12    0.07    0.09           0.34     0.41 
A9         29.28   28.67   21.91          60.49    6.37    3.34           7.20   27.65           0.45    0.58    0.62    0.53            0.37    0.37    0.38           0.43     0.50
A10        31.42   28.61   20.37          60.44   14.61    6.32          15.92   23.39           0.37    0.62    0.65    0.52            0.31    0.31    0.35           0.46     0.56
A11        33.41   28.38   19.56          60.23   22.61    7.64          23.87   18.68           0.31    0.67    0.66    0.51            0.28    0.27    0.31           0.48     0.56
A12        38.13   28.58   17.96          60.41   37.63   11.44          39.33   16.91           0.18    0.75    0.69    0.49            0.25    0.25    0.27           0.46     0.54 
A13        72.52   77.60   62.67          90.59   -4.76    1.32           4.95  164.61           0.14    0.10    0.13    0.11            0.34    0.39    0.16           0.32     0.37
A14        77.88   79.54   62.15          91.48    2.38    3.34           4.11   54.47           0.07    0.11    0.13    0.10            0.24    0.38    0.17           0.33     0.39 
A15        79.86   82.67   62.84          92.87    0.30    5.07           5.09   86.56           0.07    0.08    0.13    0.08            0.24    0.36    0.18           0.30     0.35
A16        74.97   78.06   62.14          90.81   -0.59    2.19           2.28  104.67           0.10    0.11    0.13    0.11            0.22    0.31    0.14           0.29     0.35
A17        79.37   81.93   62.45          92.55    0.73    4.89           4.95   81.40           0.07    0.09    0.13    0.08            0.20    0.32    0.15           0.31     0.36
A18        76.60   80.40   60.72          91.86   -1.85    5.42           5.73  108.85           0.09    0.09    0.14    0.09            0.39    0.47    0.27           0.31     0.36 
A19        67.74   70.74   60.02          87.36   -1.01   -1.66           1.96  238.62           0.16    0.15    0.14    0.15            0.23    0.32    0.13           0.31     0.36
A20         6.32    2.97    1.80          19.91   46.77    5.99          47.16    7.30           0.79    2.64    1.67    1.38            0.11    0.05    0.04           0.34     0.40 
A21        26.40   18.60   14.38          50.21   39.26    2.46          39.33    3.59           0.33    0.99    0.78    0.67            0.31    0.24    0.25           0.32     0.38
A22        53.68   49.22   31.96          75.59   16.53   12.14          20.51   36.28           0.14    0.38    0.44    0.29            0.45    0.51    0.48           0.43     0.55
B1          3.26    2.89    1.64          19.58    8.29    7.17          10.97   40.85           1.31    1.67    1.86    1.51            0.05    0.04    0.04           0.26     0.31
B2          3.89    2.95    1.06          19.86   16.92   15.04          22.64   41.63           1.16    1.76    2.09    1.47            0.03    0.03    0.02           0.22     0.26
B3          4.40    2.87    0.65          19.51   25.66   21.39          33.41   39.81           1.05    1.92    2.34    1.45            0.04    0.03    0.02           0.22     0.27
B4          5.33    2.95    0.15          19.86   35.90   31.45          47.72   41.22           0.91    2.16    3.25    1.41            0.05    0.03    0.00           0.20     0.25
B5         12.69   11.39    6.39          40.23   11.99   11.71          16.76   44.33           0.74    1.04    1.21    0.92            0.19    0.17    0.10           0.43     0.49
B6         14.54   11.18    4.02          39.89   25.24   23.32          34.36   42.74           0.60    1.16    1.45    0.89            0.20    0.16    0.10           0.29     0.36
B7         17.04   11.44    2.62          40.32   37.82   33.74          50.69   41.73           0.47    1.27    1.67    0.86            0.17    0.12    0.05           0.24     0.28
B8         20.57   11.21    1.01          39.93   57.70   50.33          76.57   41.10           0.31    1.59    2.15    0.82            0.16    0.11    0.02           0.20     0.24
B9         34.71   34.72   25.41          65.53    4.25    5.51           6.97   52.29           0.39    0.49    0.55    0.45            0.45    0.48    0.46           0.51     0.58
B10        36.40   34.63   22.54          65.46   10.25   10.68          14.80   46.17           0.33    0.51    0.61    0.44            0.38    0.39    0.34           0.38     0.46
B11        37.93   34.42   20.20          65.29   15.94   15.06          21.93   43.35           0.28    0.54    0.66    0.44            0.33    0.33    0.37           0.45     0.54
B12        42.77   34.79   14.65          65.58   29.69   28.25          40.99   43.58           0.16    0.61    0.82    0.41            0.32    0.35    0.31           0.52     0.58
B13        62.61   68.65   58.13          86.33   -8.12   -1.52           8.27  190.65           0.23    0.14    0.16    0.17            0.57    0.61    0.33           0.43     0.50
B14        69.04   67.24   55.96          85.62    9.27   -0.50           9.29  356.97           0.10    0.20    0.17    0.16            0.44    0.55    0.31           0.38     0.46
B15        73.49   75.94   50.95          89.83    0.55   12.16          12.18   87.40           0.09    0.13    0.23    0.11            0.46    0.59    0.48           0.44     0.50
B16        56.01   58.39   47.74          80.95   -0.72    0.51           0.91  147.90           0.23    0.23    0.25    0.23            0.46    0.49    0.58           0.40     0.46
B17        67.03   65.52   48.28          84.75    8.66    6.44          10.79   36.64           0.10    0.22    0.25    0.17            0.48    0.61    0.52           0.38     0.49
B18        61.04   67.49   50.34          85.75   -9.26    5.82          10.94  147.87           0.23    0.15    0.24    0.18            0.54    0.64    0.48           0.35     0.41
B19        58.34   60.72   55.14          82.23   -0.49   -5.49           5.52  264.81           0.23    0.21    0.18    0.22            0.25    0.31    0.15           0.29     0.35
B20         4.99    2.97    0.99          19.93   31.46   16.23          35.40   27.29           0.96    2.04    2.07    1.42            0.05    0.03    0.02           0.21     0.24
B21        16.94   11.31    4.02          40.10   38.21   23.66          44.94   31.77           0.47    1.28    1.42    0.87            0.22    0.15    0.09           0.31     0.35
B22        33.52   28.49   16.74          60.33   22.56   14.09          26.60   31.98           0.30    0.67    0.74    0.51            0.32    0.30    0.30           0.40     0.49
C1          6.22    6.05    3.29          29.53    4.22   10.18          11.02   67.51           1.08    1.28    1.54    1.20            0.07    0.06    0.05           0.33     0.37
C2          6.68    6.11    2.08          29.69    8.37   20.14          21.81   67.43           1.01    1.31    1.80    1.18            0.04    0.04    0.03           0.22     0.26
C3          7.13    6.11    1.12          29.68   13.01   31.11          33.72   67.31           0.95    1.34    2.19    1.17            0.07    0.06    0.02           0.22     0.24
C4          7.75    6.19    0.36          29.88   18.05   44.77          48.27   68.04           0.90    1.38    3.09    1.15            0.09    0.07    0.01           0.31     0.36
C5         23.83   23.06   11.40          55.13    7.19   19.25          20.55   69.52           0.50    0.69    0.95    0.62            0.29    0.29    0.23           0.38     0.43
C6         25.92   23.48    6.58          55.56   14.25   37.31          39.94   69.10           0.42    0.72    1.26    0.59            0.31    0.31    0.14           0.28     0.35
C7         27.61   23.05    3.12          55.13   22.96   55.50          60.07   67.52           0.35    0.77    1.72    0.59            0.37    0.33    0.07           0.33     0.40
C8         30.80   23.32    0.71          55.40   34.03   82.07          88.85   67.48           0.28    0.85    2.98    0.56            0.34    0.27    0.01           0.35     0.44
C9         40.65   41.20   27.93          70.31    2.88    9.44           9.88   72.98           0.33    0.41    0.51    0.38            0.51    0.55    0.50           0.49     0.57
C10        41.74   41.28   23.96          70.37    5.94   16.48          17.52   70.18           0.29    0.42    0.59    0.37            0.43    0.46    0.43           0.41     0.48
C11        43.17   41.64   19.83          70.62    9.13   25.02          26.63   69.96           0.25    0.43    0.69    0.36            0.39    0.44    0.35           0.41     0.49
C12        47.46   41.35    8.69          70.42   22.28   54.56          58.93   67.79           0.13    0.49    1.15    0.34            0.34    0.42    0.16           0.45     0.52
C13        55.89   63.92   57.26          83.92  -13.82   -4.78          14.63  199.08           0.32    0.15    0.17    0.21            0.49    0.54    0.31           0.42     0.48
C14        63.06   58.33   52.87          80.92   16.24   -5.31          17.09  341.89           0.11    0.29    0.19    0.22            0.37    0.46    0.27           0.35     0.43
C15        71.52   74.43   41.40          89.13   -0.52   22.33          22.34   91.33           0.09    0.13    0.34    0.12            0.44    0.55    0.55           0.49     0.56
C16        43.64   45.52   37.20          73.23   -0.74    0.50           0.93  150.30           0.33    0.34    0.37    0.34            0.41    0.42    0.56           0.43     0.51
C17        59.02   54.92   37.53          79.00   15.06    9.99          18.08   33.54           0.11    0.32    0.36    0.24            0.42    0.52    0.50           0.40     0.51
C18        52.59   61.46   41.17          82.63  -16.60   11.42          20.15  145.47           0.32    0.17    0.34    0.22            0.58    0.65    0.54           0.40     0.47
C19        47.37   49.00   51.52          75.45    0.34  -13.26          13.27  271.47           0.33    0.31    0.21    0.32            0.32    0.35    0.22           0.31     0.37
C20        12.33    8.99    1.09          35.97   27.89   42.36          50.72   56.63           0.64    1.29    2.22    0.97            0.10    0.08    0.02           0.23     0.28
C21        21.71   20.17   10.89          52.03   10.93   15.46          18.94   54.76           0.52    0.77    0.96    0.67            0.28    0.27    0.18           0.32     0.36
C22        27.53   23.27   10.72          55.35   21.70   21.73          30.71   45.05           0.37    0.76    0.97    0.59            0.28    0.26    0.17           0.25     0.30
D1          4.17    4.32    2.37          24.72    0.00    8.99           9.00   89.98           1.28    1.40    1.71    1.36            0.08    0.07    0.06           0.33     0.38
D2          4.28    4.51    1.47          25.29   -0.94   18.92          18.94   92.83           1.27    1.36    2.00    1.33            0.08    0.07    0.04           0.35     0.40
D3          4.09    4.31    0.84          24.68   -0.94   26.75          26.77   92.00           1.29    1.38    2.38    1.35            0.08    0.08    0.02           0.30     0.34
D4          4.09    4.39    0.40          24.91   -1.88   35.43          35.48   93.04           1.32    1.35    3.01    1.34            0.06    0.07    0.01           0.36     0.45
D5         17.74   18.67    9.31          50.30   -1.41   17.68          17.74   94.56           0.68    0.74    1.06    0.72            0.23    0.24    0.15           0.29     0.33
D6         17.63   18.74    5.06          50.38   -2.33   35.56          35.64   93.74           0.67    0.73    1.42    0.71            0.19    0.22    0.10           0.31     0.36
D7         17.47   18.63    2.44          50.25   -2.65   52.37          52.44   92.90           0.68    0.73    1.93    0.71            0.20    0.23    0.06           0.30     0.33
D8         17.62   19.04    0.90          50.73   -3.92   70.74          70.85   93.17           0.72    0.71    2.91    0.70            0.20    0.22    0.01           0.34     0.41
D9         46.86   49.18   24.92          75.56   -1.55   23.69          23.74   93.75           0.27    0.31    0.58    0.30            0.51    0.56    0.49           0.46     0.55
D10        46.39   48.91   13.96          75.40   -2.16   46.97          47.02   92.63           0.25    0.32    0.91    0.30            0.37    0.43    0.30           0.42     0.50
D11        45.94   48.84    6.94          75.35   -3.22   69.86          69.93   92.64           0.26    0.31    1.36    0.29            0.32    0.39    0.10           0.30     0.35
D12        45.79   48.92    1.78          75.40   -3.88  101.92         101.99   92.18           0.30    0.31    2.65    0.29            0.31    0.37    0.02           0.35     0.40
D13        49.83   59.57   56.46          81.60  -19.47   -7.95          21.03  202.22           0.42    0.16    0.18    0.25            0.36    0.42    0.24           0.40     0.45
D14        57.04   49.74   49.67          75.91   23.56  -10.40          25.76  336.18           0.13    0.39    0.21    0.28            0.29    0.35    0.23           0.31     0.38
D15        70.03   73.25   32.66          88.57   -1.27   33.45          33.47   92.17           0.09    0.14    0.46    0.12            0.30    0.38    0.46           0.54     0.63
D16        32.71   34.32   27.64          65.21   -1.35    1.13           1.77  140.61           0.46    0.47    0.51    0.47            0.41    0.42    0.45           0.42     0.49
D17        51.32   45.08   27.67          72.94   21.82   14.42          26.15   33.45           0.13    0.44    0.51    0.32            0.36    0.42    0.43           0.43     0.52
D18        45.08   55.96   32.59          79.59  -23.98   18.08          30.03  143.00           0.42    0.19    0.46    0.27            0.50    0.55    0.50           0.42     0.51
D19        37.82   38.94   48.11          68.71    0.87  -21.03          21.05  272.36           0.45    0.41    0.23    0.42            0.37    0.38    0.30           0.36     0.42
D20         3.01    2.98    1.06          19.95    2.42   15.10          15.30   80.92           1.39    1.58    2.14    1.51            0.06    0.05    0.02           0.38     0.44
D21        31.21   28.83    1.52          60.64   12.96   79.26          80.32   80.72           0.36    0.61    2.42    0.50            0.26    0.24    0.01           0.26     0.32
D22        41.28   43.98   50.16          72.21   -3.38  -17.32          17.65  258.95           0.43    0.34    0.22    0.37            0.38    0.42    0.24           0.36     0.44
E1          5.45    6.20    3.38          29.91   -6.05   10.20          11.86  120.65           1.22    1.20    1.55    1.21            0.09    0.08    0.09           0.45     0.53
E2          5.10    6.30    2.20          30.16  -11.31   19.86          22.86  119.66           1.29    1.15    1.82    1.21            0.09    0.09    0.05           0.37     0.44
E3          4.65    6.26    1.32          30.05  -16.50   29.06          33.42  119.58           1.39    1.12    2.19    1.22            0.09    0.10    0.03           0.41     0.47
E4          4.26    6.32    0.58          30.20  -22.37   41.09          46.79  118.56           1.56    1.07    2.96    1.22            0.06    0.10    0.01           0.46     0.52
E5         24.89   28.63   15.06          60.46  -11.20   18.37          21.52  121.37           0.60    0.51    0.83    0.55            0.27    0.32    0.28           0.41     0.47
E6         22.71   28.36    9.30          60.21  -19.72   34.80          40.00  119.54           0.68    0.49    1.12    0.56            0.22    0.27    0.14           0.28     0.33
E7         20.65   28.39    5.14          60.24  -29.46   52.18          59.93  119.45           0.79    0.45    1.53    0.56            0.21    0.28    0.10           0.29     0.35
E8         17.87   28.12    1.85          60.00  -42.50   74.68          85.92  119.64           1.05    0.40    2.51    0.57            0.14    0.14    0.02           0.39     0.43
E9         44.82   48.88   32.43          75.38   -6.55   11.05          12.85  120.66           0.33    0.30    0.45    0.31            0.45    0.50    0.50           0.42     0.53
E10        42.35   48.64   25.33          75.22  -13.14   22.37          25.95  120.43           0.38    0.28    0.58    0.32            0.41    0.45    0.41           0.44     0.53
E11        40.60   48.62   19.75          75.21  -18.39   33.09          37.86  119.07           0.41    0.27    0.73    0.32            0.36    0.42    0.31           0.40     0.47
E12        37.06   48.58   11.86          75.19  -29.51   52.45          60.19  119.36           0.51    0.23    1.04    0.32            0.41    0.48    0.18           0.46     0.52
E13        44.88   55.95   55.83          79.58  -24.50  -10.78          26.77  203.75           0.52    0.17    0.18    0.28            0.29    0.34    0.21           0.35     0.40
E14        51.49   42.21   46.55          71.01   30.59  -15.22          34.17  333.54           0.14    0.50    0.24    0.35            0.24    0.27    0.21           0.23     0.31
E15        68.59   71.88   24.99          87.91   -1.55   44.85          44.88   91.99           0.09    0.15    0.61    0.13            0.37    0.47    0.44           0.52     0.62
E16        23.96   25.24   19.97          57.30   -1.61    1.76           2.39  133.03           0.59    0.60    0.66    0.60            0.25    0.25    0.34           0.44     0.51
E17        44.48   36.57   20.00          66.96   28.78   18.33          34.12   32.49           0.15    0.58    0.66    0.39            0.21    0.22    0.34           0.50     0.58
E18        39.12   51.44   25.84          76.94  -30.46   24.45          39.06  141.25           0.52    0.20    0.59    0.31            0.36    0.43    0.39           0.41     0.50
E19        30.26   30.90   45.12          62.42    1.76  -28.33          28.39  273.54           0.58    0.51    0.25    0.53            0.17    0.20    0.11           0.32     0.38
E20         7.14    8.48    1.40          34.95   -9.66   36.51          37.77  104.81           1.13    1.03    2.19    1.07            0.09    0.10    0.02           0.34     0.41
E21        24.55   29.33    6.25          61.07  -15.29   48.25          50.62  107.59           0.61    0.49    1.37    0.53            0.27    0.31    0.10           0.29     0.34
E22         8.86   18.77   13.57          50.42  -60.69    4.95          60.90  175.34           1.86    0.51    0.91    0.81            0.13    0.23    0.29           0.42     0.50
F1          3.59    4.40    3.09          24.95   -9.49    3.69          10.19  158.75           1.46    1.32    1.57    1.38            0.07    0.07    0.06           0.33     0.37
F2          2.86    4.31    2.60          24.66  -20.56    6.97          21.71  161.26           1.70    1.26    1.70    1.41            0.06    0.08    0.07           0.39     0.44
F3          2.40    4.36    2.21          24.84  -30.07   10.59          31.88  160.60           1.95    1.20    1.82    1.42            0.04    0.06    0.05           0.31     0.34
F4          1.63    4.48    1.65          25.21  -49.37   16.73          52.13  161.29           2.75    1.09    2.09    1.44            0.03    0.08    0.04           0.36     0.43
F5         11.62   14.76   10.06          45.31  -17.31    6.54          18.51  159.29           1.01    0.77    1.01    0.86            0.13    0.17    0.23           0.48     0.55
F6          9.28   14.65    8.38          45.15  -34.40   12.11          36.47  160.60           1.29    0.70    1.14    0.88            0.18    0.23    0.23           0.46     0.54
F7          7.54   14.78    7.01          45.33  -50.53   17.81          53.58  160.58           1.64    0.64    1.27    0.89            0.12    0.22    0.17           0.39     0.46
F8          5.52   14.41    5.46          44.82  -69.41   23.95          73.43  160.96           2.32    0.58    1.47    0.93            0.08    0.19    0.16           0.45     0.52
F9         29.79   34.52   25.89          65.38  -12.76    4.41          13.50  160.95           0.56    0.42    0.55    0.48            0.50    0.56    0.49           0.52     0.60
F10        26.47   34.13   23.24          65.06  -24.46    8.66          25.95  160.50           0.69    0.39    0.62    0.49            0.33    0.39    0.36           0.38     0.44
F11        24.02   34.42   21.27          65.30  -35.81   12.89          38.06  160.21           0.83    0.35    0.67    0.50            0.29    0.45    0.43           0.52     0.59
F12        19.63   34.22   18.13          65.14  -55.63   19.21          58.85  160.95           1.14    0.30    0.78    0.52            0.14    0.20    0.35           0.56     0.68
F13        40.71   52.82   55.48          77.77  -29.08  -13.53          32.08  204.96           0.62    0.18    0.18    0.32            0.17    0.24    0.17           0.29     0.35
F14        45.44   34.43   42.93          65.30   38.67  -20.67          43.85  331.87           0.17    0.64    0.26    0.43            0.21    0.22    0.22           0.24     0.29
F15        67.60   70.76   19.21          87.37   -1.38   55.20          55.22   91.43           0.09    0.16    0.76    0.13            0.34    0.44    0.32           0.49     0.55
F16        16.69   17.43   14.15          48.80   -0.64    0.60           0.89  139.45           0.73    0.77    0.82    0.76            0.17    0.17    0.23           0.37     0.41
F17        37.39   28.13   13.58          60.01   36.99   21.45          42.76   30.10           0.18    0.76    0.84    0.49            0.16    0.15    0.21           0.34     0.39
