targets/wolf_faust/transmissive/E120607.it8
IT8.7/1
ORIGINATOR "Wolf Faust"
DESCRIPTOR "Ektachrome, Type 3, L* a* b* (light D50, viewing angle 2)"
MANUFACTURER "Wolf Faust - http://www.coloraid.de"
CREATED "March 21, 2012"
PROD_DATE "2011:09"
DIFFUSE_GEOMETRY "opal"
SERIAL "E120607 Batch Average Data"
MATERIAL "For Kodak Ektachrome Product Family"
KEYWORD "MEAN_DE" # Mean Delta E of samples compared to batch average
NUMBER_OF_FIELDS 18
BEGIN_DATA_FORMAT
SAMPLE_ID  XYZ_X   XYZ_Y   XYZ_Z          LAB_L   LAB_A   LAB_B          LAB_C   LAB_H          D_RED  D_GREEN  D_BLUE  D_VIS          STDEV_X STDEV_Y STDEV_Z        MEAN_DE  STDEV_DE
END_DATA_FORMAT
NUMBER_OF_SETS 288
BEGIN_DATA
A1          2.19    1.87    1.29          14.77    8.94    3.04           9.45   18.78           1.47    1.89    1.95    1.70            0.04    0.03    0.03           0.41     0.47
A2          2.72    1.85    1.10          14.67   19.95    5.44          20.68   15.26           1.28    2.08    2.00    1.66            0.03    0.02    0.03           0.37     0.41 
A3          3.27    1.85    0.92          14.67   29.57    8.23          30.70   15.55           1.14    2.34    2.05    1.63            0.05    0.03    0.02           0.32     0.36
A4          4.06    1.86    0.77          14.71   41.52   10.90          42.93   14.70           0.97    3.04    2.06    1.58            0.08    0.04    0.02           0.41     0.50 
A5          9.63    8.34    5.80          34.68   13.56    4.82          14.39   19.58           0.85    1.20    1.24    1.05            0.16    0.13    0.12           0.43     0.48
A6         11.37    8.15    4.89          34.29   28.41    8.74          29.73   17.10           0.69    1.36    1.30    1.03            0.17    0.12    0.12           0.49     0.53 
A7         13.96    8.42    4.25          34.84   43.38   13.23          45.36   16.96           0.53    1.54    1.35    0.98            0.17    0.10    0.09           0.46     0.50
A8         17.00    8.48    3.46          34.95   60.75   18.36          63.47   16.82           0.38    1.94    1.41    0.94            0.15    0.08    0.09           0.39     0.46 
A9         29.02   28.38   21.36          60.23    6.50    3.97           7.63   31.28           0.45    0.59    0.63    0.54            0.35    0.32    0.44           0.60     0.69
A10        30.95   28.18   20.29          60.05   14.55    5.83          15.69   21.81           0.38    0.63    0.65    0.53            0.32    0.27    0.42           0.57     0.64
A11        33.37   28.33   19.49          60.18   22.68    7.74          23.97   18.84           0.31    0.67    0.66    0.52            0.37    0.33    0.31           0.50     0.57
A12        37.92   28.38   17.48          60.23   37.76   12.21          39.68   17.91           0.19    0.76    0.71    0.49            0.22    0.22    0.28           0.41     0.47 
A13        72.16   77.11   62.16          90.37   -4.55    1.42           4.77  162.61           0.14    0.10    0.13    0.12            0.32    0.32    0.26           0.27     0.30
A14        77.20   78.65   61.54          91.07    2.76    3.24           4.26   49.53           0.07    0.11    0.13    0.10            0.26    0.33    0.28           0.22     0.25 
A15        79.45   82.21   62.34          92.67    0.36    5.21           5.23   86.04           0.07    0.09    0.13    0.08            0.23    0.30    0.29           0.25     0.29
A16        73.19   76.15   61.24          89.93   -0.49    1.56           1.64  107.36           0.11    0.12    0.14    0.12            0.37    0.40    0.30           0.25     0.28
A17        78.47   80.77   61.25          92.03    1.16    5.17           5.30   77.30           0.07    0.10    0.14    0.09            0.25    0.32    0.33           0.25     0.28
A18        76.29   80.04   60.16          91.70   -1.79    5.70           5.98  107.44           0.10    0.09    0.15    0.10            0.31    0.34    0.32           0.28     0.32 
A19        67.32   70.30   59.47          87.14   -1.01   -1.48           1.80  235.28           0.16    0.15    0.15    0.16            0.41    0.44    0.28           0.28     0.35
A20         6.28    2.95    1.77          19.82   46.79    6.21          47.20    7.55           0.80    2.66    1.68    1.38            0.07    0.03    0.05           0.46     0.53 
A21        26.25   18.43   14.18          50.01   39.54    2.63          39.63    3.80           0.33    1.00    0.79    0.67            0.31    0.24    0.26           0.41     0.48
A22        53.52   49.03   31.59          75.47   16.64   12.49          20.81   36.87           0.14    0.38    0.45    0.29            0.47    0.52    0.48           0.56     0.63
B1          3.18    2.83    1.62          19.35    7.95    7.04          10.62   41.54           1.32    1.67    1.87    1.52            0.06    0.04    0.04           0.40     0.46
B2          3.80    2.91    1.11          19.67   16.46   13.96          21.59   40.30           1.17    1.76    2.06    1.48            0.05    0.04    0.03           0.26     0.30
B3          4.33    2.82    0.61          19.31   25.59   21.71          33.56   40.30           1.05    1.93    2.37    1.46            0.06    0.04    0.02           0.29     0.33
B4          5.30    2.92    0.14          19.73   36.05   31.35          47.78   41.01           0.91    2.17    3.28    1.41            0.07    0.04    0.00           0.27     0.33
B5         12.53   11.20    6.22          39.91   12.27   11.93          17.11   44.19           0.74    1.05    1.22    0.92            0.21    0.18    0.12           0.41     0.46
B6         14.43   11.08    4.08          39.72   25.29   22.69          33.97   41.90           0.60    1.16    1.44    0.90            0.22    0.16    0.09           0.46     0.52
B7         16.78   11.18    2.50          39.87   38.31   34.02          51.23   41.60           0.47    1.29    1.69    0.87            0.15    0.09    0.05           0.42     0.47
B8         20.60   11.21    1.02          39.94   57.81   50.18          76.55   40.96           0.31    1.59    2.15    0.82            0.09    0.06    0.03           0.34     0.40
B9         34.38   34.38   25.06          65.26    4.29    5.67           7.12   52.77           0.39    0.49    0.56    0.46            0.51    0.51    0.40           0.57     0.65
B10        35.90   33.97   21.93          64.94   10.82   10.97          15.42   45.36           0.33    0.53    0.62    0.45            0.42    0.40    0.41           0.56     0.63
B11        37.76   34.20   19.98          65.12   16.16   15.21          22.20   43.24           0.28    0.55    0.67    0.44            0.41    0.38    0.35           0.47     0.54
B12        42.54   34.44   14.59          65.31   30.15   27.94          41.11   42.81           0.16    0.62    0.82    0.41            0.32    0.35    0.28           0.46     0.54
B13        62.20   68.20   57.62          86.11   -8.10   -1.38           8.22  189.68           0.23    0.14    0.17    0.18            0.37    0.30    0.30           0.27     0.33
B14        68.92   67.13   55.57          85.57    9.26   -0.18           9.26  293.42           0.10    0.20    0.18    0.16            0.29    0.33    0.28           0.24     0.29
B15        73.33   75.76   50.45          89.75    0.57   12.59          12.60   87.39           0.09    0.13    0.24    0.12            0.41    0.42    0.56           0.41     0.48
B16        55.97   58.45   47.32          80.99   -0.97    1.06           1.45  133.81           0.23    0.23    0.26    0.23            0.49    0.52    0.51           0.43     0.48
B17        67.07   65.60   47.97          84.79    8.57    6.87          10.98   38.69           0.10    0.21    0.25    0.17            0.35    0.40    0.52           0.41     0.47
B18        60.88   67.32   49.91          85.67   -9.26    6.16          11.13  146.43           0.23    0.15    0.24    0.18            0.44    0.44    0.48           0.45     0.50
B19        58.32   60.78   54.79          82.26   -0.70   -5.06           5.11  262.10           0.23    0.21    0.18    0.22            0.50    0.54    0.30           0.38     0.44
B20         4.89    2.91    0.95          19.70   31.25   16.46          35.32   27.78           0.97    2.04    2.09    1.43            0.06    0.03    0.02           0.34     0.39
B21        16.66   11.07    3.96          39.70   38.43   23.38          44.99   31.31           0.48    1.30    1.43    0.87            0.22    0.15    0.09           0.38     0.45
B22        33.48   28.43   16.52          60.27   22.65   14.52          26.91   32.65           0.30    0.67    0.75    0.51            0.47    0.43    0.31           0.51     0.57
C1          6.09    5.96    3.13          29.32    3.82   10.95          11.60   70.76           1.09    1.28    1.57    1.21            0.06    0.06    0.06           0.34     0.38
C2          6.58    6.04    2.00          29.52    8.10   20.59          22.12   68.51           1.02    1.31    1.83    1.19            0.05    0.05    0.04           0.33     0.38
C3          7.02    5.97    1.06          29.34   13.37   31.39          34.12   66.93           0.95    1.36    2.22    1.18            0.07    0.06    0.02           0.33     0.39
C4          7.66    6.07    0.35          29.58   18.43   44.43          48.10   67.47           0.90    1.39    3.10    1.15            0.08    0.07    0.01           0.24     0.29
C5         23.71   22.87   11.30          54.94    7.46   19.24          20.63   68.80           0.50    0.69    0.95    0.62            0.39    0.38    0.23           0.56     0.64
C6         25.70   23.11    6.17          55.19   14.92   38.47          41.26   68.79           0.42    0.73    1.29    0.60            0.40    0.36    0.13           0.53     0.60
C7         27.90   23.31    3.06          55.38   23.00   56.35          60.86   67.80           0.35    0.77    1.73    0.58            0.32    0.27    0.07           0.47     0.54
C8         30.50   23.06    0.70          55.13   34.05   81.82          88.62   67.41           0.28    0.85    2.99    0.57            0.31    0.24    0.01           0.35     0.43
C9         40.33   41.10   27.24          70.24    2.18   10.48          10.70   78.17           0.33    0.40    0.52    0.38            0.64    0.64    0.53           0.65     0.75
C10        41.60   41.32   23.46          70.39    5.43   17.46          18.29   72.72           0.29    0.42    0.60    0.37            0.61    0.61    0.40           0.59     0.70
C11        42.38   40.69   19.28          69.96    9.65   25.03          26.83   68.91           0.25    0.44    0.70    0.37            0.46    0.46    0.42           0.57     0.67
C12        47.25   41.04    8.47          70.21   22.62   54.98          59.45   67.63           0.13    0.50    1.16    0.34            0.28    0.32    0.18           0.48     0.56
C13        55.45   63.42   56.74          83.66  -13.78   -4.69          14.56  198.79           0.32    0.16    0.17    0.21            0.33    0.28    0.27           0.27     0.31
C14        62.81   58.00   52.38          80.74   16.46   -5.10          17.23  342.80           0.11    0.29    0.20    0.22            0.33    0.40    0.28           0.31     0.36
C15        71.32   74.21   40.72          89.02   -0.48   23.03          23.03   91.19           0.09    0.14    0.35    0.12            0.42    0.43    0.66           0.51     0.65
C16        43.50   45.39   36.62          73.15   -0.78    1.16           1.41  126.05           0.34    0.35    0.38    0.34            0.60    0.63    0.57           0.55     0.63
C17        58.94   54.80   37.14          78.93   15.16   10.40          18.39   34.44           0.11    0.32    0.37    0.24            0.44    0.53    0.49           0.56     0.62
C18        52.46   61.30   40.58          82.54  -16.56   12.04          20.48  144.00           0.32    0.17    0.35    0.22            0.49    0.47    0.54           0.52     0.61
C19        47.52   49.21   51.17          75.58    0.19  -12.65          12.65  270.83           0.33    0.31    0.21    0.32            0.53    0.58    0.32           0.47     0.55
C20        12.20    8.90    1.05          35.78   27.79   42.60          50.86   56.88           0.65    1.30    2.25    0.98            0.20    0.15    0.03           0.43     0.52
C21        21.75   20.24   10.90          52.11   10.79   15.57          18.95   55.27           0.52    0.77    0.96    0.67            0.33    0.31    0.27           0.54     0.65
C22        27.43   23.10   10.48          55.17   22.03   22.20          31.28   45.22           0.37    0.77    0.98    0.60            0.41    0.36    0.24           0.51     0.57
D1          3.99    4.21    2.28          24.34   -1.00    9.11           9.17   96.27           1.31    1.40    1.73    1.37            0.07    0.06    0.05           0.45     0.51
D2          4.10    4.41    1.54          24.98   -2.10   17.56          17.68   96.81           1.30    1.37    1.98    1.35            0.07    0.06    0.04           0.48     0.55
D3          3.97    4.24    0.86          24.45   -1.72   26.02          26.08   93.78           1.31    1.38    2.36    1.36            0.06    0.05    0.03           0.45     0.52
D4          4.03    4.32    0.39          24.69   -1.80   35.30          35.35   92.92           1.33    1.36    3.05    1.35            0.06    0.05    0.01           0.37     0.46
D5         17.46   18.42    9.11          50.00   -1.63   17.84          17.92   95.21           0.69    0.75    1.07    0.73            0.28    0.27    0.17           0.49     0.57
D6         17.35   18.37    4.89          49.94   -1.93   35.71          35.76   93.09           0.68    0.74    1.44    0.72            0.20    0.21    0.10           0.42     0.48
D7         17.04   18.18    2.34          49.72   -2.69   52.29          52.36   92.94           0.69    0.74    1.95    0.72            0.18    0.21    0.06           0.44     0.51
D8         17.22   18.43    0.86          50.01   -2.96   70.15          70.21   92.41           0.72    0.73    2.93    0.71            0.20    0.21    0.02           0.40     0.46
D9         46.17   48.40   23.92          75.07   -1.39   24.67          24.71   93.22           0.27    0.32    0.61    0.31            0.67    0.70    0.47           0.58     0.69
D10        45.94   48.51   13.93          75.14   -2.35   46.62          46.68   92.89           0.26    0.32    0.91    0.30            0.48    0.50    0.31           0.51     0.59
D11        45.71   48.51    6.90          75.14   -2.99   69.69          69.75   92.46           0.26    0.32    1.37    0.30            0.44    0.45    0.15           0.52     0.59
D12        45.45   48.40    1.74          75.07   -3.45  101.73         101.79   91.94           0.30    0.32    2.67    0.29            0.29    0.27    0.02           0.32     0.38
D13        49.32   59.01   55.91          81.30  -19.52   -7.90          21.06  202.04           0.43    0.17    0.18    0.25            0.28    0.26    0.25           0.28     0.32
D14        56.68   49.26   49.13          75.61   23.97  -10.30          26.09  336.75           0.13    0.40    0.22    0.29            0.30    0.35    0.26           0.32     0.37
D15        69.72   72.89   32.01          88.39   -1.19   34.14          34.16   92.00           0.09    0.14    0.48    0.13            0.37    0.39    0.55           0.47     0.63
D16        32.52   33.97   27.37          64.94   -0.83    1.11           1.41  129.15           0.46    0.47    0.51    0.47            0.49    0.51    0.43           0.55     0.63
D17        51.02   44.63   27.47          72.64   22.33   14.24          26.48   32.51           0.13    0.45    0.51    0.32            0.38    0.44    0.43           0.56     0.64
D18        44.92   55.74   32.36          79.46  -23.87   18.21          30.02  142.67           0.43    0.19    0.47    0.27            0.45    0.44    0.51           0.51     0.61
D19        37.84   38.93   47.72          68.70    0.99  -20.60          20.62  272.74           0.45    0.41    0.23    0.42            0.50    0.56    0.31           0.51     0.61
D20         2.85    2.88    1.03          19.55    1.43   14.92          14.99   84.51           1.42    1.59    2.16    1.53            0.05    0.05    0.03           0.36     0.38
D21        30.58   28.20    1.47          60.07   13.07   78.91          79.99   80.59           0.37    0.62    2.45    0.51            0.41    0.38    0.03           0.47     0.58
D22        40.92   43.79   49.71          72.09   -3.95  -17.04          17.49  256.95           0.44    0.34    0.22    0.37            0.50    0.57    0.30           0.47     0.58
E1          5.35    6.11    3.36          29.68   -6.19    9.98          11.75  121.81           1.23    1.20    1.55    1.22            0.08    0.07    0.07           0.47     0.54
E2          4.88    6.08    2.18          29.61  -11.58   19.10          22.34  121.24           1.32    1.16    1.83    1.23            0.06    0.07    0.05           0.49     0.56
E3          4.51    6.10    1.27          29.67  -16.76   29.03          33.53  119.99           1.41    1.12    2.22    1.23            0.05    0.06    0.02           0.41     0.46
E4          4.06    6.09    0.57          29.63  -22.69   40.37          46.31  119.34           1.59    1.08    2.97    1.24            0.06    0.07    0.01           0.36     0.41
E5         24.84   28.54   14.72          60.38  -11.06   19.10          22.07  120.08           0.60    0.51    0.84    0.55            0.37    0.39    0.22           0.49     0.55
E6         22.61   28.18    9.06          60.05  -19.48   35.37          40.38  118.84           0.68    0.49    1.13    0.56            0.36    0.41    0.20           0.51     0.59
E7         20.58   28.32    5.04          60.18  -29.56   52.61          60.34  119.33           0.80    0.45    1.54    0.56            0.16    0.22    0.09           0.38     0.42
E8         17.52   27.63    1.81          59.55  -42.45   74.31          85.58  119.74           1.06    0.41    2.53    0.58            0.08    0.08    0.02           0.20     0.22
E9         44.55   48.51   31.69          75.14   -6.33   11.78          13.37  118.26           0.33    0.30    0.46    0.32            0.57    0.59    0.50           0.53     0.60
E10        42.24   48.38   24.76          75.06  -12.78   23.11          26.41  118.95           0.37    0.28    0.59    0.32            0.67    0.71    0.47           0.62     0.70
E11        40.60   48.55   19.32          75.17  -18.22   33.92          38.51  118.24           0.41    0.27    0.74    0.32            0.56    0.59    0.37           0.60     0.68
E12        37.03   48.42   11.59          75.09  -29.19   53.10          60.60  118.80           0.51    0.23    1.06    0.33            0.34    0.33    0.19           0.48     0.55
E13        44.38   55.38   55.32          79.26  -24.56  -10.80          26.83  203.73           0.53    0.18    0.19    0.29            0.21    0.21    0.21           0.21     0.24
E14        50.94   41.48   45.92          70.51   31.31  -15.35          34.87  333.89           0.15    0.51    0.24    0.36            0.27    0.31    0.25           0.31     0.36
E15        68.42   71.65   24.78          87.80   -1.44   45.04          45.06   91.83           0.09    0.15    0.62    0.13            0.44    0.49    0.44           0.49     0.57
E16        23.74   24.80   19.96          56.87   -0.72    1.03           1.26  126.45           0.59    0.61    0.66    0.61            0.40    0.41    0.32           0.48     0.52
E17        43.82   35.72   19.63          66.30   29.67   17.99          34.70   31.23           0.16    0.59    0.67    0.40            0.36    0.38    0.41           0.54     0.61
E18        38.94   51.17   25.72          76.78  -30.33   24.37          38.91  141.22           0.52    0.21    0.59    0.31            0.36    0.35    0.43           0.48     0.58
E19        29.97   30.50   44.52          62.08    2.15  -28.19          28.28  274.36           0.58    0.51    0.26    0.54            0.35    0.40    0.23           0.51     0.59
E20         7.02    8.36    1.36          34.73   -9.86   36.62          37.93  105.07           1.14    1.03    2.21    1.08            0.10    0.11    0.04           0.37     0.40
E21        24.57   29.36    6.15          61.10  -15.32   48.75          51.10  107.45           0.61    0.49    1.38    0.53            0.37    0.41    0.15           0.53     0.60
E22         8.80   18.64   13.51          50.26  -60.46    4.83          60.65  175.43           1.87    0.51    0.91    0.81            0.12    0.20    0.27           0.47     0.53
F1          3.46    4.31    3.06          24.67  -10.38    3.41          10.92  161.82           1.49    1.32    1.58    1.39            0.05    0.06    0.06           0.39     0.43
F2          2.82    4.27    2.58          24.56  -20.69    6.93          21.82  161.49           1.71    1.26    1.70    1.41            0.04    0.06    0.05           0.35     0.38
F3          2.27    4.14    2.20          24.14  -29.71    9.50          31.20  162.27           1.98    1.22    1.82    1.44            0.04    0.06    0.05           0.35     0.38
F4          1.61    4.44    1.61          25.07  -49.32   16.99          52.17  160.99           2.77    1.09    2.10    1.44            0.02    0.05    0.04           0.34     0.38
F5         11.39   14.42    9.70          44.82  -16.87    6.90          18.23  157.76           1.02    0.78    1.03    0.86            0.13    0.16    0.23           0.48     0.57
F6          9.15   14.48    8.42          44.91  -34.46   11.56          36.35  161.46           1.30    0.70    1.13    0.89            0.14    0.22    0.22           0.48     0.55
F7          7.27   14.30    6.69          44.66  -50.19   18.01          53.33  160.26           1.66    0.65    1.29    0.91            0.13    0.22    0.16           0.40     0.45
F8          5.48   14.30    5.36          44.66  -69.19   24.20          73.30  160.72           2.32    0.58    1.48    0.93            0.05    0.09    0.13           0.45     0.52
F9         29.76   34.50   25.02          65.36  -12.80    5.91          14.10  155.24           0.56    0.42    0.57    0.48            0.52    0.58    0.45           0.59     0.68
F10        26.27   33.89   22.52          64.88  -24.49    9.72          26.35  158.36           0.70    0.39    0.63    0.49            0.42    0.51    0.43           0.55     0.63
F11        23.60   33.92   20.74          64.90  -35.94   13.26          38.32  159.75           0.84    0.36    0.69    0.50            0.35    0.49    0.44           0.58     0.66
F12        19.19   33.61   17.51          64.65  -55.70   19.77          59.10  160.46           1.15    0.30    0.80    0.53            0.13    0.13    0.35           0.58     0.71
F13        40.27   52.29   54.94          77.45  -29.07  -13.51          32.06  204.92           0.62    0.19    0.19    0.32            0.18    0.17    0.23           0.22     0.25
F14        45.25   34.19   42.49          65.11   38.94  -20.46          43.99  332.28           0.17    0.64    0.27    0.43            0.26    0.28    0.24           0.32     0.36
F15        67.50   70.61   19.13          87.29   -1.28   55.25          55.26   91.33           0.09    0.16    0.76    0.13            0.28    0.33    0.34           0.47     0.58
F16        16.67   17.36   14.19          48.71   -0.38    0.34           0.55  146.47           0.73    0.77    0.82    0.76            0.29    0.29    0.29           0.44     0.50
F17        37.30   27.97   13.52          59.86   37.31   21.37          43.00   29.80           0.18    0.76    0.84    0.49            0.27    0.28    0.29           0.51     0.58
