targets/wolf_faust/transmissive/E121001.it8
IT8.7/1
ORIGINATOR "Wolf Faust"
DESCRIPTOR "Ektachrome, Type 3, L* a* b* (light D50, viewing angle 2)"
MANUFACTURER "Wolf Faust - http://www.coloraid.de"
CREATED "October 04, 2012"
PROD_DATE "2011:09"
DIFFUSE_GEOMETRY "opal"
SERIAL "E121001 Batch Average Data"
MATERIAL "For Kodak Ektachrome Product Family"
KEYWORD "MEAN_DE" # Mean Delta E of samples compared to batch average
NUMBER_OF_FIELDS 18
BEGIN_DATA_FORMAT
SAMPLE_ID  XYZ_X   XYZ_Y   XYZ_Z          LAB_L   LAB_A   LAB_B          LAB_C   LAB_H          D_RED  D_GREEN  D_BLUE  D_VIS          STDEV_X STDEV_Y STDEV_Z        MEAN_DE  STDEV_DE
END_DATA_FORMAT
NUMBER_OF_SETS 288
BEGIN_DATA
A1          2.22    1.88    1.31          14.85    9.30    2.87           9.73   17.21           1.46    1.89    1.94    1.70            0.06    0.04    0.04           0.39     0.50
A2          2.74    1.86    1.14          14.74   20.13    5.02          20.75   14.01           1.28    2.08    1.98    1.66            0.05    0.03    0.03           0.28     0.32 
A3          3.26    1.84    0.94          14.63   29.59    7.88          30.62   14.91           1.14    2.34    2.05    1.63            0.05    0.03    0.02           0.26     0.32
A4          4.07    1.86    0.80          14.74   41.58   10.41          42.87   14.05           0.97    3.03    2.05    1.57            0.07    0.03    0.03           0.39     0.45 
A5          9.71    8.40    6.01          34.80   13.64    4.05          14.23   16.55           0.84    1.20    1.22    1.05            0.16    0.13    0.16           0.46     0.52
A6         11.45    8.20    5.05          34.40   28.55    8.11          29.68   15.87           0.68    1.35    1.29    1.02            0.16    0.11    0.14           0.42     0.49 
A7         14.01    8.45    4.41          34.90   43.45   12.43          45.19   15.97           0.53    1.54    1.33    0.98            0.22    0.14    0.14           0.51     0.58
A8         17.09    8.51    3.58          35.03   60.88   17.72          63.41   16.22           0.37    1.94    1.39    0.93            0.11    0.07    0.11           0.48     0.58 
A9         29.21   28.54   21.86          60.37    6.62    3.23           7.39   25.90           0.45    0.58    0.62    0.54            0.44    0.42    0.62           0.69     0.81
A10        31.19   28.37   20.73          60.22   14.69    5.24          15.61   19.60           0.38    0.63    0.64    0.53            0.45    0.42    0.55           0.67     0.77
A11        33.69   28.56   20.00          60.39   22.88    7.01          23.94   17.03           0.30    0.66    0.65    0.51            0.50    0.45    0.58           0.69     0.79
A12        38.29   28.64   18.06          60.46   37.94   11.30          39.60   16.58           0.18    0.75    0.69    0.49            0.40    0.39    0.58           0.73     0.87 
A13        72.16   77.10   61.75          90.37   -4.53    1.82           4.88  158.08           0.14    0.10    0.13    0.12            0.20    0.19    0.05           0.12     0.17
A14        77.50   78.85   61.19          91.17    2.96    3.75           4.78   51.70           0.07    0.11    0.14    0.10            0.11    0.17    0.06           0.18     0.22 
A15        79.75   82.43   61.99          92.76    0.54    5.71           5.74   84.64           0.06    0.09    0.13    0.08            0.12    0.12    0.08           0.10     0.12
A16        73.32   76.22   60.87          89.96   -0.36    1.99           2.02  100.20           0.11    0.12    0.14    0.12            0.25    0.27    0.10           0.18     0.21
A17        78.72   80.92   60.87          92.10    1.36    5.66           5.83   76.47           0.07    0.10    0.14    0.09            0.12    0.14    0.11           0.12     0.13
A18        76.35   80.03   59.80          91.70   -1.65    6.05           6.27  105.28           0.09    0.09    0.15    0.10            0.17    0.17    0.15           0.12     0.14 
A19        67.25   70.19   59.07          87.09   -0.94   -1.16           1.50  230.66           0.16    0.15    0.15    0.16            0.34    0.36    0.18           0.20     0.26
A20         6.26    2.94    1.82          19.80   46.69    5.61          47.02    6.86           0.80    2.64    1.67    1.39            0.10    0.05    0.03           0.31     0.40 
A21        26.33   18.45   14.46          50.04   39.71    1.96          39.76    2.83           0.33    1.00    0.78    0.67            0.31    0.23    0.35           0.57     0.65
A22        53.72   49.14   31.98          75.54   16.85   12.02          20.70   35.48           0.14    0.38    0.44    0.29            0.42    0.46    0.58           0.60     0.69
B1          3.26    2.88    1.69          19.57    8.37    6.66          10.70   38.52           1.31    1.67    1.84    1.51            0.07    0.06    0.05           0.41     0.47
B2          3.84    2.93    1.15          19.78   16.58   13.62          21.46   39.39           1.17    1.76    2.04    1.48            0.06    0.04    0.03           0.27     0.31
B3          4.32    2.81    0.64          19.27   25.55   21.22          33.21   39.71           1.05    1.93    2.35    1.46            0.07    0.05    0.03           0.27     0.33
B4          5.30    2.93    0.15          19.74   36.08   31.24          47.73   40.89           0.91    2.17    3.24    1.41            0.08    0.05    0.01           0.25     0.33
B5         12.62   11.28    6.42          40.04   12.30   11.26          16.68   42.45           0.74    1.05    1.21    0.92            0.20    0.18    0.19           0.48     0.54
B6         14.53   11.17    4.25          39.86   25.32   21.92          33.49   40.88           0.60    1.16    1.42    0.90            0.22    0.17    0.11           0.44     0.52
B7         16.86   11.24    2.60          39.98   38.30   33.35          50.79   41.04           0.47    1.29    1.67    0.86            0.25    0.18    0.08           0.54     0.60
B8         20.65   11.24    1.06          39.99   57.80   49.62          76.18   40.64           0.31    1.59    2.12    0.82            0.12    0.09    0.03           0.31     0.37
B9         34.59   34.56   25.66          65.40    4.40    4.87           6.58   47.61           0.39    0.49    0.54    0.45            0.52    0.50    0.70           0.69     0.81
B10        36.21   34.22   22.44          65.13   10.99   10.32          15.09   43.13           0.33    0.52    0.61    0.45            0.51    0.48    0.62           0.71     0.83
B11        38.13   34.51   20.47          65.36   16.31   14.62          21.91   41.85           0.27    0.54    0.66    0.44            0.50    0.47    0.60           0.74     0.86
B12        42.89   34.71   15.07          65.52   30.28   27.09          40.63   41.81           0.15    0.61    0.81    0.41            0.38    0.42    0.50           0.77     0.89
B13        62.11   68.10   57.23          86.06   -8.08   -1.07           8.15  187.54           0.23    0.14    0.17    0.18            0.34    0.36    0.26           0.18     0.22
B14        69.02   67.16   55.21          85.58    9.42    0.22           9.42    1.35           0.09    0.20    0.18    0.16            0.31    0.38    0.23           0.22     0.29
B15        73.57   75.90   50.72          89.81    0.81   12.39          12.42   86.27           0.09    0.13    0.23    0.11            0.49    0.55    0.77           0.46     0.53
B16        56.10   58.50   47.56          81.02   -0.77    0.84           1.16  134.54           0.23    0.23    0.25    0.23            0.59    0.64    0.63           0.43     0.49
B17        67.07   65.46   47.85          84.72    8.87    6.89          11.23   37.79           0.09    0.22    0.25    0.17            0.29    0.32    0.59           0.42     0.50
B18        60.80   67.16   50.02          85.58   -9.11    5.88          10.85  147.18           0.23    0.15    0.24    0.18            0.54    0.54    0.65           0.43     0.48
B19        58.17   60.59   54.42          82.16   -0.59   -4.85           4.88  263.00           0.23    0.22    0.19    0.22            0.41    0.46    0.20           0.31     0.39
B20         4.89    2.91    0.97          19.69   31.21   16.07          35.11   27.25           0.97    2.04    2.08    1.43            0.05    0.03    0.02           0.23     0.28
B21        16.68   11.07    4.06          39.70   38.47   22.78          44.72   30.63           0.48    1.30    1.41    0.87            0.24    0.16    0.09           0.40     0.45
B22        33.54   28.46   16.91          60.30   22.75   13.64          26.53   30.94           0.30    0.67    0.74    0.51            0.39    0.35    0.38           0.58     0.68
C1          6.14    6.00    3.19          29.41    3.95   10.64          11.35   69.63           1.08    1.28    1.56    1.21            0.11    0.11    0.12           0.41     0.48
C2          6.56    6.02    2.05          29.47    8.13   20.04          21.62   67.90           1.02    1.31    1.81    1.19            0.08    0.07    0.06           0.26     0.33
C3          7.09    6.03    1.11          29.49   13.38   30.87          33.64   66.57           0.95    1.35    2.19    1.17            0.09    0.08    0.03           0.29     0.33
C4          7.69    6.09    0.36          29.65   18.50   44.36          48.06   67.36           0.90    1.39    3.08    1.15            0.10    0.08    0.01           0.28     0.36
C5         23.76   22.91   11.62          54.98    7.51   18.34          19.82   67.71           0.50    0.69    0.94    0.62            0.50    0.48    0.47           0.75     0.87
C6         25.82   23.23    6.41          55.30   14.91   37.61          40.46   68.37           0.42    0.73    1.27    0.60            0.35    0.33    0.19           0.59     0.69
C7         27.86   23.25    3.12          55.33   23.06   55.87          60.44   67.57           0.35    0.77    1.72    0.58            0.34    0.31    0.09           0.44     0.51
C8         30.42   23.00    0.71          55.07   34.02   81.49          88.31   67.34           0.28    0.85    2.97    0.57            0.26    0.24    0.01           0.31     0.38
C9         40.60   41.32   27.90          70.39    2.37    9.64           9.93   76.13           0.33    0.40    0.51    0.38            0.57    0.57    0.79           0.71     0.83
C10        41.90   41.56   24.06          70.57    5.56   16.65          17.56   71.50           0.29    0.41    0.59    0.37            0.54    0.54    0.76           0.82     0.97
C11        42.80   41.06   19.82          70.21    9.79   24.34          26.24   68.07           0.25    0.44    0.69    0.37            0.47    0.47    0.51           0.66     0.77
C12        47.59   41.32    8.67          70.40   22.72   54.61          59.15   67.41           0.13    0.49    1.15    0.34            0.39    0.50    0.36           0.77     0.96
C13        55.34   63.32   56.36          83.61  -13.84   -4.39          14.52  197.59           0.32    0.16    0.18    0.21            0.36    0.39    0.27           0.20     0.25
C14        62.99   58.13   52.11          80.81   16.56   -4.68          17.21  344.24           0.11    0.29    0.20    0.22            0.32    0.39    0.20           0.25     0.34
C15        71.59   74.35   41.26          89.09   -0.21   22.46          22.46   90.53           0.09    0.14    0.34    0.12            0.49    0.53    0.89           0.69     0.79
C16        43.45   45.27   36.98          73.07   -0.61    0.53           0.88  146.05           0.34    0.35    0.37    0.35            0.59    0.61    0.66           0.57     0.62
C17        59.05   54.79   37.42          78.92   15.47   10.01          18.43   32.87           0.11    0.32    0.37    0.24            0.49    0.57    0.74           0.65     0.72
C18        52.21   61.01   40.95          82.38  -16.53   11.29          20.02  145.68           0.33    0.17    0.34    0.23            0.52    0.51    0.67           0.53     0.60
C19        47.10   48.75   50.82          75.30    0.26  -12.75          12.75  271.14           0.33    0.31    0.21    0.32            0.62    0.69    0.31           0.48     0.61
C20        12.15    8.86    1.08          35.72   27.73   42.05          50.37   56.60           0.65    1.30    2.23    0.98            0.14    0.11    0.02           0.36     0.41
C21        21.71   20.20   11.14          52.06   10.79   14.77          18.29   53.81           0.53    0.77    0.95    0.67            0.32    0.31    0.29           0.54     0.60
C22        27.36   23.03   10.68          55.10   22.08   21.41          30.76   44.11           0.37    0.77    0.97    0.60            0.31    0.28    0.29           0.63     0.73
D1          4.06    4.24    2.32          24.46   -0.49    8.91           8.94   93.13           1.30    1.40    1.72    1.37            0.09    0.07    0.07           0.54     0.63
D2          4.18    4.46    1.58          25.13   -1.69   17.47          17.55   95.52           1.29    1.36    1.96    1.34            0.09    0.08    0.05           0.54     0.61
D3          4.07    4.31    0.91          24.68   -1.29   25.63          25.66   92.88           1.30    1.37    2.33    1.35            0.08    0.07    0.02           0.47     0.53
D4          4.11    4.37    0.40          24.86   -1.49   35.33          35.37   92.42           1.32    1.36    3.01    1.34            0.07    0.08    0.01           0.43     0.48
D5         17.51   18.47    9.39          50.06   -1.63   17.01          17.08   95.48           0.69    0.74    1.05    0.73            0.32    0.33    0.32           0.62     0.70
D6         17.34   18.34    4.97          49.91   -1.85   35.24          35.29   93.00           0.67    0.74    1.43    0.72            0.23    0.23    0.13           0.44     0.53
D7         16.97   18.13    2.41          49.65   -2.76   51.60          51.68   93.06           0.69    0.74    1.93    0.72            0.17    0.20    0.07           0.38     0.45
D8         17.13   18.34    0.88          49.90   -3.01   69.63          69.69   92.47           0.72    0.73    2.90    0.71            0.19    0.21    0.02           0.29     0.35
D9         46.40   48.58   24.50          75.19   -1.23   23.80          23.83   92.97           0.27    0.32    0.59    0.31            0.61    0.65    0.74           0.79     0.87
D10        46.28   48.81   14.31          75.33   -2.22   45.95          46.00   92.77           0.26    0.32    0.90    0.30            0.52    0.57    0.50           0.83     0.93
D11        45.95   48.70    7.01          75.26   -2.84   69.46          69.52   92.34           0.26    0.32    1.36    0.29            0.39    0.43    0.20           0.54     0.61
D12        45.50   48.47    1.78          75.12   -3.49  101.43         101.49   91.97           0.30    0.32    2.64    0.29            0.32    0.35    0.03           0.29     0.34
D13        49.23   58.92   55.54          81.25  -19.54   -7.60          20.97  201.27           0.43    0.17    0.18    0.25            0.34    0.38    0.27           0.23     0.26
D14        56.88   49.42   48.88          75.71   24.03   -9.85          25.97  337.71           0.12    0.40    0.22    0.29            0.29    0.36    0.19           0.31     0.39
D15        70.00   73.05   32.60          88.47   -0.94   33.38          33.40   91.62           0.09    0.14    0.47    0.13            0.47    0.53    0.93           0.93     1.03
D16        32.43   33.85   27.78          64.84   -0.76    0.26           0.99  167.96           0.46    0.48    0.51    0.47            0.56    0.56    0.68           0.73     0.81
D17        51.18   44.67   27.92          72.67   22.63   13.53          26.37   30.87           0.13    0.45    0.50    0.32            0.47    0.53    0.67           0.68     0.78
D18        44.71   55.51   32.83          79.33  -23.91   17.29          29.51  144.15           0.43    0.19    0.46    0.27            0.53    0.53    0.72           0.68     0.77
D19        37.66   38.76   47.45          68.58    0.92  -20.49          20.51  272.56           0.45    0.41    0.24    0.42            0.49    0.55    0.23           0.54     0.64
D20         2.97    2.94    1.06          19.81    2.30   14.96          15.14   81.27           1.39    1.58    2.15    1.51            0.06    0.05    0.03           0.48     0.54
D21        30.75   28.37    1.51          60.22   13.07   78.73          79.81   80.57           0.37    0.62    2.43    0.51            0.32    0.31    0.03           0.46     0.56
D22        40.80   43.67   49.42          72.01   -3.97  -16.85          17.31  256.71           0.44    0.34    0.22    0.38            0.49    0.56    0.26           0.49     0.61
E1          5.44    6.16    3.41          29.82   -5.74    9.86          11.42  120.17           1.22    1.20    1.54    1.22            0.10    0.09    0.08           0.50     0.57
E2          4.94    6.11    2.23          29.68  -11.20   18.74          21.84  120.86           1.30    1.16    1.81    1.22            0.11    0.10    0.06           0.59     0.67
E3          4.54    6.12    1.30          29.70  -16.46   28.62          33.02  119.90           1.40    1.12    2.20    1.23            0.11    0.12    0.04           0.56     0.62
E4          4.09    6.11    0.58          29.70  -22.57   40.18          46.08  119.32           1.58    1.08    2.95    1.23            0.12    0.15    0.02           0.60     0.69
E5         24.85   28.55   15.18          60.38  -11.06   17.95          21.09  121.66           0.60    0.51    0.83    0.55            0.41    0.45    0.50           0.73     0.84
E6         22.57   28.12    9.23          60.00  -19.42   34.68          39.75  119.25           0.68    0.49    1.12    0.56            0.34    0.41    0.31           0.57     0.71
E7         20.48   28.18    5.16          60.05  -29.50   51.73          59.55  119.70           0.80    0.45    1.52    0.56            0.24    0.33    0.14           0.51     0.58
E8         17.55   27.66    1.84          59.58  -42.39   73.98          85.27  119.81           1.06    0.41    2.51    0.58            0.21    0.23    0.04           0.44     0.57
E9         44.83   48.77   32.37          75.31   -6.22   11.04          12.68  119.49           0.33    0.30    0.45    0.31            0.59    0.61    0.90           0.82     0.93
E10        42.27   48.38   25.35          75.06  -12.70   22.06          25.46  119.94           0.37    0.28    0.58    0.32            0.54    0.57    0.75           0.84     0.95
E11        40.59   48.53   19.89          75.16  -18.20   32.73          37.45  119.09           0.41    0.27    0.72    0.32            0.51    0.55    0.67           0.87     1.00
E12        36.86   48.31   11.93          75.02  -29.47   51.98          59.75  119.55           0.51    0.23    1.04    0.33            0.45    0.50    0.42           0.82     0.94
E13        44.24   55.24   54.89          79.18  -24.61  -10.49          26.75  203.08           0.53    0.18    0.19    0.29            0.23    0.28    0.25           0.17     0.20
E14        51.26   41.78   45.78          70.72   31.26  -14.82          34.59  334.64           0.14    0.51    0.24    0.35            0.34    0.38    0.30           0.31     0.38
E15        68.65   71.77   25.07          87.86   -1.18   44.62          44.63   91.52           0.08    0.15    0.61    0.13            0.41    0.47    0.72           0.78     0.99
E16        23.64   24.68   20.33          56.76   -0.70    0.09           0.94  173.09           0.59    0.62    0.65    0.61            0.42    0.42    0.60           0.74     0.82
E17        44.01   35.80   19.87          66.36   29.94   17.60          34.73   30.44           0.15    0.59    0.66    0.40            0.35    0.37    0.46           0.62     0.77
E18        38.66   50.85   25.79          76.59  -30.40   23.91          38.68  141.82           0.53    0.21    0.59    0.31            0.45    0.47    0.61           0.70     0.85
E19        29.77   30.32   44.23          61.93    2.06  -28.11          28.19  274.19           0.58    0.52    0.26    0.54            0.44    0.51    0.29           0.58     0.68
E20         7.17    8.46    1.40          34.91   -9.19   36.42          37.57  104.16           1.12    1.03    2.19    1.07            0.09    0.11    0.04           0.36     0.40
E21        24.39   29.19    6.29          60.95  -15.44   47.89          50.32  107.87           0.61    0.49    1.37    0.53            0.38    0.44    0.21           0.55     0.62
E22         8.70   18.46   13.48          50.05  -60.44    4.54          60.61  175.70           1.87    0.52    0.91    0.81            0.12    0.21    0.32           0.49     0.60
F1          3.51    4.34    3.13          24.77   -9.96    3.09          10.43  162.75           1.48    1.32    1.57    1.39            0.08    0.07    0.09           0.53     0.62
F2          2.84    4.28    2.63          24.58  -20.53    6.59          21.56  162.20           1.70    1.26    1.69    1.41            0.06    0.08    0.08           0.41     0.47
F3          2.27    4.14    2.23          24.11  -29.65    9.19          31.05  162.78           1.97    1.22    1.81    1.44            0.06    0.09    0.09           0.42     0.48
F4          1.60    4.43    1.67          25.04  -49.47   16.26          52.07  161.81           2.77    1.09    2.08    1.44            0.03    0.08    0.04           0.40     0.48
F5         11.46   14.43    9.88          44.84  -16.45    6.35          17.64  158.92           1.01    0.78    1.02    0.86            0.21    0.25    0.36           0.74     0.83
F6          9.19   14.47    8.51          44.90  -34.16   11.21          35.95  161.82           1.30    0.71    1.13    0.89            0.16    0.24    0.28           0.64     0.75
F7          7.30   14.33    6.92          44.70  -50.14   17.11          52.99  161.16           1.66    0.65    1.27    0.91            0.13    0.24    0.22           0.50     0.57
F8          5.46   14.26    5.52          44.60  -69.25   23.31          73.07  161.39           2.33    0.58    1.46    0.93            0.09    0.19    0.16           0.41     0.48
F9         29.78   34.50   25.65          65.35  -12.67    4.80          13.57  159.32           0.56    0.42    0.56    0.48            0.48    0.52    0.71           0.76     0.86
F10        26.25   33.82   23.02          64.82  -24.30    8.67          25.82  160.39           0.70    0.39    0.62    0.50            0.42    0.49    0.75           0.92     1.06
F11        23.74   34.00   21.22          64.96  -35.59   12.43          37.70  160.75           0.83    0.36    0.67    0.50            0.31    0.41    0.67           0.83     0.95
F12        19.13   33.48   17.94          64.55  -55.60   18.62          58.64  161.49           1.16    0.30    0.79    0.53            0.21    0.26    0.52           0.80     0.94
F13        40.10   52.11   54.50          77.34  -29.14  -13.23          32.00  204.43           0.62    0.19    0.19    0.32            0.18    0.21    0.19           0.13     0.16
F14        45.43   34.33   42.28          65.22   38.98  -20.00          43.81  332.83           0.17    0.64    0.27    0.43            0.25    0.28    0.20           0.30     0.36
F15        67.83   70.85   19.42          87.41   -1.05   54.84          54.85   91.10           0.08    0.16    0.76    0.13            0.44    0.52    0.66           0.85     1.06
F16        16.55   17.24   14.28          48.56   -0.42   -0.12           0.72  191.13           0.74    0.78    0.82    0.77            0.29    0.29    0.39           0.64     0.78
F17        37.47   28.06   13.79          59.94   37.51   20.78          42.88   28.97           0.18    0.76    0.83    0.49            0.29    0.29    0.44           0.69     0.84
