targets/wolf_faust/transmissive/E130401.it8
IT8.7/1
ORIGINATOR "Wolf Faust"
DESCRIPTOR "Ektachrome, Type 3, L* a* b* (light D50, viewing angle 2)"
MANUFACTURER "Wolf Faust - http://www.coloraid.de"
CREATED "April 02, 2013"
PROD_DATE "2013:04"
DIFFUSE_GEOMETRY "opal"
SERIAL "E130401 Batch Average Data"
MATERIAL "For Kodak Ektachrome Product Family"
KEYWORD "MEAN_DE" # Mean Delta E of samples compared to batch average
NUMBER_OF_FIELDS 18
BEGIN_DATA_FORMAT
SAMPLE_ID  XYZ_X   XYZ_Y   XYZ_Z          LAB_L   LAB_A   LAB_B          LAB_C   LAB_H          D_RED  D_GREEN  D_BLUE  D_VIS          STDEV_X STDEV_Y STDEV_Z        MEAN_DE  STDEV_DE
END_DATA_FORMAT
NUMBER_OF_SETS 288
BEGIN_DATA
A1          2.22    1.87    1.31          14.81    9.49    2.92           9.93   17.12           1.46    1.89    1.94    1.70            0.04    0.02    0.03           0.52     0.58
A2          2.76    1.91    1.05          15.00   19.41    6.74          20.55   19.15           1.28    2.05    2.03    1.65            0.02    0.02    0.02           0.33     0.37 
A3          3.18    1.80    0.89          14.41   29.28    8.26          30.43   15.75           1.15    2.35    2.07    1.64            0.02    0.02    0.02           0.28     0.32
A4          3.99    1.83    0.67          14.55   41.31   12.50          43.16   16.84           0.98    3.05    2.13    1.58            0.04    0.02    0.01           0.26     0.30 
A5          9.54    8.20    5.75          34.40   14.06    4.61          14.80   18.16           0.85    1.22    1.24    1.06            0.08    0.07    0.06           0.51     0.58
A6         11.36    8.14    4.85          34.27   28.42    8.91          29.78   17.40           0.69    1.36    1.31    1.03            0.09    0.07    0.06           0.49     0.56 
A7         13.91    8.36    4.21          34.72   43.59   13.25          45.56   16.91           0.53    1.55    1.35    0.98            0.10    0.07    0.05           0.39     0.42
A8         17.00    8.45    3.40          34.91   60.90   18.71          63.71   17.08           0.37    1.95    1.42    0.94            0.16    0.09    0.05           0.30     0.34 
A9         28.61   27.62   20.95          59.54    7.89    3.60           8.68   24.50           0.45    0.61    0.64    0.55            0.24    0.20    0.31           0.51     0.56
A10        30.33   27.43   19.89          59.37   15.17    5.49          16.14   19.89           0.38    0.64    0.66    0.54            0.22    0.19    0.34           0.55     0.61
A11        32.91   27.83   18.86          59.73   22.99    8.31          24.45   19.87           0.31    0.68    0.68    0.52            0.22    0.19    0.29           0.48     0.54
A12        37.67   28.01   17.07          59.90   38.36   12.58          40.38   18.15           0.19    0.77    0.72    0.50            0.24    0.22    0.34           0.59     0.71 
A13        71.99   76.91   61.64          90.28   -4.51    1.78           4.85  158.45           0.14    0.10    0.14    0.12            0.18    0.18    0.11           0.15     0.17
A14        77.37   78.63   61.04          91.07    3.12    3.72           4.86   49.99           0.07    0.11    0.14    0.10            0.25    0.31    0.16           0.21     0.24 
A15        79.70   82.32   61.88          92.72    0.63    5.74           5.78   83.74           0.06    0.09    0.13    0.08            0.15    0.18    0.16           0.13     0.15
A16        72.95   75.61   60.57          89.68    0.08    1.80           1.81   87.29           0.11    0.12    0.14    0.12            0.17    0.23    0.15           0.19     0.21
A17        79.10   81.41   61.49          92.31    1.19    5.43           5.56   77.63           0.07    0.09    0.14    0.09            0.21    0.26    0.19           0.15     0.17
A18        76.68   80.16   60.25          91.75   -1.22    5.70           5.83  102.12           0.09    0.09    0.15    0.10            0.19    0.22    0.22           0.17     0.18 
A19        66.26   69.13   58.68          86.57   -0.88   -1.67           1.90  242.55           0.17    0.16    0.15    0.16            0.19    0.24    0.16           0.21     0.26
A20         6.19    2.91    1.71          19.66   46.47    6.57          46.93    8.05           0.80    2.66    1.70    1.39            0.07    0.04    0.02           0.31     0.35 
A21        26.06   18.20   13.71          49.74   39.92    3.38          40.07    4.85           0.33    1.01    0.80    0.68            0.09    0.10    0.17           0.55     0.63
A22        53.06   48.37   30.89          75.06   17.23   12.87          21.51   36.74           0.14    0.39    0.46    0.29            0.09    0.12    0.25           0.39     0.45
B1          3.27    2.93    1.62          19.75    7.82    7.71          10.99   44.64           1.31    1.65    1.87    1.51            0.04    0.03    0.02           0.45     0.51
B2          3.76    2.85    0.98          19.43   16.91   15.47          22.92   42.45           1.17    1.78    2.13    1.49            0.02    0.02    0.01           0.32     0.37
B3          4.29    2.81    0.59          19.28   25.09   22.01          33.38   41.26           1.06    1.92    2.39    1.46            0.02    0.02    0.01           0.29     0.34
B4          5.22    2.89    0.15          19.60   35.75   31.01          47.33   40.94           0.92    2.17    3.24    1.41            0.03    0.02    0.00           0.23     0.26
B5         12.25   10.95    6.09          39.49   12.16   11.80          16.95   44.12           0.75    1.06    1.23    0.93            0.12    0.10    0.06           0.45     0.51
B6         14.38   10.95    3.83          39.49   25.99   23.77          35.22   42.45           0.60    1.17    1.47    0.90            0.09    0.08    0.03           0.45     0.49
B7         16.60   11.03    2.44          39.63   38.37   34.04          51.29   41.57           0.48    1.30    1.70    0.87            0.13    0.09    0.02           0.33     0.38
B8         20.43   11.08    0.98          39.72   57.90   50.45          76.79   41.06           0.31    1.61    2.17    0.83            0.20    0.12    0.02           0.40     0.46
B9         33.49   33.27   24.28          64.38    5.00    5.56           7.49   47.93           0.40    0.51    0.57    0.47            0.28    0.25    0.39           0.58     0.63
B10        35.35   33.36   21.10          64.45   11.09   11.76          16.18   46.65           0.33    0.54    0.64    0.46            0.28    0.27    0.36           0.60     0.65
B11        37.32   33.68   19.38          64.71   16.52   15.75          22.83   43.63           0.28    0.56    0.68    0.45            0.23    0.21    0.31           0.51     0.58
B12        42.08   33.80   13.97          64.81   30.97   28.67          42.21   42.79           0.16    0.63    0.85    0.42            0.24    0.24    0.29           0.59     0.68
B13        62.02   67.85   56.96          85.93   -7.74   -1.02           7.81  187.47           0.23    0.15    0.17    0.18            0.34    0.34    0.20           0.27     0.30
B14        68.46   66.36   54.80          85.18    9.94   -0.04           9.94  279.75           0.09    0.21    0.18    0.17            0.27    0.33    0.21           0.22     0.28
B15        72.98   75.22   49.40          89.49    0.95   13.32          13.36   85.92           0.09    0.13    0.25    0.12            0.30    0.36    0.43           0.37     0.42
B16        55.50   57.63   46.39          80.53   -0.17    1.38           1.41   98.34           0.23    0.24    0.27    0.24            0.17    0.19    0.41           0.39     0.45
B17        66.48   64.69   46.98          84.33    9.28    7.22          11.76   37.87           0.10    0.22    0.26    0.18            0.26    0.30    0.43           0.40     0.46
B18        60.55   66.77   49.04          85.39   -8.84    6.66          11.08  143.03           0.23    0.15    0.25    0.18            0.26    0.33    0.48           0.49     0.54
B19        57.81   59.90   54.03          81.79    0.11   -5.07           5.07  271.28           0.23    0.22    0.19    0.23            0.23    0.27    0.14           0.28     0.32
B20         4.75    2.86    0.96          19.46   30.45   15.80          34.30   27.42           0.99    2.04    2.08    1.44            0.02    0.01    0.01           0.30     0.34
B21        16.65   11.11    3.87          39.76   38.10   24.05          45.05   32.26           0.48    1.29    1.44    0.87            0.09    0.07    0.06           0.46     0.51
B22        33.07   27.99   16.10          59.88   22.93   14.83          27.31   32.90           0.30    0.68    0.76    0.52            0.20    0.21    0.16           0.49     0.55
C1          6.10    5.98    3.22          29.35    3.73   10.36          11.02   70.17           1.09    1.28    1.55    1.21            0.05    0.06    0.04           0.42     0.49
C2          6.57    5.97    2.01          29.34    8.76   20.19          22.01   66.55           1.01    1.32    1.82    1.19            0.04    0.04    0.02           0.36     0.41
C3          6.94    5.93    1.08          29.24   12.98   30.84          33.46   67.19           0.96    1.35    2.21    1.18            0.04    0.05    0.02           0.38     0.44
C4          7.59    5.97    0.35          29.35   18.81   43.97          47.83   66.85           0.90    1.40    3.08    1.16            0.06    0.05    0.01           0.36     0.43
C5         23.16   22.30   10.90          54.35    7.60   19.42          20.86   68.64           0.51    0.71    0.97    0.63            0.21    0.18    0.16           0.49     0.54
C6         25.32   22.55    6.12          54.61   15.83   37.70          40.89   67.23           0.42    0.74    1.30    0.61            0.20    0.16    0.09           0.48     0.52
C7         27.14   22.47    3.03          54.53   23.68   55.10          59.98   66.75           0.35    0.79    1.73    0.60            0.20    0.16    0.02           0.36     0.39
C8         30.48   22.90    0.70          54.97   34.69   81.50          88.57   66.94           0.28    0.86    2.99    0.57            0.22    0.16    0.01           0.34     0.39
C9         39.99   40.35   27.37          69.72    3.39    9.35           9.95   69.98           0.33    0.42    0.52    0.39            0.35    0.33    0.52           0.65     0.72
C10        40.91   40.17   22.90          69.59    6.80   17.12          18.43   68.33           0.29    0.43    0.61    0.38            0.35    0.34    0.37           0.61     0.70
C11        42.27   40.37   18.91          69.73   10.31   25.42          27.43   67.92           0.25    0.45    0.71    0.37            0.32    0.33    0.28           0.61     0.68
C12        47.14   40.76    8.44          70.01   23.17   54.77          59.47   67.07           0.13    0.50    1.16    0.34            0.27    0.31    0.14           0.49     0.58
C13        55.25   63.08   56.15          83.48  -13.53   -4.39          14.22  197.97           0.32    0.16    0.18    0.22            0.25    0.27    0.17           0.25     0.29
C14        62.54   57.51   51.78          80.47   17.00   -4.90          17.69  343.93           0.11    0.30    0.20    0.23            0.30    0.36    0.24           0.28     0.34
C15        71.08   73.77   39.99          88.82   -0.11   23.62          23.62   90.27           0.09    0.14    0.36    0.12            0.28    0.33    0.47           0.51     0.56
C16        43.08   44.72   36.01          72.71   -0.12    1.25           1.27   97.34           0.33    0.35    0.38    0.35            0.16    0.17    0.44           0.59     0.65
C17        58.49   54.14   36.31          78.54   15.76   10.88          19.16   34.62           0.11    0.33    0.38    0.25            0.26    0.32    0.38           0.57     0.63
C18        52.03   60.70   39.89          82.22  -16.28   12.38          20.46  142.76           0.32    0.17    0.36    0.23            0.23    0.29    0.45           0.54     0.60
C19        47.03   48.45   50.56          75.11    0.88  -12.78          12.82  273.92           0.33    0.32    0.21    0.32            0.23    0.28    0.15           0.33     0.38
C20        11.96    8.71    1.15          35.43   27.66   40.55          49.09   55.70           0.66    1.31    2.18    0.99            0.07    0.06    0.02           0.33     0.37
C21        21.49   19.91   10.48          51.73   11.18   16.24          19.72   55.44           0.53    0.78    0.98    0.68            0.10    0.11    0.10           0.48     0.53
C22        27.00   22.68   10.29          54.74   22.20   22.05          31.29   44.82           0.37    0.78    0.99    0.60            0.18    0.18    0.13           0.48     0.53
D1          4.07    4.21    2.29          24.36    0.08    9.02           9.03   89.53           1.29    1.41    1.73    1.37            0.05    0.05    0.03           0.53     0.59
D2          4.08    4.29    1.42          24.61   -0.87   18.36          18.39   92.71           1.29    1.39    2.02    1.36            0.04    0.04    0.02           0.50     0.58
D3          4.00    4.25    0.79          24.47   -1.29   27.28          27.31   92.71           1.30    1.38    2.43    1.36            0.04    0.04    0.02           0.43     0.53
D4          3.99    4.24    0.39          24.47   -1.53   34.83          34.87   92.51           1.33    1.37    3.03    1.35            0.03    0.03    0.01           0.40     0.49
D5         17.21   18.07    8.92          49.58   -1.16   17.79          17.83   93.73           0.69    0.76    1.08    0.74            0.16    0.15    0.12           0.45     0.50
D6         17.01   17.98    4.77          49.47   -1.80   35.53          35.58   92.89           0.68    0.75    1.45    0.73            0.14    0.13    0.05           0.38     0.42
D7         16.99   17.98    2.37          49.47   -1.88   51.65          51.68   92.08           0.69    0.75    1.94    0.73            0.14    0.14    0.03           0.41     0.45
D8         16.78   17.98    0.87          49.47   -3.05   69.02          69.09   92.53           0.73    0.74    2.90    0.72            0.13    0.12    0.01           0.31     0.35
D9         45.88   47.81   23.57          74.71   -0.62   24.68          24.69   91.44           0.27    0.33    0.61    0.31            0.42    0.42    0.47           0.64     0.71
D10        45.81   48.09   13.26          74.88   -1.57   47.96          47.98   91.87           0.26    0.33    0.94    0.30            0.38    0.39    0.26           0.51     0.56
D11        45.21   47.73    6.72          74.66   -2.32   69.60          69.64   91.91           0.26    0.33    1.38    0.30            0.32    0.33    0.09           0.36     0.40
D12        45.15   48.11    1.76          74.89   -3.51  101.23         101.29   91.99           0.30    0.32    2.66    0.29            0.17    0.15    0.03           0.34     0.40
D13        49.21   58.75   55.37          81.15  -19.20   -7.58          20.64  201.55           0.42    0.17    0.19    0.25            0.23    0.21    0.11           0.29     0.32
D14        56.41   48.81   48.50          75.33   24.51  -10.06          26.49  337.69           0.13    0.40    0.22    0.29            0.30    0.35    0.22           0.31     0.38
D15        69.49   72.47   31.30          88.19   -0.83   34.87          34.88   91.36           0.09    0.15    0.49    0.13            0.27    0.31    0.44           0.54     0.58
D16        32.05   33.33   26.68          64.43   -0.30    1.40           1.46  102.85           0.46    0.48    0.53    0.48            0.18    0.20    0.30           0.62     0.68
D17        50.60   44.02   26.72          72.24   22.97   14.80          27.33   32.79           0.13    0.46    0.52    0.32            0.19    0.24    0.32           0.61     0.68
D18        44.42   55.08   31.57          79.09  -23.70   18.75          30.22  141.66           0.43    0.19    0.48    0.27            0.27    0.31    0.30           0.50     0.57
D19        37.24   38.07   47.00          68.07    1.73  -20.83          20.91  274.75           0.45    0.42    0.24    0.43            0.26    0.30    0.12           0.40     0.46
D20         2.97    2.92    1.08          19.71    2.85   14.47          14.76   78.90           1.39    1.59    2.13    1.52            0.06    0.05    0.02           0.65     0.75
D21        30.78   28.07    1.48          59.95   14.34   78.59          79.89   79.66           0.36    0.63    2.43    0.51            0.16    0.16    0.03           0.34     0.37
D22        40.15   42.91   49.03          71.49   -3.77  -17.28          17.69  257.70           0.44    0.35    0.23    0.38            0.22    0.25    0.10           0.33     0.38
E1          5.36    6.05    3.29          29.53   -5.40   10.22          11.57  117.82           1.22    1.21    1.56    1.22            0.06    0.06    0.04           0.56     0.64
E2          5.06    6.16    2.15          29.81  -10.30   19.72          22.25  117.57           1.28    1.17    1.84    1.22            0.08    0.07    0.04           0.60     0.68
E3          4.48    6.00    1.28          29.40  -16.00   28.36          32.57  119.42           1.40    1.14    2.20    1.24            0.07    0.06    0.02           0.56     0.62
E4          4.02    5.97    0.57          29.35  -22.02   39.79          45.47  118.96           1.58    1.09    2.95    1.24            0.05    0.06    0.01           0.52     0.57
E5         24.24   27.51   14.10          59.44   -9.64   19.09          21.39  116.79           0.60    0.54    0.86    0.56            0.24    0.28    0.23           0.54     0.60
E6         22.10   27.54    8.96          59.47  -19.33   34.70          39.72  119.12           0.69    0.50    1.14    0.57            0.21    0.25    0.10           0.40     0.45
E7         20.07   27.51    4.96          59.44  -28.85   51.71          59.22  119.16           0.80    0.46    1.55    0.57            0.15    0.19    0.05           0.42     0.47
E8         17.69   27.43    1.65          59.37  -40.78   75.71          86.00  118.31           1.04    0.42    2.63    0.58            0.38    0.36    0.01           0.73     0.89
E9         43.87   47.71   30.81          74.64   -6.14   12.26          13.72  116.63           0.34    0.31    0.47    0.32            0.43    0.45    0.53           0.61     0.67
E10        41.48   47.49   24.13          74.50  -12.65   23.30          26.51  118.50           0.38    0.29    0.61    0.33            0.38    0.44    0.44           0.60     0.67
E11        39.98   47.75   19.24          74.67  -17.96   33.22          37.76  118.39           0.41    0.27    0.74    0.33            0.31    0.34    0.18           0.51     0.57
E12        36.36   47.71   11.40          74.64  -29.46   52.90          60.55  119.11           0.51    0.24    1.07    0.33            0.27    0.32    0.16           0.36     0.41
E13        44.16   55.01   54.71          79.05  -24.30  -10.52          26.48  203.40           0.52    0.18    0.19    0.29            0.27    0.31    0.22           0.26     0.30
E14        50.66   41.05   45.31          70.21   31.87  -15.14          35.29  334.59           0.15    0.52    0.25    0.36            0.33    0.35    0.25           0.30     0.38
E15        68.30   71.34   24.19          87.65   -1.06   45.84          45.86   91.33           0.09    0.16    0.63    0.13            0.29    0.32    0.28           0.43     0.49
E16        23.23   24.20   19.24          56.29   -0.45    1.53           1.62  106.48           0.59    0.63    0.68    0.62            0.15    0.16    0.22           0.59     0.63
E17        43.63   35.42   18.97          66.07   30.10   18.99          35.59   32.25           0.16    0.60    0.69    0.41            0.21    0.26    0.24           0.58     0.68
E18        38.29   50.40   24.87          76.31  -30.40   25.08          39.41  140.48           0.53    0.21    0.61    0.32            0.27    0.29    0.24           0.46     0.55
E19        29.31   29.66   43.79          61.36    2.72  -28.54          28.67  275.44           0.58    0.53    0.27    0.55            0.18    0.21    0.11           0.36     0.43
E20         6.99    8.23    1.30          34.45   -8.99   36.89          37.97  103.69           1.13    1.04    2.24    1.08            0.09    0.08    0.03           0.48     0.56
E21        24.11   28.64    6.05          60.46  -14.55   48.14          50.29  106.82           0.61    0.50    1.39    0.54            0.19    0.21    0.06           0.42     0.46
E22         8.36   17.84   12.79          49.30  -60.11    5.15          60.33  175.11           1.88    0.53    0.94    0.83            0.08    0.14    0.12           0.31     0.35
F1          3.51    4.29    3.08          24.62   -9.42    3.22           9.96  161.04           1.47    1.33    1.58    1.39            0.08    0.07    0.04           0.59     0.67
F2          2.83    4.22    2.52          24.38  -19.83    7.08          21.06  160.33           1.69    1.27    1.71    1.42            0.05    0.07    0.04           0.47     0.53
F3          2.33    4.22    2.14          24.38  -29.50   10.45          31.30  160.50           1.95    1.22    1.84    1.43            0.04    0.07    0.05           0.42     0.48
F4          1.50    4.17    1.45          24.23  -48.53   17.40          51.55  160.28           2.78    1.12    2.17    1.47            0.02    0.05    0.02           0.27     0.32
F5         11.26   14.14    9.61          44.44  -16.12    6.55          17.40  157.90           1.01    0.79    1.04    0.87            0.11    0.16    0.12           0.48     0.55
F6          9.02   14.11    7.95          44.39  -33.36   12.42          35.60  159.57           1.29    0.72    1.16    0.89            0.13    0.15    0.09           0.68     0.80
F7          7.10   13.82    6.70          43.97  -48.94   16.81          51.75  161.04           1.65    0.67    1.29    0.92            0.10    0.17    0.10           0.45     0.52
F8          5.32   13.95    5.31          44.16  -69.00   23.60          72.93  161.12           2.34    0.59    1.49    0.94            0.05    0.11    0.06           0.28     0.31
F9         29.24   33.78   24.67          64.79  -12.30    5.57          13.51  155.68           0.56    0.43    0.58    0.48            0.33    0.37    0.35           0.59     0.65
F10        25.78   33.12   22.40          64.26  -23.80    8.88          25.41  159.55           0.70    0.40    0.63    0.50            0.28    0.35    0.32           0.56     0.63
F11        23.13   33.05   20.51          64.20  -35.02   12.53          37.19  160.32           0.84    0.37    0.69    0.52            0.27    0.34    0.20           0.58     0.63
F12        19.05   33.35   17.36          64.45  -55.55   19.76          58.96  160.42           1.15    0.31    0.80    0.53            0.10    0.12    0.14           0.26     0.33
F13        39.85   51.79   54.32          77.15  -29.08  -13.37          32.00  204.69           0.63    0.19    0.19    0.32            0.13    0.15    0.17           0.22     0.26
F14        45.33   34.21   42.16          65.13   39.10  -20.01          43.93  332.90           0.17    0.65    0.27    0.43            0.26    0.29    0.19           0.30     0.39
F15        67.44   70.36   18.70          87.17   -0.87   55.95          55.96   90.89           0.08    0.16    0.78    0.14            0.28    0.31    0.18           0.36     0.41
F16        16.26   17.01   13.64          48.27   -0.82    1.06           1.36  127.68           0.74    0.78    0.84    0.77            0.15    0.15    0.14           0.49     0.53
F17        37.35   28.00   13.12          59.89   37.38   22.50          43.63   31.04           0.18    0.77    0.86    0.49            0.21    0.25    0.17           0.52     0.58
