targets/wolf_faust/transmissive/E130315.it8
IT8.7/1
ORIGINATOR "Wolf Faust"
DESCRIPTOR "Ektachrome, Type 3, L* a* b* (light D50, viewing angle 2)"
MANUFACTURER "Wolf Faust - http://www.coloraid.de"
CREATED "March 25, 2013"
PROD_DATE "2011:09"
DIFFUSE_GEOMETRY "opal"
SERIAL "E130315 Batch Average Data"
MATERIAL "For Kodak Ektachrome Product Family"
KEYWORD "MEAN_DE" # Mean Delta E of samples compared to batch average
NUMBER_OF_FIELDS 18
BEGIN_DATA_FORMAT
SAMPLE_ID  XYZ_X   XYZ_Y   XYZ_Z          LAB_L   LAB_A   LAB_B          LAB_C   LAB_H          D_RED  D_GREEN  D_BLUE  D_VIS          STDEV_X STDEV_Y STDEV_Z        MEAN_DE  STDEV_DE
END_DATA_FORMAT
NUMBER_OF_SETS 288
BEGIN_DATA
A1          2.18    1.86    1.29          14.72    8.99    3.02           9.49   18.54           1.47    1.89    1.95    1.70            0.06    0.04    0.04           0.65     0.75
A2          2.72    1.84    1.05          14.61   20.26    6.07          21.15   16.68           1.28    2.09    2.02    1.66            0.04    0.03    0.03           0.34     0.40 
A3          3.30    1.86    0.95          14.72   29.88    7.84          30.89   14.71           1.13    2.35    2.04    1.62            0.06    0.03    0.03           0.25     0.31
A4          4.14    1.89    0.74          14.89   41.95   11.74          43.56   15.63           0.96    3.05    2.08    1.57            0.10    0.04    0.04           0.42     0.52 
A5          9.71    8.43    6.02          34.87   13.36    4.13          13.99   17.16           0.84    1.20    1.22    1.05            0.21    0.18    0.24           0.55     0.66
A6         11.70    8.36    5.10          34.71   28.94    8.36          30.12   16.11           0.67    1.35    1.28    1.02            0.25    0.19    0.22           0.59     0.68 
A7         13.86    8.37    4.44          34.74   43.22   11.97          44.85   15.48           0.53    1.54    1.33    0.98            0.32    0.20    0.19           0.58     0.69
A8         17.16    8.54    3.63          35.07   61.08   17.49          63.54   15.98           0.37    1.94    1.38    0.93            0.19    0.11    0.15           0.59     0.69 
A9         29.57   28.91   22.13          60.70    6.56    3.28           7.35   26.41           0.45    0.58    0.61    0.53            0.68    0.71    0.82           0.80     0.95
A10        31.71   28.81   20.56          60.61   14.90    6.24          16.16   22.70           0.37    0.62    0.64    0.52            0.68    0.66    0.76           0.78     0.93
A11        33.78   28.63   19.73          60.45   22.94    7.68          24.20   18.51           0.30    0.66    0.66    0.51            0.58    0.55    0.70           0.76     0.90
A12        38.53   28.87   18.27          60.66   37.83   11.20          39.46   16.49           0.18    0.75    0.69    0.49            0.53    0.51    0.72           0.88     1.04 
A13        72.39   77.27   61.46          90.44   -4.38    2.23           4.92  153.03           0.14    0.10    0.14    0.12            0.69    0.71    0.37           0.31     0.40
A14        77.80   79.37   61.09          91.40    2.55    4.25           4.97   59.07           0.07    0.11    0.14    0.10            0.52    0.69    0.40           0.39     0.50 
A15        79.68   82.38   61.70          92.74    0.49    5.97           5.99   85.32           0.06    0.09    0.14    0.08            0.41    0.48    0.40           0.21     0.27
A16        74.85   77.79   60.95          90.68   -0.34    3.15           3.17   95.90           0.10    0.11    0.14    0.11            0.67    0.76    0.42           0.36     0.46
A17        79.22   81.63   61.38          92.41    1.00    5.70           5.79   80.07           0.07    0.09    0.14    0.09            0.39    0.48    0.36           0.23     0.29
A18        76.30   79.96   59.50          91.67   -1.60    6.30           6.50  104.25           0.09    0.09    0.15    0.10            0.77    0.80    0.71           0.28     0.38 
A19        67.30   70.22   58.75          87.10   -0.89   -0.82           1.26  222.28           0.16    0.15    0.15    0.16            0.57    0.68    0.33           0.42     0.51
A20         6.31    2.95    1.79          19.86   46.91    6.02          47.30    7.31           0.79    2.66    1.67    1.38            0.10    0.04    0.06           0.37     0.46 
A21        26.55   18.66   14.46          50.28   39.58    2.37          39.66    3.43           0.32    1.00    0.78    0.67            0.41    0.31    0.51           0.72     0.86
A22        53.89   49.33   32.02          75.66   16.77   12.16          20.72   35.92           0.14    0.38    0.44    0.28            0.76    0.85    1.03           0.80     0.95
B1          3.18    2.83    1.63          19.35    8.02    6.89          10.57   40.69           1.32    1.67    1.86    1.52            0.06    0.04    0.04           0.50     0.57
B2          3.82    2.90    1.05          19.65   16.84   14.79          22.41   41.29           1.17    1.77    2.09    1.48            0.05    0.04    0.02           0.28     0.33
B3          4.35    2.83    0.64          19.33   25.71   21.29          33.39   39.63           1.05    1.93    2.35    1.46            0.06    0.04    0.02           0.28     0.32
B4          5.32    2.94    0.15          19.79   36.03   31.35          47.76   41.03           0.91    2.17    3.26    1.41            0.10    0.06    0.00           0.38     0.46
B5         12.80   11.46    6.51          40.34   12.18   11.38          16.67   43.04           0.73    1.04    1.20    0.91            0.24    0.21    0.23           0.50     0.58
B6         14.64   11.23    4.04          39.96   25.51   23.31          34.56   42.42           0.59    1.16    1.44    0.89            0.33    0.26    0.15           0.48     0.55
B7         17.13   11.46    2.61          40.35   38.22   33.95          51.12   41.61           0.47    1.27    1.67    0.86            0.34    0.23    0.09           0.47     0.53
B8         20.77   11.30    1.02          40.08   58.01   50.47          76.89   41.02           0.31    1.59    2.15    0.82            0.22    0.14    0.03           0.30     0.34
B9         35.18   35.16   25.76          65.87    4.38    5.50           7.04   51.29           0.38    0.48    0.54    0.45            0.83    0.87    0.91           0.85     0.99
B10        36.87   35.02   22.84          65.76   10.50   10.65          14.96   45.35           0.32    0.51    0.60    0.44            0.77    0.79    0.79           0.83     0.97
B11        38.49   34.87   20.48          65.65   16.23   15.10          22.17   42.92           0.27    0.54    0.66    0.43            0.73    0.72    0.71           0.70     0.83
B12        43.30   35.20   14.96          65.90   29.85   28.04          40.96   43.20           0.15    0.60    0.81    0.41            0.57    0.63    0.63           0.84     1.05
B13        62.57   68.51   57.24          86.26   -7.91   -0.73           7.95  185.25           0.23    0.14    0.17    0.17            0.84    0.93    0.57           0.43     0.53
B14        69.28   67.44   55.21          85.72    9.36    0.46           9.37    2.91           0.09    0.20    0.18    0.16            0.82    1.02    0.61           0.59     0.73
B15        73.68   76.00   50.67          89.86    0.82   12.52          12.55   86.26           0.08    0.13    0.23    0.11            0.77    0.89    1.09           0.53     0.69
B16        56.25   58.62   47.43          81.08   -0.68    1.10           1.32  122.22           0.23    0.23    0.26    0.23            0.78    0.89    0.80           0.48     0.58
B17        67.38   65.81   48.14          84.90    8.79    6.86          11.15   37.98           0.09    0.21    0.25    0.17            0.75    0.91    0.92           0.52     0.65
B18        61.15   67.52   50.10          85.76   -9.06    6.10          10.92  146.05           0.23    0.15    0.24    0.18            0.73    0.81    0.87           0.43     0.52
B19        57.97   60.34   54.17          82.02   -0.50   -4.82           4.85  263.94           0.23    0.22    0.19    0.22            0.64    0.76    0.43           0.43     0.55
B20         4.94    2.93    0.97          19.76   31.56   16.18          35.46   27.15           0.97    2.05    2.07    1.43            0.06    0.04    0.03           0.21     0.26
B21        17.00   11.32    4.07          40.12   38.47   23.42          45.04   31.34           0.47    1.28    1.41    0.86            0.24    0.17    0.13           0.37     0.44
B22        33.79   28.66   16.88          60.48   22.86   14.02          26.82   31.50           0.29    0.67    0.74    0.51            0.52    0.47    0.54           0.55     0.70
C1          6.15    5.99    3.29          29.38    4.23    9.89          10.75   66.85           1.08    1.28    1.54    1.21            0.08    0.08    0.08           0.29     0.33
C2          6.61    6.05    2.07          29.54    8.39   19.96          21.65   67.21           1.01    1.31    1.81    1.19            0.09    0.09    0.05           0.28     0.34
C3          7.08    6.05    1.12          29.54   13.05   30.82          33.47   67.05           0.95    1.34    2.19    1.17            0.10    0.09    0.03           0.26     0.30
C4          7.73    6.16    0.36          29.82   18.07   44.62          48.14   67.96           0.90    1.38    3.07    1.15            0.13    0.11    0.01           0.39     0.46
C5         24.03   23.19   11.51          55.27    7.44   19.16          20.55   68.77           0.50    0.69    0.95    0.62            0.44    0.43    0.35           0.44     0.56
C6         26.25   23.71    6.67          55.80   14.58   37.33          40.08   68.67           0.41    0.71    1.25    0.59            0.43    0.41    0.22           0.47     0.54
C7         28.09   23.39    3.16          55.47   23.39   55.79          60.49   67.26           0.34    0.77    1.71    0.58            0.45    0.40    0.09           0.42     0.48
C8         31.19   23.57    0.72          55.65   34.39   82.37          89.26   67.34           0.27    0.84    2.97    0.56            0.46    0.37    0.01           0.46     0.56
C9         41.29   41.78   28.21          70.71    3.11    9.68          10.17   72.19           0.32    0.40    0.51    0.37            0.81    0.86    0.89           0.72     0.84
C10        42.41   41.88   24.29          70.78    6.16   16.60          17.71   69.62           0.28    0.41    0.58    0.36            0.81    0.87    0.89           0.83     0.97
C11        43.82   42.19   20.16          71.00    9.43   24.98          26.70   69.32           0.24    0.42    0.68    0.35            0.66    0.72    0.67           0.74     0.88
C12        48.04   41.87    8.87          70.78   22.32   54.52          58.92   67.73           0.13    0.48    1.14    0.33            0.50    0.62    0.36           0.77     0.93
C13        55.71   63.65   56.31          83.78  -13.67   -4.04          14.25  196.46           0.32    0.15    0.18    0.21            0.65    0.71    0.48           0.32     0.41
C14        63.32   58.56   52.16          81.05   16.29   -4.32          16.85  345.17           0.10    0.29    0.20    0.22            0.60    0.77    0.41           0.53     0.70
C15        71.71   74.45   41.34          89.13   -0.17   22.44          22.44   90.45           0.09    0.14    0.34    0.12            0.67    0.77    1.11           0.75     0.91
C16        43.63   45.50   36.93          73.22   -0.71    0.86           1.17  133.61           0.33    0.34    0.37    0.34            0.72    0.78    0.89           0.62     0.72
C17        59.40   55.21   37.55          79.16   15.26   10.24          18.38   33.85           0.11    0.32    0.37    0.24            0.62    0.72    0.94           0.67     0.79
C18        52.49   61.28   41.01          82.53  -16.45   11.47          20.06  145.13           0.32    0.17    0.34    0.22            0.70    0.76    0.93           0.56     0.67
C19        47.23   48.94   50.76          75.41    0.12  -12.48          12.48  270.54           0.33    0.31    0.21    0.32            0.57    0.67    0.38           0.47     0.59
C20        12.23    8.89    1.07          35.78   28.07   42.27          50.74   56.42           0.65    1.30    2.23    0.98            0.11    0.09    0.03           0.21     0.24
C21        21.77   20.22   11.05          52.09   10.98   15.08          18.66   53.90           0.52    0.77    0.95    0.67            0.27    0.26    0.35           0.59     0.71
C22        27.66   23.35   10.82          55.43   21.88   21.57          30.73   44.58           0.37    0.76    0.97    0.59            0.37    0.33    0.41           0.70     0.84
D1          4.08    4.24    2.34          24.46   -0.21    8.82           8.83   91.40           1.29    1.40    1.71    1.37            0.08    0.06    0.05           0.47     0.57
D2          4.20    4.44    1.48          25.07   -1.13   18.48          18.52   93.51           1.28    1.37    2.00    1.34            0.06    0.06    0.03           0.36     0.44
D3          4.02    4.25    0.85          24.49   -1.21   26.37          26.40   92.63           1.30    1.38    2.37    1.36            0.07    0.06    0.02           0.35     0.41
D4          4.01    4.31    0.39          24.66   -2.04   35.12          35.18   93.32           1.33    1.36    3.03    1.35            0.07    0.08    0.01           0.37     0.43
D5         17.87   18.79    9.47          50.44   -1.34   17.39          17.44   94.40           0.67    0.74    1.05    0.72            0.33    0.33    0.30           0.47     0.58
D6         17.67   18.77    5.10          50.42   -2.27   35.42          35.50   93.67           0.67    0.73    1.42    0.71            0.29    0.29    0.13           0.34     0.39
D7         17.38   18.54    2.44          50.15   -2.67   52.18          52.25   92.93           0.68    0.73    1.92    0.71            0.29    0.31    0.06           0.39     0.45
D8         17.56   19.00    0.90          50.68   -4.00   70.68          70.80   93.24           0.72    0.71    2.91    0.70            0.26    0.27    0.02           0.38     0.44
D9         47.69   49.97   25.43          76.05   -1.36   23.62          23.66   93.29           0.26    0.31    0.58    0.29            0.76    0.83    0.85           0.75     0.88
D10        47.05   49.52   14.27          75.77   -1.93   46.82          46.86   92.36           0.25    0.31    0.90    0.29            0.64    0.75    0.47           0.62     0.74
D11        46.46   49.30    7.04          75.64   -3.02   69.97          70.04   92.47           0.25    0.31    1.36    0.29            0.49    0.58    0.22           0.53     0.63
D12        46.00   49.07    1.79          75.49   -3.68  101.96         102.02   92.07           0.29    0.31    2.65    0.29            0.39    0.46    0.04           0.31     0.38
D13        49.54   59.23   55.54          81.42  -19.45   -7.31          20.78  200.61           0.42    0.17    0.18    0.25            0.52    0.57    0.42           0.29     0.37
D14        57.48   50.19   49.11          76.19   23.45   -9.29          25.22  338.39           0.12    0.39    0.22    0.28            0.57    0.72    0.41           0.55     0.73
D15        70.06   73.11   32.43          88.50   -0.92   33.68          33.70   91.57           0.08    0.14    0.47    0.12            0.62    0.74    1.08           0.90     1.11
D16        32.65   34.25   27.56          65.16   -1.33    1.17           1.80  140.15           0.46    0.47    0.51    0.47            0.59    0.62    0.76           0.57     0.69
D17        51.68   45.32   27.86          73.10   22.08   14.38          26.35   33.05           0.13    0.44    0.51    0.31            0.55    0.63    0.85           0.76     0.91
D18        44.88   55.69   32.62          79.43  -23.88   17.77          29.77  143.35           0.43    0.19    0.46    0.27            0.67    0.73    0.93           0.68     0.83
D19        37.68   38.91   47.44          68.68    0.54  -20.30          20.31  271.52           0.45    0.41    0.24    0.42            0.48    0.58    0.29           0.51     0.64
D20         2.96    2.93    1.05          19.75    2.38   14.97          15.16   80.95           1.39    1.59    2.15    1.52            0.04    0.04    0.02           0.22     0.27
D21        31.29   28.90    1.53          60.69   12.99   79.32          80.37   80.70           0.36    0.61    2.42    0.50            0.38    0.39    0.04           0.34     0.41
D22        41.29   44.12   49.55          72.31   -3.78  -16.47          16.90  257.05           0.43    0.34    0.22    0.37            0.64    0.77    0.41           0.56     0.74
E1          5.34    6.10    3.35          29.65   -6.17    9.96          11.72  121.78           1.23    1.20    1.55    1.22            0.09    0.07    0.09           0.50     0.63
E2          5.02    6.22    2.20          29.96  -11.44   19.48          22.59  120.42           1.30    1.15    1.82    1.22            0.09    0.09    0.05           0.44     0.56
E3          4.58    6.19    1.32          29.90  -16.76   28.68          33.22  120.30           1.40    1.12    2.19    1.22            0.09    0.09    0.03           0.42     0.50
E4          4.26    6.34    0.59          30.25  -22.60   40.99          46.81  118.87           1.56    1.06    2.94    1.22            0.09    0.11    0.01           0.48     0.57
E5         25.11   28.86   15.35          60.66  -11.12   18.02          21.18  121.70           0.59    0.51    0.82    0.55            0.42    0.48    0.52           0.61     0.75
E6         22.74   28.41    9.39          60.26  -19.77   34.59          39.84  119.76           0.68    0.48    1.11    0.56            0.38    0.46    0.34           0.61     0.74
E7         20.51   28.27    5.18          60.13  -29.70   51.80          59.71  119.83           0.80    0.45    1.52    0.56            0.31    0.44    0.15           0.44     0.51
E8         17.51   27.62    1.83          59.55  -42.46   74.05          85.36  119.83           1.06    0.41    2.51    0.58            0.08    0.11    0.05           0.46     0.54
E9         45.53   49.59   32.93          75.81   -6.40   11.07          12.79  120.10           0.33    0.29    0.44    0.31            0.70    0.80    0.98           0.75     0.87
E10        42.78   49.05   25.70          75.48  -12.99   22.17          25.70  120.38           0.37    0.28    0.58    0.31            0.57    0.64    0.73           0.66     0.77
E11        40.85   48.85   20.03          75.36  -18.26   32.77          37.52  119.14           0.41    0.26    0.72    0.32            0.56    0.67    0.72           0.83     0.98
E12        37.06   48.54   12.01          75.16  -29.40   52.00          59.74  119.49           0.51    0.23    1.03    0.32            0.48    0.56    0.46           0.76     0.87
E13        44.44   55.42   54.82          79.28  -24.48  -10.22          26.53  202.66           0.52    0.18    0.19    0.29            0.37    0.41    0.36           0.22     0.28
E14        51.67   42.36   45.83          71.11   30.64  -14.19          33.76  335.14           0.14    0.50    0.24    0.35            0.58    0.66    0.45           0.58     0.74
E15        68.72   71.85   25.00          87.89   -1.19   44.81          44.83   91.53           0.08    0.15    0.61    0.13            0.50    0.63    0.86           0.95     1.10
E16        23.91   25.18   20.10          57.25   -1.58    1.40           2.15  140.49           0.59    0.60    0.66    0.60            0.41    0.41    0.63           0.67     0.77
E17        44.66   36.62   19.93          66.99   29.16   18.55          34.57   32.45           0.15    0.58    0.66    0.39            0.43    0.47    0.68           0.82     0.95
E18        38.68   50.87   25.68          76.60  -30.39   24.14          38.82  141.55           0.53    0.21    0.59    0.31            0.51    0.59    0.77           0.70     0.83
E19        29.82   30.51   44.26          62.09    1.54  -27.86          27.90  273.15           0.58    0.51    0.26    0.54            0.34    0.42    0.23           0.49     0.58
E20         7.04    8.37    1.39          34.74   -9.77   36.25          37.54  105.09           1.14    1.03    2.19    1.08            0.10    0.12    0.04           0.32     0.39
E21        24.49   29.32    6.29          61.06  -15.51   48.06          50.50  107.88           0.61    0.49    1.37    0.53            0.33    0.40    0.19           0.40     0.46
E22         8.68   18.51   13.40          50.11  -60.86    4.88          61.05  175.42           1.88    0.51    0.92    0.81            0.19    0.32    0.48           0.71     0.82
F1          3.54    4.33    3.05          24.75   -9.54    3.64          10.23  159.06           1.46    1.33    1.58    1.39            0.08    0.08    0.10           0.63     0.73
F2          2.81    4.25    2.59          24.48  -20.64    6.71          21.70  161.99           1.71    1.26    1.70    1.42            0.06    0.07    0.07           0.36     0.43
F3          2.36    4.31    2.23          24.67  -30.17   10.14          31.83  161.43           1.96    1.20    1.81    1.43            0.06    0.09    0.07           0.36     0.42
F4          1.58    4.41    1.66          24.98  -49.56   16.31          52.18  161.79           2.78    1.09    2.08    1.45            0.03    0.08    0.06           0.39     0.47
F5         11.63   14.78   10.24          45.32  -17.27    5.98          18.29  160.90           1.01    0.77    1.00    0.86            0.15    0.21    0.35           0.61     0.75
F6          9.27   14.68    8.46          45.19  -34.71   11.88          36.69  161.09           1.30    0.70    1.13    0.88            0.13    0.20    0.26           0.54     0.70
F7          7.48   14.71    7.05          45.24  -50.76   17.53          53.70  160.95           1.65    0.64    1.26    0.90            0.11    0.22    0.24           0.49     0.63
F8          5.42   14.22    5.56          44.55  -69.41   23.03          73.13  161.64           2.34    0.58    1.46    0.93            0.07    0.17    0.17           0.48     0.58
F9         30.22   35.00   26.40          65.75  -12.73    4.17          13.41  161.90           0.56    0.42    0.54    0.47            0.50    0.55    0.74           0.62     0.75
F10        26.48   34.15   23.48          65.08  -24.50    8.26          25.86  161.38           0.69    0.39    0.61    0.49            0.42    0.52    0.72           0.64     0.79
F11        23.95   34.38   21.48          65.27  -35.99   12.42          38.08  160.96           0.83    0.35    0.67    0.50            0.26    0.35    0.57           0.63     0.80
F12        19.30   33.69   18.16          64.72  -55.44   18.43          58.43  161.62           1.15    0.30    0.78    0.53            0.19    0.22    0.60           0.85     1.08
F13        40.26   52.28   54.51          77.45  -29.08  -13.06          31.88  204.18           0.62    0.19    0.19    0.32            0.25    0.27    0.27           0.19     0.22
F14        45.68   34.60   42.35          65.44   38.74  -19.72          43.47  333.03           0.16    0.64    0.27    0.43            0.34    0.39    0.25           0.45     0.55
F15        67.80   70.80   19.29          87.39   -1.03   55.07          55.08   91.08           0.08    0.16    0.76    0.13            0.42    0.56    0.70           0.96     1.10
F16        16.56   17.28   14.14          48.61   -0.59    0.33           0.81  161.97           0.74    0.78    0.82    0.77            0.26    0.26    0.41           0.59     0.68
F17        37.56   28.17   13.61          60.04   37.39   21.42          43.10   29.81           0.18    0.76    0.84    0.49            0.28    0.28    0.43           0.69     0.80
