targets/wolf_faust/transmissive/E131102.it8
IT8.7/1
ORIGINATOR "Wolf Faust"
DESCRIPTOR "Ektachrome, Type 3, L* a* b* (light D50, viewing angle 2)"
MANUFACTURER "Wolf Faust - http://www.coloraid.de"
CREATED "November 16, 2013"
PROD_DATE "2013:04"
DIFFUSE_GEOMETRY "opal"
SERIAL "E131102 Batch Average Data"
MATERIAL "For Kodak Ektachrome Product Family"
KEYWORD "MEAN_DE" # Mean Delta E of samples compared to batch average
NUMBER_OF_FIELDS 18
BEGIN_DATA_FORMAT
SAMPLE_ID  XYZ_X   XYZ_Y   XYZ_Z          LAB_L   LAB_A   LAB_B          LAB_C   LAB_H          D_RED  D_GREEN  D_BLUE  D_VIS          STDEV_X STDEV_Y STDEV_Z        MEAN_DE  STDEV_DE
END_DATA_FORMAT
NUMBER_OF_SETS 288
BEGIN_DATA
A1          2.16    1.86    1.32          14.72    8.61    2.54           8.98   16.45           1.47    1.88    1.94    1.70            0.07    0.04    0.03           0.64     0.73
A2          2.76    1.92    1.07          15.06   19.01    6.53          20.10   18.96           1.28    2.04    2.03    1.65            0.05    0.03    0.03           0.41     0.48 
A3          3.25    1.85    0.90          14.67   29.40    8.51          30.61   16.13           1.14    2.33    2.07    1.63            0.05    0.03    0.02           0.38     0.42
A4          4.11    1.89    0.69          14.89   41.49   12.73          43.40   17.05           0.96    2.96    2.12    1.57            0.08    0.03    0.01           0.46     0.50 
A5          9.69    8.32    5.81          34.65   14.17    4.74          14.95   18.49           0.84    1.21    1.24    1.05            0.16    0.13    0.08           0.50     0.53
A6         11.55    8.26    4.91          34.52   28.74    9.02          30.12   17.42           0.68    1.35    1.30    1.02            0.19    0.14    0.06           0.55     0.59 
A7         14.18    8.52    4.31          35.05   43.86   13.26          45.82   16.82           0.52    1.54    1.34    0.97            0.17    0.11    0.04           0.43     0.48
A8         17.21    8.58    3.50          35.16   60.97   18.45          63.70   16.84           0.37    1.93    1.40    0.93            0.13    0.08    0.04           0.26     0.28 
A9         29.22   28.18   21.04          60.05    8.04    4.30           9.13   28.13           0.44    0.60    0.64    0.54            0.33    0.34    0.12           0.50     0.55
A10        30.80   27.85   19.98          59.75   15.30    5.94          16.42   21.23           0.38    0.64    0.66    0.53            0.29    0.28    0.12           0.47     0.52
A11        33.36   28.20   18.88          60.06   23.13    8.83          24.76   20.90           0.30    0.67    0.68    0.52            0.28    0.27    0.11           0.46     0.50
A12        38.09   28.40   17.08          60.25   38.21   13.15          40.41   19.00           0.18    0.76    0.72    0.49            0.26    0.28    0.13           0.44     0.49 
A13        72.24   77.04   61.29          90.34   -4.24    2.22           4.79  152.29           0.14    0.10    0.14    0.12            0.27    0.28    0.17           0.24     0.27
A14        77.46   78.71   60.72          91.10    3.17    4.09           5.18   52.27           0.07    0.11    0.14    0.10            0.24    0.31    0.20           0.23     0.27 
A15        79.75   82.31   61.56          92.71    0.75    6.05           6.10   82.93           0.06    0.09    0.14    0.08            0.20    0.25    0.19           0.18     0.19
A16        73.14   75.75   60.19          89.74    0.23    2.28           2.29   84.15           0.11    0.12    0.14    0.12            0.28    0.34    0.19           0.28     0.32
A17        79.19   81.48   61.18          92.34    1.24    5.79           5.92   77.90           0.06    0.09    0.14    0.09            0.21    0.27    0.18           0.18     0.20
A18        76.97   80.36   59.99          91.85   -1.04    6.11           6.19   99.64           0.09    0.09    0.15    0.09            0.27    0.28    0.20           0.20     0.22 
A19        66.71   69.58   58.43          86.79   -0.84   -1.03           1.36  230.29           0.16    0.15    0.16    0.16            0.28    0.35    0.15           0.35     0.39
A20         6.35    2.99    1.75          20.00   46.75    6.74          47.23    8.21           0.79    2.61    1.69    1.38            0.12    0.06    0.04           0.36     0.41 
A21        26.44   18.45   13.83          50.04   40.17    3.58          40.33    5.09           0.32    1.01    0.80    0.67            0.18    0.17    0.12           0.43     0.48
A22        53.64   48.97   30.88          75.43   17.13   13.51          21.82   38.27           0.14    0.38    0.46    0.29            0.29    0.38    0.13           0.40     0.49
B1          3.18    2.89    1.63          19.60    6.92    7.27          10.04   46.50           1.33    1.65    1.87    1.52            0.09    0.06    0.04           0.71     0.80
B2          3.75    2.86    0.99          19.45   16.64   15.28          22.59   42.56           1.17    1.77    2.13    1.49            0.06    0.05    0.03           0.41     0.49
B3          4.34    2.84    0.61          19.40   25.25   21.94          33.45   40.99           1.05    1.92    2.38    1.46            0.07    0.05    0.02           0.44     0.48
B4          5.30    2.94    0.16          19.78   35.89   31.14          47.51   40.95           0.91    2.16    3.18    1.41            0.08    0.05    0.00           0.42     0.46
B5         12.42   11.06    6.18          39.69   12.46   11.71          17.11   43.23           0.74    1.06    1.23    0.93            0.16    0.15    0.07           0.51     0.54
B6         14.65   11.13    3.87          39.79   26.29   24.05          35.63   42.46           0.59    1.17    1.47    0.89            0.22    0.17    0.04           0.55     0.60
B7         16.93   11.22    2.47          39.94   38.85   34.33          51.85   41.47           0.47    1.29    1.70    0.86            0.22    0.15    0.04           0.50     0.55
B8         20.74   11.26    1.00          40.02   58.13   50.64          77.10   41.06           0.31    1.59    2.16    0.82            0.18    0.12    0.03           0.33     0.38
B9         34.20   33.96   24.43          64.93    5.10    6.24           8.07   50.70           0.39    0.50    0.57    0.46            0.38    0.41    0.18           0.54     0.58
B10        35.99   33.93   21.33          64.91   11.27   12.10          16.54   47.02           0.32    0.53    0.64    0.45            0.35    0.37    0.15           0.51     0.55
B11        37.83   34.11   19.49          65.05   16.68   16.12          23.20   44.02           0.27    0.55    0.68    0.44            0.35    0.35    0.16           0.44     0.49
B12        42.55   34.24   14.06          65.15   30.87   29.05          42.39   43.26           0.15    0.62    0.85    0.42            0.29    0.32    0.15           0.45     0.50
B13        62.40   68.16   56.71          86.09   -7.53   -0.48           7.55  183.66           0.22    0.14    0.17    0.17            0.33    0.36    0.16           0.31     0.34
B14        68.96   66.91   54.64          85.46    9.82    0.61           9.84    3.57           0.09    0.21    0.18    0.17            0.34    0.46    0.20           0.35     0.42
B15        73.42   75.63   49.40          89.69    1.04   13.66          13.70   85.66           0.08    0.13    0.25    0.12            0.29    0.34    0.35           0.28     0.31
B16        56.10   58.24   46.24          80.87   -0.15    2.14           2.16   93.68           0.22    0.24    0.27    0.23            0.50    0.58    0.31           0.47     0.53
B17        67.00   65.29   46.85          84.63    9.10    7.90          12.06   40.98           0.09    0.22    0.26    0.17            0.39    0.52    0.30           0.39     0.47
B18        61.08   67.26   48.90          85.63   -8.65    7.24          11.28  140.07           0.22    0.15    0.25    0.18            0.33    0.35    0.19           0.34     0.37
B19        58.43   60.59   53.83          82.16    0.01   -4.22           4.23  269.97           0.22    0.22    0.19    0.22            0.39    0.48    0.17           0.45     0.52
B20         4.84    2.91    0.99          19.66   30.66   15.74          34.47   27.18           0.98    2.03    2.07    1.44            0.10    0.07    0.03           0.44     0.48
B21        16.95   11.28    3.94          40.06   38.46   24.09          45.38   32.06           0.47    1.28    1.43    0.87            0.22    0.17    0.08           0.49     0.53
B22        33.63   28.45   16.25          60.29   23.10   15.17          27.64   33.30           0.29    0.67    0.76    0.51            0.32    0.30    0.19           0.48     0.54
C1          6.04    5.95    3.23          29.29    3.33   10.16          10.70   71.92           1.10    1.28    1.55    1.21            0.09    0.08    0.06           0.53     0.61
C2          6.57    5.98    2.02          29.37    8.66   20.11          21.90   66.71           1.01    1.32    1.82    1.19            0.08    0.08    0.03           0.38     0.44
C3          7.00    5.98    1.10          29.36   13.04   30.72          33.38   67.00           0.95    1.35    2.20    1.18            0.10    0.09    0.03           0.43     0.48
C4          7.67    6.04    0.36          29.52   18.84   44.01          47.88   66.83           0.89    1.40    3.04    1.16            0.10    0.08    0.00           0.49     0.55
C5         23.57   22.64   11.02          54.70    7.87   19.68          21.20   68.20           0.50    0.70    0.97    0.63            0.31    0.29    0.10           0.51     0.55
C6         25.73   22.88    6.20          54.95   16.07   37.94          41.21   67.04           0.41    0.74    1.29    0.60            0.32    0.28    0.08           0.54     0.57
C7         27.61   22.81    3.07          54.88   24.05   55.42          60.41   66.54           0.34    0.79    1.73    0.59            0.32    0.26    0.05           0.46     0.50
C8         30.86   23.15    0.72          55.23   35.00   81.56          88.75   66.77           0.27    0.86    2.94    0.56            0.32    0.24    0.01           0.49     0.53
C9         40.71   41.06   27.38          70.21    3.48   10.18          10.76   71.10           0.32    0.41    0.52    0.38            0.45    0.49    0.16           0.60     0.65
C10        41.52   40.73   23.13          69.99    6.93   17.37          18.70   68.23           0.28    0.43    0.61    0.38            0.45    0.49    0.17           0.54     0.62
C11        42.84   40.85   19.10          70.07   10.55   25.60          27.69   67.60           0.24    0.44    0.71    0.37            0.39    0.40    0.14           0.48     0.55
C12        47.56   41.15    8.57          70.28   23.18   54.75          59.46   67.05           0.13    0.50    1.16    0.34            0.28    0.34    0.09           0.44     0.51
C13        55.57   63.30   55.80          83.60  -13.21   -3.83          13.76  196.16           0.32    0.16    0.18    0.21            0.29    0.29    0.16           0.30     0.33
C14        62.96   57.99   51.53          80.73   16.83   -4.17          17.34  346.11           0.10    0.29    0.21    0.22            0.26    0.36    0.14           0.35     0.44
C15        71.54   74.20   39.94          89.02   -0.02   24.04          24.04   90.04           0.08    0.14    0.36    0.12            0.26    0.33    0.20           0.32     0.36
C16        43.75   45.40   35.87          73.15   -0.06    2.21           2.22   91.32           0.32    0.35    0.39    0.34            0.48    0.54    0.20           0.53     0.62
C17        58.98   54.66   36.28          78.85   15.62   11.44          19.37   36.24           0.11    0.32    0.38    0.24            0.29    0.41    0.21           0.47     0.55
C18        52.60   61.20   39.87          82.48  -15.96   12.86          20.50  141.14           0.32    0.17    0.36    0.22            0.33    0.36    0.20           0.37     0.40
C19        47.69   49.19   50.36          75.57    0.73  -11.77          11.80  273.52           0.32    0.31    0.22    0.31            0.46    0.55    0.18           0.60     0.68
C20        12.17    8.85    1.19          35.69   27.99   40.49          49.23   55.34           0.65    1.30    2.16    0.98            0.22    0.16    0.03           0.53     0.56
C21        21.87   20.21   10.64          52.08   11.51   16.33          19.99   54.81           0.52    0.77    0.98    0.67            0.32    0.31    0.13           0.55     0.61
C22        27.45   23.03   10.39          55.10   22.44   22.36          31.68   44.89           0.36    0.77    0.99    0.60            0.30    0.27    0.12           0.50     0.54
D1          3.95    4.16    2.30          24.18   -0.91    8.61           8.69   96.10           1.31    1.41    1.73    1.38            0.11    0.08    0.05           0.73     0.83
D2          3.96    4.24    1.45          24.46   -1.95   17.78          17.90   96.28           1.31    1.38    2.02    1.36            0.11    0.08    0.04           0.75     0.85
D3          3.90    4.20    0.81          24.31   -2.14   26.72          26.82   94.60           1.32    1.38    2.42    1.36            0.11    0.07    0.02           0.81     0.92
D4          3.88    4.19    0.40          24.30   -2.37   34.31          34.40   93.96           1.35    1.37    2.99    1.36            0.10    0.06    0.01           0.83     0.94
D5         17.49   18.30    8.98          49.85   -0.81   18.04          18.06   92.58           0.68    0.75    1.08    0.73            0.23    0.24    0.08           0.53     0.57
D6         17.25   18.17    4.84          49.70   -1.46   35.56          35.59   92.35           0.67    0.75    1.45    0.73            0.21    0.22    0.05           0.52     0.57
D7         17.22   18.15    2.40          49.67   -1.51   51.75          51.78   91.67           0.68    0.75    1.94    0.72            0.23    0.23    0.04           0.51     0.55
D8         17.00   18.16    0.89          49.69   -2.78   69.04          69.10   92.30           0.72    0.74    2.86    0.72            0.21    0.20    0.01           0.49     0.53
D9         46.52   48.43   23.65          75.09   -0.51   25.19          25.20   91.16           0.26    0.32    0.61    0.31            0.43    0.47    0.14           0.56     0.63
D10        46.56   48.79   13.39          75.32   -1.35   48.35          48.37   91.60           0.25    0.32    0.94    0.30            0.40    0.44    0.13           0.51     0.56
D11        45.76   48.23    6.82          74.97   -2.10   69.72          69.76   91.73           0.25    0.32    1.37    0.30            0.44    0.46    0.07           0.44     0.49
D12        45.40   48.27    1.80          75.00   -3.24  101.02         101.08   91.84           0.30    0.32    2.61    0.29            0.28    0.23    0.02           0.34     0.37
D13        49.42   58.87   54.99          81.22  -18.90   -7.07          20.18  200.51           0.42    0.17    0.19    0.25            0.26    0.24    0.19           0.29     0.32
D14        56.82   49.25   48.29          75.61   24.34   -9.35          26.08  339.00           0.12    0.40    0.23    0.29            0.21    0.28    0.15           0.32     0.38
D15        69.92   72.85   31.14          88.38   -0.70   35.43          35.44   91.14           0.08    0.15    0.49    0.13            0.24    0.28    0.27           0.39     0.46
D16        32.57   33.81   26.58          64.81   -0.12    2.24           2.26   93.06           0.45    0.48    0.53    0.47            0.44    0.45    0.22           0.61     0.69
D17        51.06   44.49   26.69          72.55   22.82   15.39          27.52   33.99           0.13    0.45    0.53    0.32            0.27    0.34    0.21           0.48     0.56
D18        45.01   55.58   31.66          79.38  -23.25   19.12          30.10  140.57           0.42    0.19    0.48    0.27            0.30    0.30    0.28           0.38     0.41
D19        37.93   38.84   46.91          68.63    1.56  -19.76          19.82  274.49           0.44    0.41    0.24    0.42            0.40    0.46    0.19           0.60     0.69
D20         2.89    2.90    1.11          19.62    1.77   13.91          14.03   82.76           1.41    1.59    2.12    1.52            0.07    0.05    0.03           0.58     0.67
D21        31.34   28.52    1.52          60.35   14.67   78.78          80.13   79.45           0.35    0.63    2.41    0.50            0.33    0.34    0.04           0.50     0.55
D22        40.80   43.66   48.84          72.00   -3.96  -16.19          16.67  256.22           0.43    0.34    0.23    0.38            0.30    0.38    0.18           0.53     0.62
E1          5.25    6.01    3.30          29.43   -6.30    9.92          11.77  122.36           1.24    1.21    1.56    1.23            0.13    0.11    0.05           0.71     0.80
E2          4.94    6.11    2.17          29.68  -11.27   19.34          22.39  120.21           1.30    1.16    1.83    1.22            0.13    0.11    0.04           0.74     0.84
E3          4.38    5.95    1.30          29.29  -16.87   27.92          32.63  121.13           1.42    1.13    2.20    1.24            0.10    0.10    0.04           0.68     0.76
E4          3.93    5.91    0.59          29.19  -22.68   39.29          45.37  120.00           1.59    1.09    2.91    1.25            0.07    0.09    0.01           0.63     0.67
E5         24.70   27.98   14.15          59.87   -9.49   19.71          21.88  115.71           0.59    0.53    0.86    0.56            0.37    0.40    0.15           0.57     0.62
E6         22.39   27.84    9.07          59.74  -19.13   34.78          39.69  118.81           0.68    0.49    1.13    0.56            0.29    0.35    0.09           0.50     0.54
E7         20.23   27.74    5.04          59.65  -28.96   51.66          59.23  119.28           0.80    0.46    1.54    0.57            0.17    0.23    0.07           0.46     0.50
E8         17.51   27.17    1.65          59.13  -40.71   75.25          85.55  118.42           1.04    0.42    2.62    0.59            0.16    0.17    0.02           0.29     0.36
E9         44.55   48.41   30.88          75.08   -6.06   12.92          14.27  115.13           0.33    0.30    0.47    0.32            0.49    0.55    0.21           0.62     0.67
E10        42.14   48.14   24.18          74.91  -12.43   23.90          26.95  117.48           0.37    0.29    0.61    0.32            0.45    0.51    0.16           0.61     0.67
E11        40.45   48.17   19.23          74.93  -17.65   33.70          38.05  117.65           0.41    0.27    0.74    0.32            0.50    0.55    0.20           0.65     0.70
E12        36.84   48.07   11.53          74.87  -28.85   52.89          60.25  118.61           0.50    0.24    1.06    0.33            0.31    0.31    0.06           0.35     0.39
E13        44.25   55.04   54.31          79.06  -24.10  -10.07          26.12  202.67           0.52    0.18    0.19    0.29            0.24    0.22    0.17           0.25     0.29
E14        51.07   41.46   45.12          70.50   31.70  -14.42          34.83  335.55           0.14    0.51    0.25    0.35            0.21    0.26    0.18           0.32     0.39
E15        68.74   71.75   24.24          87.85   -0.94   46.09          46.10   91.17           0.08    0.15    0.63    0.13            0.21    0.25    0.26           0.41     0.51
E16        23.62   24.56   19.29          56.64   -0.25    2.03           2.07   96.92           0.58    0.62    0.68    0.61            0.30    0.30    0.26           0.61     0.68
E17        44.03   35.77   19.13          66.35   30.08   19.13          35.65   32.45           0.15    0.60    0.68    0.40            0.25    0.30    0.27           0.51     0.59
E18        38.70   50.73   24.90          76.52  -29.97   25.36          39.26  139.76           0.52    0.21    0.61    0.31            0.21    0.22    0.27           0.44     0.50
E19        29.75   30.15   43.61          61.79    2.57  -27.58          27.70  275.32           0.57    0.52    0.27    0.54            0.25    0.29    0.14           0.49     0.57
E20         6.88    8.18    1.32          34.34   -9.65   36.40          37.66  104.85           1.14    1.04    2.23    1.09            0.13    0.11    0.04           0.67     0.76
E21        24.52   29.03    6.17          60.81  -14.31   48.17          50.25  106.55           0.60    0.49    1.38    0.54            0.26    0.29    0.09           0.50     0.58
E22         8.44   17.93   12.96          49.41  -59.88    4.88          60.08  175.34           1.87    0.53    0.94    0.83            0.11    0.19    0.19           0.31     0.36
F1          3.45    4.27    3.10          24.54   -9.93    2.89          10.34  163.71           1.48    1.33    1.57    1.39            0.09    0.09    0.06           0.56     0.63
F2          2.81    4.22    2.54          24.37  -20.14    6.89          21.28  161.10           1.70    1.27    1.71    1.42            0.06    0.08    0.05           0.42     0.47
F3          2.34    4.24    2.18          24.45  -29.71   10.18          31.40  161.08           1.95    1.21    1.83    1.43            0.04    0.07    0.06           0.36     0.41
F4          1.52    4.21    1.49          24.34  -48.49   17.04          51.40  160.64           2.74    1.11    2.15    1.46            0.02    0.06    0.04           0.39     0.42
F5         11.21   14.18    9.67          44.49  -16.74    6.41          17.93  159.04           1.02    0.79    1.03    0.87            0.15    0.15    0.12           0.60     0.68
F6          8.99   14.16    8.08          44.46  -33.89   12.08          35.98  160.38           1.30    0.72    1.16    0.89            0.13    0.17    0.11           0.52     0.58
F7          7.13   13.88    6.78          44.06  -49.04   16.62          51.78  161.28           1.65    0.67    1.28    0.92            0.08    0.15    0.08           0.34     0.37
F8          5.34   13.95    5.35          44.16  -68.68   23.38          72.55  161.21           2.31    0.59    1.48    0.94            0.06    0.12    0.07           0.23     0.25
F9         29.70   34.26   24.73          65.17  -12.17    6.10          13.62  153.43           0.55    0.43    0.58    0.48            0.35    0.40    0.22           0.68     0.74
F10        26.19   33.60   22.47          64.64  -23.78    9.41          25.58  158.41           0.69    0.40    0.63    0.50            0.29    0.38    0.18           0.56     0.62
F11        23.21   33.20   20.51          64.32  -35.19   12.74          37.42  160.09           0.84    0.37    0.69    0.51            0.24    0.33    0.23           0.61     0.65
F12        19.09   33.30   17.38          64.40  -55.16   19.62          58.54  160.42           1.14    0.31    0.80    0.53            0.14    0.17    0.15           0.31     0.35
F13        39.89   51.74   53.91          77.13  -28.85  -12.98          31.63  204.22           0.62    0.19    0.20    0.32            0.19    0.19    0.20           0.22     0.25
F14        45.64   34.51   41.94          65.37   38.94  -19.31          43.47  333.62           0.16    0.64    0.28    0.43            0.20    0.23    0.18           0.29     0.34
F15        67.84   70.71   18.75          87.34   -0.74   56.15          56.15   90.75           0.08    0.16    0.78    0.13            0.20    0.24    0.24           0.44     0.50
F16        16.50   17.23   13.72          48.54   -0.59    1.30           1.45  113.57           0.73    0.78    0.84    0.77            0.22    0.22    0.21           0.55     0.60
F17        37.73   28.33   13.26          60.19   37.32   22.64          43.65   31.24           0.18    0.76    0.86    0.49            0.25    0.28    0.23           0.55     0.61
