targets/wolf_faust/transmissive/E140430.it8
IT8.7/1
ORIGINATOR "Wolf Faust"
DESCRIPTOR "Ektachrome, Type 3, L* a* b* (light D50, viewing angle 2)"
MANUFACTURER "Wolf Faust - http://www.coloraid.de"
CREATED "May 18, 2014"
PROD_DATE "2014:04"
DIFFUSE_GEOMETRY "opal"
SERIAL "E140430 Batch Average Data"
MATERIAL "For Kodak Ektachrome Product Family"
KEYWORD "MEAN_DE" # Mean Delta E of samples compared to batch average
NUMBER_OF_FIELDS 18
BEGIN_DATA_FORMAT
SAMPLE_ID  XYZ_X   XYZ_Y   XYZ_Z          LAB_L   LAB_A   LAB_B          LAB_C   LAB_H          D_RED  D_GREEN  D_BLUE  D_VIS          STDEV_X STDEV_Y STDEV_Z        MEAN_DE  STDEV_DE
END_DATA_FORMAT
NUMBER_OF_SETS 288
BEGIN_DATA
A1          2.20    1.88    1.29          14.87    8.74    3.16           9.29   19.86           1.46    1.88    1.95    1.70            0.04    0.04    0.03           0.42     0.50
A2          2.82    1.96    1.09          15.28   19.23    6.62          20.34   18.99           1.27    2.03    2.02    1.64            0.04    0.03    0.02           0.32     0.37 
A3          3.27    1.86    0.89          14.72   29.44    8.80          30.73   16.64           1.13    2.33    2.07    1.62            0.06    0.04    0.03           0.34     0.39
A4          4.22    1.93    0.71          15.13   41.99   12.73          43.88   16.86           0.95    2.97    2.11    1.56            0.06    0.03    0.02           0.32     0.38 
A5          9.71    8.44    5.84          34.87   13.32    4.99          14.24   20.52           0.84    1.19    1.24    1.05            0.16    0.15    0.15           0.57     0.67
A6         11.65    8.35    4.99          34.70   28.64    8.90          29.99   17.25           0.67    1.34    1.29    1.02            0.15    0.13    0.10           0.54     0.62 
A7         14.12    8.51    4.30          35.03   43.55   13.29          45.54   16.97           0.52    1.53    1.35    0.97            0.18    0.13    0.12           0.44     0.50
A8         17.32    8.64    3.51          35.29   61.02   18.61          63.80   16.96           0.37    1.92    1.40    0.93            0.17    0.11    0.12           0.46     0.57 
A9         29.56   28.67   21.53          60.48    7.47    4.07           8.53   28.47           0.44    0.59    0.62    0.53            0.28    0.30    0.43           0.69     0.80
A10        31.38   28.40   20.00          60.24   15.29    6.76          16.73   23.82           0.37    0.63    0.66    0.52            0.29    0.31    0.38           0.69     0.78
A11        33.83   28.67   19.29          60.49   22.96    8.68          24.55   20.71           0.30    0.66    0.67    0.51            0.32    0.33    0.33           0.67     0.76
A12        38.53   28.79   17.33          60.59   38.14   13.19          40.36   19.08           0.18    0.75    0.71    0.49            0.34    0.34    0.38           0.70     0.81 
A13        72.92   77.81   61.69          90.69   -4.34    2.44           4.98  150.70           0.13    0.10    0.14    0.11            0.37    0.42    0.23           0.23     0.26
A14        78.17   79.51   61.15          91.46    3.02    4.30           5.26   54.92           0.06    0.11    0.14    0.10            0.30    0.46    0.26           0.32     0.40 
A15        80.47   83.12   62.28          93.07    0.64    5.95           5.99   83.87           0.06    0.08    0.13    0.08            0.22    0.31    0.25           0.20     0.23
A16        73.84   76.51   60.65          90.10    0.13    2.44           2.46   86.79           0.10    0.12    0.14    0.12            0.41    0.54    0.28           0.35     0.41
A17        79.89   82.27   61.59          92.69    1.12    5.99           6.10   79.40           0.06    0.09    0.14    0.08            0.27    0.39    0.30           0.24     0.29
A18        77.57   81.08   60.46          92.17   -1.21    6.20           6.32  101.04           0.08    0.09    0.15    0.09            0.27    0.34    0.29           0.22     0.24 
A19        67.77   70.64   58.89          87.31   -0.76   -0.60           1.01  219.19           0.15    0.15    0.15    0.15            0.38    0.45    0.21           0.39     0.44
A20         6.35    2.99    1.79          20.00   46.69    6.26          47.11    7.64           0.79    2.61    1.68    1.38            0.11    0.05    0.05           0.34     0.40 
A21        26.86   18.88   13.99          50.54   39.72    4.05          39.93    5.82           0.32    0.99    0.80    0.66            0.32    0.28    0.27           0.50     0.58
A22        54.11   49.41   31.50          75.70   17.13   13.04          21.53   37.27           0.13    0.38    0.45    0.28            0.40    0.46    0.44           0.48     0.56
B1          3.25    2.88    1.62          19.57    8.27    7.33          11.05   41.56           1.31    1.66    1.87    1.51            0.05    0.04    0.03           0.40     0.47
B2          3.86    2.93    1.05          19.77   16.87   14.96          22.55   41.56           1.16    1.76    2.09    1.47            0.05    0.04    0.03           0.36     0.41
B3          4.40    2.89    0.62          19.59   25.30   22.11          33.60   41.15           1.05    1.91    2.37    1.45            0.07    0.05    0.02           0.24     0.30
B4          5.35    2.96    0.16          19.87   36.09   31.33          47.79   40.95           0.91    2.16    3.19    1.40            0.04    0.03    0.01           0.28     0.31
B5         12.49   11.15    6.14          39.82   12.35   12.15          17.33   44.50           0.74    1.05    1.23    0.92            0.16    0.16    0.20           0.56     0.67
B6         14.51   11.16    4.13          39.84   25.23   22.57          33.86   41.81           0.60    1.16    1.43    0.90            0.19    0.16    0.13           0.48     0.58
B7         16.99   11.27    2.49          40.04   38.78   34.36          51.81   41.54           0.46    1.29    1.69    0.86            0.21    0.16    0.08           0.36     0.42
B8         20.78   11.30    1.04          40.08   58.03   50.20          76.73   40.86           0.31    1.59    2.14    0.82            0.23    0.16    0.03           0.36     0.42
B9         34.26   34.05   24.51          65.00    4.99    6.22           7.98   51.16           0.39    0.50    0.57    0.46            0.63    0.70    0.66           0.72     0.88
B10        36.40   34.25   21.56          65.16   11.55   12.08          16.72   46.25           0.32    0.52    0.63    0.45            0.45    0.46    0.58           0.76     0.86
B11        38.47   34.68   19.75          65.50   16.80   16.34          23.44   44.17           0.27    0.54    0.67    0.43            0.40    0.42    0.48           0.70     0.86
B12        42.94   34.64   14.55          65.47   30.67   28.31          41.74   42.71           0.15    0.62    0.83    0.41            0.38    0.43    0.42           0.70     0.88
B13        63.02   68.69   56.82          86.35   -7.25   -0.14           7.25  181.09           0.22    0.14    0.17    0.17            0.43    0.53    0.35           0.32     0.37
B14        69.71   67.86   54.97          85.94    9.37    1.08           9.43    6.62           0.09    0.20    0.18    0.16            0.41    0.55    0.32           0.37     0.46
B15        73.75   75.95   49.84          89.83    1.08   13.42          13.46   85.43           0.08    0.13    0.24    0.11            0.40    0.50    0.66           0.46     0.52
B16        56.99   59.26   46.86          81.43   -0.36    2.38           2.42   98.79           0.22    0.23    0.26    0.23            0.55    0.63    0.63           0.45     0.50
B17        67.80   66.28   47.56          85.14    8.68    7.94          11.76   42.43           0.09    0.21    0.26    0.17            0.58    0.69    0.80           0.47     0.56
B18        61.62   67.73   49.37          85.87   -8.41    7.12          11.02  139.75           0.22    0.15    0.25    0.17            0.49    0.56    0.65           0.43     0.48
B19        58.85   61.11   54.04          82.43   -0.17   -3.97           3.98  267.67           0.22    0.21    0.19    0.22            0.47    0.49    0.29           0.40     0.45
B20         4.81    2.89    0.87          19.61   30.61   17.51          35.27   29.77           0.98    2.03    2.14    1.44            0.08    0.05    0.02           0.36     0.43
B21        16.95   11.31    3.98          40.10   38.28   23.91          45.14   31.98           0.47    1.28    1.43    0.86            0.25    0.19    0.11           0.38     0.45
B22        33.54   28.39   16.16          60.23   23.05   15.30          27.67   33.57           0.29    0.67    0.76    0.51            0.40    0.38    0.41           0.59     0.70
C1          6.18    6.06    3.19          29.55    3.74   10.92          11.55   71.06           1.08    1.27    1.56    1.20            0.06    0.06    0.08           0.50     0.56
C2          6.56    6.01    1.99          29.45    8.23   20.57          22.15   68.20           1.01    1.31    1.83    1.19            0.08    0.08    0.05           0.39     0.44
C3          7.08    6.04    1.11          29.51   13.17   30.88          33.58   66.90           0.95    1.35    2.19    1.17            0.10    0.09    0.02           0.30     0.36
C4          7.62    6.01    0.36          29.45   18.64   43.99          47.78   67.03           0.90    1.40    3.04    1.16            0.08    0.06    0.01           0.42     0.49
C5         24.00   23.07   11.22          55.15    7.84   19.83          21.33   68.42           0.49    0.69    0.96    0.62            0.26    0.28    0.29           0.61     0.74
C6         25.97   23.18    6.25          55.25   15.79   38.22          41.36   67.56           0.41    0.73    1.29    0.60            0.27    0.28    0.18           0.56     0.64
C7         27.90   23.18    3.03          55.25   23.57   56.41          61.13   67.32           0.34    0.77    1.74    0.58            0.31    0.29    0.09           0.44     0.51
C8         30.83   23.14    0.72          55.22   34.95   81.56          88.74   66.80           0.27    0.85    2.92    0.56            0.24    0.19    0.01           0.29     0.35
C9         40.87   41.30   27.44          70.38    3.24   10.38          10.88   72.60           0.32    0.41    0.52    0.38            0.44    0.49    0.71           0.71     0.89
C10        42.04   41.44   23.25          70.48    6.36   18.00          19.09   70.51           0.28    0.42    0.61    0.37            0.43    0.46    0.60           0.65     0.84
C11        43.16   41.21   19.00          70.32   10.41   26.25          28.24   68.36           0.24    0.44    0.71    0.36            0.39    0.42    0.50           0.70     0.89
C12        47.75   41.33    8.68          70.40   23.14   54.57          59.27   67.02           0.13    0.49    1.15    0.34            0.34    0.41    0.26           0.56     0.74
C13        56.11   63.77   55.89          83.84  -12.93   -3.49          13.40  195.11           0.31    0.16    0.18    0.21            0.41    0.50    0.32           0.31     0.35
C14        63.57   58.71   51.86          81.13   16.50   -3.84          16.94  346.90           0.10    0.29    0.20    0.22            0.39    0.48    0.34           0.35     0.39
C15        71.87   74.54   40.72          89.18   -0.00   23.31          23.31   90.01           0.08    0.14    0.35    0.12            0.43    0.54    0.72           0.52     0.63
C16        44.46   46.17   36.66          73.65   -0.16    1.98           1.99   95.05           0.32    0.34    0.38    0.34            0.43    0.48    0.60           0.53     0.60
C17        59.53   55.34   36.87          79.23   15.26   11.30          18.99   36.50           0.11    0.32    0.37    0.24            0.46    0.50    0.74           0.55     0.65
C18        52.94   61.51   40.21          82.65  -15.80   12.71          20.28  141.18           0.31    0.17    0.35    0.22            0.49    0.63    0.75           0.50     0.60
C19        47.92   49.44   50.51          75.72    0.71  -11.67          11.70  273.46           0.32    0.31    0.22    0.31            0.33    0.38    0.24           0.40     0.44
C20        12.16    8.88    1.18          35.74   27.69   40.68          49.21   55.76           0.65    1.29    2.17    0.98            0.14    0.09    0.03           0.38     0.46
C21        21.76   20.15   10.47          52.01   11.29   16.77          20.21   56.04           0.52    0.77    0.98    0.67            0.31    0.30    0.27           0.58     0.67
C22        27.53   23.05   10.22          55.12   22.71   22.94          32.28   45.29           0.36    0.77    1.00    0.60            0.37    0.34    0.25           0.57     0.66
D1          4.08    4.26    2.33          24.53   -0.45    8.94           8.96   92.92           1.29    1.40    1.72    1.37            0.07    0.07    0.05           0.55     0.63
D2          4.19    4.45    1.47          25.10   -1.43   18.58          18.64   94.39           1.28    1.37    2.01    1.34            0.08    0.07    0.03           0.45     0.52
D3          4.06    4.32    0.82          24.71   -1.56   27.17          27.22   93.29           1.30    1.37    2.40    1.35            0.07    0.08    0.03           0.38     0.49
D4          3.90    4.13    0.39          24.10   -1.28   34.18          34.21   92.14           1.33    1.38    2.99    1.36            0.06    0.06    0.01           0.50     0.60
D5         17.51   18.32    9.07          49.89   -0.87   17.81          17.84   92.79           0.68    0.75    1.07    0.73            0.20    0.23    0.28           0.62     0.81
D6         17.41   18.30    4.86          49.85   -1.23   35.73          35.75   91.97           0.67    0.75    1.44    0.72            0.18    0.21    0.14           0.49     0.57
D7         17.39   18.41    2.41          49.99   -1.91   52.19          52.22   92.10           0.68    0.74    1.93    0.72            0.09    0.10    0.04           0.31     0.34
D8         17.04   18.15    0.87          49.68   -2.53   69.33          69.37   92.09           0.72    0.74    2.87    0.72            0.15    0.16    0.02           0.31     0.35
D9         47.04   49.06   24.30          75.49   -0.74   24.69          24.70   91.73           0.26    0.32    0.60    0.30            0.47    0.55    0.76           0.75     1.02
D10        46.84   49.17   13.63          75.55   -1.57   48.12          48.15   91.88           0.25    0.32    0.93    0.29            0.35    0.42    0.39           0.60     0.79
D11        46.51   48.98    6.91          75.44   -2.02   70.18          70.21   91.65           0.25    0.32    1.37    0.29            0.31    0.40    0.21           0.52     0.66
D12        45.82   48.73    1.80          75.28   -3.27  101.47         101.53   91.85           0.29    0.32    2.59    0.29            0.26    0.31    0.03           0.35     0.40
D13        49.83   59.27   55.06          81.44  -18.76   -6.77          19.94  199.84           0.41    0.17    0.19    0.25            0.29    0.36    0.27           0.23     0.27
D14        57.61   50.21   48.74          76.20   23.71   -8.85          25.31  339.54           0.12    0.39    0.22    0.28            0.29    0.36    0.28           0.31     0.35
D15        70.15   73.08   31.98          88.49   -0.68   34.34          34.35   91.14           0.08    0.14    0.48    0.12            0.39    0.51    0.72           0.64     0.78
D16        33.23   34.67   27.64          65.49   -0.69    1.61           1.76  113.69           0.44    0.47    0.51    0.46            0.36    0.38    0.48           0.59     0.68
D17        51.93   45.55   27.62          73.25   22.08   15.04          26.72   34.25           0.13    0.44    0.51    0.31            0.38    0.46    0.55           0.59     0.69
D18        45.20   55.82   32.30          79.51  -23.28   18.38          29.66  141.72           0.42    0.19    0.47    0.27            0.43    0.52    0.58           0.49     0.56
D19        38.09   39.16   47.18          68.87    1.07  -19.67          19.70  273.12           0.44    0.41    0.24    0.42            0.31    0.33    0.21           0.34     0.39
D20         2.96    2.95    1.07          19.84    2.11   14.80          14.96   81.92           1.39    1.58    2.14    1.51            0.09    0.07    0.03           0.62     0.71
D21        31.29   28.52    1.52          60.35   14.50   78.84          80.16   79.58           0.35    0.63    2.40    0.50            0.25    0.23    0.04           0.37     0.42
D22        40.93   43.64   48.94          71.98   -3.49  -16.34          16.71  257.94           0.43    0.34    0.23    0.38            0.37    0.46    0.33           0.46     0.51
E1          5.42    6.15    3.39          29.79   -5.87    9.90          11.52  120.68           1.22    1.20    1.54    1.22            0.09    0.08    0.06           0.50     0.58
E2          5.06    6.24    2.19          30.01  -11.14   19.64          22.59  119.56           1.29    1.16    1.82    1.21            0.10    0.10    0.04           0.51     0.61
E3          4.60    6.17    1.26          29.83  -16.24   29.38          33.58  118.93           1.39    1.12    2.22    1.22            0.09    0.10    0.04           0.46     0.53
E4          4.14    6.19    0.59          29.88  -22.61   40.34          46.25  119.26           1.57    1.07    2.92    1.23            0.07    0.10    0.02           0.53     0.59
E5         24.87   28.28   14.44          60.14   -9.92   19.41          21.80  117.09           0.59    0.52    0.85    0.55            0.24    0.31    0.38           0.64     0.83
E6         22.48   27.98    9.05          59.87  -19.32   35.10          40.06  118.83           0.68    0.49    1.13    0.56            0.21    0.29    0.21           0.50     0.61
E7         20.30   27.79    4.94          59.70  -28.84   52.28          59.71  118.88           0.79    0.46    1.55    0.57            0.16    0.26    0.11           0.38     0.44
E8         17.74   27.63    1.74          59.55  -41.29   75.06          85.67  118.81           1.04    0.41    2.56    0.58            0.29    0.25    0.04           0.76     0.87
E9         45.08   48.87   31.12          75.37   -5.77   13.04          14.26  113.91           0.32    0.30    0.47    0.31            0.44    0.49    0.73           0.62     0.83
E10        42.46   48.47   24.62          75.12  -12.36   23.47          26.53  117.78           0.37    0.28    0.60    0.32            0.34    0.38    0.63           0.67     0.86
E11        40.61   48.51   19.12          75.15  -18.07   34.32          38.79  117.78           0.41    0.27    0.74    0.32            0.30    0.37    0.49           0.68     0.87
E12        36.82   48.15   11.33          74.92  -29.13   53.58          60.99  118.53           0.51    0.24    1.07    0.33            0.31    0.39    0.26           0.51     0.63
E13        44.79   55.57   54.41          79.37  -23.85   -9.65          25.72  202.02           0.51    0.18    0.19    0.29            0.22    0.31    0.30           0.20     0.25
E14        51.81   42.34   45.60          71.10   31.06  -13.94          34.05  335.83           0.14    0.50    0.25    0.35            0.27    0.31    0.24           0.29     0.34
E15        68.86   71.86   24.81          87.90   -0.93   45.17          45.18   91.18           0.08    0.15    0.62    0.13            0.32    0.43    0.46           0.48     0.62
E16        24.07   25.17   19.87          57.24   -0.84    1.84           2.04  116.20           0.58    0.61    0.67    0.60            0.25    0.26    0.37           0.59     0.69
E17        44.70   36.60   19.76          66.97   29.33   18.87          34.88   32.74           0.15    0.58    0.67    0.39            0.24    0.27    0.35           0.54     0.62
E18        38.91   50.98   25.50          76.66  -29.92   24.56          38.71  140.62           0.52    0.21    0.60    0.31            0.41    0.49    0.44           0.44     0.51
E19        30.12   30.66   44.02          62.22    2.10  -27.35          27.43  274.40           0.57    0.51    0.27    0.53            0.22    0.26    0.18           0.33     0.37
E20         7.06    8.43    1.33          34.86  -10.04   37.13          38.46  105.13           1.14    1.03    2.22    1.07            0.12    0.13    0.04           0.42     0.50
E21        24.56   29.20    6.03          60.96  -14.77   49.08          51.26  106.75           0.60    0.49    1.39    0.53            0.25    0.32    0.15           0.46     0.51
E22         8.57   18.21   13.04          49.74  -60.29    5.22          60.52  175.05           1.87    0.52    0.93    0.82            0.17    0.28    0.35           0.72     0.84
F1          3.51    4.31    3.06          24.68   -9.67    3.44          10.27  160.39           1.47    1.33    1.58    1.39            0.06    0.06    0.06           0.54     0.61
F2          2.84    4.27    2.57          24.53  -20.33    7.00          21.51  161.00           1.70    1.26    1.70    1.41            0.05    0.07    0.05           0.46     0.53
F3          2.37    4.28    2.12          24.58  -29.56   10.92          31.51  159.72           1.94    1.21    1.84    1.43            0.05    0.08    0.04           0.46     0.52
F4          1.55    4.32    1.64          24.69  -49.09   15.95          51.61  162.00           2.78    1.10    2.08    1.45            0.03    0.08    0.05           0.41     0.47
F5         11.39   14.29    9.85          44.65  -16.11    6.09          17.23  159.31           1.01    0.79    1.02    0.87            0.12    0.15    0.24           0.66     0.79
F6          9.24   14.48    8.23          44.91  -33.72   12.29          35.89  159.96           1.28    0.71    1.15    0.88            0.12    0.16    0.22           0.84     0.93
F7          7.17   14.04    6.77          44.30  -49.66   17.07          52.51  161.03           1.66    0.66    1.28    0.92            0.09    0.17    0.16           0.58     0.65
F8          5.40   14.11    5.31          44.38  -68.93   23.97          72.98  160.82           2.31    0.59    1.49    0.93            0.09    0.20    0.19           0.55     0.71
F9         29.86   34.23   25.07          65.15  -11.51    5.46          12.75  154.68           0.55    0.43    0.57    0.48            0.34    0.39    0.65           0.66     0.87
F10        26.09   33.68   22.35          64.70  -24.49    9.75          26.36  158.31           0.70    0.39    0.64    0.50            0.29    0.37    0.62           0.70     0.84
F11        23.48   33.52   20.29          64.58  -35.07   13.64          37.63  158.75           0.83    0.36    0.70    0.51            0.18    0.30    0.49           0.79     0.95
F12        19.18   33.53   17.45          64.59  -55.49   19.80          58.92  160.37           1.15    0.30    0.80    0.53            0.19    0.23    0.57           0.92     1.16
F13        40.37   52.28   54.03          77.45  -28.75  -12.55          31.37  203.58           0.61    0.19    0.20    0.32            0.11    0.16    0.25           0.21     0.26
F14        45.97   34.86   42.19          65.64   38.70  -19.16          43.18  333.66           0.16    0.63    0.27    0.42            0.30    0.30    0.31           0.27     0.32
F15        67.84   70.70   18.74          87.34   -0.72   56.17          56.17   90.74           0.08    0.16    0.78    0.13            0.35    0.49    0.44           0.58     0.69
F16        16.66   17.46   13.82          48.83   -0.92    1.53           1.81  123.07           0.73    0.77    0.84    0.76            0.18    0.19    0.32           0.55     0.66
F17        37.90   28.55   13.34          60.38   37.01   22.75          43.44   31.57           0.18    0.75    0.85    0.49            0.26    0.27    0.32           0.55     0.66
