targets/wolf_faust/transmissive/E141027.it8
IT8.7/1
ORIGINATOR "Wolf Faust"
DESCRIPTOR "Ektachrome, Type 3, L* a* b* (light D50, viewing angle 2)"
MANUFACTURER "Wolf Faust - http://www.coloraid.de"
CREATED "October 29, 2014"
PROD_DATE "2014:04"
DIFFUSE_GEOMETRY "opal"
SERIAL "E141027 Batch Average Data"
MATERIAL "For Kodak Ektachrome Product Family"
KEYWORD "MEAN_DE" # Mean Delta E of samples compared to batch average
NUMBER_OF_FIELDS 18
BEGIN_DATA_FORMAT
SAMPLE_ID  XYZ_X   XYZ_Y   XYZ_Z          LAB_L   LAB_A   LAB_B          LAB_C   LAB_H          D_RED  D_GREEN  D_BLUE  D_VIS          STDEV_X STDEV_Y STDEV_Z        MEAN_DE  STDEV_DE
END_DATA_FORMAT
NUMBER_OF_SETS 288
BEGIN_DATA
A1          2.17    1.87    1.27          14.79    8.53    3.28           9.14   21.02           1.47    1.88    1.96    1.70            0.04    0.04    0.04           0.59     0.71
A2          2.84    1.97    1.08          15.32   19.36    6.86          20.54   19.51           1.26    2.03    2.02    1.64            0.05    0.04    0.03           0.44     0.50 
A3          3.32    1.88    0.88          14.85   29.69    9.18          31.08   17.18           1.12    2.32    2.08    1.62            0.08    0.04    0.03           0.43     0.48
A4          4.28    1.97    0.70          15.33   42.00   13.17          44.02   17.42           0.95    2.91    2.11    1.55            0.09    0.04    0.02           0.39     0.44 
A5          9.73    8.44    5.77          34.88   13.48    5.32          14.50   21.52           0.84    1.19    1.24    1.05            0.19    0.18    0.15           0.57     0.64
A6         11.72    8.39    4.95          34.78   28.83    9.24          30.27   17.77           0.67    1.34    1.30    1.01            0.26    0.20    0.12           0.56     0.63 
A7         14.31    8.62    4.29          35.25   43.83   13.74          45.93   17.41           0.51    1.53    1.35    0.97            0.26    0.18    0.11           0.50     0.57
A8         17.50    8.74    3.50          35.47   61.22   19.00          64.11   17.24           0.36    1.91    1.40    0.92            0.21    0.13    0.09           0.42     0.50 
A9         29.59   28.65   21.25          60.47    7.63    4.61           8.93   31.07           0.44    0.59    0.63    0.53            0.59    0.60    0.49           0.75     0.85
A10        31.48   28.44   19.85          60.28   15.46    7.15          17.04   24.79           0.36    0.63    0.66    0.52            0.58    0.58    0.44           0.78     0.87
A11        33.77   28.56   19.12          60.39   23.17    8.87          24.82   20.95           0.30    0.67    0.67    0.51            0.59    0.57    0.44           0.77     0.88
A12        38.52   28.71   17.07          60.52   38.40   13.65          40.76   19.57           0.17    0.75    0.72    0.49            0.44    0.46    0.40           0.71     0.81 
A13        72.97   77.77   61.47          90.67   -4.16    2.62           4.92  147.79           0.13    0.10    0.14    0.11            0.35    0.38    0.18           0.25     0.28
A14        78.27   79.54   61.02          91.48    3.15    4.45           5.46   54.70           0.06    0.11    0.14    0.09            0.24    0.34    0.17           0.27     0.31 
A15        80.68   83.29   62.22          93.14    0.71    6.14           6.19   83.37           0.06    0.08    0.13    0.08            0.19    0.25    0.16           0.17     0.20
A16        74.05   76.67   60.52          90.17    0.24    2.69           2.71   84.69           0.10    0.12    0.14    0.11            0.33    0.40    0.18           0.30     0.34
A17        80.15   82.50   61.56          92.79    1.18    6.19           6.30   79.21           0.06    0.09    0.14    0.08            0.21    0.30    0.18           0.20     0.25
A18        77.92   81.37   60.43          92.30   -1.08    6.44           6.53   99.47           0.08    0.09    0.15    0.09            0.29    0.34    0.20           0.20     0.24 
A19        68.19   71.02   58.84          87.49   -0.63   -0.24           0.72  203.97           0.15    0.15    0.15    0.15            0.37    0.43    0.18           0.37     0.41
A20         6.51    3.07    1.82          20.32   47.02    6.53          47.47    7.90           0.78    2.58    1.67    1.37            0.12    0.06    0.04           0.37     0.41 
A21        26.93   18.89   13.83          50.55   39.97    4.47          40.23    6.38           0.31    0.99    0.80    0.66            0.36    0.31    0.27           0.57     0.66
A22        54.04   49.24   30.89          75.60   17.40   13.79          22.21   38.40           0.13    0.38    0.46    0.28            0.52    0.61    0.52           0.66     0.75
B1          3.21    2.85    1.59          19.43    8.06    7.43          10.97   42.73           1.31    1.67    1.88    1.52            0.05    0.05    0.04           0.58     0.68
B2          3.86    2.93    1.04          19.75   16.89   15.15          22.70   41.89           1.16    1.76    2.10    1.47            0.06    0.05    0.03           0.43     0.51
B3          4.40    2.88    0.61          19.57   25.35   22.18          33.68   41.18           1.05    1.91    2.37    1.45            0.09    0.06    0.02           0.36     0.41
B4          5.36    2.96    0.16          19.89   36.08   31.32          47.78   40.96           0.91    2.15    3.15    1.40            0.08    0.05    0.01           0.43     0.48
B5         12.49   11.13    6.07          39.80   12.50   12.38          17.60   44.70           0.74    1.06    1.24    0.93            0.25    0.25    0.13           0.68     0.76
B6         14.61   11.21    4.11          39.93   25.46   22.88          34.23   41.94           0.59    1.15    1.43    0.89            0.31    0.26    0.10           0.65     0.72
B7         17.03   11.25    2.47          40.00   39.14   34.43          52.13   41.33           0.46    1.29    1.70    0.86            0.28    0.21    0.07           0.54     0.61
B8         21.07   11.45    1.04          40.32   58.36   50.52          77.19   40.88           0.30    1.58    2.13    0.81            0.24    0.17    0.04           0.34     0.39
B9         34.58   34.31   24.36          65.21    5.19    6.85           8.61   52.67           0.38    0.50    0.57    0.46            0.60    0.63    0.46           0.81     0.92
B10        36.60   34.38   21.48          65.26   11.73   12.42          17.09   46.60           0.31    0.52    0.63    0.44            0.58    0.60    0.41           0.76     0.87
B11        38.49   34.64   19.39          65.47   16.98   17.05          24.07   45.10           0.26    0.54    0.68    0.43            0.59    0.59    0.41           0.72     0.84
B12        43.03   34.62   14.22          65.45   31.02   29.15          42.57   43.22           0.15    0.62    0.84    0.41            0.43    0.50    0.35           0.75     0.87
B13        63.12   68.78   56.73          86.39   -7.21    0.03           7.21  179.79           0.22    0.14    0.17    0.17            0.35    0.43    0.22           0.35     0.40
B14        69.83   67.89   54.87          85.95    9.57    1.21           9.65    7.24           0.08    0.20    0.18    0.16            0.30    0.40    0.20           0.29     0.36
B15        74.07   76.26   49.71          89.98    1.10   13.81          13.86   85.44           0.08    0.13    0.24    0.11            0.41    0.51    0.55           0.43     0.49
B16        57.19   59.45   46.68          81.54   -0.33    2.77           2.80   97.01           0.21    0.23    0.27    0.23            0.47    0.55    0.38           0.51     0.58
B17        67.96   66.35   47.37          85.18    8.86    8.22          12.09   42.86           0.09    0.21    0.26    0.17            0.36    0.47    0.48           0.49     0.55
B18        61.96   68.07   49.22          86.04   -8.37    7.58          11.30  137.86           0.21    0.15    0.25    0.17            0.49    0.56    0.47           0.43     0.48
B19        59.47   61.75   54.12          82.78   -0.16   -3.45           3.46  267.19           0.21    0.21    0.19    0.21            0.41    0.47    0.17           0.40     0.47
B20         4.87    2.92    0.86          19.70   30.89   17.86          35.68   30.04           0.97    2.03    2.14    1.43            0.10    0.07    0.03           0.37     0.42
B21        17.04   11.32    3.94          40.12   38.71   24.18          45.64   31.99           0.47    1.28    1.43    0.86            0.23    0.18    0.09           0.59     0.65
B22        33.65   28.40   15.92          60.25   23.35   15.90          28.25   34.26           0.29    0.67    0.77    0.51            0.39    0.40    0.28           0.61     0.68
C1          6.13    6.01    3.14          29.43    3.71   11.06          11.67   71.43           1.08    1.28    1.57    1.21            0.10    0.12    0.08           0.55     0.62
C2          6.55    6.00    1.97          29.42    8.25   20.76          22.34   68.32           1.01    1.31    1.84    1.19            0.12    0.12    0.06           0.47     0.56
C3          7.11    6.06    1.10          29.56   13.26   31.12          33.83   66.92           0.95    1.34    2.20    1.17            0.12    0.12    0.03           0.42     0.50
C4          7.58    5.98    0.36          29.36   18.69   43.86          47.68   66.92           0.90    1.40    3.02    1.16            0.10    0.09    0.01           0.51     0.60
C5         23.98   23.01   11.05          55.08    8.04   20.23          21.77   68.31           0.49    0.69    0.97    0.62            0.38    0.40    0.23           0.68     0.78
C6         25.93   23.07    6.22          55.14   16.06   38.19          41.44   67.19           0.41    0.73    1.29    0.60            0.36    0.33    0.13           0.63     0.70
C7         27.91   23.11    3.02          55.18   23.93   56.30          61.18   66.97           0.34    0.78    1.73    0.58            0.28    0.27    0.07           0.50     0.56
C8         31.00   23.17    0.74          55.25   35.45   81.34          88.73   66.45           0.27    0.86    2.82    0.56            0.39    0.33    0.01           0.50     0.59
C9         40.88   41.27   27.02          70.36    3.35   11.06          11.56   73.12           0.32    0.41    0.53    0.38            0.73    0.79    0.63           0.71     0.81
C10        42.06   41.41   22.86          70.46    6.53   18.69          19.80   70.72           0.28    0.42    0.61    0.37            0.69    0.75    0.51           0.73     0.84
C11        43.17   41.13   18.59          70.27   10.66   27.05          29.08   68.49           0.24    0.44    0.72    0.36            0.67    0.73    0.41           0.65     0.74
C12        47.70   41.07    8.46          70.23   23.77   55.06          59.97   66.65           0.12    0.50    1.16    0.34            0.37    0.45    0.20           0.67     0.77
C13        56.19   63.84   55.77          83.88  -12.91   -3.30          13.32  194.34           0.31    0.16    0.18    0.21            0.40    0.46    0.25           0.37     0.42
C14        63.61   58.65   51.69          81.10   16.75   -3.71          17.15  347.50           0.10    0.29    0.20    0.22            0.32    0.43    0.21           0.34     0.42
C15        71.96   74.57   40.18          89.19    0.13   24.03          24.03   89.69           0.08    0.14    0.35    0.12            0.47    0.57    0.60           0.47     0.57
C16        44.52   46.20   36.16          73.68   -0.08    2.70           2.72   91.44           0.32    0.34    0.38    0.34            0.57    0.64    0.44           0.57     0.64
C17        59.82   55.58   36.70          79.37   15.37   11.77          19.36   37.46           0.10    0.32    0.38    0.23            0.44    0.55    0.41           0.49     0.55
C18        53.26   61.80   40.06          82.81  -15.65   13.17          20.46  139.92           0.31    0.17    0.35    0.22            0.56    0.64    0.54           0.54     0.59
C19        48.48   50.03   50.54          76.09    0.66  -11.08          11.10  273.40           0.31    0.30    0.22    0.31            0.43    0.49    0.18           0.46     0.56
C20        12.30    8.95    1.18          35.88   28.05   40.89          49.59   55.55           0.64    1.29    2.16    0.98            0.16    0.14    0.03           0.41     0.46
C21        21.90   20.20   10.41          52.06   11.68   17.03          20.66   55.55           0.51    0.77    0.99    0.67            0.35    0.35    0.18           0.60     0.68
C22        27.72   23.14   10.19          55.21   23.05   23.20          32.71   45.18           0.36    0.77    1.00    0.59            0.35    0.34    0.16           0.55     0.61
D1          4.01    4.22    2.29          24.40   -0.87    9.07           9.13   95.55           1.30    1.40    1.73    1.37            0.07    0.07    0.04           0.64     0.76
D2          4.12    4.40    1.45          24.94   -1.73   18.63          18.73   95.33           1.29    1.37    2.01    1.35            0.07    0.08    0.05           0.71     0.86
D3          3.99    4.27    0.80          24.56   -1.88   27.34          27.42   93.93           1.31    1.37    2.42    1.36            0.07    0.08    0.03           0.65     0.83
D4          3.87    4.13    0.38          24.09   -1.65   34.33          34.37   92.75           1.34    1.38    3.01    1.37            0.07    0.08    0.01           0.68     0.81
D5         17.45   18.23    8.93          49.77   -0.71   18.11          18.12   92.24           0.68    0.75    1.08    0.73            0.32    0.34    0.20           0.64     0.73
D6         17.42   18.24    4.81          49.79   -0.94   35.87          35.88   91.50           0.66    0.75    1.45    0.72            0.32    0.34    0.11           0.60     0.67
D7         17.50   18.46    2.38          50.05   -1.59   52.56          52.59   91.74           0.67    0.74    1.94    0.71            0.23    0.24    0.04           0.52     0.58
D8         17.10   18.17    0.87          49.70   -2.28   69.37          69.41   91.88           0.72    0.74    2.83    0.72            0.22    0.23    0.02           0.62     0.70
D9         47.10   49.06   23.81          75.49   -0.57   25.59          25.60   91.28           0.26    0.32    0.61    0.30            0.67    0.75    0.52           0.70     0.80
D10        46.93   49.15   13.37          75.54   -1.28   48.80          48.82   91.50           0.24    0.32    0.94    0.29            0.60    0.70    0.34           0.65     0.74
D11        46.66   49.00    6.80          75.45   -1.63   70.64          70.66   91.32           0.24    0.32    1.37    0.29            0.60    0.70    0.19           0.58     0.67
D12        45.92   48.66    1.80          75.24   -2.81  101.40         101.44   91.59           0.29    0.32    2.54    0.29            0.39    0.45    0.03           0.52     0.59
D13        49.90   59.34   54.92          81.48  -18.74   -6.55          19.85  199.27           0.41    0.17    0.19    0.25            0.32    0.39    0.20           0.32     0.37
D14        57.69   50.19   48.60          76.18   23.97   -8.71          25.50  340.04           0.11    0.39    0.23    0.28            0.33    0.43    0.25           0.36     0.45
D15        70.43   73.28   31.87          88.58   -0.49   34.66          34.67   90.81           0.08    0.14    0.48    0.12            0.41    0.50    0.44           0.48     0.54
D16        33.42   34.81   27.26          65.60   -0.49    2.44           2.49  101.27           0.44    0.46    0.52    0.46            0.42    0.46    0.34           0.56     0.62
D17        52.10   45.63   27.40          73.30   22.32   15.48          27.16   34.74           0.12    0.44    0.51    0.31            0.38    0.47    0.38           0.55     0.64
D18        45.59   56.17   32.09          79.71  -23.02   19.04          29.87  140.41           0.41    0.19    0.47    0.27            0.36    0.43    0.42           0.46     0.53
D19        38.55   39.67   47.14          69.23    0.98  -18.99          19.02  272.93           0.43    0.40    0.24    0.41            0.34    0.42    0.18           0.43     0.53
D20         2.87    2.89    1.05          19.59    1.44   14.74          14.83   84.47           1.41    1.58    2.15    1.52            0.08    0.07    0.04           0.64     0.86
D21        31.32   28.43    1.52          60.28   14.93   78.70          80.10   79.26           0.35    0.63    2.38    0.50            0.30    0.34    0.03           0.43     0.51
D22        41.36   44.12   48.90          72.31   -3.56  -15.74          16.14  257.22           0.42    0.34    0.23    0.37            0.45    0.55    0.23           0.54     0.65
E1          5.34    6.10    3.38          29.67   -6.27    9.83          11.68  122.46           1.23    1.20    1.55    1.22            0.11    0.09    0.06           0.70     0.83
E2          4.97    6.17    2.15          29.84  -11.55   19.78          22.91  120.27           1.30    1.16    1.84    1.22            0.08    0.09    0.05           0.72     0.90
E3          4.53    6.13    1.24          29.73  -16.65   29.44          33.82  119.48           1.41    1.12    2.23    1.23            0.12    0.13    0.03           0.76     0.93
E4          4.03    6.05    0.57          29.53  -22.70   40.12          46.11  119.50           1.59    1.08    2.94    1.24            0.09    0.11    0.01           0.81     0.96
E5         24.93   28.34   14.15          60.19   -9.86   20.26          22.53  115.97           0.58    0.52    0.86    0.55            0.47    0.53    0.29           0.70     0.80
E6         22.62   28.12    8.86          59.99  -19.21   35.97          40.77  118.11           0.67    0.49    1.15    0.56            0.39    0.49    0.17           0.64     0.72
E7         20.47   27.98    4.89          59.87  -28.78   52.87          60.19  118.56           0.79    0.46    1.56    0.57            0.28    0.40    0.11           0.58     0.66
E8         17.69   27.58    1.72          59.51  -41.36   75.17          85.80  118.82           1.05    0.41    2.54    0.58            0.22    0.21    0.02           0.39     0.54
E9         45.26   49.06   30.74          75.49   -5.75   13.83          14.98  112.59           0.32    0.30    0.48    0.31            0.68    0.77    0.59           0.62     0.71
E10        42.79   48.79   24.26          75.32  -12.24   24.46          27.35  116.58           0.36    0.28    0.61    0.31            0.60    0.69    0.41           0.61     0.72
E11        40.93   48.80   18.86          75.32  -17.88   35.18          39.47  116.95           0.40    0.26    0.75    0.32            0.57    0.66    0.38           0.61     0.71
E12        37.08   48.27   11.09          74.99  -28.64   54.47          61.54  117.74           0.50    0.24    1.08    0.33            0.60    0.72    0.35           0.58     0.67
E13        44.74   55.56   54.26          79.36  -23.94   -9.50          25.76  201.65           0.51    0.18    0.20    0.29            0.21    0.27    0.15           0.30     0.34
E14        51.97   42.38   45.53          71.13   31.31  -13.81          34.22  336.20           0.13    0.50    0.25    0.35            0.30    0.36    0.24           0.35     0.41
E15        69.22   72.13   24.70          88.03   -0.71   45.58          45.59   90.90           0.08    0.15    0.62    0.13            0.35    0.44    0.33           0.46     0.52
E16        24.34   25.39   19.78          57.45   -0.59    2.40           2.47  103.76           0.57    0.60    0.67    0.60            0.34    0.37    0.24           0.53     0.61
E17        45.00   36.79   19.65          67.12   29.56   19.35          35.33   33.21           0.14    0.58    0.67    0.39            0.33    0.39    0.32           0.59     0.66
E18        39.39   51.43   25.55          76.94  -29.60   24.94          38.71  139.89           0.51    0.21    0.59    0.31            0.30    0.34    0.36           0.62     0.73
E19        30.39   30.96   43.93          62.47    2.04  -26.80          26.88  274.34           0.56    0.51    0.27    0.53            0.21    0.26    0.10           0.35     0.43
E20         6.98    8.39    1.33          34.78  -10.49   37.07          38.53  105.81           1.15    1.02    2.23    1.07            0.15    0.14    0.03           0.59     0.77
E21        24.82   29.39    6.02          61.13  -14.38   49.42          51.47  106.22           0.59    0.49    1.39    0.53            0.27    0.36    0.09           0.49     0.58
E22         8.54   18.21   12.82          49.74  -60.55    5.84          60.83  174.49           1.88    0.52    0.94    0.82            0.18    0.33    0.19           0.53     0.58
F1          3.44    4.28    2.98          24.58  -10.26    3.83          10.96  159.49           1.48    1.33    1.59    1.39            0.05    0.07    0.03           0.62     0.76
F2          2.81    4.25    2.53          24.47  -20.65    7.19          21.87  160.81           1.71    1.26    1.71    1.42            0.07    0.11    0.07           0.64     0.75
F3          2.36    4.30    2.09          24.63  -29.88   11.36          31.97  159.18           1.94    1.20    1.85    1.42            0.06    0.11    0.06           0.61     0.71
F4          1.55    4.30    1.59          24.62  -48.99   16.41          51.67  161.48           2.78    1.11    2.10    1.46            0.03    0.09    0.04           0.50     0.59
F5         11.27   14.22    9.63          44.54  -16.53    6.64          17.83  158.11           1.01    0.79    1.03    0.87            0.17    0.24    0.23           0.82     0.94
F6          9.13   14.42    8.03          44.82  -34.26   12.88          36.61  159.40           1.29    0.71    1.16    0.89            0.14    0.23    0.15           0.85     0.97
F7          7.17   14.07    6.62          44.33  -49.85   17.78          52.92  160.37           1.66    0.66    1.30    0.91            0.16    0.30    0.15           0.66     0.73
F8          5.44   14.18    5.16          44.49  -68.97   24.95          73.34  160.12           2.33    0.59    1.50    0.93            0.11    0.23    0.15           0.46     0.54
F9         30.11   34.52   24.71          65.37  -11.54    6.49          13.25  150.69           0.54    0.43    0.58    0.47            0.44    0.53    0.39           0.71     0.82
F10        26.42   34.09   22.30          65.03  -24.55   10.42          26.68  157.02           0.69    0.39    0.64    0.49            0.38    0.50    0.43           0.70     0.81
F11        23.61   33.77   20.07          64.78  -35.39   14.43          38.22  157.81           0.83    0.36    0.70    0.51            0.25    0.38    0.43           0.74     0.88
F12        19.20   33.55   16.97          64.60  -55.47   20.93          59.29  159.33           1.15    0.30    0.82    0.53            0.22    0.32    0.34           0.65     0.75
F13        40.34   52.26   53.76          77.43  -28.76  -12.29          31.28  203.14           0.61    0.19    0.20    0.32            0.26    0.33    0.30           0.26     0.30
F14        46.21   35.00   42.20          65.75   38.93  -19.00          43.32  333.99           0.16    0.63    0.27    0.42            0.23    0.25    0.21           0.26     0.30
F15        68.22   70.97   18.73          87.47   -0.47   56.40          56.41   90.48           0.08    0.16    0.77    0.13            0.32    0.41    0.28           0.41     0.48
F16        16.81   17.56   13.73          48.96   -0.68    1.99           2.11  109.07           0.72    0.77    0.84    0.76            0.23    0.26    0.19           0.50     0.57
F17        38.18   28.72   13.22          60.54   37.25   23.34          43.96   32.07           0.17    0.75    0.86    0.48            0.28    0.30    0.22           0.55     0.62
