targets/wolf_faust/transmissive/E150202.it8
IT8.7/1
ORIGINATOR "Wolf Faust"
DESCRIPTOR "Ektachrome, Type 3, L* a* b* (light D50, viewing angle 2)"
MANUFACTURER "Wolf Faust - http://www.coloraid.de"
CREATED "January 29, 2015"
PROD_DATE "2015:01"
DIFFUSE_GEOMETRY "opal"
SERIAL "E150202 Batch Average Data"
MATERIAL "For Kodak Ektachrome Product Family"
KEYWORD "MEAN_DE" # Mean Delta E of samples compared to batch average
NUMBER_OF_FIELDS 18
BEGIN_DATA_FORMAT
SAMPLE_ID  XYZ_X   XYZ_Y   XYZ_Z          LAB_L   LAB_A   LAB_B          LAB_C   LAB_H          D_RED  D_GREEN  D_BLUE  D_VIS          STDEV_X STDEV_Y STDEV_Z        MEAN_DE  STDEV_DE
END_DATA_FORMAT
NUMBER_OF_SETS 288
BEGIN_DATA
A1          2.19    1.88    1.35          14.85    8.55    2.41           8.89   15.75           1.47    1.88    1.93    1.70            0.06    0.05    0.04           0.42     0.48
A2          2.74    1.86    1.10          14.75   20.02    5.56          20.78   15.51           1.28    2.08    2.00    1.66            0.06    0.04    0.03           0.37     0.41 
A3          3.33    1.88    0.91          14.84   29.90    8.60          31.12   16.04           1.12    2.34    2.06    1.62            0.05    0.03    0.02           0.26     0.29
A4          4.29    1.95    0.71          15.25   42.42   12.86          44.32   16.86           0.94    3.03    2.10    1.55            0.06    0.03    0.02           0.39     0.45 
A5          9.83    8.49    5.92          34.97   13.87    4.78          14.68   19.00           0.83    1.20    1.23    1.04            0.16    0.14    0.12           0.41     0.44
A6         11.85    8.47    5.07          34.95   28.99    8.92          30.33   17.10           0.66    1.34    1.29    1.01            0.22    0.16    0.10           0.44     0.49 
A7         14.16    8.53    4.33          35.07   43.66   13.18          45.60   16.79           0.52    1.53    1.34    0.97            0.22    0.14    0.09           0.36     0.41
A8         17.54    8.74    3.54          35.48   61.42   18.75          64.22   16.98           0.36    1.92    1.40    0.92            0.12    0.07    0.07           0.30     0.35 
A9         29.39   28.66   21.48          60.47    6.85    4.16           8.02   31.24           0.44    0.58    0.63    0.53            0.47    0.49    0.29           0.50     0.59
A10        31.43   28.36   19.99          60.21   15.62    6.72          17.00   23.28           0.36    0.63    0.66    0.52            0.48    0.47    0.27           0.42     0.51
A11        33.76   28.57   18.89          60.40   23.12    9.36          24.94   22.05           0.30    0.67    0.68    0.51            0.47    0.44    0.24           0.41     0.51
A12        38.78   28.93   17.36          60.71   38.40   13.31          40.65   19.12           0.17    0.75    0.71    0.48            0.36    0.38    0.26           0.43     0.50 
A13        74.83   79.15   61.92          91.30   -3.03    3.26           4.45  132.83           0.11    0.09    0.13    0.10            0.24    0.22    0.12           0.12     0.16
A14        78.49   79.75   61.22          91.57    3.19    4.41           5.44   54.13           0.06    0.11    0.14    0.09            0.19    0.22    0.12           0.13     0.15 
A15        80.72   83.30   62.05          93.15    0.79    6.32           6.37   82.90           0.06    0.08    0.13    0.08            0.16    0.17    0.10           0.08     0.09
A16        75.21   77.73   60.91          90.66    0.53    3.14           3.19   80.31           0.09    0.11    0.14    0.11            0.26    0.27    0.11           0.17     0.20
A17        80.21   82.50   61.69          92.80    1.29    6.07           6.20   78.02           0.06    0.09    0.14    0.08            0.17    0.19    0.12           0.10     0.11
A18        77.73   81.16   60.39          92.20   -1.05    6.32           6.41   99.42           0.08    0.09    0.15    0.09            0.25    0.23    0.18           0.13     0.15 
A19        67.92   70.78   58.82          87.38   -0.72   -0.42           0.85  210.52           0.15    0.15    0.15    0.15            0.33    0.33    0.18           0.26     0.29
A20         6.57    3.08    1.83          20.37   47.46    6.49          47.90    7.78           0.78    2.63    1.66    1.37            0.08    0.04    0.05           0.41     0.45 
A21        27.15   19.04   14.02          50.74   40.05    4.28          40.28    6.11           0.31    0.99    0.80    0.66            0.35    0.30    0.22           0.45     0.49
A22        54.20   49.47   30.93          75.74   17.19   13.98          22.15   39.12           0.13    0.38    0.46    0.28            0.44    0.51    0.28           0.40     0.49
B1          3.34    3.00    1.72          20.04    7.72    7.11          10.50   42.68           1.30    1.64    1.84    1.50            0.07    0.06    0.04           0.44     0.50
B2          3.90    2.95    1.06          19.85   17.08   15.02          22.75   41.34           1.16    1.76    2.09    1.47            0.07    0.05    0.03           0.27     0.30
B3          4.47    2.92    0.62          19.72   25.67   22.38          34.05   41.08           1.04    1.91    2.38    1.45            0.06    0.04    0.02           0.25     0.28
B4          5.45    3.01    0.14          20.10   36.33   31.94          48.38   41.32           0.90    2.15    3.31    1.40            0.06    0.04    0.00           0.26     0.30
B5         12.70   11.31    6.26          40.09   12.63   12.03          17.44   43.60           0.73    1.05    1.22    0.92            0.17    0.16    0.09           0.39     0.44
B6         14.89   11.39    4.16          40.23   25.86   23.04          34.63   41.70           0.58    1.15    1.43    0.89            0.18    0.15    0.08           0.36     0.42
B7         17.13   11.38    2.58          40.21   38.79   33.91          51.52   41.16           0.46    1.28    1.68    0.86            0.19    0.15    0.05           0.37     0.41
B8         21.15   11.51    1.08          40.42   58.35   50.09          76.90   40.64           0.30    1.58    2.12    0.81            0.15    0.11    0.03           0.26     0.29
B9         34.73   34.58   24.45          65.42    4.79    7.05           8.53   55.80           0.38    0.49    0.57    0.45            0.54    0.55    0.36           0.45     0.56
B10        36.80   34.67   21.70          65.49   11.44   12.36          16.84   47.20           0.31    0.52    0.63    0.44            0.46    0.49    0.29           0.42     0.51
B11        38.51   34.67   19.52          65.49   16.96   16.82          23.89   44.76           0.26    0.54    0.68    0.43            0.46    0.46    0.25           0.38     0.46
B12        43.42   35.04   14.59          65.78   30.75   28.74          42.09   43.07           0.15    0.61    0.83    0.41            0.32    0.37    0.26           0.42     0.49
B13        63.23   68.97   56.98          86.49   -7.37   -0.07           7.37  180.52           0.22    0.14    0.17    0.17            0.30    0.28    0.19           0.24     0.28
B14        69.88   67.88   55.00          85.95    9.68    1.07           9.74    6.34           0.08    0.20    0.18    0.16            0.28    0.33    0.17           0.23     0.27
B15        73.91   76.15   49.10          89.93    1.01   14.42          14.46   86.00           0.08    0.13    0.25    0.11            0.41    0.43    0.39           0.24     0.30
B16        56.96   59.15   46.17          81.37   -0.17    3.08           3.09   93.26           0.21    0.23    0.27    0.23            0.55    0.57    0.38           0.34     0.41
B17        67.84   66.21   46.79          85.10    8.93    8.77          12.52   44.49           0.09    0.21    0.26    0.17            0.39    0.47    0.35           0.26     0.34
B18        61.70   67.86   48.62          85.94   -8.52    8.08          11.74  136.51           0.21    0.15    0.25    0.17            0.40    0.39    0.19           0.29     0.33
B19        59.08   61.24   54.04          82.51    0.07   -3.84           3.84  270.90           0.21    0.21    0.19    0.22            0.44    0.49    0.19           0.35     0.43
B20         4.96    2.97    0.99          19.93   31.13   16.23          35.11   27.54           0.97    2.02    2.07    1.43            0.08    0.05    0.03           0.31     0.37
B21        16.94   11.22    4.02          39.95   38.87   23.43          45.39   31.08           0.47    1.29    1.42    0.87            0.20    0.16    0.09           0.36     0.40
B22        33.99   28.72   16.22          60.54   23.29   15.69          28.08   33.96           0.28    0.67    0.76    0.50            0.43    0.41    0.27           0.49     0.54
C1          6.27    6.10    3.26          29.67    4.25   10.65          11.47   68.24           1.07    1.27    1.55    1.20            0.11    0.10    0.05           0.37     0.43
C2          6.79    6.25    2.09          30.03    8.10   20.66          22.19   68.58           1.00    1.29    1.81    1.17            0.10    0.09    0.04           0.25     0.28
C3          7.12    6.07    1.12          29.60   13.21   30.88          33.59   66.83           0.94    1.34    2.19    1.17            0.09    0.08    0.03           0.33     0.37
C4          7.86    6.24    0.36          30.01   18.47   44.99          48.63   67.68           0.89    1.37    3.12    1.14            0.08    0.06    0.00           0.32     0.36
C5         23.99   23.00   11.05          55.08    8.11   20.23          21.79   68.15           0.49    0.69    0.97    0.62            0.35    0.35    0.13           0.49     0.58
C6         26.09   23.21    6.25          55.29   16.09   38.28          41.53   67.20           0.40    0.73    1.29    0.60            0.27    0.26    0.08           0.47     0.54
C7         28.26   23.31    3.13          55.39   24.41   55.92          61.02   66.42           0.33    0.78    1.72    0.58            0.32    0.29    0.07           0.41     0.50
C8         31.37   23.55    0.72          55.63   35.10   82.34          89.51   66.91           0.26    0.85    2.97    0.56            0.21    0.19    0.01           0.30     0.35
C9         41.13   41.41   26.80          70.46    3.71   11.60          12.18   72.23           0.31    0.41    0.53    0.37            0.42    0.46    0.36           0.52     0.63
C10        41.92   41.14   23.08          70.27    6.91   17.95          19.24   68.93           0.28    0.42    0.61    0.37            0.47    0.49    0.27           0.49     0.57
C11        43.35   41.36   19.15          70.42   10.51   26.11          28.15   68.07           0.24    0.44    0.71    0.36            0.46    0.47    0.19           0.39     0.48
C12        48.30   41.83    8.70          70.75   23.15   55.11          59.77   67.22           0.12    0.49    1.15    0.33            0.27    0.34    0.15           0.44     0.49
C13        55.87   63.69   55.92          83.80  -13.35   -3.60          13.83  195.07           0.31    0.16    0.18    0.21            0.29    0.29    0.27           0.27     0.30
C14        63.74   58.71   51.85          81.13   16.89   -3.84          17.32  347.21           0.10    0.29    0.20    0.22            0.33    0.41    0.17           0.33     0.40
C15        72.13   74.78   40.02          89.29    0.05   24.40          24.40   89.89           0.08    0.13    0.36    0.12            0.32    0.33    0.28           0.26     0.30
C16        44.16   45.86   35.95          73.45   -0.16    2.61           2.61   93.56           0.32    0.34    0.39    0.34            0.52    0.54    0.26           0.41     0.50
C17        59.72   55.37   36.40          79.26   15.61   12.00          19.69   37.55           0.10    0.32    0.38    0.24            0.38    0.46    0.32           0.38     0.44
C18        52.83   61.47   39.72          82.63  -16.01   13.31          20.82  140.26           0.31    0.17    0.36    0.22            0.36    0.35    0.19           0.32     0.36
C19        47.92   49.47   50.44          75.74    0.62  -11.56          11.58  273.06           0.32    0.31    0.22    0.31            0.49    0.54    0.23           0.46     0.55
C20        12.40    9.04    1.11          36.05   28.00   42.25          50.68   56.46           0.64    1.29    2.22    0.97            0.18    0.15    0.04           0.37     0.43
C21        22.05   20.42   10.65          52.31   11.30   16.71          20.17   55.92           0.51    0.76    0.98    0.67            0.28    0.29    0.17           0.44     0.49
C22        27.87   23.36   10.41          55.44   22.68   22.87          32.21   45.24           0.36    0.77    0.99    0.59            0.39    0.37    0.19           0.44     0.48
D1          4.09    4.37    2.37          24.85   -1.71    9.17           9.33  100.53           1.30    1.38    1.71    1.36            0.10    0.09    0.05           0.45     0.52
D2          4.13    4.42    1.49          25.02   -1.90   18.21          18.31   95.95           1.29    1.37    2.00    1.35            0.09    0.09    0.03           0.39     0.48
D3          4.06    4.34    0.87          24.77   -1.75   26.35          26.41   93.79           1.30    1.37    2.36    1.35            0.09    0.08    0.03           0.40     0.48
D4          4.04    4.32    0.39          24.71   -1.83   35.20          35.25   92.97           1.32    1.36    3.05    1.35            0.08    0.07    0.00           0.43     0.55
D5         17.70   18.49    9.08          50.08   -0.68   18.09          18.10   92.14           0.67    0.75    1.07    0.73            0.21    0.21    0.11           0.45     0.49
D6         17.53   18.44    5.00          50.03   -1.36   35.31          35.34   92.21           0.66    0.74    1.43    0.72            0.20    0.21    0.07           0.40     0.46
D7         17.66   18.74    2.46          50.38   -2.16   52.47          52.51   92.36           0.67    0.73    1.92    0.71            0.24    0.25    0.05           0.41     0.50
D8         17.26   18.40    0.88          49.97   -2.57   69.70          69.74   92.11           0.71    0.73    2.90    0.71            0.17    0.18    0.01           0.28     0.36
D9         46.99   48.91   24.01          75.39   -0.48   25.05          25.06   91.09           0.26    0.32    0.60    0.30            0.49    0.52    0.20           0.46     0.58
D10        46.75   48.99   13.69          75.45   -1.36   47.77          47.79   91.63           0.25    0.32    0.92    0.29            0.36    0.37    0.17           0.44     0.52
D11        46.39   48.77    6.89          75.31   -1.77   70.03          70.05   91.45           0.25    0.32    1.37    0.29            0.34    0.34    0.10           0.44     0.50
D12        45.64   48.58    1.80          75.19   -3.38  101.33         101.39   91.91           0.30    0.32    2.61    0.29            0.22    0.18    0.02           0.33     0.38
D13        49.69   59.25   55.16          81.43  -19.08   -6.89          20.28  199.85           0.41    0.17    0.19    0.25            0.19    0.16    0.09           0.24     0.27
D14        57.83   50.28   48.75          76.24   24.07   -8.78          25.62  339.96           0.11    0.39    0.22    0.28            0.27    0.33    0.11           0.32     0.38
D15        70.59   73.49   31.73          88.68   -0.59   35.06          35.07   90.96           0.08    0.14    0.48    0.12            0.28    0.31    0.30           0.28     0.32
D16        33.22   34.60   27.20          65.44   -0.51    2.26           2.32  102.85           0.44    0.47    0.52    0.46            0.44    0.46    0.27           0.43     0.51
D17        52.06   45.51   27.25          73.23   22.55   15.60          27.42   34.69           0.12    0.44    0.52    0.31            0.39    0.48    0.34           0.41     0.50
D18        45.27   55.90   31.94          79.55  -23.27   19.00          30.04  140.77           0.41    0.19    0.47    0.27            0.33    0.31    0.31           0.35     0.41
D19        38.22   39.31   47.05          68.98    1.01  -19.33          19.36  272.99           0.44    0.40    0.24    0.42            0.44    0.49    0.23           0.45     0.56
D20         2.90    2.91    1.07          19.67    1.72   14.58          14.69   83.27           1.41    1.58    2.14    1.52            0.09    0.07    0.02           0.47     0.55
D21        31.09   28.50    1.48          60.34   13.83   79.21          80.41   80.09           0.36    0.62    2.44    0.50            0.36    0.39    0.04           0.46     0.51
D22        40.97   43.86   48.88          72.14   -4.00  -16.00          16.50  255.95           0.43    0.34    0.23    0.37            0.31    0.37    0.19           0.39     0.47
E1          5.39    6.21    3.45          29.92   -6.79    9.80          11.93  124.70           1.23    1.19    1.54    1.22            0.14    0.13    0.07           0.44     0.51
E2          4.99    6.18    2.19          29.87  -11.38   19.43          22.52  120.34           1.30    1.16    1.83    1.22            0.11    0.11    0.05           0.46     0.54
E3          4.53    6.16    1.34          29.80  -17.04   28.28          33.02  121.07           1.41    1.12    2.18    1.23            0.11    0.13    0.04           0.45     0.50
E4          4.09    6.17    0.59          29.84  -23.28   40.41          46.63  119.95           1.58    1.07    2.97    1.23            0.09    0.12    0.01           0.48     0.55
E5         25.20   28.69   14.64          60.51  -10.11   19.54          22.00  117.37           0.58    0.52    0.85    0.55            0.36    0.39    0.16           0.44     0.56
E6         22.67   28.07    9.08          59.95  -18.78   35.11          39.81  118.15           0.67    0.49    1.13    0.56            0.22    0.25    0.10           0.42     0.49
E7         20.56   28.10    5.09          59.98  -28.78   51.97          59.41  118.97           0.79    0.45    1.53    0.56            0.19    0.22    0.07           0.37     0.43
E8         17.88   28.11    1.96          59.99  -42.40   73.50          84.86  119.98           1.04    0.40    2.44    0.57            0.16    0.21    0.05           0.30     0.34
E9         45.02   48.89   31.33          75.38   -5.99   12.73          14.07  115.21           0.32    0.30    0.47    0.31            0.55    0.60    0.29           0.47     0.56
E10        42.67   48.66   24.52          75.24  -12.24   23.84          26.80  117.17           0.36    0.28    0.60    0.32            0.55    0.61    0.27           0.50     0.61
E11        40.84   48.71   19.25          75.27  -17.92   34.26          38.66  117.61           0.40    0.27    0.74    0.32            0.50    0.55    0.25           0.50     0.61
E12        37.08   48.40   11.55          75.07  -28.95   53.20          60.57  118.56           0.50    0.24    1.06    0.33            0.33    0.33    0.12           0.36     0.41
E13        44.44   55.34   54.45          79.23  -24.27   -9.92          26.22  202.23           0.52    0.18    0.19    0.29            0.16    0.13    0.12           0.19     0.23
E14        52.14   42.53   45.62          71.24   31.31  -13.73          34.19  336.32           0.13    0.50    0.25    0.34            0.26    0.31    0.12           0.34     0.40
E15        69.31   72.27   24.70          88.10   -0.80   45.70          45.71   91.01           0.08    0.15    0.62    0.13            0.28    0.30    0.22           0.31     0.36
E16        24.19   25.30   19.80          57.36   -0.85    2.20           2.36  111.18           0.57    0.60    0.67    0.60            0.38    0.40    0.27           0.39     0.45
E17        45.07   36.83   19.63          67.15   29.64   19.44          35.45   33.26           0.14    0.58    0.67    0.39            0.35    0.41    0.32           0.45     0.53
E18        38.89   50.97   25.32          76.66  -29.99   24.88          38.96  140.32           0.52    0.21    0.60    0.31            0.27    0.25    0.20           0.39     0.45
E19        30.16   30.78   43.91          62.32    1.80  -27.03          27.09  273.81           0.57    0.51    0.27    0.53            0.31    0.35    0.20           0.36     0.45
E20         7.03    8.44    1.41          34.87  -10.37   36.19          37.64  105.99           1.14    1.02    2.19    1.07            0.16    0.17    0.04           0.46     0.53
E21        24.82   29.49    6.20          61.21  -14.77   48.73          50.92  106.86           0.60    0.49    1.38    0.53            0.28    0.32    0.10           0.45     0.52
E22         8.56   18.23   13.07          49.78  -60.47    5.21          60.69  175.07           1.87    0.52    0.93    0.82            0.17    0.30    0.18           0.41     0.47
F1          3.49    4.34    3.07          24.76  -10.25    3.55          10.85  160.92           1.48    1.32    1.58    1.39            0.10    0.11    0.08           0.41     0.46
F2          2.86    4.31    2.67          24.66  -20.46    6.36          21.42  162.73           1.70    1.26    1.68    1.41            0.07    0.09    0.06           0.35     0.40
F3          2.37    4.33    2.22          24.72  -30.11   10.30          31.82  161.11           1.95    1.20    1.82    1.42            0.05    0.09    0.06           0.32     0.38
F4          1.57    4.36    1.67          24.81  -49.29   15.91          51.79  162.11           2.76    1.10    2.08    1.45            0.03    0.08    0.05           0.33     0.40
F5         11.33   14.36    9.78          44.75  -16.92    6.49          18.12  159.03           1.01    0.78    1.03    0.87            0.20    0.22    0.18           0.41     0.46
F6          9.14   14.36    8.40          44.74  -33.88   11.36          35.74  161.46           1.29    0.71    1.13    0.89            0.15    0.19    0.15           0.37     0.41
F7          7.32   14.34    6.80          44.72  -49.98   17.65          53.01  160.55           1.64    0.65    1.28    0.91            0.12    0.21    0.12           0.35     0.39
F8          5.43   14.15    5.47          44.45  -68.97   23.30          72.80  161.33           2.31    0.59    1.47    0.93            0.07    0.13    0.11           0.30     0.36
F9         30.07   34.67   25.11          65.49  -12.21    5.98          13.60  153.93           0.55    0.42    0.57    0.47            0.41    0.47    0.25           0.43     0.55
F10        26.42   33.98   22.53          64.95  -24.15    9.82          26.07  157.88           0.69    0.39    0.63    0.49            0.22    0.26    0.21           0.42     0.47
F11        23.84   34.26   20.61          65.17  -36.06   14.00          38.68  158.78           0.83    0.35    0.69    0.50            0.20    0.21    0.22           0.39     0.45
F12        19.50   33.85   17.42          64.84  -54.95   20.30          58.58  159.73           1.13    0.30    0.80    0.52            0.19    0.22    0.14           0.33     0.39
F13        40.23   52.15   54.05          77.37  -28.84  -12.71          31.52  203.77           0.62    0.19    0.20    0.32            0.20    0.16    0.10           0.21     0.27
F14        46.39   35.15   42.28          65.87   38.91  -18.89          43.26  334.11           0.16    0.63    0.27    0.42            0.24    0.29    0.13           0.37     0.43
F15        68.39   71.22   18.83          87.59   -0.62   56.40          56.41   90.63           0.08    0.16    0.77    0.13            0.21    0.23    0.19           0.37     0.41
F16        16.86   17.59   13.87          48.99   -0.57    1.69           1.79  108.67           0.72    0.77    0.84    0.76            0.29    0.30    0.21           0.39     0.44
F17        38.31   28.81   13.35          60.62   37.35   23.12          43.92   31.76           0.17    0.75    0.85    0.48            0.31    0.35    0.21           0.45     0.53
