targets/wolf_faust/transmissive/E160618.it8
IT8.7/1
ORIGINATOR "Wolf Faust"
DESCRIPTOR "Ektachrome, Type 3, L* a* b* (light D50, viewing angle 2)"
MANUFACTURER "Wolf Faust - http://www.coloraid.de"
CREATED "June 18, 2016"
PROD_DATE "2016:04"
DIFFUSE_GEOMETRY "opal"
SERIAL "E160618 Batch Average Data"
MATERIAL "For Kodak Ektachrome Product Family"
KEYWORD "MEAN_DE" # Mean Delta E of samples compared to batch average
NUMBER_OF_FIELDS 18
BEGIN_DATA_FORMAT
SAMPLE_ID  XYZ_X   XYZ_Y   XYZ_Z          LAB_L   LAB_A   LAB_B          LAB_C   LAB_H          D_RED  D_GREEN  D_BLUE  D_VIS          STDEV_X STDEV_Y STDEV_Z        MEAN_DE  STDEV_DE
END_DATA_FORMAT
NUMBER_OF_SETS 288
BEGIN_DATA
A1          2.19    1.89    1.37          14.89    8.40    2.27           8.70   15.11           1.47    1.87    1.93    1.70            0.07    0.05    0.03           0.34     0.41
A2          2.81    1.90    1.16          14.98   20.35    5.08          20.98   14.00           1.26    2.07    1.98    1.65            0.06    0.04    0.04           0.32     0.37 
A3          3.45    1.96    0.94          15.26   29.98    8.93          31.28   16.58           1.11    2.31    2.05    1.60            0.05    0.03    0.03           0.27     0.31
A4          4.26    1.94    0.74          15.16   42.43   12.11          44.12   15.94           0.95    3.05    2.08    1.55            0.06    0.03    0.01           0.29     0.34 
A5         10.05    8.64    5.92          35.27   14.28    5.29          15.24   20.33           0.82    1.19    1.23    1.03            0.16    0.14    0.13           0.42     0.47
A6         11.88    8.49    5.04          34.98   29.06    9.15          30.47   17.48           0.66    1.34    1.29    1.01            0.20    0.15    0.09           0.47     0.56 
A7         14.68    8.87    4.36          35.73   44.01   14.11          46.22   17.78           0.51    1.51    1.34    0.96            0.19    0.13    0.07           0.33     0.39
A8         17.57    8.76    3.59          35.51   61.41   18.49          64.13   16.76           0.36    1.92    1.39    0.92            0.11    0.07    0.09           0.35     0.44 
A9         29.56   28.42   21.06          60.26    8.42    4.63           9.62   28.74           0.43    0.59    0.64    0.53            0.41    0.40    0.45           0.64     0.72
A10        31.75   28.62   20.25          60.44   15.75    6.58          17.09   22.67           0.36    0.63    0.65    0.52            0.47    0.43    0.43           0.72     0.82
A11        34.47   29.05   19.49          60.82   23.72    8.82          25.31   20.40           0.29    0.66    0.67    0.50            0.47    0.44    0.38           0.65     0.73
A12        39.16   29.36   17.61          61.10   37.97   13.42          40.27   19.46           0.17    0.74    0.71    0.48            0.34    0.35    0.42           0.59     0.67 
A13        74.69   78.81   60.95          91.15   -2.66    3.95           4.77  123.97           0.11    0.10    0.14    0.10            0.32    0.32    0.17           0.20     0.23
A14        78.13   79.28   60.27          91.36    3.38    5.00           6.03   55.98           0.06    0.11    0.15    0.10            0.22    0.33    0.20           0.19     0.27 
A15        80.43   82.88   61.40          92.96    1.01    6.64           6.71   81.39           0.06    0.09    0.14    0.08            0.16    0.22    0.20           0.14     0.17
A16        73.95   76.59   59.80          90.13    0.20    3.34           3.36   86.52           0.10    0.12    0.15    0.11            0.34    0.39    0.20           0.25     0.29
A17        79.81   81.98   60.68          92.57    1.51    6.67           6.84   77.23           0.06    0.09    0.14    0.08            0.18    0.25    0.24           0.16     0.20
A18        77.46   80.73   59.49          92.01   -0.77    6.90           6.94   96.38           0.08    0.09    0.15    0.09            0.32    0.32    0.32           0.23     0.26 
A19        66.76   69.49   57.66          86.75   -0.54   -0.32           0.69  208.72           0.16    0.16    0.16    0.16            0.51    0.52    0.17           0.40     0.45
A20         6.48    3.03    1.78          20.18   47.31    6.70          47.79    8.07           0.78    2.65    1.68    1.37            0.08    0.04    0.05           0.30     0.36 
A21        27.16   18.95   13.92          50.62   40.57    4.36          40.81    6.13           0.31    1.00    0.80    0.66            0.42    0.35    0.36           0.60     0.68
A22        54.45   49.45   30.39          75.73   17.90   14.80          23.23   39.58           0.13    0.38    0.47    0.28            0.55    0.61    0.60           0.62     0.75
B1          3.33    3.00    1.66          20.03    7.45    7.71          10.72   45.95           1.30    1.64    1.86    1.50            0.08    0.07    0.05           0.49     0.58
B2          3.90    2.95    1.05          19.86   17.06   15.11          22.79   41.53           1.15    1.76    2.10    1.47            0.05    0.05    0.03           0.29     0.34
B3          4.49    2.94    0.66          19.80   25.52   21.77          33.55   40.46           1.04    1.90    2.35    1.44            0.05    0.04    0.02           0.27     0.31
B4          5.55    3.06    0.15          20.30   36.62   32.12          48.71   41.26           0.89    2.15    3.26    1.39            0.07    0.04    0.01           0.28     0.33
B5         12.82   11.47    6.35          40.35   12.31   12.10          17.26   44.50           0.73    1.04    1.22    0.91            0.16    0.14    0.12           0.46     0.52
B6         15.13   11.54    4.11          40.47   26.30   23.79          35.46   42.13           0.57    1.15    1.44    0.88            0.22    0.17    0.09           0.46     0.51
B7         17.41   11.55    2.65          40.49   39.08   33.86          51.71   40.91           0.45    1.28    1.66    0.85            0.24    0.18    0.05           0.42     0.48
B8         21.21   11.55    1.07          40.50   58.30   50.38          77.05   40.83           0.30    1.57    2.13    0.81            0.14    0.10    0.03           0.25     0.29
B9         35.11   34.81   25.01          65.60    5.31    6.34           8.28   49.88           0.38    0.49    0.56    0.45            0.51    0.54    0.63           0.77     0.88
B10        36.72   34.57   21.98          65.41   11.49   11.69          16.40   45.43           0.32    0.52    0.62    0.44            0.45    0.46    0.52           0.72     0.81
B11        38.79   34.80   19.73          65.59   17.41   16.56          24.03   43.54           0.26    0.55    0.68    0.43            0.53    0.52    0.48           0.73     0.82
B12        43.37   34.97   14.61          65.73   30.81   28.60          42.04   42.87           0.15    0.61    0.83    0.41            0.30    0.33    0.30           0.58     0.67
B13        63.49   68.94   56.27          86.48   -6.71    0.65           6.74  174.44           0.21    0.14    0.18    0.17            0.41    0.43    0.31           0.33     0.37
B14        69.82   67.83   54.37          85.92    9.68    1.69           9.82    9.91           0.08    0.20    0.19    0.16            0.37    0.44    0.31           0.31     0.36
B15        73.84   75.92   49.07          89.82    1.33   14.27          14.33   84.69           0.08    0.13    0.25    0.11            0.42    0.46    0.64           0.42     0.51
B16        57.20   59.21   46.05          81.40    0.26    3.28           3.30   85.63           0.21    0.23    0.27    0.23            0.49    0.51    0.51           0.52     0.58
B17        67.73   66.04   46.64          85.02    9.04    8.81          12.63   44.25           0.09    0.21    0.27    0.17            0.45    0.55    0.56           0.45     0.53
B18        61.86   67.75   48.42          85.88   -7.90    8.22          11.41  133.89           0.21    0.15    0.26    0.17            0.59    0.62    0.57           0.45     0.50
B19        59.37   61.42   53.45          82.60    0.34   -3.04           3.07  276.49           0.21    0.21    0.20    0.21            0.50    0.50    0.26           0.45     0.51
B20         4.91    2.95    1.02          19.84   30.90   15.58          34.60   26.75           0.97    2.02    2.06    1.43            0.08    0.05    0.03           0.31     0.36
B21        17.28   11.41    4.02          40.26   39.41   23.95          46.12   31.28           0.46    1.29    1.42    0.86            0.29    0.22    0.09           0.44     0.49
B22        34.10   28.73   16.27          60.54   23.65   15.56          28.31   33.33           0.28    0.67    0.76    0.50            0.45    0.42    0.40           0.53     0.61
C1          6.31    6.15    3.39          29.79    4.16    9.91          10.75   67.20           1.07    1.27    1.53    1.20            0.12    0.11    0.07           0.43     0.48
C2          6.84    6.25    2.09          30.04    8.56   20.65          22.35   67.49           0.99    1.30    1.81    1.17            0.08    0.08    0.05           0.29     0.34
C3          7.35    6.32    1.20          30.21   12.80   30.92          33.47   67.52           0.93    1.32    2.16    1.15            0.10    0.09    0.03           0.29     0.32
C4          8.01    6.34    0.37          30.24   18.85   45.12          48.90   67.33           0.88    1.37    3.08    1.14            0.09    0.08    0.01           0.23     0.28
C5         24.31   23.30   11.31          55.38    8.17   19.97          21.57   67.73           0.49    0.69    0.96    0.61            0.24    0.23    0.22           0.49     0.56
C6         26.30   23.34    6.48          55.42   16.42   37.47          40.91   66.34           0.40    0.73    1.27    0.59            0.34    0.32    0.15           0.45     0.52
C7         28.63   23.69    3.17          55.78   24.21   56.26          61.24   66.72           0.33    0.77    1.71    0.57            0.28    0.25    0.08           0.39     0.44
C8         31.53   23.65    0.73          55.73   35.26   82.36          89.59   66.82           0.26    0.85    2.99    0.55            0.31    0.27    0.02           0.35     0.40
C9         41.22   41.54   26.91          70.55    3.58   11.57          12.11   72.77           0.31    0.40    0.53    0.37            0.42    0.44    0.62           0.80     0.89
C10        42.50   41.46   23.35          70.49    7.70   17.83          19.43   66.65           0.27    0.42    0.60    0.37            0.49    0.51    0.51           0.64     0.72
C11        43.72   41.66   19.42          70.64   10.70   25.89          28.01   67.54           0.23    0.43    0.70    0.36            0.43    0.46    0.38           0.61     0.70
C12        48.56   42.17    8.85          70.99   22.86   54.96          59.53   67.42           0.12    0.48    1.14    0.33            0.26    0.33    0.15           0.47     0.53
C13        56.30   63.81   55.31          83.87  -12.56   -2.85          12.88  192.77           0.30    0.16    0.19    0.21            0.39    0.41    0.33           0.36     0.40
C14        64.03   59.17   51.44          81.38   16.45   -2.94          16.72  349.86           0.10    0.28    0.21    0.21            0.32    0.38    0.23           0.31     0.38
C15        72.00   74.53   40.07          89.17    0.29   24.14          24.14   89.33           0.08    0.14    0.36    0.12            0.51    0.59    0.87           0.61     0.75
C16        44.72   46.36   36.15          73.78    0.04    2.90           2.91   89.29           0.31    0.34    0.39    0.33            0.54    0.60    0.62           0.58     0.66
C17        60.15   55.98   36.66          79.60   15.14   12.23          19.47   38.92           0.10    0.31    0.38    0.23            0.34    0.41    0.53           0.48     0.55
C18        53.03   61.39   39.45          82.59  -15.29   13.60          20.46  138.35           0.31    0.17    0.36    0.22            0.55    0.59    0.60           0.50     0.58
C19        48.51   50.04   50.08          76.09    0.72  -10.55          10.58  273.91           0.31    0.30    0.22    0.31            0.49    0.52    0.26           0.50     0.58
C20        12.71    9.29    1.11          36.54   28.00   43.02          51.33   56.94           0.63    1.27    2.23    0.96            0.23    0.20    0.04           0.41     0.49
C21        22.10   20.37   10.90          52.25   11.79   15.81          19.72   53.29           0.51    0.77    0.96    0.67            0.31    0.31    0.24           0.52     0.58
C22        28.10   23.58   10.51          55.67   22.59   22.94          32.19   45.44           0.35    0.76    0.98    0.59            0.36    0.34    0.21           0.42     0.47
D1          4.14    4.39    2.38          24.91   -1.31    9.18           9.28   98.13           1.29    1.38    1.71    1.36            0.10    0.10    0.05           0.46     0.53
D2          4.13    4.41    1.55          24.98   -1.64   17.51          17.59   95.35           1.29    1.37    1.98    1.35            0.11    0.10    0.03           0.50     0.57
D3          4.01    4.33    0.91          24.74   -2.32   25.67          25.78   95.16           1.31    1.36    2.34    1.35            0.07    0.07    0.03           0.47     0.53
D4          4.10    4.39    0.41          24.92   -1.91   35.26          35.32   93.10           1.32    1.35    3.02    1.34            0.05    0.05    0.01           0.40     0.45
D5         17.82   18.60    9.23          50.21   -0.62   17.81          17.82   92.00           0.67    0.75    1.06    0.72            0.27    0.30    0.24           0.50     0.57
D6         18.00   18.98    5.13          50.67   -1.60   35.71          35.74   92.57           0.65    0.73    1.42    0.71            0.25    0.27    0.11           0.36     0.42
D7         17.75   18.72    2.39          50.36   -1.62   53.01          53.03   91.75           0.66    0.73    1.95    0.71            0.20    0.23    0.05           0.30     0.35
D8         17.45   18.52    0.89          50.12   -2.15   69.83          69.86   91.76           0.71    0.73    2.92    0.71            0.19    0.22    0.02           0.34     0.45
D9         47.19   48.94   23.67          75.41    0.01   25.70          25.70   89.98           0.25    0.32    0.61    0.30            0.42    0.45    0.49           0.65     0.73
D10        47.08   49.16   13.72          75.55   -0.90   47.87          47.88   91.08           0.24    0.32    0.92    0.29            0.43    0.46    0.23           0.51     0.57
D11        46.69   48.91    6.92          75.39   -1.30   70.04          70.05   91.06           0.24    0.32    1.37    0.29            0.39    0.41    0.10           0.38     0.44
D12        46.03   48.88    1.82          75.37   -3.09  101.45         101.50   91.74           0.29    0.32    2.63    0.29            0.45    0.46    0.02           0.49     0.55
D13        49.93   59.22   54.48          81.41  -18.36   -6.19          19.38  198.64           0.40    0.17    0.19    0.25            0.35    0.35    0.30           0.36     0.40
D14        57.95   50.51   48.31          76.38   23.77   -8.03          25.09  341.34           0.11    0.39    0.23    0.28            0.29    0.35    0.19           0.33     0.42
D15        70.43   73.18   31.67          88.53   -0.29   34.90          34.90   90.48           0.08    0.15    0.48    0.12            0.36    0.39    0.50           0.41     0.54
D16        33.41   34.71   26.98          65.52   -0.19    2.76           2.77   94.11           0.44    0.47    0.52    0.46            0.56    0.59    0.44           0.63     0.74
D17        52.18   45.68   27.25          73.34   22.37   15.80          27.39   35.23           0.12    0.44    0.52    0.31            0.46    0.56    0.49           0.60     0.76
D18        45.35   55.74   31.69          79.47  -22.66   19.23          29.72  139.68           0.41    0.19    0.48    0.27            0.51    0.53    0.53           0.50     0.59
D19        38.24   39.24   46.55          68.92    1.30  -18.83          18.88  273.93           0.43    0.41    0.25    0.42            0.43    0.48    0.29           0.47     0.56
D20         2.93    2.93    1.11          19.78    1.71   14.13          14.23   83.10           1.40    1.58    2.12    1.52            0.13    0.12    0.06           0.51     0.58
D21        31.36   28.67    1.52          60.49   14.16   79.11          80.37   79.85           0.35    0.62    2.43    0.50            0.41    0.44    0.06           0.42     0.52
D22        41.39   44.14   48.54          72.32   -3.54  -15.29          15.70  256.98           0.42    0.34    0.23    0.37            0.40    0.42    0.28           0.39     0.45
E1          5.45    6.23    3.46          29.99   -6.40    9.80          11.71  123.15           1.22    1.19    1.54    1.21            0.13    0.14    0.07           0.51     0.58
E2          5.04    6.24    2.27          30.01  -11.45   19.00          22.19  121.07           1.29    1.15    1.81    1.22            0.12    0.14    0.06           0.47     0.53
E3          4.48    6.13    1.39          29.75  -17.42   27.65          32.68  122.22           1.41    1.12    2.16    1.23            0.08    0.11    0.05           0.43     0.49
E4          4.01    6.06    0.59          29.56  -23.12   39.76          45.99  120.18           1.59    1.08    2.96    1.24            0.06    0.09    0.02           0.46     0.52
E5         25.28   28.63   14.87          60.45   -9.51   18.86          21.12  116.78           0.58    0.52    0.84    0.55            0.21    0.24    0.28           0.57     0.65
E6         22.94   28.31    9.17          60.17  -18.48   35.16          39.72  117.73           0.66    0.49    1.13    0.56            0.21    0.26    0.15           0.39     0.48
E7         20.65   28.28    5.23          60.14  -29.02   51.53          59.14  119.39           0.78    0.45    1.52    0.56            0.15    0.17    0.03           0.28     0.34
E8         17.51   27.35    1.77          59.30  -41.41   74.23          85.00  119.15           1.04    0.41    2.56    0.58            0.12    0.17    0.04           0.31     0.39
E9         45.26   49.06   31.00          75.49   -5.76   13.43          14.61  113.27           0.32    0.30    0.47    0.31            0.41    0.45    0.64           0.69     0.77
E10        42.80   48.70   24.19          75.27  -11.97   24.51          27.28  116.05           0.36    0.28    0.61    0.31            0.29    0.30    0.42           0.60     0.68
E11        40.94   48.59   19.23          75.20  -17.28   34.16          38.28  116.84           0.40    0.27    0.74    0.32            0.24    0.27    0.30           0.54     0.62
E12        37.21   48.32   11.57          75.03  -28.32   53.05          60.14  118.10           0.49    0.24    1.06    0.33            0.20    0.23    0.17           0.42     0.48
E13        44.78   55.45   53.90          79.30  -23.58   -9.22          25.32  201.36           0.50    0.18    0.20    0.29            0.31    0.35    0.35           0.32     0.36
E14        52.19   42.66   45.24          71.33   31.07  -13.12          33.72  337.11           0.13    0.50    0.25    0.34            0.25    0.31    0.19           0.36     0.41
E15        69.24   72.07   24.98          88.00   -0.53   45.02          45.03   90.68           0.08    0.15    0.61    0.13            0.35    0.37    0.40           0.39     0.51
E16        24.32   25.22   19.99          57.29    0.01    1.69           1.69   89.26           0.57    0.61    0.66    0.60            0.41    0.44    0.37           0.64     0.77
E17        45.01   36.72   19.96          67.07   29.80   18.62          35.15   32.00           0.14    0.58    0.66    0.39            0.38    0.45    0.40           0.58     0.73
E18        39.10   50.94   25.49          76.64  -29.21   24.54          38.15  139.97           0.51    0.21    0.60    0.31            0.34    0.35    0.47           0.54     0.68
E19        30.08   30.49   43.31          62.07    2.58  -26.72          26.85  275.50           0.56    0.52    0.27    0.53            0.32    0.37    0.22           0.48     0.57
E20         7.21    8.52    1.39          35.04   -9.40   36.69          37.87  104.37           1.12    1.03    2.20    1.07            0.20    0.23    0.06           0.56     0.63
E21        24.82   29.44    6.35          61.16  -14.55   47.96          50.12  106.88           0.59    0.49    1.36    0.53            0.29    0.34    0.12           0.39     0.44
E22         8.56   18.14   13.26          49.66  -59.99    4.49          60.16  175.72           1.87    0.53    0.92    0.82            0.15    0.25    0.23           0.43     0.50
F1          3.50    4.34    3.08          24.77  -10.10    3.42          10.67  161.30           1.47    1.32    1.58    1.39            0.08    0.09    0.05           0.43     0.48
F2          2.84    4.27    2.67          24.55  -20.44    6.22          21.37  163.08           1.70    1.26    1.68    1.41            0.06    0.09    0.06           0.41     0.45
F3          2.40    4.35    2.29          24.79  -29.85    9.77          31.41  161.88           1.94    1.20    1.80    1.42            0.04    0.08    0.06           0.45     0.52
F4          1.52    4.24    1.50          24.46  -48.98   17.21          51.91  160.64           2.79    1.11    2.16    1.46            0.03    0.07    0.04           0.32     0.39
F5         11.38   14.30    9.80          44.65  -16.19    6.28          17.37  158.81           1.01    0.78    1.03    0.87            0.15    0.17    0.18           0.55     0.64
F6          9.26   14.57    8.48          45.04  -34.15   11.57          36.06  161.29           1.29    0.70    1.13    0.88            0.17    0.24    0.15           0.52     0.60
F7          7.44   14.46    7.06          44.88  -49.60   16.82          52.37  161.26           1.63    0.65    1.26    0.90            0.16    0.27    0.13           0.51     0.59
F8          5.40   14.07    5.54          44.33  -68.79   22.74          72.45  161.71           2.32    0.59    1.46    0.94            0.07    0.14    0.09           0.42     0.49
F9         29.99   34.42   24.77          65.30  -11.64    6.26          13.23  151.77           0.55    0.43    0.57    0.47            0.18    0.20    0.42           0.66     0.73
F10        26.57   34.04   22.53          64.99  -23.72    9.90          25.71  157.35           0.68    0.39    0.63    0.49            0.24    0.28    0.35           0.62     0.69
F11        23.73   34.03   20.56          64.99  -35.75   13.78          38.31  158.92           0.83    0.36    0.69    0.50            0.29    0.31    0.31           0.63     0.69
F12        19.57   33.75   17.70          64.76  -54.26   19.53          57.67  160.20           1.12    0.30    0.79    0.52            0.18    0.21    0.35           0.60     0.71
F13        40.56   52.21   53.41          77.41  -27.99  -11.96          30.44  203.13           0.60    0.19    0.20    0.32            0.16    0.19    0.29           0.29     0.33
F14        46.69   35.59   42.11          66.21   38.30  -18.08          42.35  334.73           0.15    0.62    0.28    0.41            0.26    0.29    0.22           0.38     0.43
F15        68.18   70.88   18.97          87.43   -0.36   55.81          55.81   90.37           0.08    0.16    0.77    0.13            0.29    0.34    0.34           0.41     0.53
F16        17.18   17.80   13.97          49.25    0.09    1.86           1.87   86.74           0.71    0.77    0.83    0.75            0.33    0.34    0.24           0.50     0.60
F17        38.56   29.12   13.64          60.88   36.97   22.79          43.43   31.65           0.17    0.74    0.84    0.48            0.35    0.39    0.26           0.57     0.70
