targets/wolf_faust/transmissive/E160310.it8
IT8.7/1
ORIGINATOR "Wolf Faust"
DESCRIPTOR "Ektachrome, Type 3, L* a* b* (light D50, viewing angle 2)"
MANUFACTURER "Wolf Faust - http://www.coloraid.de"
CREATED "March 11, 2016"
PROD_DATE "2015:01"
DIFFUSE_GEOMETRY "opal"
SERIAL "E160310 Batch Average Data"
MATERIAL "For Kodak Ektachrome Product Family"
KEYWORD "MEAN_DE" # Mean Delta E of samples compared to batch average
NUMBER_OF_FIELDS 18
BEGIN_DATA_FORMAT
SAMPLE_ID  XYZ_X   XYZ_Y   XYZ_Z          LAB_L   LAB_A   LAB_B          LAB_C   LAB_H          D_RED  D_GREEN  D_BLUE  D_VIS          STDEV_X STDEV_Y STDEV_Z        MEAN_DE  STDEV_DE
END_DATA_FORMAT
NUMBER_OF_SETS 288
BEGIN_DATA
A1          2.13    1.84    1.32          14.64    8.20    2.45           8.56   16.64           1.48    1.88    1.94    1.71            0.04    0.03    0.02           0.33     0.37
A2          2.67    1.82    1.09          14.53   19.64    5.37          20.36   15.30           1.29    2.08    2.01    1.67            0.05    0.03    0.02           0.29     0.33 
A3          3.34    1.88    0.90          14.84   29.99    8.77          31.25   16.31           1.12    2.34    2.06    1.62            0.04    0.02    0.02           0.24     0.28
A4          4.35    1.99    0.71          15.41   42.64   13.19          44.64   17.19           0.94    3.00    2.11    1.54            0.05    0.02    0.01           0.31     0.34 
A5          9.86    8.50    5.82          35.00   14.01    5.29          14.98   20.70           0.83    1.20    1.24    1.04            0.13    0.12    0.09           0.34     0.38
A6         11.84    8.44    4.99          34.88   29.19    9.22          30.61   17.52           0.66    1.34    1.29    1.01            0.15    0.11    0.09           0.40     0.45 
A7         14.32    8.61    4.29          35.22   43.97   13.67          46.05   17.27           0.51    1.53    1.35    0.97            0.16    0.10    0.07           0.34     0.38
A8         17.59    8.75    3.47          35.50   61.61   19.22          64.54   17.33           0.36    1.93    1.41    0.92            0.08    0.05    0.06           0.27     0.31 
A9         29.34   28.57   21.26          60.40    6.98    4.46           8.29   32.51           0.44    0.59    0.63    0.53            0.41    0.41    0.40           0.49     0.55
A10        31.36   28.26   19.75          60.12   15.76    7.06          17.28   24.12           0.36    0.63    0.66    0.53            0.38    0.36    0.32           0.44     0.51
A11        33.76   28.51   18.66          60.35   23.31    9.80          25.29   22.80           0.29    0.67    0.69    0.51            0.33    0.31    0.29           0.45     0.50
A12        38.78   28.86   17.19          60.66   38.65   13.62          40.98   19.41           0.17    0.75    0.72    0.48            0.21    0.21    0.22           0.32     0.37 
A13        74.72   78.83   60.99          91.16   -2.63    3.93           4.73  123.78           0.11    0.10    0.14    0.10            0.31    0.30    0.20           0.20     0.22
A14        78.26   79.39   60.36          91.41    3.43    4.99           6.06   55.47           0.06    0.11    0.14    0.10            0.22    0.27    0.18           0.20     0.23 
A15        80.47   82.88   61.20          92.96    1.09    6.83           6.92   80.95           0.06    0.09    0.14    0.08            0.20    0.21    0.14           0.13     0.15
A16        75.17   77.54   60.09          90.57    0.82    3.81           3.90   77.81           0.09    0.11    0.15    0.11            0.30    0.33    0.18           0.24     0.27
A17        80.02   82.17   60.86          92.65    1.55    6.63           6.81   76.83           0.06    0.09    0.14    0.08            0.15    0.17    0.14           0.14     0.16
A18        77.66   80.90   59.57          92.09   -0.68    6.95           6.98   95.58           0.08    0.09    0.15    0.09            0.27    0.26    0.15           0.15     0.17 
A19        67.86   70.66   58.07          87.32   -0.58    0.24           0.65  160.24           0.15    0.15    0.16    0.15            0.23    0.26    0.12           0.24     0.28
A20         6.65    3.11    1.79          20.49   47.73    7.15          48.27    8.52           0.77    2.63    1.68    1.36            0.08    0.04    0.03           0.30     0.34 
A21        27.16   19.02   13.79          50.71   40.24    4.85          40.53    6.87           0.31    0.99    0.80    0.66            0.17    0.15    0.15           0.29     0.34
A22        54.20   49.45   30.54          75.73   17.27   14.57          22.59   40.15           0.13    0.38    0.47    0.28            0.20    0.24    0.22           0.39     0.45
B1          3.24    2.93    1.67          19.77    7.14    7.13          10.09   44.95           1.32    1.64    1.85    1.51            0.04    0.04    0.02           0.36     0.41
B2          3.83    2.91    1.04          19.68   16.83   14.98          22.53   41.67           1.16    1.76    2.10    1.48            0.05    0.04    0.02           0.26     0.29
B3          4.47    2.91    0.62          19.69   25.72   22.32          34.06   40.96           1.04    1.91    2.37    1.45            0.05    0.04    0.02           0.20     0.23
B4          5.44    3.01    0.15          20.07   36.34   31.72          48.23   41.11           0.90    2.15    3.19    1.40            0.06    0.03    0.00           0.26     0.32
B5         12.65   11.24    6.15          39.97   12.77   12.33          17.76   43.99           0.73    1.05    1.23    0.92            0.15    0.14    0.11           0.35     0.41
B6         15.01   11.44    4.12          40.31   26.25   23.44          35.19   41.76           0.58    1.15    1.43    0.88            0.14    0.11    0.05           0.39     0.43
B7         17.28   11.44    2.54          40.32   39.18   34.38          52.13   41.27           0.46    1.28    1.68    0.85            0.12    0.09    0.04           0.32     0.36
B8         21.26   11.54    1.06          40.47   58.66   50.54          77.43   40.75           0.30    1.58    2.13    0.81            0.10    0.07    0.02           0.24     0.27
B9         34.77   34.59   24.21          65.43    4.90    7.51           8.97   56.85           0.38    0.49    0.58    0.45            0.40    0.41    0.34           0.43     0.50
B10        36.77   34.58   21.39          65.42   11.63   12.86          17.34   47.84           0.31    0.52    0.64    0.44            0.40    0.40    0.31           0.47     0.54
B11        38.54   34.62   19.25          65.45   17.21   17.32          24.42   45.17           0.26    0.55    0.69    0.43            0.39    0.39    0.28           0.46     0.53
B12        43.47   34.99   14.30          65.74   31.08   29.44          42.81   43.44           0.14    0.61    0.84    0.41            0.24    0.27    0.22           0.39     0.45
B13        63.34   68.95   56.29          86.48   -7.07    0.63           7.10  174.87           0.21    0.14    0.18    0.17            0.32    0.31    0.18           0.24     0.27
B14        69.91   67.82   54.34          85.92    9.87    1.72          10.02    9.90           0.08    0.20    0.19    0.16            0.24    0.29    0.12           0.22     0.29
B15        74.03   76.14   48.57          89.92    1.28   15.01          15.07   85.13           0.08    0.13    0.26    0.11            0.26    0.29    0.24           0.21     0.24
B16        57.04   59.18   45.53          81.39   -0.07    3.89           3.89   90.95           0.21    0.23    0.28    0.23            0.43    0.47    0.24           0.33     0.41
B17        67.90   66.21   46.20          85.10    9.04    9.48          13.10   46.38           0.08    0.21    0.27    0.17            0.30    0.39    0.25           0.32     0.38
B18        61.81   67.88   48.04          85.95   -8.31    8.78          12.08  133.44           0.21    0.15    0.26    0.17            0.32    0.33    0.25           0.28     0.33
B19        59.17   61.35   53.40          82.57    0.04   -3.05           3.05  270.66           0.21    0.21    0.20    0.21            0.32    0.36    0.15           0.29     0.34
B20         5.00    2.99    0.98          20.00   31.36   16.49          35.43   27.74           0.96    2.02    2.07    1.42            0.07    0.04    0.02           0.31     0.36
B21        17.11   11.31    4.00          40.09   39.21   23.81          45.87   31.27           0.46    1.29    1.42    0.86            0.14    0.11    0.06           0.31     0.35
B22        34.12   28.78   16.06          60.59   23.54   16.14          28.54   34.44           0.28    0.67    0.77    0.50            0.26    0.25    0.18           0.34     0.39
C1          6.18    6.03    3.20          29.49    4.01   10.71          11.43   69.48           1.08    1.28    1.56    1.20            0.08    0.07    0.05           0.33     0.36
C2          6.72    6.18    2.05          29.87    8.08   20.78          22.30   68.74           1.00    1.30    1.82    1.18            0.09    0.08    0.03           0.30     0.34
C3          7.12    6.06    1.10          29.56   13.34   31.12          33.86   66.80           0.94    1.35    2.20    1.17            0.07    0.06    0.03           0.29     0.31
C4          7.82    6.20    0.36          29.91   18.54   44.76          48.45   67.50           0.89    1.38    3.06    1.15            0.08    0.06    0.00           0.32     0.36
C5         24.13   23.09   10.92          55.16    8.35   20.77          22.39   68.11           0.49    0.69    0.97    0.62            0.18    0.18    0.12           0.37     0.44
C6         26.09   23.15    6.17          55.22   16.39   38.56          41.90   66.96           0.40    0.73    1.29    0.60            0.26    0.24    0.09           0.38     0.43
C7         28.34   23.30    3.07          55.38   24.76   56.31          61.52   66.27           0.33    0.78    1.73    0.58            0.21    0.19    0.04           0.38     0.43
C8         31.46   23.55    0.71          55.63   35.48   82.55          89.85   66.74           0.26    0.85    2.97    0.55            0.25    0.21    0.01           0.38     0.46
C9         41.24   41.50   26.55          70.53    3.77   12.14          12.71   72.73           0.31    0.41    0.54    0.37            0.46    0.49    0.39           0.49     0.57
C10        41.96   41.13   22.80          70.26    7.06   18.46          19.77   69.06           0.27    0.42    0.62    0.37            0.41    0.42    0.30           0.49     0.57
C11        43.52   41.46   18.89          70.49   10.71   26.79          28.85   68.20           0.23    0.44    0.72    0.36            0.42    0.44    0.27           0.51     0.60
C12        48.33   41.75    8.51          70.69   23.50   55.70          60.46   67.13           0.12    0.49    1.16    0.33            0.23    0.27    0.13           0.41     0.46
C13        55.91   63.62   55.29          83.77  -13.08   -3.00          13.42  192.89           0.31    0.16    0.19    0.21            0.32    0.34    0.21           0.26     0.30
C14        63.76   58.66   51.24          81.11   17.04   -3.20          17.34  349.37           0.10    0.29    0.21    0.22            0.28    0.34    0.17           0.24     0.34
C15        72.10   74.63   39.50          89.22    0.30   24.96          24.96   89.31           0.08    0.14    0.36    0.12            0.30    0.34    0.26           0.28     0.31
C16        44.18   45.83   35.49          73.43   -0.04    3.23           3.23   90.43           0.32    0.34    0.39    0.34            0.42    0.48    0.28           0.39     0.48
C17        59.68   55.26   35.92          79.19   15.80   12.55          20.18   38.46           0.10    0.32    0.39    0.24            0.32    0.39    0.25           0.40     0.47
C18        52.78   61.35   39.30          82.57  -15.84   13.76          20.98  139.02           0.31    0.17    0.36    0.22            0.32    0.33    0.31           0.33     0.37
C19        47.94   49.50   49.84          75.76    0.58  -10.85          10.87  273.04           0.32    0.31    0.22    0.31            0.30    0.34    0.12           0.33     0.41
C20        12.51    9.07    1.08          36.12   28.46   42.74          51.35   56.34           0.63    1.29    2.23    0.97            0.12    0.10    0.03           0.39     0.44
C21        22.13   20.44   10.55          52.33   11.62   17.05          20.64   55.72           0.51    0.77    0.98    0.66            0.20    0.20    0.12           0.42     0.47
C22        27.95   23.35   10.29          55.43   22.98   23.23          32.68   45.30           0.35    0.77    0.99    0.59            0.26    0.24    0.14           0.38     0.41
D1          3.99    4.29    2.33          24.59   -2.10    9.10           9.35  103.02           1.32    1.38    1.72    1.37            0.05    0.05    0.02           0.32     0.39
D2          3.99    4.32    1.45          24.71   -2.49   18.16          18.33   97.80           1.31    1.37    2.01    1.36            0.06    0.05    0.02           0.34     0.37
D3          3.92    4.24    0.86          24.44   -2.39   26.10          26.21   95.23           1.32    1.37    2.37    1.36            0.07    0.06    0.02           0.37     0.40
D4          3.86    4.20    0.39          24.31   -2.69   34.48          34.59   94.46           1.35    1.36    3.00    1.36            0.09    0.07    0.00           0.55     0.63
D5         17.80   18.56    8.97          50.16   -0.49   18.65          18.65   91.51           0.67    0.75    1.08    0.72            0.21    0.22    0.13           0.38     0.42
D6         17.59   18.46    4.91          50.05   -1.14   35.78          35.79   91.82           0.66    0.74    1.44    0.72            0.21    0.21    0.06           0.44     0.49
D7         17.68   18.72    2.42          50.35   -1.96   52.75          52.78   92.13           0.67    0.73    1.93    0.71            0.17    0.19    0.04           0.42     0.48
D8         17.29   18.40    0.87          49.97   -2.40   69.89          69.93   91.97           0.71    0.73    2.90    0.71            0.16    0.17    0.01           0.38     0.45
D9         47.22   49.13   23.68          75.53   -0.42   25.90          25.91   90.93           0.25    0.32    0.61    0.30            0.46    0.50    0.33           0.57     0.64
D10        47.06   49.26   13.45          75.61   -1.19   48.70          48.72   91.40           0.24    0.32    0.93    0.29            0.54    0.59    0.19           0.43     0.53
D11        46.81   49.10    6.78          75.51   -1.49   70.82          70.84   91.20           0.24    0.32    1.38    0.29            0.45    0.48    0.08           0.45     0.53
D12        45.81   48.62    1.77          75.21   -3.02  101.72         101.76   91.70           0.29    0.32    2.64    0.29            0.33    0.31    0.02           0.32     0.39
D13        49.55   58.99   54.43          81.29  -18.84   -6.36          19.89  198.67           0.41    0.17    0.19    0.25            0.27    0.28    0.21           0.24     0.27
D14        57.95   50.35   48.25          76.28   24.19   -8.14          25.52  341.41           0.11    0.39    0.23    0.28            0.31    0.37    0.19           0.30     0.40
D15        70.50   73.28   31.32          88.58   -0.33   35.51          35.52   90.53           0.08    0.14    0.49    0.12            0.29    0.35    0.25           0.29     0.32
D16        33.19   34.51   26.77          65.36   -0.30    2.85           2.87   95.87           0.44    0.47    0.53    0.46            0.37    0.41    0.27           0.41     0.47
D17        52.10   45.49   26.88          73.21   22.71   16.20          27.89   35.50           0.12    0.44    0.52    0.31            0.32    0.39    0.22           0.39     0.49
D18        45.20   55.75   31.53          79.47  -23.08   19.48          30.20  139.84           0.41    0.19    0.48    0.27            0.24    0.26    0.31           0.36     0.41
D19        38.27   39.38   46.55          69.02    0.97  -18.66          18.69  272.95           0.44    0.40    0.25    0.42            0.29    0.34    0.15           0.35     0.44
D20         2.84    2.87    1.06          19.53    1.28   14.46          14.52   84.96           1.42    1.58    2.15    1.53            0.05    0.05    0.03           0.29     0.32
D21        31.13   28.46    1.46          60.30   14.14   79.40          80.65   79.90           0.36    0.62    2.45    0.50            0.27    0.27    0.03           0.44     0.51
D22        41.25   44.19   48.46          72.35   -4.07  -15.15          15.69  254.94           0.42    0.34    0.23    0.37            0.31    0.35    0.14           0.36     0.45
E1          5.28    6.13    3.39          29.73   -7.21    9.85          12.21  126.20           1.24    1.19    1.55    1.22            0.06    0.06    0.03           0.26     0.30
E2          4.89    6.11    2.15          29.69  -11.90   19.46          22.81  121.44           1.31    1.16    1.84    1.23            0.07    0.08    0.03           0.30     0.35
E3          4.44    6.08    1.32          29.62  -17.43   28.27          33.21  121.65           1.42    1.12    2.19    1.23            0.07    0.08    0.02           0.34     0.39
E4          4.00    6.07    0.58          29.59  -23.48   40.00          46.39  120.41           1.60    1.07    2.94    1.24            0.08    0.09    0.01           0.44     0.53
E5         25.22   28.70   14.45          60.52  -10.07   20.04          22.43  116.69           0.58    0.52    0.85    0.55            0.29    0.32    0.18           0.44     0.50
E6         22.82   28.25    8.97          60.11  -18.80   35.78          40.42  117.72           0.67    0.49    1.14    0.56            0.22    0.27    0.11           0.42     0.47
E7         20.57   28.17    5.01          60.04  -29.04   52.51          60.00  118.94           0.79    0.45    1.54    0.56            0.17    0.23    0.05           0.36     0.41
E8         17.72   27.85    1.92          59.76  -42.25   73.47          84.75  119.90           1.04    0.41    2.45    0.58            0.13    0.18    0.03           0.23     0.26
E9         45.03   48.88   30.80          75.38   -5.94   13.55          14.80  113.68           0.32    0.30    0.47    0.31            0.39    0.42    0.25           0.42     0.50
E10        42.81   48.78   24.26          75.31  -12.16   24.46          27.31  116.44           0.36    0.28    0.61    0.31            0.43    0.50    0.32           0.39     0.50
E11        40.99   48.83   19.03          75.35  -17.78   34.84          39.12  117.03           0.40    0.26    0.75    0.32            0.40    0.47    0.24           0.36     0.42
E12        37.07   48.28   11.38          75.00  -28.66   53.58          60.76  118.14           0.50    0.24    1.07    0.33            0.26    0.27    0.11           0.29     0.33
E13        44.30   55.09   53.76          79.10  -24.09   -9.42          25.87  201.35           0.51    0.18    0.20    0.29            0.23    0.24    0.21           0.21     0.23
E14        52.30   42.66   45.23          71.32   31.39  -13.11          34.02  337.33           0.13    0.50    0.25    0.34            0.27    0.32    0.18           0.30     0.39
E15        69.28   72.11   24.30          88.02   -0.54   46.29          46.29   90.67           0.08    0.15    0.63    0.13            0.22    0.26    0.18           0.32     0.37
E16        24.12   25.16   19.50          57.23   -0.64    2.62           2.70  103.53           0.57    0.61    0.68    0.60            0.28    0.32    0.23           0.36     0.44
E17        45.08   36.76   19.38          67.10   29.88   19.88          35.89   33.64           0.14    0.58    0.68    0.39            0.29    0.34    0.28           0.39     0.47
E18        38.80   50.80   24.98          76.56  -29.81   25.29          39.09  139.70           0.52    0.21    0.61    0.31            0.20    0.20    0.23           0.31     0.37
E19        30.15   30.80   43.48          62.33    1.72  -26.47          26.53  273.71           0.57    0.51    0.27    0.53            0.26    0.30    0.18           0.36     0.42
E20         6.90    8.32    1.39          34.65  -10.74   36.08          37.64  106.57           1.15    1.03    2.20    1.08            0.09    0.11    0.03           0.30     0.34
E21        24.87   29.49    6.13          61.21  -14.52   49.03          51.14  106.50           0.59    0.49    1.38    0.53            0.23    0.27    0.08           0.45     0.52
E22         8.46   18.07   12.85          49.58  -60.47    5.48          60.72  174.82           1.88    0.53    0.94    0.82            0.14    0.24    0.24           0.38     0.44
F1          3.43    4.28    3.03          24.58  -10.48    3.46          11.04  161.71           1.49    1.33    1.59    1.39            0.06    0.07    0.05           0.29     0.36
F2          2.83    4.27    2.63          24.53  -20.56    6.46          21.55  162.57           1.70    1.26    1.69    1.41            0.06    0.08    0.05           0.31     0.34
F3          2.34    4.28    2.19          24.59  -30.24   10.34          31.96  161.12           1.96    1.21    1.82    1.43            0.05    0.07    0.03           0.32     0.35
F4          1.55    4.32    1.64          24.70  -49.22   16.01          51.76  161.98           2.79    1.10    2.09    1.45            0.02    0.06    0.03           0.31     0.35
F5         11.20   14.26    9.66          44.60  -17.23    6.63          18.46  158.95           1.02    0.78    1.03    0.87            0.16    0.20    0.14           0.39     0.44
F6          9.09   14.32    8.30          44.69  -34.05   11.61          35.98  161.17           1.29    0.71    1.14    0.89            0.12    0.17    0.12           0.35     0.40
F7          7.28   14.29    6.75          44.65  -50.09   17.76          53.15  160.48           1.65    0.65    1.29    0.91            0.12    0.20    0.09           0.35     0.40
F8          5.37   14.03    5.34          44.27  -68.89   23.61          72.82  161.09           2.33    0.59    1.48    0.94            0.07    0.14    0.08           0.25     0.29
F9         30.08   34.71   24.76          65.52  -12.27    6.66          13.97  151.53           0.55    0.42    0.58    0.47            0.36    0.42    0.26           0.41     0.49
F10        26.45   34.08   22.30          65.03  -24.40   10.40          26.53  156.91           0.69    0.39    0.64    0.49            0.24    0.31    0.25           0.40     0.46
F11        23.82   34.31   20.50          65.21  -36.30   14.29          39.01  158.51           0.83    0.35    0.69    0.50            0.21    0.27    0.24           0.41     0.45
F12        19.44   33.71   17.21          64.73  -54.83   20.60          58.57  159.41           1.13    0.30    0.81    0.52            0.18    0.23    0.22           0.33     0.36
F13        40.01   51.84   53.34          77.18  -28.73  -12.26          31.24  203.12           0.62    0.19    0.20    0.32            0.22    0.23    0.22           0.20     0.22
F14        46.51   35.22   41.91          65.92   39.04  -18.33          43.13  334.85           0.15    0.63    0.28    0.42            0.27    0.29    0.22           0.27     0.36
F15        68.39   71.09   18.46          87.53   -0.36   57.09          57.09   90.36           0.07    0.16    0.79    0.13            0.24    0.29    0.16           0.28     0.33
F16        16.73   17.42   13.62          48.79   -0.37    2.00           2.04  100.23           0.72    0.77    0.84    0.76            0.20    0.22    0.17           0.34     0.39
F17        38.34   28.77   13.10          60.57   37.62   23.74          44.49   32.25           0.17    0.75    0.86    0.48            0.30    0.32    0.22           0.39     0.47
