targets/wolf_faust/transmissive/F020430.it8
IT8.7/1
ORIGINATOR "Wolf Faust"
DESCRIPTOR "Fujichrome Provia/Astia Type 3, L* a* b* (light D50, viewing angle 2)"
MANUFACTURER "Wolf Faust - http://www.coloraid.de"
CREATED "February 22, 2002"
PROD_DATE "2002:02"
SERIAL "F020430 Batch Average Data"
MATERIAL "For Fujichrome Provia and Astia Films"
KEYWORD "MEAN_DE" # Mean Delta E of samples compared to batch average
NUMBER_OF_FIELDS 17
BEGIN_DATA_FORMAT
SAMPLE_ID   XYZ_X   XYZ_Y   XYZ_Z          LAB_L   LAB_A   LAB_B          LAB_C   LAB_H          STDEV_X  STDEV_Y  STDEV_Z          STDEV_L  STDEV_A  STDEV_B        MEAN_DE  STDEV_DE
END_DATA_FORMAT
NUMBER_OF_SETS 288
BEGIN_DATA
A1           2.10    1.82    1.25          14.49    8.10    3.06           8.66   20.70            0.06     0.05     0.03            0.26     0.23     0.31           0.41    0.46
A2           2.87    1.98    1.10          15.40   19.63    6.68          20.74   18.78            0.07     0.05     0.03            0.25     0.18     0.15           0.30    0.34 
A3           3.20    1.86    0.84          14.73   28.30    9.62          29.89   18.78            0.07     0.05     0.02            0.27     0.17     0.21           0.34    0.38
A4           3.71    1.73    0.62          14.01   39.46   12.54          41.41   17.64            0.08     0.04     0.02            0.24     0.25     0.11           0.32    0.37 
A5           9.88    8.63    6.06          35.27   12.99    4.65          13.80   19.67            0.18     0.14     0.12            0.28     0.28     0.38           0.48    0.55
A6          11.05    8.07    4.80          34.12   26.78    8.96          28.24   18.50            0.21     0.16     0.10            0.32     0.29     0.32           0.48    0.54 
A7          13.48    8.32    4.14          34.63   41.22   13.51          43.38   18.15            0.24     0.16     0.09            0.32     0.25     0.31           0.44    0.51
A8          16.71    8.55    3.51          35.11   58.49   18.32          61.29   17.39            0.20     0.14     0.09            0.28     0.15     0.41           0.41    0.51 
A9          27.77   26.93   20.81          58.91    7.31    2.79           7.83   20.92            0.50     0.50     0.40            0.47     0.13     0.33           0.50    0.59
A10         31.62   28.75   21.36          60.56   14.81    4.53          15.49   17.02            0.53     0.50     0.38            0.44     0.19     0.37           0.52    0.60
A11         33.01   28.12   20.01          60.00   22.19    6.31          23.07   15.88            0.55     0.51     0.30            0.46     0.11     0.32           0.51    0.57
A12         37.85   28.62   17.92          60.44   36.60   11.57          38.38   17.55            0.45     0.47     0.32            0.42     0.36     0.30           0.56    0.63 
A13         72.98   76.22   62.74          89.96   -1.07    0.16           1.11   173.98            0.31     0.42     0.14            0.20     0.28     0.23           0.36    0.41
A14         74.99   76.79   62.91          90.22    1.94    0.44           2.01   13.74            0.27     0.43     0.17            0.20     0.33     0.24           0.38    0.46 
A15         75.26   77.52   61.24          90.56    1.03    2.65           2.87   68.43            0.26     0.42     0.14            0.19     0.32     0.27           0.39    0.46
A16         72.85   75.96   62.60          89.84   -0.83    0.08           0.88   179.78            0.34     0.45     0.18            0.21     0.32     0.28           0.41    0.47
A17         74.93   76.77   62.78          90.22    1.86    0.56           1.97   17.58            0.30     0.46     0.21            0.21     0.34     0.24           0.39    0.47
A18         73.26   76.56   62.84          90.12   -1.16    0.33           1.22   165.70            0.32     0.45     0.24            0.21     0.33     0.23           0.39    0.45 
A19         72.78   75.89   62.65          89.81   -0.82   -0.03           0.85   185.84            0.35     0.47     0.24            0.22     0.32     0.21           0.38    0.44
A20          1.95    1.24    0.26          10.86   20.47   13.81          24.70   34.00            0.05     0.03     0.01            0.25     0.20     0.22           0.33    0.39 
A21          5.03    2.63    0.27          18.50   38.04   26.87          46.58   35.23            0.10     0.06     0.01            0.26     0.18     0.24           0.33    0.39
A22          9.30    4.55    0.22          25.42   50.81   39.60          64.42   37.93            0.14     0.09     0.03            0.26     0.18     0.37           0.41    0.49
B1           3.45    3.14    1.70          20.58    7.10    8.24          10.88   49.24            0.07     0.05     0.03            0.21     0.22     0.27           0.35    0.41
B2           4.16    3.15    1.09          20.65   17.43   15.99          23.65   42.53            0.08     0.06     0.03            0.24     0.15     0.26           0.33    0.38
B3           4.43    2.94    0.68          19.80   24.78   21.22          32.62   40.58            0.09     0.06     0.02            0.24     0.15     0.21           0.31    0.36
B4           4.84    2.74    0.15          18.98   33.69   29.83          45.00   41.52            0.09     0.06     0.01            0.23     0.15     0.30           0.32    0.41
B5          12.01   10.79    5.99          39.23   11.62   11.82          16.57   45.49            0.18     0.16     0.09            0.27     0.22     0.27           0.35    0.44
B6          13.71   10.70    3.83          39.08   23.55   23.06          32.97   44.40            0.20     0.15     0.07            0.26     0.28     0.32           0.44    0.49
B7          16.56   11.19    2.41          39.90   37.00   34.76          50.77   43.21            0.24     0.17     0.05            0.28     0.21     0.26           0.38    0.44
B8          20.28   11.29    1.01          40.07   55.66   50.52          75.17   42.23            0.18     0.14     0.03            0.22     0.19     0.36           0.40    0.46
B9          34.16   34.02   24.87          64.97    4.74    5.52           7.28   49.27            0.52     0.54     0.39            0.42     0.15     0.34           0.48    0.57
B10         35.47   33.80   21.63          64.80    9.96   11.32          15.08   48.64            0.59     0.60     0.42            0.48     0.20     0.42           0.58    0.66
B11         36.39   33.16   18.80          64.29   15.26   16.29          22.32   46.86            0.63     0.63     0.34            0.51     0.15     0.28           0.51    0.60
B12         41.19   33.29   13.76          64.39   30.05   28.52          41.43   43.50            0.49     0.56     0.29            0.45     0.45     0.29           0.61    0.70
B13         62.81   69.87   61.24          86.93  -10.25   -3.61          10.87   199.38            0.38     0.39     0.10            0.19     0.26     0.27           0.37    0.43
B14         68.19   66.27   59.75          85.13    9.55   -5.23          10.89   331.31            0.34     0.53     0.14            0.27     0.43     0.37           0.50    0.63
B15         72.51   75.48   47.50          89.62   -0.57   15.74          15.75   92.04            0.36     0.53     0.36            0.25     0.34     0.30           0.44    0.51
B16         53.53   56.19   45.38          79.72   -1.66    1.18           2.06   145.94            0.48     0.56     0.30            0.32     0.21     0.43           0.49    0.57
B17         64.05   62.29   46.10          83.07    9.24    6.09          11.08   33.40            0.37     0.53     0.34            0.28     0.38     0.42           0.53    0.63
B18         60.82   68.23   47.55          86.12  -11.37    9.65          14.91   139.69            0.48     0.55     0.31            0.27     0.21     0.37           0.40    0.50
B19         57.26   60.29   58.20          81.99   -2.11   -9.07           9.32   256.92            0.33     0.36     0.13            0.20     0.18     0.27           0.32    0.38
B20          3.53    2.25    0.46          16.75   24.83   20.25          32.04   39.20            0.07     0.05     0.02            0.22     0.19     0.39           0.42    0.49
B21          9.13    4.42    0.21          25.03   51.09   39.14          64.36   37.46            0.11     0.06     0.02            0.20     0.12     0.25           0.31    0.34
B22         32.66   28.79   15.37          60.59   18.39   17.85          25.63   44.14            0.45     0.43     0.30            0.38     0.17     0.35           0.48    0.55
C1           6.27    6.21    3.37          29.93    3.12   10.28          10.74   73.13            0.12     0.11     0.06            0.27     0.21     0.18           0.34    0.38
C2           6.84    6.24    2.11          30.01    8.69   20.42          22.19   66.95            0.12     0.11     0.04            0.26     0.15     0.28           0.37    0.41
C3           7.08    6.19    1.04          29.88   11.56   32.52          34.51   70.43            0.12     0.12     0.04            0.29     0.17     0.25           0.37    0.41
C4           7.46    5.99    0.38          29.39   17.42   43.49          46.85   68.17            0.13     0.11     0.02            0.29     0.10     0.28           0.37    0.42
C5          22.44   22.11   10.96          54.14    5.21   18.90          19.61   74.58            0.25     0.25     0.13            0.26     0.20     0.36           0.42    0.48
C6          25.00   22.42    6.11          54.47   15.07   37.51          40.43   68.12            0.31     0.28     0.09            0.30     0.22     0.22           0.37    0.43
C7          26.62   22.25    2.74          54.29   22.60   56.95          61.27   68.35            0.35     0.31     0.06            0.33     0.19     0.14           0.34    0.40
C8          29.70   22.58    0.79          54.64   33.20   79.26          85.93   67.28            0.39     0.37     0.03            0.38     0.28     0.19           0.44    0.51
C9          39.46   40.54   27.73          69.85    1.18    8.96           9.04   82.47            0.56     0.60     0.45            0.42     0.16     0.39           0.51    0.59
C10         41.17   40.46   23.01          69.79    6.68   17.26          18.51   68.83            0.57     0.62     0.41            0.43     0.23     0.42           0.56    0.65
C11         41.43   39.88   18.91          69.38    9.27   24.84          26.51   69.53            0.66     0.68     0.44            0.48     0.20     0.36           0.55    0.63
C12         46.62   40.87    9.05          70.08   21.39   52.69          56.87   67.91            0.46     0.58     0.21            0.41     0.50     0.24           0.59    0.69
C13         58.96   67.24   60.53          85.62  -13.65   -5.16          14.59   200.71            0.38     0.43     0.13            0.22     0.28     0.28           0.39    0.45
C14         64.51   60.69   57.93          82.21   13.96   -8.41          16.30   328.94            0.38     0.55     0.18            0.30     0.44     0.40           0.54    0.67
C15         71.19   74.42   41.14          89.12   -1.19   22.66          22.70   93.00            0.38     0.54     0.43            0.26     0.34     0.37           0.48    0.56
C16         44.86   46.79   37.90          74.05   -0.74    0.96           1.22   128.84            0.60     0.70     0.41            0.45     0.24     0.41           0.57    0.65
C17         58.23   54.50   38.72          78.75   14.22    7.96          16.30   29.25            0.43     0.56     0.45            0.32     0.37     0.50           0.61    0.70
C18         55.96   64.76   41.32          84.36  -15.52   14.22          21.05   137.50            0.53     0.59     0.38            0.30     0.27     0.29           0.43    0.50
C19         50.09   52.67   55.63          77.67   -1.84  -13.86          13.98   262.43            0.53     0.58     0.43            0.35     0.14     0.31           0.43    0.48
C20          2.54    2.02    0.70          15.57   12.77   13.57          18.64   46.74            0.07     0.06     0.03            0.31     0.23     0.20           0.38    0.44
C21         25.78   20.56    7.17          52.47   26.99   29.46          39.95   47.50            0.40     0.36     0.16            0.39     0.18     0.25           0.45    0.50
C22         38.94   36.90   21.51          67.20   10.95   15.70          19.14   55.09            0.56     0.57     0.42            0.43     0.19     0.41           0.56    0.62
D1           4.31    4.64    2.46          25.69   -2.27    9.89          10.15   102.95            0.09     0.09     0.05            0.26     0.27     0.22           0.40    0.44
D2           4.20    4.48    1.40          25.19   -1.60   19.67          19.73   94.65            0.11     0.10     0.03            0.32     0.18     0.21           0.37    0.42
D3           3.92    4.25    0.70          24.47   -2.48   28.91          29.02   94.90            0.09     0.08     0.03            0.26     0.20     0.29           0.41    0.44
D4           3.95    4.27    0.41          24.54   -2.45   34.53          34.61   94.05            0.09     0.10     0.02            0.30     0.17     0.27           0.39    0.44
D5          16.23   17.16    8.55          48.46   -1.79   17.22          17.31   95.94            0.25     0.25     0.13            0.31     0.17     0.27           0.40    0.45
D6          16.94   17.89    4.51          49.36   -1.67   36.80          36.83   92.61            0.22     0.22     0.08            0.26     0.21     0.23           0.37    0.41
D7          16.86   17.89    2.24          49.37   -2.14   52.61          52.65   92.33            0.21     0.24     0.05            0.29     0.20     0.22           0.38    0.41
D8          17.05   18.41    0.97          49.99   -3.82   68.38          68.49   93.20            0.26     0.31     0.03            0.38     0.21     0.32           0.48    0.54
D9          44.83   47.34   23.45          74.41   -2.35   24.39          24.51   95.50            0.60     0.67     0.45            0.43     0.20     0.34           0.51    0.58
D10         46.15   48.54   13.51          75.16   -1.84   47.77          47.80   92.21            0.62     0.70     0.31            0.44     0.26     0.21           0.48    0.55
D11         44.60   47.09    6.41          74.24   -2.29   70.28          70.32   91.86            0.55     0.64     0.16            0.41     0.28     0.12           0.44    0.51
D12         44.40   47.98    1.97          74.81   -5.33   99.01          99.16   93.08            0.47     0.55     0.06            0.35     0.37     0.18           0.48    0.54
D13         53.53   63.33   59.47          83.62  -18.46   -7.55          19.95   202.25            0.39     0.44     0.21            0.23     0.24     0.29           0.38    0.44
D14         59.89   53.90   55.49          78.40   19.71  -12.45          23.31   327.72            0.41     0.56     0.25            0.33     0.48     0.48           0.60    0.75
D15         69.54   72.98   32.94          88.44   -1.78   32.80          32.85   93.10            0.40     0.58     0.48            0.28     0.36     0.39           0.52    0.60
D16         33.85   35.46   28.45          66.10   -1.18    1.32           1.78   132.89            0.44     0.45     0.40            0.35     0.15     0.42           0.48    0.57
D17         50.71   44.77   29.13          72.74   21.09   11.65          24.10   28.91            0.45     0.54     0.41            0.36     0.37     0.41           0.56    0.66
D18         49.16   59.62   33.07          81.63  -21.38   20.88          29.88   135.67            0.46     0.54     0.39            0.29     0.23     0.27           0.39    0.46
D19         40.71   43.06   52.23          71.60   -2.49  -20.69          20.84   263.14            0.39     0.46     0.22            0.31     0.24     0.45           0.50    0.59
D20         17.49   13.98    4.84          44.20   23.56   26.07          35.14   47.89            0.28     0.24     0.10            0.34     0.16     0.22           0.37    0.44
D21         25.39   24.91   15.45          56.99    5.85   11.43          12.84   62.87            0.42     0.43     0.31            0.42     0.16     0.28           0.47    0.53
D22         43.24   42.13   25.19          70.95    7.89   15.27          17.19   62.66            0.68     0.73     0.47            0.50     0.20     0.28           0.54    0.61
E1           5.63    6.41    3.39          30.42   -6.05   11.01          12.56   118.80            0.11     0.11     0.07            0.27     0.19     0.29           0.38    0.44
E2           5.08    6.41    2.26          30.41  -12.58   19.75          23.42   122.50            0.10     0.11     0.05            0.27     0.21     0.26           0.38    0.43
E3           4.43    6.07    1.12          29.60  -17.45   30.95          35.53   119.41            0.09     0.10     0.04            0.26     0.23     0.34           0.44    0.49
E4           4.06    6.11    0.62          29.69  -23.00   39.46          45.67   120.24            0.11     0.13     0.03            0.31     0.27     0.22           0.42    0.47
E5          24.67   27.95   14.57          59.84   -9.49   18.56          20.85   117.07            0.34     0.39     0.25            0.35     0.14     0.23           0.38    0.44
E6          21.91   27.06    8.82          59.03  -18.29   34.46          39.01   117.96            0.26     0.33     0.12            0.31     0.17     0.24           0.35    0.43
E7          20.24   27.99    5.01          59.88  -29.88   52.22          60.17   119.78            0.26     0.35     0.10            0.32     0.21     0.26           0.40    0.46
E8          19.37   30.00    2.61          61.65  -41.84   70.67          82.12   120.63            0.25     0.36     0.08            0.31     0.29     0.41           0.54    0.59
E9          43.53   47.79   31.17          74.69   -7.35   11.78          13.89   121.95            0.60     0.66     0.55            0.41     0.22     0.36           0.53    0.59
E10         39.73   45.84   24.09          73.44  -13.44   21.53          25.39   121.97            0.56     0.64     0.46            0.42     0.18     0.32           0.48    0.55
E11         38.36   46.38   19.01          73.79  -19.27   32.20          37.53   120.90            0.47     0.57     0.36            0.37     0.23     0.28           0.45    0.52
E12         35.71   47.60   11.71          74.57  -31.32   51.85          60.57   121.13            0.34     0.45     0.23            0.28     0.27     0.36           0.48    0.53
E13         49.10   59.97   58.61          81.82  -22.36   -9.79          24.41   203.64            0.34     0.40     0.20            0.22     0.25     0.24           0.36    0.41
E14         55.15   47.14   52.87          74.28   25.91  -16.77          30.87   327.09            0.44     0.59     0.28            0.37     0.55     0.53           0.72    0.85
E15         68.11   71.58   25.81          87.76   -1.96   43.15          43.20   92.61            0.39     0.59     0.37            0.28     0.40     0.38           0.56    0.62
E16         24.88   25.88   20.76          57.92   -0.32    1.20           1.25   104.77            0.45     0.48     0.35            0.46     0.15     0.29           0.45    0.56
E17         43.19   35.36   20.79          66.03   29.00   15.11          32.70   27.53            0.48     0.53     0.38            0.41     0.36     0.44           0.62    0.70
E18         43.46   55.00   25.91          79.04  -26.30   27.92          38.36   133.29            0.41     0.50     0.41            0.29     0.23     0.38           0.45    0.53
E19         32.68   34.37   48.71          65.26   -1.62  -27.67          27.72   266.64            0.35     0.42     0.22            0.33     0.31     0.46           0.55    0.64
E20         24.30   17.50    1.55          48.88   36.16   58.74          68.98   58.38            0.27     0.26     0.05            0.32     0.23     0.30           0.45    0.50
E21         20.76   17.91    4.19          49.39   17.84   38.68          42.60   65.24            0.34     0.31     0.11            0.38     0.14     0.35           0.47    0.53
E22         31.28   28.27   10.56          60.14   15.38   30.49          34.15   63.24            0.40     0.40     0.22            0.36     0.15     0.39           0.48    0.55
F1           3.51    4.36    3.03          24.83  -10.33    3.93          11.05   159.20            0.07     0.07     0.05            0.22     0.37     0.26           0.45    0.50
F2           2.73    4.22    2.47          24.37  -21.51    7.53          22.79   160.72            0.08     0.09     0.04            0.29     0.30     0.26           0.44    0.49
F3           2.48    4.41    2.20          25.00  -29.05   10.95          31.05   159.34            0.07     0.08     0.05            0.23     0.41     0.28           0.50    0.55
F4           1.63    4.28    1.65          24.58  -46.55   15.62          49.11   161.45            0.04     0.07     0.05            0.21     0.19     0.35           0.42    0.45
F5          11.47   14.58   10.11          45.05  -17.26    5.93          18.25   161.05            0.19     0.22     0.17            0.30     0.24     0.28           0.40    0.48
F6           8.77   13.83    7.88          43.99  -33.70   12.04          35.79   160.34            0.15     0.19     0.12            0.28     0.22     0.25           0.39    0.44
F7           7.32   14.18    6.77          44.50  -49.03   17.41          52.03   160.45            0.13     0.20     0.14            0.29     0.13     0.30           0.39    0.43
F8           6.08   14.67    5.70          45.18  -64.70   23.43          68.81   160.09            0.10     0.18     0.11            0.25     0.08     0.36           0.40    0.44
F9          28.89   33.31   24.67          64.41  -12.02    4.91          12.99   157.77            0.32     0.37     0.38            0.29     0.16     0.38           0.44    0.50
F10         25.42   32.46   21.75          63.72  -22.99    9.22          24.77   158.15            0.29     0.36     0.38            0.30     0.13     0.39           0.43    0.51
F11         23.17   33.42   21.03          64.49  -36.11   11.99          38.05   161.64            0.25     0.34     0.36            0.27     0.19     0.36           0.42    0.49
F12         20.11   34.39   18.16          65.27  -53.76   19.36          57.14   160.19            0.23     0.32     0.27            0.25     0.19     0.44           0.48    0.54
F13         43.50   55.46   57.36          79.30  -27.30  -12.85          30.18   205.20            0.31     0.38     0.23            0.21     0.21     0.24           0.34    0.38
F14         48.64   38.38   48.87          68.29   34.69  -22.62          41.42   326.90            0.41     0.51     0.33            0.38     0.53     0.57           0.76    0.86
F15         66.60   69.81   18.09          86.90   -1.57   56.84          56.86   91.58            0.32     0.51     0.27            0.25     0.38     0.40           0.55    0.61
F16         15.63   16.18   12.82          47.20    0.20    1.47           1.49   82.15            0.26     0.27     0.22            0.35     0.19     0.27           0.42    0.48
F17         34.06   24.71   12.03          56.79   39.69   20.24          44.55   27.03            0.37     0.37     0.23            0.36     0.29     0.36           0.54    0.59
F18         36.49   48.96   17.73          75.42  -32.42   37.85          49.84   130.58            0.34     0.45     0.29            0.28     0.23     0.41           0.50    0.54
F19         23.56   24.43   44.01          56.51    0.02  -37.17          37.17   270.02            0.23     0.26     0.14            0.26     0.28     0.38           0.46    0.53
