targets/wolf_faust/transmissive/F040218.it8
IT8.7/1
ORIGINATOR "Wolf Faust"
DESCRIPTOR "Fujichrome Provia/Astia/Sensia, Type 3, L* a* b* (light D50, viewing angle 2)"
MANUFACTURER "Wolf Faust - http://www.coloraid.de"
CREATED "March 28, 2004"
PROD_DATE "2004:03"
DIFFUSE_GEOMETRY "opal"
SERIAL "F040218 Batch Average Data"
MATERIAL "Fujichrome Provia 100F (RDP III)"
KEYWORD "MEAN_DE" # Mean Delta E of samples compared to batch average
NUMBER_OF_FIELDS 17
BEGIN_DATA_FORMAT
SAMPLE_ID   XYZ_X   XYZ_Y   XYZ_Z          LAB_L   LAB_A   LAB_B          LAB_C   LAB_H          STDEV_X  STDEV_Y  STDEV_Z          STDEV_L  STDEV_A  STDEV_B        MEAN_DE  STDEV_DE
END_DATA_FORMAT
NUMBER_OF_SETS 288
BEGIN_DATA
A1           2.28    1.96    1.38          15.25    8.90    2.74           9.31   17.12            0.06     0.05     0.04            0.28     0.18     0.18           0.34    0.38
A2           2.87    1.98    1.20          15.40   19.55    5.32          20.27   15.23            0.09     0.06     0.04            0.33     0.24     0.20           0.41    0.45 
A3           3.45    1.97    0.99          15.31   29.74    8.21          30.85   15.43            0.10     0.06     0.04            0.30     0.32     0.24           0.44    0.50
A4           4.28    1.98    0.78          15.39   41.76   11.84          43.40   15.83            0.13     0.06     0.03            0.33     0.37     0.30           0.52    0.58 
A5          10.41    9.04    6.43          36.06   13.72    4.34          14.39   17.58            0.22     0.17     0.17            0.33     0.28     0.34           0.50    0.55
A6          12.31    8.91    5.48          35.81   28.43    8.35          29.63   16.36            0.29     0.20     0.16            0.39     0.31     0.33           0.54    0.60 
A7          14.57    8.93    4.74          35.85   42.81   12.22          44.52   15.93            0.30     0.18     0.14            0.36     0.27     0.36           0.52    0.57
A8          17.52    8.92    3.99          35.82   59.80   16.47          62.03   15.40            0.10     0.07     0.12            0.14     0.07     0.53           0.46    0.56 
A9          30.74   30.16   23.16          61.79    6.26    3.19           7.03   27.00            0.54     0.51     0.47            0.44     0.30     0.35           0.58    0.64
A10         32.69   29.95   22.47          61.61   14.13    4.17          14.73   16.46            0.50     0.44     0.40            0.38     0.28     0.34           0.53    0.58
A11         34.81   29.76   21.23          61.45   22.19    6.34          23.08   15.94            0.52     0.45     0.40            0.39     0.23     0.31           0.49    0.55
A12         39.39   29.77   19.19          61.45   37.16   10.56          38.63   15.86            0.30     0.34     0.43            0.29     0.32     0.51           0.57    0.66 
A13         75.79   78.62   64.94          91.06   -0.03   -0.06           0.13   222.72            0.20     0.18     0.22            0.08     0.08     0.09           0.13    0.14
A14         75.47   77.00   64.69          90.32    2.51   -1.10           2.74   336.37            0.21     0.29     0.21            0.13     0.17     0.10           0.19    0.24 
A15         76.80   79.34   64.38          91.39    0.60    1.03           1.20   59.25            0.13     0.14     0.18            0.06     0.06     0.14           0.14    0.16
A16         75.95   78.81   65.01          91.15   -0.09    0.03           0.13   201.78            0.19     0.17     0.20            0.08     0.09     0.09           0.13    0.15
A17         76.49   78.80   64.60          91.14    1.03    0.41           1.11   21.41            0.15     0.16     0.19            0.07     0.05     0.11           0.13    0.14
A18         75.18   78.21   61.92          90.88   -0.47    2.53           2.57   100.45            0.19     0.17     0.24            0.08     0.10     0.14           0.17    0.19 
A19         74.11   76.04   64.24          89.88    1.63   -1.43           2.17   318.72            0.27     0.30     0.21            0.14     0.06     0.11           0.17    0.19
A20          2.01    1.23    0.48          10.78   22.05    9.47          24.00   23.24            0.05     0.04     0.02            0.26     0.25     0.34           0.44    0.50 
A21          5.91    3.12    0.45          20.53   39.64   26.88          47.90   34.14            0.14     0.08     0.02            0.29     0.33     0.40           0.52    0.59
A22         11.48    5.49    0.28          28.09   55.95   43.14          70.65   37.63            0.17     0.09     0.02            0.23     0.24     0.32           0.42    0.46
B1           3.53    3.16    1.79          20.68    7.91    7.44          10.86   43.25            0.10     0.09     0.06            0.35     0.12     0.26           0.39    0.45
B2           4.17    3.21    1.19          20.85   16.63   14.90          22.33   41.85            0.12     0.09     0.04            0.35     0.14     0.22           0.39    0.44
B3           4.67    3.11    0.70          20.48   24.99   22.07          33.34   41.44            0.12     0.08     0.02            0.31     0.26     0.31           0.46    0.51
B4           5.96    3.25    0.11          21.02   38.08   34.10          51.12   41.85            0.16     0.09     0.01            0.35     0.29     0.48           0.58    0.66
B5          13.23   11.97    6.86          41.17   11.44   11.28          16.07   44.59            0.26     0.22     0.17            0.35     0.26     0.31           0.49    0.53
B6          15.18   11.73    4.46          40.78   25.21   22.28          33.65   41.47            0.30     0.22     0.12            0.36     0.25     0.25           0.45    0.50
B7          17.73   11.95    2.85          41.14   38.03   33.40          50.61   41.29            0.34     0.24     0.08            0.38     0.22     0.20           0.40    0.48
B8          21.11   11.75    1.21          40.82   56.46   49.08          74.81   41.00            0.14     0.11     0.04            0.18     0.14     0.29           0.33    0.37
B9          36.56   36.52   27.36          66.91    4.51    4.54           6.41   45.20            0.58     0.55     0.46            0.41     0.27     0.31           0.52    0.58
B10         38.21   36.49   24.12          66.89    9.98   10.19          14.27   45.59            0.58     0.53     0.47            0.40     0.26     0.34           0.52    0.58
B11         39.39   35.78   21.61          66.35   16.04   14.04          21.32   41.20            0.56     0.51     0.45            0.39     0.21     0.41           0.54    0.60
B12         44.27   36.41   16.27          66.83   28.71   26.42          39.02   42.62            0.34     0.41     0.39            0.31     0.38     0.58           0.68    0.76
B13         65.14   69.85   59.15          86.92   -4.92   -1.54           5.15   197.39            0.47     0.42     0.33            0.20     0.22     0.07           0.26    0.31
B14         69.84   68.95   59.24          86.48    7.31   -2.40           7.70   341.86            0.36     0.47     0.36            0.23     0.25     0.16           0.31    0.37
B15         72.13   74.19   53.70          89.01    1.27    7.74           7.84   80.70            0.32     0.38     0.47            0.18     0.14     0.21           0.27    0.31
B16         60.49   62.93   51.80          83.40   -0.44    0.14           0.48   165.15            0.54     0.52     0.47            0.27     0.20     0.17           0.34    0.38
B17         68.28   67.69   52.72          85.85    6.66    3.36           7.46   26.77            0.38     0.46     0.44            0.23     0.20     0.17           0.30    0.35
B18         63.73   68.79   52.73          86.40   -5.85    4.29           7.26   143.79            0.53     0.50     0.47            0.25     0.19     0.12           0.29    0.33
B19         61.49   63.73   57.67          83.82    0.10   -5.38           5.38   271.06            0.60     0.62     0.38            0.32     0.19     0.21           0.38    0.43
B20          4.00    2.67    0.61          18.68   23.65   20.75          31.46   41.26            0.11     0.07     0.03            0.31     0.27     0.27           0.43    0.49
B21         11.00    5.35    0.33          27.70   54.12   41.49          68.20   37.47            0.20     0.10     0.02            0.28     0.26     0.33           0.42    0.51
B22         35.28   32.08   17.65          63.40   15.35   17.30          23.13   48.42            0.51     0.47     0.44            0.39     0.28     0.49           0.62    0.69
C1           6.65    6.54    3.57          30.74    3.54   10.40          10.99   71.20            0.15     0.15     0.11            0.35     0.14     0.22           0.39    0.43
C2           6.97    6.49    2.28          30.62    7.29   19.93          21.23   69.91            0.17     0.15     0.06            0.36     0.13     0.22           0.39    0.44
C3           7.48    6.48    1.19          30.59   12.36   31.63          33.96   68.66            0.17     0.14     0.03            0.34     0.18     0.34           0.46    0.51
C4           8.16    6.53    0.35          30.71   18.20   46.39          49.83   68.58            0.19     0.15     0.02            0.35     0.25     0.54           0.61    0.69
C5          25.06   24.55   12.39          56.64    5.97   18.94          19.86   72.49            0.45     0.41     0.28            0.40     0.25     0.29           0.51    0.55
C6          26.69   24.13    6.89          56.22   14.57   37.11          39.86   68.56            0.46     0.41     0.17            0.41     0.17     0.29           0.49    0.53
C7          28.67   24.07    3.38          56.16   22.68   55.44          59.90   67.75            0.44     0.38     0.08            0.38     0.13     0.28           0.44    0.49
C8          31.98   24.33    0.76          56.42   33.96   82.90          89.58   67.72            0.42     0.35     0.02            0.35     0.14     0.39           0.47    0.54
C9          42.60   43.36   30.09          71.79    2.40    8.48           8.82   74.20            0.59     0.56     0.52            0.38     0.22     0.31           0.49    0.54
C10         43.48   43.29   25.27          71.75    5.17   16.49          17.28   72.59            0.60     0.58     0.49            0.39     0.17     0.32           0.48    0.53
C11         44.54   43.11   21.06          71.63    8.79   24.23          25.77   70.06            0.58     0.56     0.47            0.38     0.18     0.47           0.57    0.63
C12         48.39   42.60    9.59          71.28   21.13   52.88          56.94   68.22            0.29     0.40     0.24            0.27     0.37     0.56           0.64    0.72
C13         57.71   64.85   57.73          84.41  -11.42   -4.43          12.25   201.21            0.55     0.47     0.36            0.24     0.30     0.10           0.34    0.40
C14         64.09   59.81   56.65          81.73   15.08   -7.93          17.04   332.28            0.42     0.53     0.36            0.29     0.32     0.19           0.37    0.47
C15         70.09   72.60   43.86          88.26    0.19   17.75          17.75   89.40            0.36     0.42     0.54            0.20     0.15     0.34           0.36    0.42
C16         46.61   48.64   39.95          75.23   -0.83    0.25           0.87   163.18            0.72     0.73     0.60            0.46     0.21     0.10           0.45    0.51
C17         60.27   56.62   41.34          79.97   13.85    6.62          15.36   25.55            0.45     0.54     0.56            0.31     0.29     0.32           0.46    0.53
C18         54.57   62.37   42.72          83.11  -13.60   10.29          17.06   142.89            0.55     0.51     0.48            0.27     0.28     0.20           0.37    0.43
C19         48.78   50.52   53.38          76.38    0.19  -13.69          13.69   270.77            0.65     0.67     0.41            0.40     0.31     0.29           0.51    0.58
C20          2.90    2.36    0.91          17.27   12.06   12.80          17.59   46.71            0.08     0.06     0.03            0.30     0.21     0.25           0.41    0.45
C21         28.63   23.32    7.95          55.40   25.83   31.41          40.66   50.57            0.39     0.32     0.18            0.32     0.20     0.41           0.50    0.56
C22         42.40   41.32   23.91          70.40    7.81   16.62          18.37   64.83            0.56     0.55     0.51            0.38     0.23     0.43           0.57    0.62
D1           4.42    4.69    2.51          25.84   -1.38    9.70           9.79   98.08            0.11     0.12     0.08            0.35     0.08     0.25           0.38    0.44
D2           4.28    4.55    1.58          25.41   -1.40   17.89          17.95   94.49            0.12     0.12     0.05            0.37     0.16     0.26           0.42    0.48
D3           4.31    4.60    0.91          25.56   -1.79   27.22          27.28   93.75            0.11     0.12     0.03            0.36     0.12     0.25           0.39    0.45
D4           4.32    4.65    0.38          25.71   -2.19   37.09          37.16   93.38            0.13     0.14     0.02            0.41     0.14     0.53           0.60    0.69
D5          18.47   19.50    9.88          51.27   -1.76   17.42          17.51   95.77            0.39     0.38     0.26            0.43     0.23     0.28           0.51    0.56
D6          18.26   19.48    5.33          51.24   -2.71   35.68          35.78   94.34            0.36     0.36     0.14            0.42     0.16     0.18           0.44    0.48
D7          18.00   19.25    2.64          50.97   -2.91   52.00          52.08   93.21            0.33     0.34     0.07            0.40     0.19     0.30           0.48    0.53
D8          17.81   19.06    0.93          50.75   -2.98   70.31          70.37   92.43            0.33     0.34     0.02            0.40     0.23     0.40           0.54    0.61
D9          47.72   50.20   25.44          76.19   -1.87   23.86          23.93   94.48            0.62     0.62     0.54            0.38     0.15     0.39           0.49    0.56
D10         47.41   50.16   14.50          76.16   -2.64   46.90          46.97   93.22            0.65     0.67     0.39            0.41     0.13     0.45           0.53    0.62
D11         46.75   49.74    7.31          75.91   -3.37   69.32          69.40   92.79            0.63     0.65     0.20            0.40     0.14     0.33           0.47    0.54
D12         46.37   48.80    2.14          75.32   -1.92   98.23          98.25   91.12            0.57     0.49     0.04            0.30     0.35     0.35           0.50    0.58
D13         51.03   60.10   56.37          81.89  -17.51   -7.36          18.99   202.80            0.61     0.55     0.39            0.30     0.33     0.13           0.36    0.46
D14         58.27   50.98   53.82          76.66   23.30  -13.67          27.02   329.60            0.71     0.77     0.64            0.46     0.42     0.24           0.52    0.67
D15         68.33   71.10   35.52          87.53   -0.49   27.50          27.51   91.02            0.37     0.44     0.54            0.21     0.16     0.43           0.42    0.50
D16         35.20   36.76   30.32          67.09   -0.82    0.03           0.84   179.24            0.74     0.75     0.65            0.56     0.25     0.18           0.57    0.64
D17         52.27   45.90   31.33          73.48   22.00    9.45          23.95   23.25            0.66     0.70     0.72            0.45     0.35     0.41           0.61    0.71
D18         47.07   56.84   34.62          80.09  -20.49   15.95          25.97   142.10            0.63     0.58     0.54            0.33     0.34     0.28           0.46    0.55
D19         38.37   39.50   49.55          69.11    0.88  -21.99          22.01   272.29            0.76     0.79     0.63            0.56     0.35     0.36           0.69    0.75
D20         18.27   15.05    5.31          45.70   21.18   26.23          33.72   51.08            0.41     0.33     0.15            0.45     0.26     0.32           0.55    0.61
D21         28.94   28.79   17.62          60.59    4.61   12.54          13.36   69.79            0.57     0.56     0.45            0.50     0.28     0.42           0.63    0.70
D22         46.19   46.41   27.75          73.81    4.11   15.77          16.30   75.38            0.67     0.71     0.59            0.46     0.24     0.43           0.60    0.67
E1           5.74    6.51    3.62          30.67   -5.99    9.94          11.60   121.09            0.14     0.15     0.10            0.36     0.15     0.20           0.40    0.44
E2           5.18    6.42    2.34          30.44  -11.50   19.06          22.26   121.10            0.14     0.16     0.08            0.39     0.17     0.22           0.43    0.48
E3           4.83    6.51    1.42          30.66  -16.86   28.83          33.40   120.31            0.12     0.16     0.04            0.37     0.16     0.22           0.41    0.46
E4           4.35    6.55    0.60          30.76  -23.62   41.80          48.01   119.47            0.11     0.15     0.02            0.37     0.25     0.38           0.54    0.59
E5          26.06   29.89   16.04          61.56  -11.04   17.87          21.01   121.72            0.50     0.53     0.40            0.45     0.25     0.30           0.54    0.60
E6          23.32   29.08    9.88          60.85  -19.74   33.94          39.26   120.18            0.38     0.43     0.23            0.38     0.18     0.27           0.45    0.50
E7          21.27   29.22    5.47          60.97  -29.68   51.79          59.70   119.82            0.30     0.39     0.13            0.35     0.13     0.17           0.36    0.41
E8          18.76   28.64    2.22          60.46  -39.84   71.92          82.22   118.98            0.18     0.21     0.03            0.18     0.18     0.14           0.26    0.29
E9          46.19   50.44   33.79          76.34   -6.77   10.69          12.65   122.35            0.62     0.62     0.58            0.38     0.23     0.27           0.46    0.52
E10         43.85   50.19   26.49          76.19  -12.87   22.00          25.49   120.33            0.67     0.69     0.58            0.42     0.22     0.44           0.57    0.65
E11         41.67   49.88   20.66          75.99  -18.50   32.55          37.45   119.61            0.58     0.59     0.47            0.36     0.26     0.49           0.58    0.66
E12         38.86   49.45   14.12          75.73  -26.08   47.12          53.86   118.96            0.49     0.49     0.36            0.30     0.28     0.52           0.58    0.66
E13         45.06   55.62   55.20          79.40  -23.18  -10.43          25.42   204.24            0.55     0.52     0.41            0.30     0.31     0.10           0.35    0.44
E14         51.74   41.89   50.12          70.80   32.19  -19.72          37.75   328.50            0.47     0.57     0.40            0.39     0.47     0.26           0.50    0.66
E15         66.78   69.65   27.65          86.83   -0.83   38.39          38.39   91.24            0.34     0.41     0.54            0.20     0.16     0.59           0.54    0.64
E16         25.46   26.54   21.60          58.54   -0.56    0.59           0.86   132.09            0.52     0.52     0.49            0.48     0.31     0.27           0.58    0.63
E17         43.69   35.23   21.30          65.93   30.88   13.93          33.88   24.28            0.39     0.44     0.52            0.34     0.34     0.55           0.65    0.73
E18         40.24   51.50   26.77          76.98  -27.13   22.89          35.50   139.85            0.64     0.65     0.59            0.39     0.34     0.41           0.59    0.66
E19         28.99   29.37   45.19          61.11    2.61  -30.68          30.79   274.86            0.51     0.54     0.40            0.47     0.36     0.35           0.61    0.69
E20         26.22   18.77    1.47          50.42   37.66   62.30          72.79   58.85            0.42     0.34     0.05            0.40     0.18     0.20           0.43    0.48
E21         23.12   20.35    4.88          52.22   16.55   39.72          43.03   67.38            0.43     0.39     0.14            0.43     0.19     0.26           0.48    0.54
E22         35.22   32.20   11.70          63.50   14.72   32.80          35.96   65.82            0.60     0.60     0.33            0.50     0.28     0.34           0.59    0.66
F1           3.64    4.48    3.18          25.19   -9.92    3.48          10.51   160.67            0.10     0.12     0.11            0.38     0.15     0.24           0.43    0.47
F2           3.02    4.55    2.74          25.41  -20.82    7.11          22.00   161.15            0.09     0.12     0.09            0.37     0.16     0.22           0.42    0.46
F3           2.56    4.61    2.40          25.60  -30.16   10.26          31.86   161.22            0.06     0.11     0.08            0.34     0.25     0.20           0.43    0.46
F4           1.77    4.55    1.81          25.41  -46.68   15.46          49.17   161.68            0.04     0.10     0.06            0.31     0.30     0.26           0.46    0.50
F5          12.13   15.41   10.90          46.19  -17.53    5.39          18.34   162.92            0.25     0.29     0.28            0.40     0.14     0.26           0.45    0.49
F6           9.76   15.21    9.00          45.92  -33.88   11.22          35.69   161.68            0.20     0.28     0.24            0.38     0.15     0.28           0.44    0.49
F7           7.90   15.27    7.48          46.00  -50.05   17.05          52.87   161.19            0.15     0.25     0.20            0.34     0.17     0.27           0.42    0.47
F8           6.29   15.03    6.22          45.68  -64.53   21.88          68.13   161.27            0.09     0.19     0.16            0.26     0.18     0.32           0.39    0.45
F9          31.01   35.80   27.46          66.36  -12.47    3.41          12.93   164.70            0.54     0.56     0.57            0.43     0.23     0.31           0.50    0.58
F10         27.81   35.79   24.62          66.36  -24.66    8.37          26.05   161.26            0.45     0.51     0.54            0.39     0.26     0.44           0.57    0.64
F11         24.71   35.34   22.53          66.01  -35.88   11.66          37.73   162.00            0.38     0.43     0.50            0.33     0.27     0.47           0.56    0.64
F12         20.97   35.02   19.28          65.77  -51.78   17.81          54.76   161.02            0.27     0.30     0.48            0.23     0.28     0.65           0.62    0.74
F13         39.75   51.42   54.05          76.93  -28.43  -13.46          31.46   205.34            0.41     0.40     0.32            0.24     0.26     0.11           0.30    0.37
F14         45.65   34.03   46.24          64.99   40.62  -25.25          47.83   328.13            0.40     0.45     0.38            0.36     0.40     0.21           0.46    0.58
F15         65.33   68.05   21.08          86.03   -0.64   49.02          49.03   90.75            0.30     0.38     0.45            0.19     0.17     0.62           0.57    0.67
F16         17.84   18.57   15.23          50.18   -0.37    0.25           0.57   144.27            0.38     0.35     0.40            0.42     0.31     0.42           0.60    0.67
F17         36.42   26.79   13.97          58.78   39.12   18.31          43.19   25.07            0.29     0.29     0.40            0.27     0.23     0.65           0.66    0.74
F18         34.19   46.54   20.48          73.89  -33.56   29.30          44.55   138.88            0.50     0.50     0.49            0.32     0.36     0.49           0.62    0.68
F19         21.80   21.72   41.37          53.72    4.08  -38.67          38.88   276.03            0.36     0.38     0.34            0.41     0.31     0.28           0.53    0.59
