targets/wolf_faust/transmissive/F040425.it8
IT8.7/1
ORIGINATOR "Wolf Faust"
DESCRIPTOR "Fujichrome Provia/Astia/Sensia, Type 3, L* a* b* (light D50, viewing angle 2)"
MANUFACTURER "Wolf Faust - http://www.coloraid.de"
CREATED "May 17, 2004"
PROD_DATE "2004:05"
DIFFUSE_GEOMETRY "opal"
SERIAL "F040425 Batch Average Data"
MATERIAL "Fujichrome Provia 100F (RDP III)"
KEYWORD "MEAN_DE" # Mean Delta E of samples compared to batch average
NUMBER_OF_FIELDS 17
BEGIN_DATA_FORMAT
SAMPLE_ID   XYZ_X   XYZ_Y   XYZ_Z          LAB_L   LAB_A   LAB_B          LAB_C   LAB_H          STDEV_X  STDEV_Y  STDEV_Z          STDEV_L  STDEV_A  STDEV_B        MEAN_DE  STDEV_DE
END_DATA_FORMAT
NUMBER_OF_SETS 288
BEGIN_DATA
A1           2.41    2.05    1.43          15.73    9.44    2.94           9.89   17.31            0.05     0.05     0.05            0.23     0.23     0.28           0.38    0.43
A2           3.01    2.04    1.23          15.71   20.69    5.46          21.40   14.80            0.06     0.05     0.05            0.24     0.20     0.31           0.39    0.44 
A3           3.58    2.03    1.01          15.62   30.56    8.38          31.69   15.34            0.07     0.04     0.04            0.22     0.25     0.27           0.36    0.43
A4           4.34    2.02    0.81          15.59   41.69   11.69          43.30   15.66            0.08     0.04     0.03            0.20     0.29     0.32           0.40    0.48 
A5          10.57    9.14    6.47          36.24   14.10    4.50          14.81   17.66            0.22     0.20     0.25            0.38     0.19     0.58           0.65    0.72
A6          12.67    9.15    5.61          36.27   28.86    8.51          30.09   16.42            0.23     0.18     0.18            0.33     0.24     0.51           0.58    0.66 
A7          14.90    9.04    4.74          36.07   43.85   12.60          45.62   16.03            0.28     0.19     0.18            0.36     0.23     0.46           0.54    0.62
A8          17.15    8.74    3.94          35.49   59.24   16.20          61.42   15.30            0.11     0.07     0.14            0.14     0.07     0.64           0.55    0.66 
A9          31.22   30.63   23.68          62.19    6.27    2.91           6.93   24.89            0.47     0.48     0.48            0.41     0.41     0.40           0.65    0.70
A10         33.15   30.29   22.88          61.90   14.50    3.90          15.01   15.04            0.52     0.52     0.49            0.45     0.36     0.41           0.65    0.71
A11         35.31   30.40   21.83          61.99   21.53    6.09          22.38   15.78            0.53     0.52     0.49            0.45     0.34     0.43           0.65    0.71
A12         39.31   29.84   19.36          61.51   36.66   10.29          38.08   15.68            0.37     0.43     0.45            0.37     0.43     0.45           0.65    0.73 
A13         71.54   75.75   63.91          89.75   -3.15   -1.35           3.43   203.14            0.34     0.31     0.21            0.14     0.16     0.16           0.24    0.26
A14         74.73   75.93   64.18          89.83    3.14   -1.46           3.46   335.08            0.26     0.32     0.22            0.15     0.15     0.19           0.26    0.28 
A15         75.48   78.22   59.40          90.88    0.14    5.03           5.04   88.45            0.25     0.25     0.33            0.12     0.04     0.19           0.21    0.23
A16         75.68   78.48   64.78          91.00    0.01   -0.02           0.15   200.37            0.25     0.26     0.20            0.12     0.08     0.15           0.19    0.21
A17         73.58   74.79   60.28          89.30    3.06    1.43           3.38   25.04            0.32     0.38     0.30            0.18     0.15     0.12           0.23    0.26
A18         70.31   74.88   58.27          89.34   -4.00    3.52           5.33   138.62            0.32     0.30     0.28            0.14     0.17     0.14           0.24    0.26 
A19         70.93   73.44   63.27          88.66    0.25   -2.61           2.62   275.45            0.35     0.37     0.22            0.17     0.12     0.18           0.25    0.28
A20          6.29    2.90    1.70          19.62   47.72    6.64          48.18    7.93            0.11     0.05     0.06            0.21     0.27     0.48           0.48    0.59 
A21         27.84   19.77   15.43          51.57   39.23    2.14          39.29    3.12            0.38     0.34     0.38            0.39     0.31     0.44           0.58    0.66
A22         55.19   51.30   34.04          76.86   14.89   11.23          18.65   37.02            0.42     0.53     0.47            0.32     0.38     0.31           0.50    0.58
B1           3.61    3.23    1.82          20.95    8.05    7.62          11.09   43.41            0.08     0.07     0.07            0.28     0.21     0.24           0.39    0.43
B2           4.27    3.24    1.15          20.99   17.52   15.63          23.48   41.74            0.08     0.06     0.03            0.23     0.16     0.16           0.28    0.32
B3           4.82    3.19    0.70          20.80   25.64   22.67          34.22   41.48            0.09     0.07     0.03            0.26     0.19     0.25           0.35    0.41
B4           5.88    3.24    0.16          20.98   37.42   33.18          50.02   41.56            0.13     0.07     0.02            0.27     0.26     0.19           0.35    0.42
B5          13.73   12.30    7.08          41.69   12.44   11.29          16.80   42.20            0.28     0.27     0.23            0.42     0.27     0.46           0.61    0.68
B6          15.74   12.16    4.60          41.47   25.56   22.66          34.16   41.56            0.29     0.25     0.15            0.40     0.26     0.37           0.54    0.60
B7          18.01   12.19    2.87          41.52   37.87   33.93          50.85   41.85            0.29     0.23     0.10            0.35     0.27     0.34           0.51    0.56
B8          20.92   11.72    1.24          40.76   55.79   48.58          73.98   41.05            0.15     0.13     0.04            0.20     0.19     0.29           0.35    0.40
B9          36.39   36.40   26.82          66.82    4.33    5.29           6.84   50.74            0.62     0.65     0.56            0.49     0.33     0.31           0.61    0.67
B10         38.35   36.55   24.27          66.94   10.21   10.00          14.29   44.41            0.60     0.67     0.59            0.50     0.43     0.40           0.70    0.77
B11         39.91   36.54   21.81          66.92   15.18   14.63          21.08   43.94            0.55     0.56     0.48            0.43     0.34     0.41           0.62    0.69
B12         44.09   36.38   16.17          66.80   28.29   26.62          38.85   43.25            0.41     0.50     0.45            0.38     0.48     0.60           0.76    0.86
B13         63.76   68.65   58.74          86.33   -5.48   -2.15           5.88   201.43            0.38     0.38     0.28            0.19     0.20     0.15           0.29    0.31
B14         69.43   68.32   58.98          86.17    7.79   -2.67           8.24   341.10            0.34     0.45     0.30            0.22     0.25     0.21           0.33    0.40
B15         71.61   73.49   52.57          88.68    1.59    8.39           8.55   79.25            0.25     0.30     0.34            0.14     0.14     0.20           0.26    0.28
B16         59.00   61.57   50.75          82.68   -0.86    0.06           0.87   176.84            0.51     0.54     0.47            0.29     0.25     0.15           0.38    0.41
B17         67.65   66.83   51.71          85.42    7.15    3.71           8.06   27.44            0.30     0.42     0.34            0.21     0.27     0.18           0.32    0.38
B18         62.39   67.65   51.74          85.83   -6.46    4.39           7.81   145.77            0.38     0.39     0.41            0.19     0.19     0.16           0.29    0.32
B19         60.35   62.71   57.42          83.29   -0.28   -6.04           6.05   267.27            0.34     0.38     0.23            0.20     0.32     0.19           0.38    0.43
B20          5.34    3.24    1.07          21.00   31.15   16.76          35.37   28.28            0.09     0.06     0.04            0.24     0.13     0.33           0.38    0.42
B21         17.78   11.96    4.34          41.16   38.25   23.60          44.94   31.67            0.27     0.21     0.15            0.34     0.26     0.38           0.51    0.57
B22         35.17   30.21   18.23          61.83   21.77   13.30          25.51   31.41            0.47     0.48     0.44            0.41     0.39     0.39           0.61    0.69
C1           6.87    6.78    3.65          31.29    3.47   10.81          11.36   72.21            0.12     0.13     0.13            0.31     0.28     0.36           0.50    0.55
C2           7.32    6.71    2.33          31.14    8.46   20.42          22.11   67.49            0.13     0.13     0.08            0.30     0.25     0.28           0.44    0.48
C3           7.89    6.80    1.29          31.35   12.99   31.66          34.22   67.69            0.14     0.13     0.04            0.30     0.15     0.17           0.33    0.38
C4           8.48    6.76    0.42          31.24   18.70   45.88          49.54   67.82            0.16     0.14     0.02            0.33     0.21     0.24           0.41    0.46
C5          25.28   24.86   12.62          56.94    5.64   18.81          19.64   73.30            0.45     0.46     0.41            0.45     0.32     0.55           0.68    0.78
C6          27.29   24.68    6.87          56.76   14.66   38.12          40.85   68.97            0.42     0.43     0.20            0.42     0.40     0.37           0.61    0.69
C7          29.30   24.75    3.42          56.83   22.19   56.36          60.57   68.51            0.34     0.35     0.10            0.35     0.38     0.25           0.48    0.57
C8          31.76   24.55    0.92          56.64   32.21   80.51          86.71   68.19            0.35     0.36     0.03            0.36     0.37     0.31           0.52    0.60
C9          42.95   43.80   30.45          72.09    2.16    8.44           8.72   75.66            0.64     0.68     0.63            0.46     0.39     0.32           0.63    0.68
C10         43.99   43.83   25.65          72.11    5.12   16.43          17.22   72.70            0.61     0.67     0.56            0.45     0.35     0.34           0.60    0.66
C11         45.08   43.76   21.40          72.07    8.45   24.30          25.73   70.82            0.55     0.60     0.48            0.40     0.33     0.40           0.59    0.66
C12         48.70   43.20    9.75          71.69   20.19   53.05          56.77   69.16            0.37     0.52     0.29            0.35     0.53     0.48           0.71    0.80
C13         57.24   64.26   57.47          84.10  -11.25   -4.69          12.19   202.66            0.38     0.38     0.28            0.19     0.23     0.13           0.30    0.33
C14         64.18   59.98   56.66          81.83   14.88   -7.77          16.78   332.42            0.40     0.55     0.30            0.30     0.40     0.29           0.46    0.58
C15         69.67   71.98   43.18          87.96    0.55   18.08          18.09   88.26            0.27     0.34     0.41            0.16     0.13     0.27           0.32    0.34
C16         46.46   48.55   39.84          75.17   -1.00    0.29           1.07   164.38            0.55     0.58     0.58            0.37     0.37     0.28           0.54    0.59
C17         59.92   56.22   40.94          79.74   14.02    6.74          15.55   25.68            0.38     0.51     0.49            0.29     0.38     0.24           0.47    0.54
C18         54.26   61.92   42.29          82.87  -13.38   10.42          16.96   142.09            0.40     0.39     0.48            0.21     0.20     0.28           0.37    0.41
C19         49.07   50.86   53.58          76.59    0.08  -13.54          13.55   270.33            0.52     0.60     0.38            0.37     0.42     0.26           0.54    0.62
C20         12.93    9.49    1.18          36.92   27.80   42.72          50.97   56.95            0.17     0.14     0.03            0.27     0.28     0.15           0.37    0.41
C21         23.43   21.81   11.81          53.82   11.03   15.77          19.25   55.03            0.37     0.39     0.30            0.42     0.38     0.35           0.59    0.67
C22         28.82   24.58   11.51          56.66   21.11   21.56          30.17   45.61            0.42     0.43     0.35            0.42     0.40     0.41           0.61    0.71
D1           4.56    4.78    2.57          26.09   -0.61    9.62           9.65   93.64            0.09     0.11     0.09            0.31     0.27     0.27           0.44    0.50
D2           4.56    4.85    1.67          26.31   -1.55   18.44          18.51   94.80            0.08     0.10     0.06            0.29     0.23     0.21           0.37    0.43
D3           4.58    4.84    0.91          26.28   -1.22   28.43          28.46   92.45            0.08     0.10     0.03            0.28     0.23     0.18           0.35    0.41
D4           4.49    4.80    0.45          26.17   -1.87   36.69          36.74   92.92            0.09     0.11     0.02            0.33     0.30     0.28           0.47    0.53
D5          19.02   20.03   10.10          51.87   -1.48   17.75          17.81   94.79            0.35     0.38     0.33            0.43     0.32     0.50           0.65    0.74
D6          18.66   19.81    5.43          51.62   -2.28   35.84          35.92   93.64            0.31     0.35     0.17            0.40     0.35     0.36           0.56    0.64
D7          18.48   19.79    2.63          51.60   -3.10   53.12          53.21   93.34            0.30     0.35     0.10            0.40     0.35     0.19           0.49    0.56
D8          18.50   19.82    1.07          51.63   -3.13   69.58          69.66   92.57            0.29     0.33     0.04            0.38     0.32     0.15           0.45    0.52
D9          48.46   50.98   26.32          76.67   -1.91   23.13          23.21   94.72            0.64     0.69     0.62            0.42     0.30     0.44           0.62    0.67
D10         47.90   50.71   14.97          76.50   -2.73   46.27          46.35   93.37            0.54     0.60     0.41            0.37     0.28     0.45           0.58    0.65
D11         47.43   50.47    7.46          76.36   -3.40   69.48          69.56   92.80            0.39     0.45     0.17            0.28     0.28     0.32           0.45    0.51
D12         46.82   49.43    2.51          75.72   -2.35   95.68          95.71   91.41            0.37     0.38     0.06            0.24     0.18     0.18           0.32    0.35
D13         50.92   59.80   56.20          81.73  -17.10   -7.46          18.65   203.58            0.35     0.34     0.27            0.18     0.23     0.11           0.29    0.31
D14         58.17   51.02   53.66          76.69   22.96  -13.46          26.62   329.62            0.45     0.60     0.34            0.37     0.50     0.34           0.59    0.71
D15         67.82   70.39   34.60          87.19   -0.12   28.23          28.23   90.25            0.27     0.32     0.44            0.16     0.12     0.42           0.39    0.46
D16         34.90   36.45   29.90          66.86   -0.83    0.29           0.95   156.89            0.55     0.56     0.61            0.43     0.39     0.32           0.61    0.66
D17         51.60   45.21   30.62          73.03   22.18    9.80          24.25   23.83            0.37     0.49     0.53            0.32     0.42     0.38           0.57    0.65
D18         46.64   56.24   33.71          79.75  -20.24   16.70          26.24   140.48            0.31     0.31     0.45            0.18     0.27     0.44           0.48    0.54
D19         38.38   39.52   49.46          69.12    0.88  -21.87          21.89   272.31            0.45     0.53     0.33            0.38     0.46     0.32           0.59    0.68
D20          3.26    3.23    1.15          20.94    2.37   15.63          15.81   81.38            0.06     0.07     0.03            0.25     0.25     0.31           0.43    0.47
D21         32.38   29.94    1.55          61.60   13.04   80.60          81.64   80.81            0.34     0.35     0.04            0.30     0.39     0.17           0.45    0.52
D22         42.92   46.32   51.89          73.75   -5.10  -16.60          17.37   252.93            0.45     0.52     0.30            0.34     0.40     0.31           0.52    0.61
E1           5.89    6.69    3.69          31.08   -5.98   10.20          11.83   120.40            0.11     0.13     0.14            0.31     0.18     0.39           0.46    0.53
E2           5.54    6.82    2.49          31.40  -11.39   19.43          22.53   120.39            0.10     0.12     0.08            0.29     0.19     0.24           0.38    0.42
E3           5.12    6.86    1.43          31.49  -16.76   30.15          34.49   119.07            0.08     0.12     0.06            0.28     0.24     0.27           0.39    0.46
E4           4.56    6.81    0.67          31.37  -23.33   41.43          47.55   119.39            0.07     0.11     0.03            0.26     0.24     0.19           0.36    0.41
E5          26.37   30.17   16.27          61.80  -10.83   17.75          20.80   121.40            0.41     0.46     0.46            0.40     0.32     0.55           0.67    0.75
E6          24.09   30.02   10.04          61.67  -19.89   34.83          40.12   119.73            0.34     0.41     0.30            0.35     0.28     0.51           0.62    0.68
E7          21.78   29.74    5.50          61.43  -29.22   52.41          60.01   119.14            0.28     0.37     0.15            0.32     0.32     0.34           0.52    0.57
E8          19.17   28.94    2.28          60.73  -38.93   71.85          81.72   118.45            0.17     0.21     0.05            0.18     0.16     0.23           0.30    0.34
E9          46.49   50.76   33.97          76.53   -6.79   10.77          12.74   122.22            0.53     0.58     0.59            0.35     0.31     0.35           0.55    0.59
E10         44.15   50.48   26.70          76.36  -12.73   21.94          25.37   120.12            0.47     0.51     0.55            0.31     0.26     0.50           0.58    0.64
E11         42.10   50.18   20.63          76.18  -18.03   32.95          37.56   118.69            0.38     0.41     0.44            0.25     0.23     0.53           0.55    0.63
E12         39.83   50.10   15.13          76.13  -24.75   45.24          51.57   118.69            0.33     0.34     0.31            0.21     0.20     0.54           0.51    0.61
E13         45.28   55.58   55.05          79.37  -22.45  -10.31          24.71   204.67            0.37     0.37     0.30            0.21     0.23     0.09           0.29    0.32
E14         52.25   42.72   50.35          71.36   31.06  -19.01          36.41   328.53            0.39     0.50     0.32            0.34     0.49     0.33           0.57    0.68
E15         66.44   69.10   27.89          86.55   -0.41   37.50          37.51   90.63            0.27     0.33     0.47            0.16     0.14     0.55           0.50    0.59
E16         25.82   26.95   22.59          58.93   -0.69   -0.66           1.01   221.74            0.44     0.48     0.52            0.44     0.32     0.37           0.61    0.66
E17         43.90   35.57   22.30          66.19   30.40   12.40          32.83   22.19            0.33     0.40     0.43            0.31     0.41     0.44           0.61    0.68
E18         40.31   51.36   27.30          76.90  -26.55   21.85          34.39   140.55            0.41     0.38     0.48            0.23     0.34     0.44           0.52    0.60
E19         29.63   30.20   45.57          61.82    1.98  -29.91          29.98   273.78            0.36     0.45     0.33            0.39     0.46     0.34           0.57    0.69
E20          7.63    8.98    1.48          35.94   -9.25   37.23          38.36   103.96            0.11     0.15     0.04            0.28     0.31     0.27           0.45    0.50
E21         26.34   31.40    6.77          62.84  -15.43   49.04          51.41   107.46            0.34     0.42     0.17            0.35     0.36     0.20           0.45    0.54
E22          9.39   19.58   14.57          51.36  -60.29    3.94          60.43   176.26            0.10     0.17     0.33            0.20     0.17     0.55           0.50    0.61
F1           3.85    4.74    3.43          25.99  -10.11    3.11          10.59   162.88            0.08     0.11     0.13            0.31     0.19     0.36           0.44    0.51
F2           3.22    4.79    2.90          26.13  -20.64    7.13          21.84   160.93            0.07     0.10     0.11            0.30     0.21     0.38           0.43    0.53
F3           2.72    4.86    2.50          26.34  -30.30   10.65          32.12   160.63            0.05     0.10     0.09            0.29     0.29     0.30           0.39    0.50
F4           1.84    4.76    1.87          26.03  -47.51   15.92          50.11   161.48            0.03     0.07     0.06            0.20     0.27     0.32           0.42    0.47
F5          12.47   15.81   11.18          46.72  -17.51    5.44          18.35   162.75            0.20     0.25     0.36            0.33     0.22     0.58           0.62    0.70
F6           9.76   15.35    8.89          46.11  -34.65   11.92          36.64   161.02            0.18     0.27     0.30            0.36     0.27     0.53           0.62    0.70
F7           8.09   15.65    7.64          46.51  -50.51   17.30          53.39   161.09            0.11     0.20     0.24            0.27     0.23     0.56           0.57    0.66
F8           6.38   15.17    6.28          45.87  -64.46   21.92          68.09   161.22            0.07     0.14     0.18            0.19     0.12     0.64           0.54    0.67
F9          31.42   36.23   26.90          66.69  -12.36    4.93          13.31   158.26            0.43     0.49     0.53            0.37     0.36     0.42           0.63    0.67
F10         27.84   35.82   25.03          66.38  -24.61    7.66          25.78   162.72            0.33     0.37     0.51            0.29     0.31     0.51           0.61    0.66
F11         25.04   35.65   22.49          66.25  -35.56   12.15          37.58   161.14            0.26     0.33     0.46            0.25     0.19     0.55           0.55    0.64
F12         21.04   34.93   19.53          65.70  -51.11   17.14          53.91   161.46            0.21     0.29     0.43            0.23     0.23     0.70           0.67    0.77
F13         39.85   51.31   53.84          76.86  -27.84  -13.36          30.88   205.63            0.29     0.30     0.27            0.18     0.23     0.07           0.27    0.30
F14         46.01   34.65   46.46          65.47   39.56  -24.67          46.62   328.05            0.34     0.43     0.30            0.33     0.51     0.36           0.58    0.71
F15         64.92   67.47   20.65          85.74   -0.30   49.38          49.38   90.35            0.24     0.32     0.38            0.16     0.16     0.56           0.49    0.60
F16         17.96   18.80   15.29          50.45   -0.85    0.55           1.10   148.42            0.31     0.33     0.40            0.39     0.35     0.47           0.63    0.70
F17         36.43   26.97   14.12          58.95   38.41   18.19          42.50   25.34            0.29     0.32     0.33            0.30     0.40     0.49           0.60    0.70
F18         34.10   46.24   20.20          73.70  -33.07   29.56          44.35   138.21            0.33     0.35     0.34            0.23     0.28     0.42           0.47    0.55
F19         22.30   22.40   41.72          54.45    3.25  -37.86          38.00   274.91            0.22     0.27     0.27            0.28     0.49     0.36           0.56    0.67
