targets/wolf_faust/transmissive/F040512.it8
IT8.7/1
ORIGINATOR "Wolf Faust"
DESCRIPTOR "Fujichrome Provia/Astia/Sensia, Type 3, L* a* b* (light D50, viewing angle 2)"
MANUFACTURER "Wolf Faust - http://www.coloraid.de"
CREATED "May 17, 2004"
PROD_DATE "2004:05"
DIFFUSE_GEOMETRY "opal"
SERIAL "F040512 Batch Average Data"
MATERIAL "Fujichrome Provia 100F (RDP III)"
KEYWORD "MEAN_DE" # Mean Delta E of samples compared to batch average
NUMBER_OF_FIELDS 17
BEGIN_DATA_FORMAT
SAMPLE_ID   XYZ_X   XYZ_Y   XYZ_Z          LAB_L   LAB_A   LAB_B          LAB_C   LAB_H          STDEV_X  STDEV_Y  STDEV_Z          STDEV_L  STDEV_A  STDEV_B        MEAN_DE  STDEV_DE
END_DATA_FORMAT
NUMBER_OF_SETS 288
BEGIN_DATA
A1           2.41    2.04    1.43          15.70    9.59    2.87          10.02   16.67            0.06     0.06     0.06            0.29     0.21     0.30           0.41    0.47
A2           2.97    2.02    1.20          15.60   20.58    5.75          21.37   15.62            0.08     0.06     0.06            0.29     0.20     0.32           0.41    0.47 
A3           3.55    2.01    0.98          15.54   30.39    8.75          31.62   16.06            0.09     0.05     0.04            0.27     0.23     0.31           0.41    0.47
A4           4.26    1.99    0.78          15.41   41.32   11.92          43.01   16.09            0.10     0.05     0.04            0.26     0.32     0.39           0.51    0.57 
A5          10.51    9.08    6.47          36.14   14.08    4.30          14.72   16.97            0.24     0.23     0.24            0.44     0.35     0.41           0.64    0.70
A6          12.54    9.08    5.53          36.14   28.61    8.67          29.89   16.85            0.28     0.24     0.21            0.46     0.30     0.37           0.61    0.66 
A7          14.54    8.87    4.59          35.73   43.15   12.85          45.03   16.58            0.27     0.19     0.18            0.38     0.25     0.43           0.56    0.62
A8          17.10    8.73    3.80          35.46   59.14   17.04          61.55   16.07            0.14     0.10     0.15            0.19     0.08     0.67           0.57    0.70 
A9          31.18   30.55   23.44          62.13    6.41    3.23           7.19   26.84            0.56     0.62     0.51            0.53     0.55     0.29           0.74    0.81
A10         32.75   30.00   22.51          61.65   14.13    4.18          14.74   16.50            0.57     0.62     0.48            0.53     0.54     0.31           0.74    0.82
A11         35.06   30.16   21.52          61.79   21.57    6.35          22.49   16.42            0.56     0.61     0.47            0.52     0.53     0.32           0.72    0.81
A12         39.11   29.68   18.87          61.38   36.61   11.11          38.26   16.89            0.42     0.49     0.44            0.43     0.56     0.46           0.76    0.84 
A13         71.41   75.67   63.78          89.70   -3.26   -1.30           3.51   201.71            0.31     0.31     0.20            0.14     0.11     0.16           0.22    0.24
A14         74.61   75.82   63.98          89.78    3.10   -1.36           3.39   336.51            0.31     0.38     0.37            0.18     0.23     0.24           0.32    0.37 
A15         75.61   78.30   60.33          90.92    0.22    4.17           4.17   86.95            0.23     0.26     0.28            0.12     0.08     0.16           0.20    0.22
A16         75.50   78.33   64.61          90.93   -0.04    0.02           0.13   174.48            0.23     0.26     0.21            0.12     0.08     0.14           0.17    0.20
A17         73.55   74.85   59.99          89.32    2.88    1.76           3.38   31.50            0.26     0.35     0.24            0.16     0.22     0.17           0.29    0.32
A18         70.15   74.76   58.28          89.28   -4.10    3.41           5.33   140.26            0.37     0.35     0.29            0.16     0.17     0.12           0.23    0.26 
A19         70.62   73.18   63.05          88.53    0.12   -2.61           2.62   272.52            0.29     0.33     0.23            0.16     0.19     0.19           0.29    0.31
A20          7.04    3.40    2.12          21.57   47.08    5.80          47.44    7.02            0.15     0.08     0.08            0.28     0.33     0.43           0.54    0.61 
A21         28.03   19.97   15.39          51.80   38.97    2.65          39.06    3.89            0.38     0.36     0.36            0.40     0.41     0.37           0.62    0.68
A22         56.45   52.43   34.18          77.54   15.10   12.19          19.41   38.92            0.45     0.62     0.46            0.37     0.51     0.36           0.63    0.72
B1           3.60    3.23    1.84          20.94    7.87    7.35          10.78   43.03            0.09     0.09     0.07            0.34     0.22     0.28           0.45    0.49
B2           4.25    3.24    1.15          20.96   17.32   15.63          23.33   42.06            0.09     0.08     0.04            0.30     0.20     0.21           0.39    0.42
B3           4.83    3.20    0.71          20.83   25.54   22.60          34.11   41.51            0.11     0.08     0.03            0.31     0.18     0.17           0.35    0.40
B4           5.90    3.21    0.16          20.88   38.06   32.97          50.35   40.90            0.12     0.07     0.02            0.28     0.21     0.35           0.44    0.49
B5          13.51   12.15    6.96          41.45   12.04   11.37          16.56   43.37            0.30     0.31     0.24            0.49     0.43     0.34           0.68    0.73
B6          15.71   12.13    4.58          41.42   25.57   22.70          34.19   41.59            0.32     0.28     0.17            0.45     0.36     0.26           0.57    0.63
B7          17.88   12.08    2.82          41.34   37.96   34.00          50.96   41.85            0.32     0.26     0.11            0.41     0.30     0.21           0.50    0.55
B8          20.91   11.71    1.20          40.75   55.76   49.10          74.30   41.37            0.19     0.16     0.05            0.26     0.23     0.25           0.38    0.42
B9          36.35   36.51   26.91          66.90    3.85    5.28           6.56   54.04            0.63     0.74     0.56            0.56     0.56     0.28           0.74    0.84
B10         37.98   36.15   23.93          66.63   10.34   10.10          14.47   44.37            0.58     0.68     0.46            0.52     0.58     0.29           0.72    0.82
B11         39.51   36.03   21.88          66.54   15.59   13.83          20.85   41.59            0.57     0.65     0.45            0.50     0.53     0.33           0.70    0.80
B12         43.99   36.29   15.93          66.74   28.27   27.09          39.16   43.78            0.48     0.63     0.41            0.48     0.65     0.47           0.82    0.94
B13         64.01   68.86   58.63          86.43   -5.35   -1.85           5.66   199.10            0.43     0.44     0.25            0.22     0.22     0.17           0.32    0.35
B14         69.39   68.38   58.76          86.20    7.57   -2.39           7.95   342.52            0.40     0.57     0.29            0.29     0.40     0.26           0.46    0.56
B15         71.54   73.49   52.48          88.68    1.43    8.50           8.62   80.44            0.32     0.40     0.37            0.19     0.21     0.21           0.31    0.35
B16         59.35   61.96   50.72          82.89   -0.95    0.46           1.07   155.61            0.55     0.61     0.38            0.32     0.33     0.24           0.46    0.52
B17         67.64   66.93   51.55          85.47    6.89    3.97           7.96   30.03            0.39     0.55     0.37            0.28     0.38     0.26           0.46    0.54
B18         62.56   67.79   51.63          85.90   -6.37    4.64           7.88   143.95            0.48     0.45     0.38            0.23     0.27     0.18           0.36    0.39
B19         60.41   62.79   57.12          83.33   -0.33   -5.66           5.68   266.61            0.47     0.54     0.27            0.28     0.37     0.28           0.49    0.55
B20          5.37    3.25    1.07          21.03   31.35   16.91          35.62   28.35            0.12     0.08     0.04            0.31     0.22     0.20           0.37    0.43
B21         17.78   11.99    4.35          41.20   38.02   23.63          44.77   31.86            0.29     0.24     0.14            0.38     0.33     0.29           0.53    0.57
B22         35.41   30.51   18.17          62.09   21.48   13.87          25.57   32.87            0.47     0.52     0.38            0.45     0.52     0.35           0.70    0.77
C1           6.80    6.68    3.63          31.05    3.71   10.56          11.20   70.63            0.16     0.18     0.13            0.41     0.35     0.29           0.56    0.62
C2           7.32    6.74    2.31          31.20    8.20   20.64          22.21   68.35            0.17     0.18     0.08            0.41     0.32     0.19           0.51    0.55
C3           7.83    6.73    1.22          31.19   13.14   32.35          34.92   67.89            0.17     0.16     0.04            0.38     0.32     0.22           0.49    0.55
C4           8.47    6.74    0.42          31.20   18.81   45.81          49.52   67.67            0.18     0.17     0.02            0.39     0.30     0.38           0.55    0.62
C5          24.99   24.45   12.35          56.54    6.14   18.89          19.87   72.00            0.46     0.53     0.34            0.52     0.56     0.30           0.75    0.82
C6          27.06   24.38    6.93          56.46   15.01   37.35          40.26   68.11            0.44     0.49     0.20            0.48     0.54     0.25           0.67    0.77
C7          29.17   24.64    3.40          56.72   22.18   56.31          60.52   68.50            0.44     0.47     0.10            0.46     0.51     0.23           0.64    0.73
C8          31.53   24.32    0.92          56.40   32.41   80.21          86.51   68.00            0.43     0.45     0.03            0.45     0.48     0.36           0.66    0.75
C9          42.73   43.63   30.01          71.98    1.97    8.93           9.16   77.56            0.61     0.70     0.51            0.47     0.54     0.25           0.68    0.76
C10         43.54   43.30   25.36          71.76    5.35   16.35          17.21   71.89            0.57     0.69     0.46            0.47     0.53     0.27           0.66    0.75
C11         44.66   43.33   21.06          71.78    8.51   24.48          25.92   70.82            0.56     0.68     0.44            0.46     0.52     0.31           0.68    0.76
C12         48.38   42.81    9.65          71.42   20.50   52.95          56.78   68.84            0.46     0.66     0.24            0.45     0.67     0.36           0.75    0.88
C13         57.25   64.27   57.28          84.11  -11.25   -4.48          12.12   201.73            0.49     0.51     0.28            0.26     0.23     0.20           0.36    0.40
C14         63.96   59.75   56.37          81.70   14.95   -7.69          16.81   332.78            0.50     0.72     0.33            0.39     0.57     0.39           0.64    0.80
C15         69.40   71.77   42.78          87.86    0.42   18.40          18.41   88.68            0.44     0.53     0.49            0.26     0.22     0.31           0.39    0.46
C16         46.42   48.48   39.56          75.12   -0.90    0.58           1.10   158.21            0.60     0.68     0.48            0.43     0.49     0.29           0.63    0.71
C17         59.91   56.29   40.78          79.78   13.83    7.02          15.52   26.93            0.48     0.68     0.47            0.38     0.53     0.30           0.61    0.72
C18         54.23   61.92   42.02          82.87  -13.45   10.76          17.22   141.34            0.53     0.52     0.43            0.28     0.28     0.14           0.38    0.42
C19         49.03   50.75   53.34          76.53    0.26  -13.39          13.40   271.09            0.61     0.72     0.33            0.44     0.55     0.46           0.74    0.84
C20         13.05    9.57    1.24          37.06   28.01   42.14          50.60   56.39            0.25     0.20     0.04            0.37     0.33     0.21           0.47    0.54
C21         23.48   21.97   11.76          54.00   10.50   16.24          19.34   57.12            0.40     0.43     0.27            0.45     0.54     0.26           0.68    0.75
C22         29.03   24.82   11.52          56.90   20.91   21.95          30.32   46.39            0.41     0.43     0.26            0.42     0.50     0.31           0.66    0.73
D1           4.56    4.80    2.63          26.16   -0.89    9.25           9.30   95.50            0.11     0.13     0.10            0.37     0.35     0.29           0.53    0.58
D2           4.55    4.81    1.65          26.19   -1.21   18.42          18.46   93.75            0.11     0.13     0.06            0.39     0.35     0.16           0.49    0.54
D3           4.51    4.76    0.90          26.03   -1.05   28.05          28.07   92.15            0.10     0.12     0.03            0.35     0.36     0.18           0.48    0.53
D4           4.49    4.81    0.45          26.18   -1.97   36.65          36.70   93.08            0.10     0.13     0.02            0.37     0.39     0.34           0.57    0.63
D5          18.58   19.63    9.95          51.41   -1.81   17.44          17.54   95.91            0.38     0.44     0.27            0.51     0.50     0.29           0.69    0.77
D6          18.54   19.67    5.37          51.46   -2.16   35.87          35.94   93.45            0.35     0.43     0.17            0.49     0.53     0.22           0.68    0.76
D7          18.45   19.80    2.69          51.61   -3.31   52.71          52.82   93.59            0.36     0.45     0.09            0.51     0.54     0.26           0.68    0.78
D8          18.03   19.30    1.05          51.03   -3.01   68.82          68.89   92.50            0.33     0.40     0.03            0.46     0.52     0.39           0.70    0.79
D9          48.09   50.62   25.99          76.44   -1.96   23.32          23.40   94.80            0.56     0.68     0.47            0.41     0.44     0.31           0.60    0.68
D10         47.56   50.39   14.73          76.30   -2.82   46.53          46.62   93.46            0.51     0.62     0.30            0.38     0.38     0.32           0.55    0.62
D11         47.18   50.25    7.45          76.22   -3.51   69.29          69.38   92.90            0.44     0.54     0.15            0.33     0.33     0.21           0.45    0.52
D12         46.73   49.20    2.39          75.58   -2.00   96.51          96.53   91.19            0.40     0.42     0.05            0.26     0.23     0.15           0.34    0.38
D13         51.05   59.92   56.09          81.79  -17.03   -7.24          18.51   203.04            0.41     0.41     0.24            0.22     0.27     0.17           0.35    0.39
D14         58.28   51.24   53.57          76.82   22.65  -13.13          26.18   329.89            0.49     0.68     0.33            0.41     0.62     0.42           0.71    0.86
D15         67.75   70.40   34.57          87.19   -0.28   28.27          28.27   90.57            0.32     0.42     0.41            0.20     0.23     0.33           0.38    0.45
D16         35.13   36.77   29.91          67.10   -1.08    0.68           1.31   145.25            0.53     0.60     0.45            0.45     0.51     0.31           0.68    0.75
D17         52.00   45.82   30.81          73.43   21.51   10.18          23.80   25.33            0.50     0.66     0.51            0.43     0.57     0.30           0.66    0.77
D18         46.74   56.36   33.73          79.82  -20.26   16.79          26.31   140.35            0.44     0.44     0.38            0.25     0.31     0.20           0.38    0.44
D19         38.58   39.81   49.40          69.33    0.64  -21.44          21.45   271.68            0.49     0.60     0.33            0.43     0.61     0.45           0.76    0.87
D20          3.27    3.27    1.22          21.09    1.95   14.93          15.06   82.57            0.07     0.08     0.04            0.29     0.28     0.15           0.38    0.42
D21         32.48   30.34    1.70          61.95   11.92   79.58          80.47   81.48            0.39     0.45     0.05            0.38     0.53     0.23           0.60    0.69
D22         43.30   46.92   51.92          74.14   -5.65  -15.97          16.95   250.52            0.40     0.50     0.32            0.32     0.53     0.34           0.64    0.71
E1           6.00    6.78    3.75          31.31   -5.81   10.20          11.74   119.65            0.15     0.18     0.13            0.41     0.39     0.27           0.57    0.62
E2           5.45    6.71    2.44          31.14  -11.34   19.46          22.53   120.22            0.13     0.17     0.08            0.40     0.44     0.16           0.55    0.62
E3           5.03    6.73    1.42          31.17  -16.53   29.75          34.03   119.06            0.11     0.17     0.05            0.39     0.47     0.19           0.56    0.65
E4           4.46    6.65    0.67          31.00  -23.14   40.84          46.94   119.53            0.10     0.17     0.03            0.40     0.51     0.38           0.65    0.75
E5          25.85   29.39   15.68          61.12  -10.03   18.00          20.61   119.10            0.47     0.59     0.38            0.51     0.54     0.31           0.73    0.80
E6          23.96   29.89   10.03          61.56  -19.97   34.66          40.01   119.95            0.40     0.54     0.27            0.47     0.48     0.26           0.64    0.72
E7          21.69   29.65    5.53          61.35  -29.31   52.15          59.82   119.34            0.31     0.45     0.16            0.39     0.41     0.22           0.54    0.61
E8          19.08   28.88    2.31          60.68  -39.13   71.51          81.52   118.69            0.17     0.22     0.04            0.19     0.16     0.18           0.28    0.31
E9          46.25   50.50   33.97          76.37   -6.77   10.49          12.49   122.81            0.59     0.69     0.58            0.42     0.41     0.27           0.57    0.65
E10         44.01   50.21   26.44          76.20  -12.44   22.11          25.37   119.36            0.55     0.64     0.49            0.39     0.35     0.32           0.55    0.61
E11         41.93   49.98   20.86          76.05  -17.97   32.26          36.92   119.12            0.51     0.58     0.43            0.36     0.28     0.36           0.52    0.58
E12         39.38   49.73   14.73          75.90  -25.17   45.84          52.30   118.77            0.39     0.43     0.28            0.26     0.25     0.35           0.45    0.51
E13         45.23   55.54   54.88          79.35  -22.50  -10.18          24.70   204.34            0.36     0.38     0.23            0.22     0.26     0.17           0.33    0.38
E14         52.42   43.01   50.32          71.56   30.65  -18.63          35.87   328.71            0.51     0.68     0.37            0.46     0.67     0.47           0.77    0.94
E15         66.41   69.14   27.96          86.57   -0.58   37.42          37.43   90.90            0.32     0.43     0.39            0.21     0.23     0.36           0.41    0.48
E16         26.01   27.22   22.63          59.18   -1.00   -0.32           1.14   198.37            0.44     0.51     0.45            0.47     0.53     0.36           0.72    0.80
E17         44.33   36.15   22.56          66.63   29.72   12.66          32.30   23.09            0.48     0.59     0.47            0.45     0.59     0.35           0.70    0.82
E18         40.28   51.38   27.22          76.91  -26.68   22.00          34.58   140.49            0.44     0.45     0.39            0.27     0.32     0.28           0.44    0.50
E19         29.79   30.50   45.57          62.08    1.48  -29.46          29.50   272.86            0.41     0.52     0.35            0.44     0.59     0.44           0.76    0.86
E20          7.84    9.33    1.53          36.61  -10.15   37.78          39.12   105.03            0.14     0.19     0.04            0.35     0.40     0.26           0.52    0.59
E21         26.57   31.71    6.85          63.10  -15.58   49.14          51.55   107.59            0.34     0.42     0.13            0.35     0.47     0.19           0.56    0.61
E22          9.46   19.77   14.54          51.57  -60.68    4.38          60.84   175.87            0.12     0.22     0.29            0.25     0.24     0.44           0.51    0.56
F1           3.90    4.79    3.41          26.14   -9.99    3.55          10.61   160.45            0.10     0.13     0.13            0.39     0.38     0.30           0.56    0.62
F2           3.24    4.86    2.93          26.33  -21.16    7.27          22.38   161.04            0.08     0.13     0.12            0.38     0.43     0.31           0.59    0.65
F3           2.70    4.84    2.52          26.27  -30.43   10.42          32.16   161.10            0.07     0.13     0.10            0.37     0.45     0.27           0.57    0.64
F4           1.86    4.81    1.81          26.20  -47.87   16.74          50.72   160.72            0.04     0.11     0.06            0.33     0.51     0.29           0.58    0.67
F5          12.48   15.77   11.02          46.66  -17.18    5.82          18.14   161.28            0.26     0.36     0.36            0.47     0.47     0.46           0.73    0.81
F6           9.93   15.47    8.97          46.27  -34.09   11.92          36.11   160.73            0.20     0.34     0.28            0.45     0.50     0.41           0.70    0.79
F7           7.92   15.23    7.54          45.94  -49.68   16.71          52.41   161.40            0.14     0.28     0.22            0.38     0.47     0.38           0.62    0.71
F8           6.29   15.04    6.26          45.69  -64.56   21.71          68.12   161.42            0.08     0.19     0.18            0.26     0.30     0.52           0.57    0.65
F9          31.36   36.12   27.25          66.61  -12.23    4.19          12.93   161.07            0.54     0.67     0.59            0.51     0.51     0.29           0.68    0.77
F10         27.99   35.93   25.20          66.47  -24.39    7.51          25.52   162.88            0.44     0.57     0.51            0.43     0.39     0.33           0.60    0.67
F11         24.90   35.41   22.45          66.06  -35.35   11.90          37.30   161.39            0.37     0.51     0.45            0.40     0.28     0.27           0.49    0.56
F12         21.01   34.91   19.58          65.68  -51.20   17.02          53.95   161.62            0.19     0.23     0.37            0.18     0.22     0.51           0.49    0.59
F13         39.91   51.34   53.71          76.89  -27.74  -13.17          30.71   205.40            0.32     0.35     0.22            0.21     0.22     0.16           0.30    0.35
F14         46.29   35.04   46.50          65.78   39.03  -24.20          45.92   328.20            0.47     0.57     0.37            0.45     0.64     0.45           0.74    0.90
F15         64.95   67.58   20.92          85.80   -0.49   48.94          48.94   90.57            0.32     0.42     0.37            0.21     0.25     0.47           0.49    0.57
F16         18.15   18.99   15.56          50.67   -0.86    0.27           1.00   169.71            0.35     0.39     0.34            0.46     0.49     0.35           0.68    0.76
F17         36.76   27.36   14.50          59.30   37.95   17.83          41.93   25.17            0.39     0.45     0.35            0.42     0.53     0.38           0.69    0.77
F18         34.23   46.37   20.48          73.79  -32.98   29.12          44.00   138.56            0.37     0.41     0.36            0.26     0.26     0.37           0.46    0.52
F19         22.47   22.63   41.71          54.69    2.99  -37.44          37.57   274.56            0.31     0.40     0.33            0.42     0.56     0.42           0.71    0.81
