targets/wolf_faust/transmissive/F040521.it8
IT8.7/1
ORIGINATOR "Wolf Faust"
DESCRIPTOR "Fujichrome Provia/Astia/Sensia, Type 3, L* a* b* (light D50, viewing angle 2)"
MANUFACTURER "Wolf Faust - http://www.coloraid.de"
CREATED "January 21, 2005"
PROD_DATE "2004:05"
DIFFUSE_GEOMETRY "opal"
SERIAL "F040521 Batch Average Data"
MATERIAL "Fujichrome Provia 100F (RDP III)"
KEYWORD "MEAN_DE" # Mean Delta E of samples compared to batch average
NUMBER_OF_FIELDS 17
BEGIN_DATA_FORMAT
SAMPLE_ID   XYZ_X   XYZ_Y   XYZ_Z          LAB_L   LAB_A   LAB_B          LAB_C   LAB_H          STDEV_X  STDEV_Y  STDEV_Z          STDEV_L  STDEV_A  STDEV_B        MEAN_DE  STDEV_DE
END_DATA_FORMAT
NUMBER_OF_SETS 288
BEGIN_DATA
A1           2.30    1.99    1.34          15.43    8.50    3.60           9.23   22.96            0.04     0.04     0.03            0.21     0.16     0.17           0.30    0.32
A2           2.85    1.97    1.12          15.31   19.54    6.34          20.54   17.98            0.05     0.04     0.02            0.20     0.16     0.15           0.27    0.30 
A3           3.47    1.98    0.96          15.39   29.79    8.82          31.07   16.50            0.06     0.03     0.02            0.18     0.21     0.15           0.28    0.31
A4           4.11    1.93    0.74          15.10   40.58   12.12          42.35   16.63            0.08     0.04     0.02            0.19     0.26     0.22           0.35    0.39 
A5          10.21    8.95    6.17          35.89   12.86    5.23          13.88   22.11            0.18     0.18     0.16            0.34     0.28     0.31           0.49    0.54
A6          12.12    8.86    5.27          35.70   27.61    9.21          29.11   18.44            0.21     0.17     0.14            0.33     0.27     0.33           0.50    0.54 
A7          14.36    8.80    4.50          35.59   42.64   13.10          44.61   17.08            0.25     0.16     0.13            0.32     0.25     0.34           0.48    0.53
A8          16.93    8.62    3.67          35.23   59.14   17.45          61.66   16.44            0.12     0.08     0.09            0.16     0.05     0.33           0.31    0.37 
A9          30.56   30.20   22.58          61.83    5.45    4.34           6.98   38.63            0.49     0.52     0.36            0.45     0.45     0.31           0.62    0.71
A10         32.10   29.49   21.30          61.21   13.73    5.79          14.91   22.88            0.50     0.52     0.35            0.45     0.43     0.31           0.63    0.70
A11         34.39   29.63   20.40          61.33   21.24    7.81          22.63   20.18            0.52     0.52     0.36            0.46     0.38     0.30           0.60    0.67
A12         38.62   29.29   18.06          61.03   36.54   12.30          38.55   18.61            0.41     0.46     0.36            0.40     0.42     0.34           0.60    0.68 
A13         71.11   75.46   62.41          89.61   -3.47   -0.14           3.47   182.29            0.31     0.28     0.18            0.13     0.13     0.08           0.18    0.20
A14         74.37   75.64   62.56          89.69    2.99   -0.14           2.99   289.96            0.23     0.32     0.19            0.15     0.19     0.11           0.23    0.26 
A15         75.34   78.03   59.01          90.79    0.20    5.28           5.28   87.78            0.23     0.24     0.27            0.11     0.05     0.12           0.15    0.17
A16         75.55   78.21   63.23          90.88    0.27    1.26           1.29   77.82            0.15     0.16     0.14            0.07     0.05     0.06           0.10    0.11
A17         73.29   74.63   58.64          89.22    2.78    2.93           4.05   46.54            0.22     0.30     0.20            0.14     0.17     0.12           0.23    0.26
A18         69.77   74.45   56.67          89.14   -4.28    4.82           6.44   131.61            0.27     0.24     0.24            0.11     0.13     0.10           0.18    0.20 
A19         71.43   73.60   61.73          88.73    0.97   -0.98           1.38   314.72            0.26     0.32     0.18            0.15     0.14     0.11           0.21    0.24
A20          6.04    2.80    1.64          19.20   46.81    6.55          47.27    7.96            0.12     0.06     0.04            0.23     0.31     0.26           0.43    0.47 
A21         27.39   19.51   14.63          51.28   38.67    3.64          38.84    5.37            0.37     0.32     0.26            0.37     0.27     0.32           0.51    0.56
A22         55.52   51.71   32.73          77.11   14.65   13.58          19.98   42.85            0.37     0.51     0.27            0.30     0.41     0.31           0.53    0.60
B1           3.50    3.18    1.74          20.77    7.09    8.11          10.77   48.82            0.07     0.07     0.04            0.27     0.18     0.16           0.33    0.36
B2           4.12    3.16    1.09          20.67   16.67   15.97          23.09   43.76            0.09     0.07     0.03            0.27     0.19     0.17           0.34    0.37
B3           4.65    3.08    0.63          20.34   25.36   23.27          34.42   42.54            0.09     0.06     0.02            0.25     0.20     0.20           0.34    0.38
B4           5.56    3.09    0.15          20.40   36.28   32.41          48.65   41.77            0.10     0.06     0.00            0.22     0.21     0.33           0.40    0.45
B5          13.02   11.82    6.58          40.93   11.11   12.09          16.42   47.42            0.22     0.22     0.14            0.35     0.32     0.32           0.52    0.57
B6          15.27   11.86    4.23          40.99   24.85   23.95          34.51   43.94            0.25     0.21     0.09            0.34     0.30     0.30           0.50    0.55
B7          17.49   11.76    2.62          40.82   38.10   34.68          51.52   42.30            0.28     0.21     0.06            0.34     0.29     0.26           0.47    0.52
B8          20.62   11.49    1.05          40.40   55.90   50.47          75.32   42.08            0.13     0.10     0.02            0.17     0.14     0.16           0.23    0.27
B9          35.34   35.66   25.74          66.26    3.26    6.19           7.01   62.23            0.62     0.64     0.44            0.49     0.41     0.36           0.67    0.73
B10         37.34   35.88   22.84          66.43    9.14   11.78          14.92   52.19            0.56     0.61     0.36            0.47     0.39     0.31           0.61    0.68
B11         38.98   35.88   20.60          66.43   14.40   16.19          21.68   48.35            0.52     0.56     0.30            0.42     0.41     0.37           0.64    0.70
B12         43.83   36.26   15.50          66.72   27.89   28.07          39.57   45.19            0.42     0.52     0.29            0.40     0.49     0.38           0.66    0.73
B13         63.61   68.61   57.29          86.31   -5.75   -0.69           5.79   186.90            0.41     0.42     0.26            0.21     0.14     0.12           0.25    0.28
B14         68.90   67.93   57.28          85.97    7.48   -1.26           7.59   350.47            0.35     0.50     0.25            0.25     0.34     0.21           0.40    0.47
B15         71.24   73.24   51.33          88.56    1.31    9.56           9.65   82.19            0.25     0.33     0.34            0.16     0.17     0.17           0.27    0.29
B16         58.69   61.38   49.39          82.58   -1.19    1.42           1.86   129.52            0.49     0.55     0.34            0.29     0.28     0.20           0.42    0.45
B17         67.15   66.46   50.31          85.23    6.86    4.95           8.47   35.86            0.33     0.47     0.31            0.24     0.32     0.23           0.40    0.46
B18         62.03   67.39   50.41          85.70   -6.73    5.64           8.78   140.03            0.42     0.40     0.35            0.20     0.20     0.14           0.29    0.32
B19         59.61   62.08   55.49          82.95   -0.59   -4.61           4.65   262.68            0.47     0.51     0.26            0.27     0.27     0.23           0.41    0.45
B20          5.13    3.13    0.98          20.56   30.44   17.37          35.05   29.71            0.11     0.07     0.03            0.27     0.25     0.21           0.40    0.43
B21         17.40   11.72    4.09          40.77   37.85   24.40          45.03   32.81            0.27     0.19     0.08            0.31     0.26     0.30           0.48    0.50
B22         34.71   30.06   17.16          61.71   20.72   15.49          25.87   36.79            0.44     0.45     0.27            0.39     0.43     0.36           0.64    0.68
C1           6.66    6.62    3.46          30.92    2.89   11.43          11.79   75.81            0.15     0.15     0.09            0.36     0.27     0.20           0.45    0.49
C2           7.06    6.59    2.12          30.85    7.18   21.74          22.89   71.71            0.16     0.15     0.06            0.37     0.24     0.22           0.45    0.49
C3           7.61    6.64    1.17          30.96   12.09   32.54          34.72   69.62            0.14     0.13     0.02            0.32     0.28     0.27           0.45    0.50
C4           8.20    6.61    0.40          30.89   17.73   45.80          49.11   68.84            0.14     0.13     0.01            0.30     0.24     0.39           0.48    0.55
C5          24.56   24.08   11.80          56.16    5.89   19.84          20.70   73.46            0.39     0.43     0.23            0.43     0.44     0.41           0.66    0.74
C6          26.73   24.27    6.58          56.36   14.11   38.68          41.18   69.97            0.41     0.42     0.14            0.42     0.45     0.38           0.65    0.72
C7          28.43   24.12    3.21          56.21   21.52   56.72          60.67   69.22            0.40     0.40     0.06            0.40     0.39     0.36           0.59    0.66
C8          31.21   24.14    0.84          56.23   31.97   81.27          87.33   68.52            0.40     0.38     0.02            0.38     0.35     0.36           0.55    0.63
C9          41.85   42.93   28.87          71.51    1.37    9.96          10.06   82.16            0.60     0.66     0.41            0.45     0.40     0.36           0.64    0.70
C10         43.07   43.14   24.64          71.65    4.42   17.44          18.00   75.78            0.56     0.64     0.35            0.43     0.37     0.38           0.62    0.68
C11         44.18   42.92   20.18          71.50    8.33   25.80          27.11   72.11            0.54     0.62     0.31            0.42     0.39     0.39           0.64    0.69
C12         48.07   42.54    9.10          71.24   20.43   54.51          58.22   69.46            0.41     0.56     0.17            0.38     0.52     0.32           0.62    0.72
C13         56.96   64.14   56.04          84.04  -11.65   -3.32          12.12   195.89            0.45     0.45     0.28            0.23     0.18     0.14           0.30    0.32
C14         63.52   59.49   54.87          81.56   14.53   -6.35          15.86   336.40            0.43     0.61     0.30            0.33     0.45     0.30           0.53    0.63
C15         69.35   71.78   42.23          87.86    0.30   19.11          19.11   89.10            0.27     0.36     0.34            0.17     0.19     0.22           0.31    0.34
C16         45.71   47.91   38.47          74.77   -1.37    1.41           1.98   133.60            0.60     0.67     0.44            0.42     0.41     0.32           0.61    0.67
C17         59.53   56.02   39.86          79.62   13.59    7.95          15.75   30.35            0.50     0.68     0.48            0.39     0.48     0.30           0.60    0.69
C18         53.90   61.70   41.28          82.75  -13.78   11.50          17.95   140.16            0.50     0.48     0.40            0.26     0.22     0.20           0.37    0.40
C19         48.24   50.18   51.71          76.18   -0.39  -12.22          12.23   268.15            0.57     0.62     0.31            0.38     0.40     0.33           0.58    0.64
C20         12.70    9.41    1.12          36.77   26.91   43.30          50.97   58.14            0.24     0.18     0.03            0.34     0.28     0.31           0.51    0.54
C21         22.68   21.48   11.42          53.47    9.23   16.31          18.74   60.51            0.37     0.37     0.25            0.40     0.43     0.42           0.68    0.72
C22         28.27   24.17   10.83          56.26   20.69   22.94          30.89   47.94            0.45     0.45     0.25            0.45     0.40     0.42           0.68    0.73
D1           4.33    4.59    2.41          25.54   -1.39   10.04          10.14   97.91            0.11     0.12     0.08            0.37     0.26     0.16           0.45    0.48
D2           4.41    4.74    1.52          25.97   -2.17   19.50          19.63   96.33            0.10     0.12     0.04            0.37     0.32     0.21           0.48    0.53
D3           4.39    4.68    0.87          25.80   -1.68   28.19          28.24   93.40            0.10     0.12     0.03            0.35     0.29     0.21           0.45    0.50
D4           4.31    4.62    0.42          25.62   -2.00   36.31          36.36   93.16            0.09     0.11     0.01            0.33     0.29     0.40           0.53    0.59
D5          18.40   19.60    9.48          51.38   -2.58   18.96          19.14   97.76            0.34     0.39     0.22            0.45     0.47     0.36           0.68    0.75
D6          18.29   19.65    5.14          51.44   -3.42   37.02          37.18   95.27            0.31     0.36     0.10            0.41     0.49     0.35           0.67    0.73
D7          18.21   19.55    2.49          51.32   -3.31   53.81          53.92   93.52            0.32     0.37     0.05            0.43     0.52     0.37           0.70    0.77
D8          18.08   19.49    1.01          51.25   -3.71   69.82          69.92   93.04            0.30     0.36     0.02            0.42     0.44     0.42           0.66    0.74
D9          47.77   50.38   25.26          76.30   -2.22   24.35          24.46   95.21            0.58     0.66     0.43            0.41     0.32     0.38           0.59    0.64
D10         47.30   50.19   14.26          76.19   -3.03   47.55          47.64   93.65            0.55     0.65     0.26            0.40     0.29     0.38           0.57    0.62
D11         46.83   49.89    7.12          76.00   -3.54   70.24          70.33   92.88            0.49     0.58     0.12            0.36     0.27     0.22           0.44    0.50
D12         46.29   48.98    2.25          75.44   -2.64   97.42          97.46   91.55            0.42     0.41     0.03            0.26     0.19     0.23           0.35    0.40
D13         50.40   59.47   54.75          81.55  -17.72   -6.25          18.79   199.42            0.47     0.47     0.29            0.26     0.22     0.16           0.34    0.38
D14         58.06   51.36   52.18          76.89   21.80  -11.50          24.65   332.20            0.49     0.67     0.35            0.40     0.55     0.35           0.66    0.77
D15         67.61   70.31   33.72          87.15   -0.41   29.43          29.43   90.81            0.29     0.40     0.39            0.19     0.21     0.30           0.38    0.42
D16         34.46   36.48   28.70          66.88   -2.43    2.25           3.32   136.94            0.56     0.61     0.44            0.46     0.49     0.32           0.67    0.75
D17         51.62   45.65   29.54          73.31   21.01   11.98          24.19   29.71            0.52     0.67     0.48            0.44     0.54     0.32           0.66    0.77
D18         46.27   56.09   32.81          79.67  -20.91   17.88          27.51   139.47            0.47     0.46     0.37            0.26     0.25     0.25           0.42    0.44
D19         37.66   39.30   47.75          68.97   -0.75  -20.17          20.19   267.86            0.54     0.64     0.46            0.46     0.50     0.38           0.69    0.78
D20          3.13    3.17    1.08          20.70    1.37   16.08          16.14   85.11            0.06     0.07     0.02            0.25     0.20     0.28           0.40    0.43
D21         31.80   29.62    1.45          61.32   12.16   81.33          82.24   81.49            0.43     0.44     0.03            0.38     0.46     0.39           0.65    0.71
D22         42.00   45.87   50.20          73.46   -6.60  -15.21          16.59   246.56            0.51     0.58     0.30            0.38     0.47     0.34           0.63    0.69
E1           5.79    6.69    3.58          31.10   -7.20   10.91          13.08   123.42            0.14     0.18     0.12            0.42     0.36     0.21           0.54    0.59
E2           5.37    6.69    2.27          31.08  -12.05   20.83          24.06   120.05            0.12     0.17     0.06            0.39     0.36     0.20           0.50    0.57
E3           4.83    6.59    1.38          30.86  -17.68   29.70          34.57   120.76            0.12     0.17     0.04            0.41     0.41     0.30           0.59    0.65
E4           4.41    6.62    0.64          30.93  -23.49   41.27          47.49   119.64            0.10     0.16     0.02            0.39     0.41     0.39           0.59    0.69
E5          25.83   29.97   15.53          61.63  -12.29   19.22          22.82   122.60            0.46     0.57     0.36            0.49     0.46     0.48           0.76    0.82
E6          23.52   29.58    9.49          61.29  -20.73   36.01          41.55   119.93            0.39     0.49     0.22            0.43     0.43     0.38           0.67    0.72
E7          21.36   29.47    5.27          61.19  -30.18   53.15          61.13   119.59            0.31     0.42     0.09            0.37     0.33     0.33           0.54    0.59
E8          18.82   28.65    2.19          60.47  -39.60   72.20          82.35   118.74            0.19     0.21     0.03            0.19     0.20     0.21           0.31    0.35
E9          45.92   50.34   32.93          76.28   -7.29   11.86          13.93   121.56            0.59     0.66     0.49            0.41     0.31     0.32           0.54    0.60
E10         43.52   49.97   25.71          76.05  -13.23   23.13          26.65   119.78            0.63     0.72     0.45            0.45     0.22     0.35           0.55    0.61
E11         41.54   49.73   20.34          75.90  -18.48   33.05          37.87   119.21            0.53     0.59     0.35            0.36     0.22     0.35           0.51    0.55
E12         38.99   49.47   13.91          75.74  -25.71   47.70          54.19   118.32            0.45     0.47     0.25            0.29     0.23     0.32           0.46    0.49
E13         44.80   55.28   53.63          79.20  -23.08   -9.10          24.81   201.52            0.46     0.45     0.27            0.26     0.26     0.19           0.38    0.41
E14         51.65   42.42   48.63          71.16   30.39  -17.40          35.02   330.21            0.50     0.65     0.37            0.44     0.59     0.36           0.68    0.82
E15         66.23   69.02   26.92          86.51   -0.72   39.08          39.09   91.05            0.28     0.39     0.37            0.19     0.23     0.37           0.43    0.48
E16         25.20   26.56   21.29          58.57   -1.73    1.25           2.15   143.74            0.44     0.49     0.34            0.46     0.46     0.34           0.68    0.73
E17         43.70   35.64   21.23          66.24   29.58   14.60          32.98   26.27            0.47     0.56     0.40            0.43     0.51     0.37           0.66    0.77
E18         39.90   51.15   26.22          76.77  -27.28   23.48          35.99   139.29            0.44     0.45     0.34            0.27     0.24     0.33           0.45    0.49
E19         29.04   29.97   44.05          61.63    0.55  -28.39          28.40   271.09            0.42     0.48     0.31            0.41     0.48     0.35           0.65    0.72
E20          7.64    9.14    1.29          36.25  -10.51   40.11          41.46   104.68            0.15     0.18     0.02            0.34     0.34     0.39           0.58    0.62
E21         25.92   31.05    6.50          62.55  -15.89   49.70          52.18   107.73            0.37     0.42     0.09            0.35     0.44     0.35           0.62    0.66
E22          9.13   19.23   13.90          50.95  -60.71    4.98          60.92   175.31            0.13     0.23     0.21            0.27     0.21     0.25           0.38    0.42
F1           3.72    4.69    3.15          25.84  -11.36    4.78          12.33   157.15            0.09     0.12     0.10            0.36     0.28     0.19           0.46    0.50
F2           3.12    4.74    2.76          25.97  -21.52    7.92          22.93   159.79            0.08     0.12     0.08            0.36     0.33     0.21           0.48    0.53
F3           2.62    4.76    2.31          26.04  -30.87   11.76          33.04   159.14            0.07     0.13     0.07            0.37     0.38     0.17           0.49    0.56
F4           1.79    4.63    1.73          25.65  -47.15   16.70          50.02   160.49            0.04     0.12     0.05            0.36     0.49     0.20           0.55    0.64
F5          12.18   15.58   10.52          46.42  -18.18    6.98          19.47   159.01            0.24     0.33     0.28            0.44     0.42     0.38           0.66    0.72
F6           9.78   15.57    8.88          46.40  -35.81   12.48          37.93   160.79            0.20     0.32     0.24            0.43     0.40     0.37           0.62    0.69
F7           7.83   15.25    7.15          45.98  -50.66   18.36          53.89   160.08            0.15     0.29     0.18            0.39     0.37     0.28           0.53    0.61
F8           6.20   14.88    5.91          45.47  -64.59   22.92          68.53   160.46            0.08     0.17     0.12            0.24     0.27     0.26           0.39    0.44
F9          30.80   35.66   26.21          66.26  -12.79    5.37          13.88   157.23            0.50     0.58     0.45            0.45     0.35     0.37           0.61    0.67
F10         27.77   35.85   23.97          66.40  -25.01    9.62          26.80   158.96            0.41     0.53     0.39            0.41     0.29     0.28           0.52    0.57
F11         24.70   35.37   21.64          66.03  -36.07   13.42          38.48   159.58            0.36     0.49     0.41            0.38     0.21     0.33           0.51    0.55
F12         20.79   34.76   18.78          65.56  -51.73   18.52          54.95   160.31            0.22     0.28     0.29            0.22     0.17     0.41           0.44    0.50
F13         39.85   51.40   52.60          76.92  -28.10  -11.91          30.52   202.96            0.42     0.42     0.27            0.25     0.24     0.17           0.35    0.39
F14         46.03   35.10   45.21          65.82   38.07  -22.57          44.26   329.33            0.44     0.52     0.35            0.40     0.50     0.30           0.59    0.71
F15         64.85   67.52   20.27          85.77   -0.58   50.20          50.21   90.66            0.27     0.38     0.29            0.19     0.23     0.38           0.43    0.48
F16         17.88   18.92   14.91          50.59   -1.91    1.75           2.62   137.18            0.31     0.34     0.24            0.40     0.41     0.35           0.62    0.66
F17         36.51   27.26   13.77          59.21   37.55   19.58          42.35   27.55            0.35     0.40     0.28            0.37     0.42     0.34           0.60    0.65
F18         34.06   46.33   19.90          73.76  -33.43   30.27          45.10   137.85            0.38     0.40     0.29            0.26     0.23     0.35           0.45    0.50
F19         22.04   22.48   40.43          54.53    1.68  -36.06          36.10   272.66            0.32     0.36     0.28            0.38     0.43     0.31           0.58    0.65
