targets/wolf_faust/transmissive/F050720.it8
IT8.7/1
ORIGINATOR "Wolf Faust"
DESCRIPTOR "Fujichrome Provia/Astia/Sensia, Type 3, L* a* b* (light D50, viewing angle 2)"
MANUFACTURER "Wolf Faust - http://www.coloraid.de"
CREATED "November 04, 2005"
PROD_DATE "2005:07"
DIFFUSE_GEOMETRY "opal"
SERIAL "F050720 Batch Average Data"
MATERIAL "Fujichrome Provia 100F (RDP III)"
KEYWORD "MEAN_DE" # Mean Delta E of samples compared to batch average
NUMBER_OF_FIELDS 18
BEGIN_DATA_FORMAT
SAMPLE_ID  XYZ_X   XYZ_Y   XYZ_Z          LAB_L   LAB_A   LAB_B          LAB_C   LAB_H          D_RED  D_GREEN  D_BLUE  D_VIS          STDEV_X STDEV_Y STDEV_Z        MEAN_DE  STDEV_DE
END_DATA_FORMAT
NUMBER_OF_SETS 288
BEGIN_DATA
A1          2.38    2.06    1.38          15.81    8.41    3.67           9.18   23.55           1.49    1.85    1.89    1.66            0.12    0.11    0.08           0.55     0.62
A2          2.77    1.90    1.10          14.96   19.72    5.93          20.60   16.74           1.31    2.08    1.97    1.65            0.12    0.09    0.06           0.53     0.58 
A3          3.36    1.91    0.92          15.02   29.66    8.77          30.93   16.47           1.15    2.34    2.02    1.61            0.13    0.08    0.06           0.52     0.58
A4          4.05    1.90    0.76          14.97   40.26   11.43          41.85   15.85           1.00    2.88    2.05    1.57            0.10    0.05    0.03           0.44     0.51 
A5         10.45    9.24    6.55          36.44   12.32    4.45          13.10   19.85           0.86    1.16    1.16    1.01            0.29    0.27    0.19           0.57     0.63
A6         12.56    9.15    5.50          36.27   28.14    9.04          29.55   17.81           0.68    1.32    1.23    0.98            0.33    0.26    0.18           0.55     0.61 
A7         14.55    8.90    4.67          35.79   42.95   12.52          44.74   16.25           0.54    1.53    1.28    0.96            0.34    0.24    0.16           0.55     0.60
A8         17.63    9.01    3.95          36.00   59.61   17.08          62.01   15.98           0.39    1.88    1.33    0.91            0.23    0.16    0.13           0.48     0.55 
A9         30.75   30.36   23.76          61.96    5.57    2.35           6.09   22.88           0.46    0.56    0.57    0.51            0.66    0.71    0.51           0.93     1.03
A10        32.75   30.12   22.33          61.76   13.68    4.71          14.49   19.00           0.38    0.61    0.60    0.50            0.65    0.67    0.48           0.93     1.02
A11        34.78   29.87   21.22          61.54   21.69    6.51          22.66   16.70           0.32    0.65    0.62    0.49            0.66    0.68    0.50           0.92     1.01
A12        39.52   29.99   19.30          61.64   36.73   10.66          38.25   16.18           0.19    0.74    0.65    0.47            0.51    0.58    0.46           0.91     1.01 
A13        71.01   75.25   62.25          89.51   -3.26   -0.15           3.26  182.74           0.15    0.11    0.13    0.13            0.27    0.22    0.21           0.17     0.18
A14        75.04   76.44   62.96          90.06    2.74    0.12           2.74    2.45           0.09    0.13    0.12    0.11            0.14    0.18    0.19           0.14     0.15 
A15        75.59   78.07   60.01          90.81    0.65    4.30           4.35   81.39           0.09    0.11    0.15    0.11            0.10    0.12    0.23           0.15     0.18
A16        74.39   76.96   62.96          90.30    0.39    0.53           0.66   53.73           0.11    0.12    0.12    0.11            0.20    0.22    0.22           0.12     0.14
A17        75.32   77.32   61.45          90.47    1.58    2.29           2.78   55.32           0.09    0.12    0.13    0.11            0.14    0.18    0.22           0.13     0.15
A18        72.57   76.11   59.09          89.91   -1.68    3.67           4.04  114.58           0.12    0.12    0.15    0.12            0.22    0.20    0.27           0.16     0.20 
A19        68.44   71.45   61.10          87.70   -0.98   -2.14           2.35  245.39           0.16    0.14    0.13    0.15            0.41    0.41    0.28           0.22     0.25
A20         6.56    3.11    2.01          20.48   46.89    4.94          47.15    6.01           0.80    2.59    1.60    1.36            0.18    0.09    0.07           0.46     0.55 
A21        27.85   19.88   15.24          51.70   38.69    2.85          38.80    4.21           0.33    0.98    0.75    0.64            0.44    0.40    0.35           0.74     0.82
A22        55.12   51.10   33.95          76.74   15.24   11.16          18.90   36.21           0.15    0.36    0.41    0.27            0.51    0.67    0.57           0.81     0.92
B1          3.57    3.29    1.81          21.15    6.55    8.08          10.40   50.99           1.33    1.60    1.79    1.46            0.14    0.14    0.09           0.54     0.60
B2          4.14    3.22    1.08          20.89   16.08   16.56          23.08   45.83           1.18    1.73    2.05    1.43            0.15    0.13    0.07           0.59     0.63
B3          4.66    3.09    0.64          20.41   25.20   23.02          34.13   42.42           1.06    1.91    2.30    1.42            0.16    0.12    0.05           0.59     0.64
B4          5.48    2.99    0.13          19.98   37.08   32.03          49.00   40.81           0.91    2.25    3.21    1.40            0.18    0.10    0.00           0.73     0.86
B5         13.39   12.23    6.98          41.57   10.74   11.49          15.73   46.93           0.75    1.02    1.15    0.89            0.34    0.33    0.21           0.61     0.66
B6         15.42   12.09    4.40          41.35   24.21   23.59          33.80   44.26           0.60    1.13    1.38    0.86            0.37    0.31    0.13           0.56     0.61
B7         17.64   11.97    2.71          41.17   37.42   34.51          50.90   42.68           0.48    1.27    1.62    0.84            0.40    0.31    0.11           0.53     0.59
B8         20.98   11.65    1.06          40.66   56.51   50.85          76.02   41.98           0.33    1.59    2.09    0.81            0.24    0.20    0.07           0.56     0.63
B9         36.06   36.47   27.11          66.87    3.00    4.88           5.76   57.99           0.40    0.47    0.51    0.43            0.69    0.75    0.53           0.91     1.00
B10        37.80   36.32   24.16          66.76    9.21    9.88          13.52   46.98           0.34    0.50    0.57    0.42            0.68    0.73    0.52           0.89     0.97
B11        39.69   36.48   21.78          66.88   14.68   14.61          20.72   44.86           0.28    0.52    0.62    0.41            0.67    0.72    0.49           0.84     0.92
B12        44.01   36.20   16.11          66.67   28.63   26.53          39.04   42.83           0.17    0.60    0.77    0.40            0.52    0.65    0.39           0.87     0.97
B13        63.95   69.24   58.90          86.62   -6.30   -1.81           6.55  195.98           0.21    0.14    0.15    0.17            0.40    0.35    0.23           0.24     0.28
B14        69.65   68.56   59.28          86.29    7.73   -2.77           8.21  340.32           0.11    0.19    0.14    0.16            0.29    0.38    0.25           0.28     0.34
B15        71.83   74.05   52.16          88.94    0.91    9.29           9.34   84.39           0.10    0.14    0.22    0.13            0.19    0.22    0.34           0.25     0.29
B16        57.81   60.42   49.53          82.06   -1.08    0.37           1.19  163.82           0.23    0.22    0.23    0.22            0.52    0.54    0.44           0.49     0.53
B17        67.39   66.49   51.11          85.24    7.33    4.08           8.40   29.12           0.11    0.21    0.22    0.17            0.33    0.44    0.45           0.45     0.51
B18        62.16   67.79   50.91          85.90   -7.30    5.43           9.10  143.35           0.21    0.15    0.23    0.17            0.50    0.45    0.35           0.36     0.41
B19        59.61   62.19   56.89          83.01   -0.85   -5.97           6.03  261.90           0.23    0.21    0.16    0.21            0.55    0.57    0.32           0.40     0.44
B20         4.98    2.97    0.93          19.92   31.30   17.10          35.67   28.65           0.99    2.07    2.06    1.42            0.18    0.12    0.07           0.60     0.67
B21        17.75   12.04    4.33          41.27   37.55   23.88          44.50   32.46           0.48    1.27    1.36    0.84            0.36    0.28    0.13           0.47     0.52
B22        34.89   30.01   17.73          61.66   21.56   14.11          25.77   33.20           0.31    0.65    0.71    0.49            0.55    0.59    0.39           0.83     0.91
C1          6.73    6.76    3.57          31.25    2.15   11.27          11.47   79.19           1.10    1.23    1.49    1.16            0.20    0.21    0.12           0.49     0.56
C2          7.21    6.84    2.30          31.43    6.19   21.20          22.09   73.71           1.03    1.26    1.74    1.14            0.22    0.23    0.11           0.53     0.61
C3          7.72    6.77    1.16          31.27   11.70   33.20          35.20   70.59           0.96    1.31    2.15    1.13            0.22    0.21    0.07           0.61     0.67
C4          8.24    6.68    0.39          31.06   17.37   46.18          49.34   69.38           0.90    1.37    2.96    1.11            0.24    0.20    0.01           0.71     0.86
C5         25.20   24.84   12.72          56.92    5.35   18.49          19.26   73.86           0.51    0.66    0.89    0.59            0.51    0.54    0.29           0.76     0.82
C6         26.92   24.59    6.93          56.67   13.53   37.73          40.09   70.27           0.43    0.71    1.22    0.57            0.53    0.55    0.17           0.63     0.71
C7         29.11   24.65    3.24          56.73   21.92   57.45          61.49   69.12           0.35    0.76    1.68    0.56            0.55    0.57    0.12           0.65     0.74
C8         31.85   24.59    0.82          56.67   32.42   82.23          88.39   68.48           0.28    0.83    2.80    0.54            0.52    0.50    0.02           0.69     0.82
C9         42.41   43.41   29.98          71.83    1.68    8.72           8.89   78.98           0.33    0.39    0.47    0.36            0.69    0.75    0.50           0.83     0.91
C10        43.48   43.47   25.66          71.87    4.65   16.01          16.68   73.75           0.29    0.40    0.55    0.35            0.67    0.73    0.50           0.80     0.88
C11        44.43   43.18   21.13          71.67    8.29   24.16          25.55   71.06           0.25    0.42    0.65    0.35            0.65    0.73    0.45           0.76     0.82
C12        48.88   43.42    9.67          71.83   20.07   53.57          57.21   69.46           0.14    0.47    1.08    0.32            0.48    0.66    0.22           0.62     0.77
C13        57.33   64.69   57.43          84.32  -11.99   -4.27          12.72  199.59           0.30    0.15    0.17    0.20            0.48    0.41    0.24           0.33     0.38
C14        64.67   60.66   56.90          82.19   14.42   -7.39          16.20  332.88           0.12    0.27    0.16    0.21            0.36    0.50    0.26           0.43     0.52
C15        70.06   72.68   43.25          88.30   -0.04   18.57          18.57   90.11           0.10    0.15    0.31    0.13            0.20    0.23    0.39           0.33     0.38
C16        44.87   47.16   38.83          74.29   -1.73    0.11           1.83  178.30           0.34    0.33    0.35    0.33            0.57    0.62    0.46           0.73     0.78
C17        59.79   55.97   40.71          79.60   14.31    6.79          15.85   25.39           0.13    0.31    0.32    0.23            0.44    0.60    0.52           0.76     0.83
C18        53.96   61.95   41.74          82.89  -14.21   11.15          18.07  141.88           0.30    0.17    0.33    0.22            0.54    0.48    0.49           0.52     0.59
C19        48.15   50.45   52.85          76.34   -1.37  -13.17          13.25  264.03           0.35    0.29    0.19    0.31            0.64    0.69    0.35           0.55     0.63
C20        12.77    9.46    1.10          36.84   27.08   43.73          51.43   58.23           0.66    1.29    2.18    0.95            0.36    0.31    0.08           0.69     0.77
C21        22.80   21.46   11.86          53.44    9.87   14.97          17.94   56.59           0.54    0.75    0.91    0.65            0.47    0.49    0.30           0.73     0.80
C22        28.59   24.48   11.58          56.56   20.64   21.17          29.57   45.72           0.38    0.75    0.92    0.57            0.49    0.51    0.27           0.70     0.78
D1          4.51    4.88    2.54          26.37   -2.47   10.38          10.68  103.41           1.32    1.34    1.66    1.31            0.17    0.19    0.11           0.55     0.61
D2          4.45    4.81    1.52          26.18   -2.46   19.98          20.13   97.04           1.31    1.34    1.97    1.31            0.17    0.19    0.09           0.60     0.67
D3          4.49    4.90    0.92          26.45   -3.14   28.47          28.65   96.30           1.31    1.33    2.31    1.30            0.17    0.20    0.07           0.67     0.74
D4          4.38    4.83    0.43          26.23   -3.61   37.16          37.34   95.55           1.34    1.32    2.95    1.30            0.16    0.17    0.01           0.74     0.89
D5         18.74   20.00   10.06          51.84   -2.77   17.81          18.02   98.83           0.69    0.72    1.01    0.69            0.43    0.47    0.24           0.73     0.78
D6         18.69   20.00    5.33          51.83   -3.05   36.72          36.84   94.75           0.67    0.72    1.38    0.69            0.46    0.51    0.14           0.65     0.74
D7         18.35   19.87    2.56          51.68   -4.15   53.86          54.02   94.40           0.69    0.71    1.89    0.68            0.45    0.53    0.11           0.71     0.79
D8         18.34   19.94    1.01          51.77   -4.56   70.68          70.83   93.69           0.72    0.70    2.77    0.68            0.44    0.47    0.02           0.80     0.93
D9         48.07   50.70   26.05          76.50   -2.25   23.30          23.41   95.51           0.27    0.30    0.56    0.29            0.64    0.68    0.48           0.66     0.72
D10        47.73   50.62   14.83          76.45   -2.95   46.55          46.64   93.63           0.26    0.31    0.87    0.28            0.58    0.63    0.29           0.48     0.53
D11        47.28   50.43    7.24          76.33   -3.71   70.32          70.42   93.02           0.26    0.30    1.33    0.28            0.59    0.61    0.17           0.42     0.48
D12        46.74   49.29    2.35          75.63   -2.19   96.96          96.99   91.29           0.27    0.32    2.31    0.28            0.54    0.55    0.11           0.62     0.70
D13        51.45   60.45   56.13          82.08  -17.22   -6.78          18.50  201.48           0.39    0.17    0.18    0.24            0.54    0.47    0.24           0.41     0.48
D14        59.36   52.66   54.11          77.67   21.59  -12.25          24.83  330.43           0.13    0.36    0.17    0.26            0.44    0.61    0.29           0.56     0.72
D15        68.42   71.29   35.05          87.63   -0.70   28.33          28.34   91.42           0.10    0.16    0.42    0.14            0.23    0.26    0.42           0.39     0.46
D16        34.23   36.04   29.66          66.55   -1.79    0.13           1.94  178.78           0.46    0.45    0.47    0.45            0.56    0.63    0.47           0.90     0.97
D17        52.11   45.77   30.92          73.39   21.97    9.95          24.13   24.38           0.15    0.44    0.45    0.31            0.47    0.64    0.51           0.93     1.03
D18        47.11   56.86   33.55          80.10  -20.40   17.52          26.90  139.35           0.39    0.19    0.44    0.26            0.54    0.47    0.49           0.65     0.72
D19        38.28   40.08   48.97          69.52   -1.15  -20.62          20.66  266.79           0.47    0.39    0.22    0.41            0.56    0.64    0.33           0.62     0.72
D20         3.07    3.09    1.06          20.41    1.55   15.92          15.99   84.45           1.43    1.58    2.11    1.49            0.15    0.16    0.08           0.66     0.74
D21        32.06   29.62    1.41          61.32   13.13   81.86          82.91   80.89           0.37    0.62    2.49    0.49            0.54    0.61    0.07           0.80     0.87
D22        42.77   46.05   51.15          73.58   -4.79  -16.09          16.79  253.41           0.43    0.32    0.21    0.35            0.62    0.68    0.33           0.59     0.68
E1          5.96    6.88    3.77          31.53   -7.19   10.47          12.70  124.48           1.24    1.16    1.48    1.17            0.19    0.23    0.14           0.54     0.62
E2          5.56    6.96    2.35          31.70  -12.49   21.14          24.56  120.57           1.31    1.12    1.77    1.17            0.19    0.25    0.11           0.57     0.66
E3          5.00    6.76    1.25          31.26  -17.29   31.98          36.36  118.40           1.41    1.09    2.22    1.18            0.20    0.27    0.08           0.69     0.77
E4          4.60    6.94    0.65          31.66  -24.09   42.33          48.71  119.65           1.57    1.03    2.87    1.18            0.18    0.25    0.02           0.87     1.00
E5         26.28   30.18   16.24          61.81  -11.20   17.83          21.05  122.13           0.60    0.50    0.79    0.53            0.50    0.58    0.34           0.69     0.75
E6         24.06   30.19    9.95          61.81  -20.62   35.34          40.92  120.26           0.67    0.46    1.08    0.53            0.44    0.53    0.22           0.54     0.60
E7         21.80   30.09    5.46          61.73  -30.43   53.14          61.24  119.79           0.79    0.43    1.49    0.54            0.41    0.50    0.13           0.47     0.52
E8         19.27   28.96    2.32          60.74  -38.50   71.53          81.23  118.29           0.94    0.41    2.25    0.56            0.41    0.50    0.09           0.51     0.55
E9         46.46   50.79   34.08          76.55   -6.95   10.62          12.70  123.23           0.33    0.28    0.42    0.30            0.64    0.66    0.50           0.68     0.75
E10        43.82   50.34   26.68          76.28  -13.35   21.84          25.60  121.44           0.37    0.27    0.55    0.30            0.62    0.66    0.48           0.61     0.65
E11        41.67   50.11   20.90          76.13  -19.12   32.31          37.55  120.62           0.41    0.25    0.69    0.31            0.57    0.59    0.43           0.62     0.66
E12        39.25   49.79   15.14          75.94  -25.74   44.88          51.74  119.84           0.46    0.24    0.88    0.31            0.52    0.49    0.31           0.57     0.64
E13        45.87   56.24   54.92          79.75  -22.41   -9.53          24.35  203.03           0.49    0.18    0.19    0.28            0.51    0.45    0.21           0.44     0.52
E14        53.54   44.41   50.78          72.50   29.50  -17.52          34.32  329.29           0.15    0.48    0.19    0.33            0.52    0.68    0.35           0.71     0.89
E15        66.80   69.75   27.27          86.87   -1.00   39.09          39.11   91.47           0.10    0.17    0.56    0.14            0.23    0.27    0.37           0.37     0.45
E16        24.97   26.39   21.86          58.40   -2.04   -0.16           2.17  185.57           0.60    0.59    0.61    0.58            0.50    0.56    0.40           0.87     0.94
E17        44.00   35.58   21.70          66.20   30.62   13.60          33.51   23.95           0.17    0.61    0.61    0.41            0.52    0.64    0.44           0.98     1.06
E18        40.34   51.53   26.02          77.00  -26.90   24.21          36.20  138.02           0.49    0.22    0.58    0.30            0.56    0.50    0.41           0.68     0.76
E19        29.29   30.58   44.95          62.15   -0.77  -28.59          28.61  268.46           0.63    0.51    0.26    0.54            0.48    0.55    0.33           0.65     0.74
E20         7.64    9.21    1.37          36.37  -11.04   39.31          40.83  105.69           1.15    1.00    2.20    1.03            0.25    0.32    0.09           0.78     0.85
E21        26.11   31.43    6.73          62.87  -16.49   49.23          51.92  108.51           0.60    0.46    1.32    0.50            0.47    0.55    0.15           0.52     0.58
E22         9.16   19.27   14.16          51.00  -60.64    4.38          60.80  175.87           1.83    0.50    0.88    0.80            0.29    0.46    0.30           0.74     0.79
F1          3.77    4.81    3.38          26.18  -12.08    3.81          12.67  162.51           1.52    1.28    1.52    1.34            0.16    0.20    0.13           0.57     0.65
F2          3.16    4.87    2.87          26.35  -22.63    7.78          23.93  161.03           1.74    1.21    1.64    1.36            0.15    0.21    0.11           0.61     0.69
F3          2.67    4.93    2.42          26.52  -32.10   11.65          34.15  160.05           1.98    1.15    1.76    1.37            0.14    0.22    0.12           0.66     0.75
F4          2.00    4.85    1.85          26.29  -44.97   16.52          47.91  159.83           2.45    1.08    1.99    1.39            0.09    0.20    0.10           0.68     0.77
F5         12.41   15.80   11.10          46.71  -17.90    5.64          18.77  162.53           1.03    0.75    0.96    0.83            0.35    0.45    0.29           0.72     0.79
F6         10.07   15.85    9.18          46.77  -35.12   12.05          37.13  161.07           1.29    0.67    1.08    0.84            0.29    0.43    0.22           0.73     0.81
F7          7.92   15.44    7.60          46.23  -50.92   16.97          53.68  161.57           1.64    0.62    1.22    0.87            0.28    0.46    0.21           0.75     0.83
F8          6.76   15.37    6.54          46.13  -61.65   21.22          65.20  161.00           1.93    0.58    1.33    0.89            0.24    0.43    0.16           0.70     0.76
F9         31.41   36.49   27.38          66.89  -13.27    4.45          14.01  161.52           0.56    0.40    0.52    0.45            0.59    0.68    0.51           0.82     0.90
F10        27.91   36.16   24.99          66.64  -25.45    8.18          26.74  162.20           0.69    0.37    0.58    0.47            0.53    0.65    0.46           0.74     0.80
F11        24.87   35.76   22.53          66.34  -36.63   12.22          38.62  161.55           0.83    0.34    0.64    0.48            0.48    0.57    0.46           0.68     0.74
F12        21.52   35.30   19.87          65.98  -50.07   16.92          52.86  161.33           1.03    0.30    0.72    0.50            0.45    0.49    0.41           0.84     0.91
F13        40.59   52.02   53.61          77.29  -27.42  -12.36          30.08  204.27           0.60    0.20    0.20    0.32            0.49    0.45    0.23           0.45     0.54
F14        47.85   36.90   47.20          67.20   37.23  -22.57          43.54  328.78           0.18    0.61    0.22    0.40            0.49    0.60    0.36           0.68     0.85
F15        65.29   68.07   20.10          86.04   -0.77   51.02          51.03   90.87           0.10    0.18    0.72    0.15            0.21    0.26    0.26           0.32     0.39
F16        17.65   18.80   15.29          50.45   -2.56    0.55           2.68  168.88           0.76    0.74    0.78    0.73            0.40    0.45    0.30           0.82     0.89
F17        36.73   27.17   13.90          59.13   38.62   19.07          43.07   26.28           0.21    0.81    0.81    0.50            0.46    0.51    0.35           0.83     0.91
