targets/wolf_faust/transmissive/F050721.it8
IT8.7/1
ORIGINATOR "Wolf Faust"
DESCRIPTOR "Fujichrome Provia/Astia/Sensia, Type 3, L* a* b* (light D50, viewing angle 2)"
MANUFACTURER "Wolf Faust - http://www.coloraid.de"
CREATED "July 10, 2005"
PROD_DATE "2005:07"
DIFFUSE_GEOMETRY "opal"
SERIAL "F050721 Batch Average Data"
MATERIAL "Fujichrome Provia 100F (RDP III)"
KEYWORD "MEAN_DE" # Mean Delta E of samples compared to batch average
NUMBER_OF_FIELDS 18
BEGIN_DATA_FORMAT
SAMPLE_ID  XYZ_X   XYZ_Y   XYZ_Z          LAB_L   LAB_A   LAB_B          LAB_C   LAB_H          D_RED  D_GREEN  D_BLUE  D_VIS          STDEV_X STDEV_Y STDEV_Z        MEAN_DE  STDEV_DE
END_DATA_FORMAT
NUMBER_OF_SETS 288
BEGIN_DATA
A1          2.34    2.03    1.40          15.62    8.42    3.14           8.99   20.48           1.49    1.86    1.88    1.66            0.08    0.08    0.06           0.34     0.42
A2          2.75    1.89    1.17          14.89   19.60    4.90          20.20   14.03           1.32    2.08    1.94    1.65            0.08    0.06    0.05           0.35     0.41 
A3          3.34    1.91    0.94          14.98   29.44    8.38          30.61   15.89           1.16    2.33    2.01    1.61            0.08    0.05    0.04           0.37     0.43
A4          4.04    1.91    0.78          15.00   40.00   11.10          41.51   15.51           1.00    2.83    2.03    1.57            0.07    0.03    0.02           0.33     0.37 
A5         10.23    8.96    6.61          35.90   12.99    3.26          13.39   14.09           0.87    1.18    1.16    1.02            0.17    0.16    0.13           0.44     0.49
A6         12.16    8.84    5.49          35.68   27.97    8.07          29.12   16.10           0.69    1.33    1.23    0.99            0.17    0.15    0.10           0.38     0.42 
A7         14.39    8.71    4.66          35.42   43.56   11.91          45.16   15.30           0.54    1.56    1.28    0.96            0.19    0.14    0.09           0.38     0.41
A8         17.15    8.69    3.90          35.38   59.71   16.25          61.88   15.22           0.40    1.92    1.33    0.93            0.13    0.09    0.08           0.35     0.40 
A9         29.98   29.53   23.15          61.24    5.80    2.25           6.25   21.18           0.47    0.58    0.58    0.52            0.53    0.58    0.47           0.70     0.82
A10        31.93   29.34   22.25          61.08   13.70    3.70          14.20   15.15           0.40    0.62    0.60    0.51            0.40    0.43    0.42           0.70     0.80
A11        34.24   29.28   21.11          61.03   22.05    5.85          22.82   14.87           0.32    0.66    0.62    0.50            0.40    0.43    0.41           0.69     0.81
A12        39.16   29.57   19.09          61.28   37.16   10.47          38.61   15.74           0.20    0.75    0.66    0.48            0.29    0.33    0.39           0.67     0.80 
A13        70.90   75.06   62.28          89.42   -3.10   -0.34           3.12  186.17           0.15    0.12    0.13    0.13            0.28    0.23    0.19           0.16     0.19
A14        74.86   76.24   62.95          89.97    2.77   -0.04           2.77  251.21           0.09    0.13    0.12    0.12            0.17    0.25    0.18           0.18     0.21 
A15        75.71   78.05   61.55          90.80    0.93    2.77           2.92   71.36           0.09    0.11    0.13    0.11            0.12    0.14    0.23           0.16     0.17
A16        74.19   76.71   62.91          90.19    0.47    0.37           0.60   38.73           0.11    0.12    0.12    0.11            0.19    0.20    0.17           0.10     0.11
A17        75.11   77.08   61.32          90.36    1.61    2.22           2.75   54.13           0.09    0.12    0.13    0.11            0.14    0.18    0.23           0.15     0.17
A18        72.27   75.77   58.86          89.75   -1.64    3.64           3.99  114.21           0.12    0.12    0.16    0.12            0.24    0.22    0.28           0.18     0.20 
A19        68.00   71.03   60.96          87.50   -1.06   -2.35           2.58  245.59           0.16    0.15    0.14    0.15            0.29    0.32    0.21           0.16     0.18
A20         6.44    3.06    1.99          20.28   46.52    4.77          46.77    5.86           0.81    2.57    1.60    1.37            0.12    0.07    0.07           0.37     0.43 
A21        27.53   19.52   15.34          51.29   39.20    1.87          39.24    2.73           0.34    0.99    0.74    0.65            0.26    0.25    0.27           0.58     0.69
A22        55.81   51.48   33.98          76.97   15.95   11.50          19.67   35.79           0.14    0.36    0.41    0.27            0.31    0.43    0.47           0.65     0.76
B1          3.53    3.24    1.89          20.97    6.66    6.96           9.64   46.26           1.34    1.61    1.77    1.47            0.09    0.09    0.06           0.31     0.37
B2          4.04    3.11    1.08          20.46   16.48   15.69          22.76   43.59           1.18    1.76    2.04    1.45            0.10    0.09    0.05           0.40     0.47
B3          4.64    3.08    0.67          20.37   25.12   22.51          33.73   41.85           1.06    1.91    2.28    1.42            0.11    0.08    0.04           0.46     0.51
B4          5.41    2.96    0.14          19.90   36.66   31.67          48.45   40.83           0.92    2.24    3.16    1.40            0.11    0.06    0.00           0.45     0.52
B5         13.09   11.79    6.94          40.88   11.76   10.47          15.75   41.65           0.76    1.04    1.15    0.90            0.21    0.21    0.14           0.44     0.49
B6         15.05   11.74    4.48          40.80   24.35   22.18          32.94   42.33           0.61    1.15    1.37    0.87            0.23    0.20    0.09           0.35     0.39
B7         17.53   11.81    2.76          40.90   37.98   33.65          50.74   41.54           0.48    1.29    1.61    0.84            0.23    0.19    0.07           0.37     0.42
B8         20.81   11.55    1.14          40.49   56.44   49.48          75.06   41.24           0.33    1.60    2.05    0.81            0.17    0.14    0.05           0.41     0.50
B9         35.52   35.68   26.95          66.27    3.82    4.12           5.65   47.03           0.40    0.48    0.52    0.44            0.43    0.48    0.46           0.65     0.77
B10        37.61   35.90   24.02          66.44    9.98    9.59          13.86   43.83           0.34    0.51    0.57    0.43            0.47    0.51    0.49           0.68     0.80
B11        39.09   35.58   21.44          66.20   15.76   14.10          21.16   41.82           0.29    0.54    0.63    0.42            0.41    0.46    0.43           0.69     0.80
B12        43.69   35.78   16.21          66.35   29.06   25.73          38.82   41.52           0.17    0.61    0.76    0.40            0.36    0.46    0.33           0.69     0.80
B13        63.98   69.17   58.85          86.59   -6.08   -1.81           6.35  196.54           0.21    0.14    0.15    0.17            0.36    0.36    0.27           0.20     0.23
B14        69.22   67.99   59.10          86.00    8.03   -3.07           8.60  339.07           0.11    0.20    0.14    0.16            0.28    0.38    0.25           0.29     0.35
B15        71.54   73.75   52.03          88.80    0.92    9.20           9.24   84.27           0.10    0.14    0.22    0.13            0.24    0.30    0.42           0.30     0.35
B16        57.73   60.09   49.48          81.89   -0.53    0.13           0.62  170.89           0.22    0.23    0.23    0.22            0.37    0.40    0.46           0.34     0.40
B17        66.88   65.81   50.94          84.90    7.68    3.68           8.52   25.59           0.11    0.21    0.22    0.17            0.27    0.35    0.43           0.35     0.40
B18        62.11   67.66   50.86          85.84   -7.14    5.38           8.95  143.02           0.21    0.15    0.23    0.17            0.31    0.31    0.42           0.26     0.31
B19        59.24   61.61   56.67          82.70   -0.40   -6.27           6.29  266.36           0.23    0.21    0.17    0.21            0.30    0.35    0.21           0.24     0.28
B20         5.05    3.08    1.01          20.36   30.32   16.65          34.59   28.76           0.99    2.02    2.02    1.41            0.13    0.10    0.06           0.49     0.56
B21        17.55   11.87    4.37          41.01   37.62   23.18          44.19   31.64           0.49    1.28    1.36    0.85            0.23    0.19    0.10           0.34     0.38
B22        34.39   29.38   17.84          61.12   22.19   12.92          25.68   30.22           0.31    0.67    0.70    0.50            0.32    0.39    0.28           0.69     0.82
C1          6.60    6.58    3.65          30.83    2.68   10.00          10.35   74.98           1.11    1.25    1.47    1.17            0.13    0.13    0.08           0.32     0.36
C2          7.00    6.58    2.29          30.83    6.75   20.18          21.28   71.51           1.04    1.28    1.73    1.15            0.14    0.14    0.07           0.35     0.40
C3          7.56    6.59    1.17          30.86   12.02   32.43          34.58   69.66           0.96    1.32    2.14    1.14            0.13    0.13    0.05           0.47     0.56
C4          8.10    6.50    0.40          30.63   17.99   45.33          48.77   68.35           0.90    1.39    2.92    1.13            0.13    0.11    0.01           0.41     0.46
C5         24.66   24.04   12.33          56.13    6.49   18.24          19.36   70.41           0.52    0.68    0.90    0.60            0.33    0.36    0.22           0.55     0.63
C6         26.53   24.05    6.89          56.13   14.30   36.94          39.61   68.84           0.43    0.72    1.22    0.58            0.32    0.34    0.11           0.47     0.53
C7         28.66   24.22    3.26          56.30   22.04   56.51          60.66   68.70           0.36    0.77    1.68    0.56            0.31    0.33    0.08           0.50     0.56
C8         31.43   24.10    0.83          56.19   32.93   81.29          87.71   67.95           0.29    0.84    2.77    0.55            0.31    0.31    0.01           0.51     0.56
C9         41.97   42.76   29.71          71.39    2.24    8.40           8.70   74.96           0.33    0.39    0.48    0.36            0.45    0.50    0.49           0.60     0.71
C10        42.97   42.74   25.51          71.37    5.30   15.42          16.31   70.99           0.29    0.41    0.55    0.36            0.43    0.50    0.46           0.62     0.73
C11        43.99   42.52   21.13          71.23    8.94   23.40          25.05   69.08           0.26    0.43    0.65    0.35            0.43    0.49    0.38           0.57     0.66
C12        48.31   42.68    9.79          71.34   20.66   52.33          56.26   68.45           0.15    0.48    1.07    0.33            0.34    0.46    0.16           0.51     0.57
C13        57.36   64.62   57.38          84.29  -11.75   -4.27          12.50  199.97           0.30    0.15    0.17    0.20            0.35    0.35    0.23           0.23     0.26
C14        64.36   60.25   56.81          81.98   14.65   -7.67          16.53  332.37           0.12    0.27    0.16    0.21            0.28    0.40    0.24           0.37     0.44
C15        69.75   72.38   43.05          88.15   -0.08   18.57          18.57   90.25           0.11    0.15    0.31    0.13            0.27    0.32    0.45           0.33     0.40
C16        44.89   47.00   38.76          74.19   -1.21    0.02           1.31  180.30           0.34    0.33    0.35    0.33            0.39    0.44    0.48           0.53     0.62
C17        59.55   55.69   40.67          79.44   14.42    6.58          15.86   24.50           0.13    0.32    0.32    0.24            0.29    0.37    0.53           0.55     0.64
C18        53.98   61.89   41.62          82.86  -14.02   11.25          17.98  141.28           0.30    0.17    0.33    0.22            0.29    0.29    0.47           0.37     0.45
C19        48.00   50.16   52.80          76.17   -1.00  -13.43          13.47  265.71           0.35    0.30    0.19    0.31            0.31    0.36    0.20           0.33     0.39
C20        12.57    9.29    1.15          36.53   27.09   42.41          50.33   57.43           0.66    1.30    2.15    0.96            0.18    0.16    0.06           0.57     0.64
C21        22.56   21.12   11.83          53.08   10.33   14.45          17.77   54.44           0.54    0.76    0.91    0.65            0.27    0.31    0.16           0.51     0.59
C22        28.32   24.14   11.58          56.23   21.06   20.61          29.47   44.39           0.38    0.76    0.92    0.58            0.28    0.32    0.16           0.54     0.62
D1          4.41    4.70    2.53          25.85   -1.65    9.59           9.73   99.76           1.32    1.37    1.66    1.32            0.11    0.12    0.08           0.35     0.41
D2          4.37    4.72    1.59          25.91   -2.38   18.68          18.83   97.25           1.32    1.35    1.94    1.32            0.10    0.12    0.07           0.44     0.51
D3          4.20    4.51    0.81          25.29   -2.09   28.38          28.46   94.22           1.33    1.37    2.38    1.33            0.10    0.12    0.04           0.50     0.57
D4          4.33    4.71    0.43          25.88   -2.83   36.43          36.54   94.45           1.34    1.34    2.91    1.31            0.09    0.10    0.01           0.46     0.55
D5         18.30   19.47    9.96          51.23   -2.48   17.08          17.26   98.25           0.70    0.73    1.01    0.70            0.25    0.30    0.16           0.49     0.57
D6         18.32   19.62    5.31          51.40   -3.08   36.07          36.20   94.87           0.68    0.72    1.38    0.69            0.26    0.32    0.10           0.43     0.50
D7         17.91   19.20    2.55          50.92   -3.14   52.66          52.75   93.41           0.69    0.73    1.88    0.70            0.25    0.31    0.08           0.59     0.68
D8         17.90   19.30    1.01          51.03   -3.71   69.48          69.58   93.05           0.72    0.72    2.74    0.69            0.24    0.30    0.01           0.49     0.57
D9         47.81   50.16   25.92          76.17   -1.51   22.95          23.00   93.77           0.27    0.31    0.56    0.29            0.42    0.46    0.45           0.48     0.56
D10        47.31   50.02   14.98          76.08   -2.55   45.52          45.59   93.20           0.26    0.31    0.87    0.29            0.39    0.45    0.23           0.32     0.36
D11        46.87   49.91    7.31          76.01   -3.46   69.47          69.55   92.85           0.26    0.31    1.32    0.28            0.33    0.37    0.08           0.33     0.37
D12        46.22   49.07    2.52          75.50   -3.09   95.23          95.28   91.86           0.28    0.32    2.23    0.29            0.44    0.44    0.09           0.64     0.72
D13        51.37   60.30   56.10          82.00  -17.10   -6.89          18.44  201.95           0.39    0.17    0.18    0.24            0.28    0.29    0.20           0.22     0.25
D14        59.02   52.21   54.05          77.40   21.93  -12.65          25.32  330.03           0.14    0.37    0.17    0.27            0.32    0.44    0.23           0.43     0.53
D15        68.02   70.90   34.72          87.43   -0.73   28.47          28.48   91.48           0.11    0.16    0.43    0.14            0.26    0.33    0.45           0.36     0.45
D16        33.98   35.68   29.51          66.27   -1.46   -0.11           1.60  185.47           0.46    0.46    0.47    0.45            0.30    0.37    0.42           0.64     0.77
D17        51.75   45.31   30.77          73.10   22.29    9.66          24.30   23.43           0.15    0.45    0.45    0.31            0.28    0.37    0.48           0.68     0.80
D18        46.80   56.52   33.37          79.91  -20.47   17.47          26.92  139.53           0.39    0.19    0.44    0.26            0.23    0.25    0.43           0.44     0.53
D19        37.91   39.61   48.91          69.19   -0.93  -21.12          21.14  267.48           0.48    0.40    0.22    0.42            0.25    0.33    0.15           0.39     0.48
D20         3.06    3.09    1.08          20.39    1.38   15.61          15.67   84.93           1.43    1.58    2.10    1.49            0.10    0.10    0.07           0.48     0.57
D21        31.65   29.25    1.51          61.00   12.98   80.02          81.07   80.79           0.37    0.62    2.41    0.49            0.29    0.37    0.06           0.64     0.72
D22        42.37   45.68   51.11          73.33   -4.94  -16.46          17.19  253.27           0.44    0.32    0.21    0.36            0.23    0.31    0.15           0.35     0.42
E1          5.82    6.70    3.84          31.10   -6.91    9.28          11.57  126.65           1.25    1.17    1.46    1.18            0.12    0.15    0.09           0.36     0.42
E2          5.35    6.63    2.34          30.96  -11.68   20.01          23.17  120.27           1.32    1.14    1.77    1.19            0.12    0.16    0.08           0.42     0.50
E3          4.90    6.64    1.26          30.96  -17.22   31.31          35.73  118.81           1.42    1.10    2.21    1.19            0.12    0.17    0.06           0.54     0.61
E4          4.44    6.67    0.65          31.05  -23.54   41.19          47.44  119.76           1.57    1.05    2.84    1.20            0.11    0.16    0.01           0.56     0.66
E5         25.78   29.68   16.12          61.38  -11.41   17.37          20.78  123.32           0.61    0.51    0.79    0.53            0.33    0.40    0.28           0.52     0.62
E6         23.45   29.49   10.04          61.21  -20.71   34.04          39.84  121.32           0.69    0.47    1.07    0.54            0.27    0.36    0.15           0.42     0.47
E7         21.32   29.34    5.39          61.08  -29.89   52.36          60.29  119.72           0.79    0.44    1.49    0.55            0.23    0.30    0.08           0.36     0.40
E8         19.09   28.53    2.20          60.36  -37.74   71.91          81.21  117.69           0.94    0.42    2.30    0.56            0.23    0.28    0.06           0.35     0.39
E9         45.66   49.92   33.90          76.02   -6.90    9.98          12.13  124.66           0.34    0.29    0.42    0.30            0.39    0.42    0.48           0.48     0.55
E10        43.52   49.94   26.64          76.03  -13.13   21.48          25.18  121.45           0.37    0.27    0.55    0.31            0.32    0.37    0.40           0.42     0.48
E11        41.29   49.58   21.00          75.81  -18.87   31.56          36.77  120.87           0.42    0.26    0.69    0.31            0.33    0.37    0.31           0.37     0.43
E12        38.82   49.36   14.94          75.67  -25.92   44.91          51.85  119.99           0.47    0.24    0.89    0.32            0.28    0.29    0.19           0.36     0.40
E13        45.70   56.02   54.87          79.63  -22.35   -9.69          24.36  203.45           0.49    0.18    0.19    0.28            0.23    0.25    0.16           0.24     0.26
E14        53.09   43.81   50.65          72.10   30.08  -18.08          35.10  329.00           0.16    0.49    0.19    0.33            0.36    0.45    0.25           0.47     0.58
E15        66.43   69.38   27.03          86.69   -1.05   39.19          39.20   91.54           0.11    0.17    0.56    0.15            0.21    0.28    0.35           0.37     0.44
E16        24.50   25.75   21.61          57.79   -1.41   -0.71           1.71  205.69           0.61    0.60    0.62    0.59            0.25    0.34    0.32           0.69     0.80
E17        43.56   35.05   21.54          65.79   31.13   13.20          33.82   22.99           0.18    0.63    0.61    0.41            0.32    0.40    0.38           0.74     0.90
E18        40.06   51.20   25.81          76.80  -26.94   24.25          36.24  138.01           0.49    0.22    0.58    0.31            0.21    0.21    0.33           0.48     0.57
E19        28.94   30.07   44.89          61.71   -0.21  -29.28          29.28  269.57           0.64    0.52    0.25    0.55            0.24    0.33    0.15           0.46     0.58
E20         7.51    9.03    1.38          36.04  -10.85   38.62          40.12  105.69           1.15    1.01    2.19    1.04            0.16    0.22    0.08           0.63     0.69
E21        25.51   30.59    6.72          62.16  -15.94   48.07          50.65  108.35           0.61    0.48    1.32    0.51            0.25    0.34    0.09           0.41     0.46
E22         9.10   19.12   14.29          50.82  -60.42    3.73          60.54  176.47           1.83    0.50    0.88    0.80            0.16    0.26    0.14           0.50     0.61
F1          3.68    4.68    3.38          25.79  -11.75    3.12          12.16  165.11           1.53    1.29    1.51    1.36            0.10    0.12    0.08           0.38     0.44
F2          3.06    4.70    2.86          25.85  -22.07    6.94          23.14  162.54           1.75    1.22    1.63    1.37            0.09    0.12    0.07           0.42     0.48
F3          2.51    4.59    2.40          25.54  -30.95   10.12          32.56  161.89           2.00    1.18    1.76    1.40            0.08    0.12    0.07           0.45     0.51
F4          1.93    4.66    1.87          25.74  -44.20   15.40          46.81  160.79           2.45    1.10    1.97    1.41            0.05    0.11    0.07           0.48     0.55
F5         12.17   15.39   11.03          46.16  -17.14    4.91          17.84  164.02           1.03    0.76    0.96    0.84            0.20    0.25    0.21           0.51     0.58
F6          9.79   15.32    9.12          46.07  -34.29   11.03          36.02  162.18           1.30    0.69    1.08    0.86            0.20    0.31    0.18           0.54     0.62
F7          7.72   15.07    7.42          45.72  -50.57   16.83          53.30  161.59           1.65    0.63    1.23    0.89            0.16    0.27    0.12           0.51     0.59
F8          6.65   15.14    6.46          45.83  -61.44   21.04          64.94  161.10           1.93    0.59    1.34    0.89            0.15    0.25    0.09           0.46     0.51
F9         31.08   35.96   27.40          66.49  -12.73    3.74          13.27  163.68           0.56    0.41    0.52    0.46            0.31    0.38    0.43           0.60     0.69
F10        27.56   35.62   24.84          66.22  -25.05    7.73          26.22  162.86           0.70    0.37    0.58    0.47            0.26    0.33    0.42           0.53     0.60
F11        24.57   35.31   22.65          65.99  -36.40   11.38          38.14  162.64           0.84    0.34    0.64    0.49            0.20    0.28    0.36           0.49     0.56
F12        21.33   35.03   19.87          65.77  -50.05   16.55          52.72  161.70           1.03    0.30    0.72    0.50            0.20    0.21    0.27           0.61     0.71
F13        40.60   51.95   53.63          77.25  -27.19  -12.46          29.91  204.61           0.60    0.20    0.20    0.32            0.18    0.19    0.15           0.22     0.25
F14        47.44   36.34   47.12          66.78   37.92  -23.21          44.45  328.53           0.18    0.62    0.22    0.41            0.29    0.36    0.21           0.45     0.55
F15        64.97   67.75   20.30          85.88   -0.81   50.34          50.34   90.93           0.11    0.18    0.72    0.15            0.18    0.27    0.28           0.34     0.43
F16        17.19   18.14   15.25          49.66   -1.61   -0.72           1.85  202.79           0.76    0.76    0.78    0.75            0.22    0.28    0.23           0.60     0.73
F17        36.30   26.66   14.04          58.65   39.23   17.89          43.12   24.51           0.21    0.82    0.81    0.51            0.28    0.32    0.24           0.57     0.69
