targets/wolf_faust/transmissive/F050401.it8
IT8.7/1
ORIGINATOR "Wolf Faust"
DESCRIPTOR "Fujichrome Provia/Astia/Sensia, Type 3, L* a* b* (light D50, viewing angle 2)"
MANUFACTURER "Wolf Faust - http://www.coloraid.de"
CREATED "April 11, 2005"
PROD_DATE "2005:04"
DIFFUSE_GEOMETRY "opal"
SERIAL "F050401 Batch Average Data"
MATERIAL "Fujichrome Provia 100F (RDP III)"
KEYWORD "MEAN_DE" # Mean Delta E of samples compared to batch average
NUMBER_OF_FIELDS 17
BEGIN_DATA_FORMAT
SAMPLE_ID   XYZ_X   XYZ_Y   XYZ_Z          LAB_L   LAB_A   LAB_B          LAB_C   LAB_H          STDEV_X  STDEV_Y  STDEV_Z          STDEV_L  STDEV_A  STDEV_B        MEAN_DE  STDEV_DE
END_DATA_FORMAT
NUMBER_OF_SETS 288
BEGIN_DATA
A1           2.14    1.82    1.23          14.48    9.03    3.31           9.62   20.14            0.06     0.05     0.03            0.28     0.27     0.26           0.42    0.47
A2           2.66    1.81    1.02          14.47   19.75    6.24          20.71   17.52            0.07     0.05     0.03            0.28     0.25     0.27           0.42    0.47 
A3           3.19    1.81    0.84          14.47   29.09    9.24          30.52   17.63            0.08     0.05     0.02            0.25     0.31     0.31           0.45    0.50
A4           3.87    1.86    0.71          14.74   38.70   11.93          40.50   17.13            0.08     0.04     0.02            0.21     0.32     0.27           0.42    0.47 
A5           9.62    8.40    5.98          34.81   12.87    4.20          13.54   18.08            0.23     0.21     0.17            0.41     0.34     0.37           0.60    0.65
A6          11.59    8.34    4.99          34.68   28.33    8.86          29.68   17.36            0.27     0.20     0.14            0.40     0.32     0.30           0.55    0.59 
A7          13.65    8.34    4.31          34.67   42.16   12.59          44.00   16.63            0.30     0.19     0.12            0.39     0.30     0.30           0.53    0.58
A8          16.74    8.52    3.55          35.05   58.91   17.94          61.58   16.94            0.11     0.08     0.09            0.16     0.09     0.41           0.39    0.45 
A9          28.62   28.06   21.86          59.94    6.22    2.48           6.70   21.56            0.62     0.62     0.55            0.56     0.35     0.53           0.74    0.84
A10         30.93   28.33   20.99          60.18   13.87    4.63          14.63   18.41            0.64     0.60     0.48            0.54     0.30     0.55           0.73    0.83
A11         33.01   28.33   19.86          60.18   21.37    6.96          22.48   18.02            0.64     0.59     0.48            0.53     0.24     0.52           0.68    0.78
A12         36.98   28.44   18.33          60.28   34.47   10.39          36.00   16.77            0.50     0.53     0.50            0.47     0.41     0.45           0.64    0.77 
A13         67.30   71.78   60.87          87.86   -4.16   -1.64           4.47   201.43            0.53     0.51     0.30            0.24     0.21     0.16           0.32    0.36
A14         71.73   72.67   61.24          88.29    3.53   -1.26           3.75   340.39            0.40     0.57     0.33            0.27     0.33     0.17           0.35    0.46 
A15         72.67   75.03   57.95          89.41    0.68    3.97           4.03   80.30            0.31     0.39     0.45            0.18     0.14     0.17           0.23    0.28
A16         72.30   75.03   61.87          89.41   -0.10    0.05           0.17   174.02            0.37     0.41     0.31            0.19     0.12     0.10           0.22    0.25
A17         70.44   71.15   58.49          87.56    3.95    0.23           3.96    3.47            0.42     0.59     0.42            0.29     0.33     0.11           0.34    0.45
A18         67.38   71.61   56.60          87.78   -3.63    2.56           4.45   144.85            0.54     0.53     0.49            0.26     0.19     0.14           0.31    0.35 
A19         65.15   67.81   59.58          85.91   -0.53   -3.72           3.76   261.81            0.65     0.73     0.39            0.37     0.21     0.26           0.41    0.50
A20          6.13    2.89    1.76          19.59   46.13    5.89          46.51    7.28            0.14     0.07     0.06            0.27     0.41     0.32           0.54    0.59 
A21         26.07   18.40   14.35          49.97   38.95    2.12          39.01    3.12            0.49     0.41     0.41            0.49     0.23     0.45           0.62    0.70
A22         53.28   48.86   32.28          75.36   16.49   11.26          19.97   34.33            0.56     0.72     0.66            0.45     0.51     0.38           0.65    0.78
B1           3.18    2.86    1.55          19.47    7.42    7.99          10.91   47.11            0.07     0.06     0.03            0.26     0.28     0.27           0.43    0.47
B2           3.78    2.88    1.03          19.56   16.58   14.99          22.35   42.11            0.09     0.07     0.03            0.27     0.28     0.31           0.45    0.50
B3           4.44    2.95    0.61          19.83   24.73   22.74          33.60   42.59            0.10     0.07     0.02            0.27     0.33     0.35           0.48    0.55
B4           5.19    2.88    0.15          19.54   35.61   30.92          47.16   40.97            0.10     0.06     0.00            0.23     0.30     0.36           0.45    0.52
B5          12.36   11.15    6.40          39.82   11.51   10.97          15.90   43.62            0.27     0.25     0.17            0.42     0.38     0.38           0.63    0.68
B6          14.36   11.12    4.12          39.78   24.56   22.56          33.34   42.57            0.32     0.26     0.12            0.43     0.32     0.33           0.57    0.63
B7          16.73   11.26    2.45          40.02   37.40   34.68          51.01   42.84            0.34     0.25     0.07            0.41     0.26     0.38           0.55    0.62
B8          20.11   11.15    1.08          39.83   55.88   49.06          74.36   41.28            0.13     0.10     0.03            0.17     0.15     0.26           0.30    0.34
B9          34.30   34.33   25.79          65.22    4.18    4.32           6.02   45.85            0.66     0.66     0.56            0.52     0.35     0.57           0.75    0.85
B10         35.99   34.35   22.76          65.24    9.84    9.89          13.95   45.11            0.71     0.70     0.54            0.55     0.34     0.54           0.74    0.84
B11         37.59   34.35   20.45          65.24   15.08   14.45          20.89   43.78            0.73     0.72     0.51            0.57     0.29     0.48           0.70    0.80
B12         41.05   34.25   16.06          65.16   26.31   24.02          35.63   42.40            0.52     0.61     0.41            0.48     0.53     0.35           0.66    0.79
B13         60.74   65.10   56.89          84.54   -4.74   -3.34           5.80   215.13            0.71     0.74     0.44            0.38     0.17     0.25           0.41    0.49
B14         63.70   63.72   56.63          83.82    5.22   -4.31           6.77   320.41            0.73     0.90     0.53            0.47     0.39     0.30           0.53    0.68
B15         64.96   67.53   50.21          85.77   -0.34    6.00           6.01   93.33            0.61     0.70     0.63            0.35     0.18     0.21           0.37    0.45
B16         56.24   58.69   48.41          81.12   -0.86    0.02           0.89   176.82            0.78     0.87     0.68            0.48     0.27     0.22           0.52    0.59
B17         61.75   62.05   49.16          82.94    4.52    2.30           5.07   27.05            0.65     0.79     0.65            0.42     0.32     0.18           0.47    0.56
B18         59.17   63.84   49.51          83.88   -5.63    3.52           6.65   147.97            0.71     0.73     0.64            0.38     0.22     0.21           0.43    0.49
B19         57.76   60.00   55.30          81.84   -0.24   -6.33           6.34   267.82            0.76     0.83     0.48            0.45     0.25     0.30           0.52    0.59
B20          4.80    2.90    0.94          19.62   30.43   16.50          34.62   28.47            0.13     0.08     0.04            0.33     0.28     0.25           0.47    0.51
B21         16.47   11.01    3.93          39.59   37.79   23.38          44.44   31.74            0.39     0.29     0.14            0.49     0.27     0.31           0.59    0.64
B22         33.03   28.28   16.98          60.14   21.66   13.20          25.37   31.36            0.61     0.59     0.43            0.53     0.35     0.46           0.70    0.78
C1           6.21    6.14    3.20          29.75    3.21   11.18          11.64   74.02            0.13     0.13     0.07            0.32     0.28     0.25           0.45    0.49
C2           6.67    6.16    1.98          29.82    7.76   21.30          22.67   69.98            0.14     0.13     0.04            0.32     0.34     0.36           0.54    0.59
C3           6.99    6.05    1.08          29.54   12.22   31.31          33.61   68.69            0.13     0.11     0.03            0.28     0.30     0.37           0.51    0.55
C4           7.61    6.10    0.38          29.66   17.67   43.90          47.33   68.08            0.15     0.12     0.01            0.30     0.32     0.43           0.53    0.61
C5          23.60   22.94   11.41          55.00    6.72   19.01          20.17   70.56            0.45     0.45     0.30            0.46     0.41     0.35           0.65    0.71
C6          25.29   22.94    6.32          55.00   13.98   37.51          40.03   69.56            0.45     0.42     0.16            0.44     0.37     0.26           0.57    0.63
C7          27.21   22.76    2.98          54.82   22.69   56.04          60.46   67.96            0.51     0.47     0.07            0.48     0.29     0.48           0.63    0.74
C8          30.03   22.87    0.78          54.94   33.15   80.05          86.64   67.51            0.44     0.38     0.02            0.40     0.24     0.40           0.51    0.61
C9          40.42   41.16   28.49          70.28    2.27    8.46           8.76   75.00            0.72     0.72     0.61            0.50     0.32     0.48           0.67    0.77
C10         41.24   40.86   24.01          70.07    5.69   15.89          16.88   70.31            0.76     0.79     0.52            0.55     0.35     0.43           0.69    0.78
C11         42.49   41.13   19.81          70.26    8.65   24.45          25.94   70.51            0.72     0.78     0.46            0.54     0.36     0.36           0.65    0.75
C12         45.36   40.89   11.76          70.10   17.76   44.00          47.45   68.02            0.61     0.74     0.33            0.52     0.52     0.34           0.70    0.80
C13         53.67   60.26   55.29          81.98  -11.03   -6.08          12.59   208.89            0.70     0.75     0.48            0.41     0.22     0.25           0.46    0.52
C14         58.71   55.55   54.16          79.35   12.79   -9.40          15.87   323.68            0.73     0.92     0.54            0.52     0.53     0.35           0.67    0.82
C15         63.03   66.01   41.13          85.00   -1.42   15.57          15.63   95.21            0.58     0.67     0.68            0.34     0.18     0.36           0.43    0.53
C16         43.52   45.52   37.53          73.23   -1.06    0.04           1.12   175.53            0.79     0.86     0.70            0.56     0.30     0.34           0.64    0.72
C17         54.69   52.05   38.92          77.31   11.69    5.20          12.80   23.98            0.70     0.84     0.70            0.50     0.43     0.29           0.61    0.72
C18         50.81   57.99   40.09          80.73  -13.09    9.56          16.22   143.88            0.73     0.75     0.68            0.42     0.27     0.31           0.52    0.59
C19         46.61   48.22   51.34          74.96    0.31  -13.90          13.91   271.25            0.77     0.86     0.50            0.54     0.34     0.40           0.66    0.75
C20         11.98    8.85    1.12          35.68   26.69   41.45          49.30   57.23            0.31     0.25     0.04            0.48     0.37     0.41           0.67    0.73
C21         21.45   20.11   11.01          51.96   10.02   14.96          18.01   56.19            0.50     0.50     0.29            0.57     0.36     0.42           0.71    0.79
C22         27.05   22.99   10.52          55.05   21.05   21.85          30.34   46.08            0.55     0.52     0.28            0.53     0.35     0.44           0.71    0.78
D1           4.06    4.29    2.34          24.60   -1.01    9.05           9.12   96.39            0.08     0.09     0.05            0.28     0.29     0.28           0.45    0.50
D2           4.07    4.32    1.48          24.71   -1.38   17.90          17.95   94.41            0.08     0.08     0.04            0.26     0.33     0.34           0.50    0.54
D3           3.98    4.28    0.83          24.57   -2.15   26.84          26.93   94.59            0.08     0.08     0.02            0.24     0.33     0.34           0.48    0.53
D4           3.90    4.21    0.41          24.36   -2.41   34.33          34.42   94.02            0.07     0.08     0.01            0.25     0.34     0.29           0.45    0.51
D5          17.48   18.46    9.39          50.04   -1.69   16.94          17.03   95.71            0.32     0.35     0.21            0.42     0.42     0.36           0.63    0.69
D6          17.28   18.39    4.90          49.96   -2.41   35.72          35.80   93.87            0.31     0.34     0.11            0.41     0.42     0.29           0.59    0.65
D7          17.08   18.34    2.42          49.91   -3.28   51.95          52.06   93.61            0.30     0.34     0.06            0.41     0.44     0.38           0.62    0.71
D8          16.99   18.42    0.96          50.00   -4.19   68.42          68.55   93.50            0.32     0.33     0.02            0.39     0.42     0.48           0.65    0.75
D9          45.81   48.20   24.88          74.95   -1.86   22.70          22.78   94.70            0.68     0.75     0.50            0.47     0.36     0.35           0.62    0.69
D10         45.58   48.27   14.02          74.99   -2.72   46.12          46.20   93.37            0.71     0.78     0.31            0.49     0.33     0.26           0.57    0.65
D11         45.27   48.15    6.82          74.92   -3.29   69.66          69.73   92.70            0.65     0.72     0.17            0.45     0.36     0.25           0.57    0.63
D12         44.80   47.83    2.77          74.71   -3.76   91.91          91.99   92.34            0.59     0.60     0.06            0.38     0.27     0.38           0.53    0.60
D13         47.38   55.79   53.91          79.49  -17.05   -8.90          19.24   207.56            0.63     0.70     0.46            0.40     0.22     0.24           0.45    0.52
D14         53.33   47.15   51.23          74.28   21.29  -14.95          26.02   324.91            0.67     0.83     0.52            0.53     0.57     0.36           0.69    0.86
D15         61.36   64.59   32.86          84.27   -2.13   25.75          25.84   94.75            0.57     0.67     0.63            0.35     0.18     0.40           0.44    0.56
D16         32.34   33.95   28.23          64.92   -1.40   -0.36           1.49   192.27            0.68     0.72     0.60            0.57     0.32     0.41           0.69    0.77
D17         47.46   42.05   29.38          70.91   20.18    8.10          21.75   21.85            0.62     0.73     0.64            0.50     0.45     0.32           0.63    0.74
D18         43.38   52.56   31.76          77.61  -20.40   15.93          25.89   142.01            0.66     0.70     0.55            0.42     0.28     0.35           0.54    0.61
D19         36.17   37.18   47.17          67.41    1.06  -22.17          22.20   272.74            0.68     0.78     0.47            0.58     0.40     0.48           0.73    0.85
D20          2.85    2.85    1.05          19.43    1.84   14.47          14.58   82.76            0.08     0.09     0.03            0.35     0.34     0.32           0.53    0.59
D21         30.23   27.97    1.41          59.86   12.68   79.32          80.32   80.92            0.59     0.59     0.03            0.54     0.38     0.58           0.76    0.87
D22         40.98   43.93   49.67          72.18   -4.17  -16.82          17.34   256.06            0.68     0.78     0.50            0.52     0.39     0.36           0.65    0.74
E1           5.36    6.17    3.36          29.83   -6.71   10.22          12.23   123.27            0.11     0.12     0.08            0.30     0.33     0.25           0.47    0.51
E2           4.90    6.10    2.08          29.66  -11.65   20.09          23.22   120.10            0.09     0.11     0.04            0.27     0.36     0.34           0.52    0.57
E3           4.45    6.04    1.27          29.51  -16.79   28.71          33.26   120.31            0.08     0.10     0.03            0.25     0.34     0.33           0.48    0.54
E4           4.06    6.13    0.61          29.74  -23.15   39.70          45.95   120.25            0.07     0.10     0.01            0.24     0.37     0.26           0.45    0.52
E5          24.62   28.23   15.12          60.09  -10.80   17.60          20.66   121.53            0.39     0.46     0.31            0.41     0.43     0.31           0.61    0.67
E6          22.67   28.40    9.31          60.25  -20.08   34.84          40.21   119.96            0.31     0.35     0.17            0.32     0.41     0.31           0.55    0.61
E7          20.36   28.04    5.07          59.93  -29.55   52.02          59.82   119.60            0.30     0.37     0.10            0.34     0.38     0.32           0.55    0.60
E8          17.94   27.54    2.20          59.47  -39.84   70.39          80.88   119.51            0.23     0.29     0.03            0.27     0.24     0.28           0.42    0.45
E9          44.32   48.53   32.66          75.16   -7.03   10.33          12.50   124.27            0.66     0.68     0.55            0.43     0.33     0.36           0.59    0.65
E10         41.93   48.19   25.61          74.94  -13.19   21.39          25.13   121.67            0.73     0.81     0.56            0.51     0.29     0.34           0.62    0.68
E11         39.79   47.90   19.93          74.76  -18.97   31.94          37.15   120.70            0.66     0.74     0.47            0.47     0.27     0.30           0.57    0.62
E12         38.32   47.97   15.60          74.80  -23.81   41.79          48.09   119.67            0.57     0.63     0.33            0.40     0.33     0.24           0.53    0.57
E13         42.08   51.82   52.71          77.17  -22.33  -11.60          25.17   207.46            0.54     0.61     0.42            0.37     0.25     0.22           0.44    0.49
E14         47.77   39.06   47.78          68.79   30.16  -20.51          36.47   325.78            0.59     0.70     0.50            0.51     0.57     0.31           0.67    0.82
E15         59.89   63.16   25.17          83.53   -2.40   36.98          37.06   93.72            0.52     0.62     0.52            0.33     0.21     0.42           0.47    0.57
E16         23.44   24.62   20.44          56.70   -1.30   -0.27           1.38   189.69            0.50     0.55     0.45            0.54     0.28     0.41           0.66    0.73
E17         40.44   32.90   20.61          64.08   29.11   12.12          31.53   22.60            0.48     0.53     0.48            0.43     0.40     0.38           0.59    0.70
E18         37.14   47.76   24.24          74.67  -27.04   23.39          35.75   139.13            0.56     0.61     0.48            0.39     0.29     0.37           0.56    0.61
E19         27.66   28.03   43.18          59.91    2.55  -30.28          30.39   274.80            0.50     0.56     0.41            0.51     0.41     0.39           0.67    0.76
E20          6.87    8.20    1.29          34.39   -9.89   36.92          38.22   105.00            0.16     0.21     0.04            0.43     0.44     0.34           0.65    0.70
E21         24.35   29.19    6.20          60.95  -15.64   48.29          50.76   107.94            0.44     0.54     0.14            0.48     0.38     0.38           0.65    0.72
E22          8.41   18.02   13.41          49.52  -60.73    3.83          60.85   176.39            0.14     0.27     0.31            0.33     0.26     0.36           0.48    0.55
F1           3.45    4.31    2.94          24.68  -10.56    4.33          11.42   157.69            0.07     0.09     0.08            0.29     0.36     0.32           0.52    0.56
F2           2.85    4.32    2.62          24.70  -20.87    6.82          21.95   161.90            0.06     0.09     0.06            0.29     0.39     0.20           0.47    0.52
F3           2.39    4.30    2.12          24.64  -29.46   11.06          31.47   159.43            0.05     0.09     0.05            0.27     0.46     0.22           0.51    0.58
F4           1.80    4.38    1.68          24.89  -43.68   15.86          46.47   160.04            0.02     0.07     0.03            0.20     0.37     0.24           0.43    0.49
F5          11.34   14.39    9.99          44.79  -17.09    5.88          18.07   161.01            0.19     0.23     0.21            0.33     0.38     0.41           0.58    0.65
F6           9.10   14.42    8.31          44.84  -34.55   11.85          36.53   161.07            0.13     0.18     0.15            0.25     0.38     0.41           0.55    0.61
F7           7.25   14.31    6.99          44.67  -50.47   16.77          53.18   161.62            0.10     0.17     0.12            0.25     0.32     0.35           0.49    0.53
F8           6.08   14.21    5.90          44.53  -61.86   21.36          65.45   160.96            0.07     0.16     0.10            0.22     0.26     0.24           0.39    0.42
F9          29.42   34.14   26.10          65.07  -12.84    3.51          13.32   164.68            0.48     0.51     0.45            0.41     0.38     0.38           0.62    0.67
F10         26.32   33.98   23.46          64.95  -24.57    8.06          25.86   161.84            0.43     0.52     0.44            0.41     0.29     0.37           0.57    0.62
F11         23.43   33.78   21.23          64.79  -36.23   12.08          38.19   161.56            0.39     0.49     0.42            0.39     0.32     0.37           0.57    0.62
F12         20.13   33.48   18.77          64.55  -50.55   16.79          53.27   161.62            0.27     0.36     0.39            0.29     0.25     0.45           0.53    0.59
F13         37.37   48.11   51.55          74.90  -27.25  -14.25          30.75   207.61            0.48     0.57     0.43            0.36     0.24     0.19           0.43    0.47
F14         42.32   31.79   44.09          63.16   38.76  -25.79          46.56   326.35            0.51     0.56     0.46            0.46     0.49     0.26           0.58    0.72
F15         58.70   61.79   18.72          82.80   -2.10   48.37          48.41   92.49            0.48     0.58     0.39            0.31     0.23     0.36           0.44    0.53
F16         16.32   17.10   14.28          48.39   -0.98   -0.44           1.13   201.04            0.37     0.40     0.35            0.51     0.26     0.41           0.65    0.70
F17         33.98   25.11   13.50          57.18   37.74   16.78          41.30   23.97            0.36     0.38     0.32            0.37     0.35     0.34           0.53    0.61
F18         31.71   43.31   18.00          71.76  -33.17   30.93          45.36   137.00            0.42     0.49     0.35            0.33     0.28     0.33           0.50    0.55
F19         20.92   20.75   39.46          52.68    4.39  -37.99          38.24   276.59            0.36     0.42     0.38            0.47     0.48     0.33           0.67    0.74
