targets/wolf_faust/transmissive/F060521.it8
IT8.7/1
ORIGINATOR "Wolf Faust"
DESCRIPTOR "Fujichrome Provia/Astia/Sensia, Type 3, L* a* b* (light D50, viewing angle 2)"
MANUFACTURER "Wolf Faust - http://www.coloraid.de"
CREATED "January 20, 2007"
PROD_DATE "2006:05"
DIFFUSE_GEOMETRY "opal"
SERIAL "F060521 Batch Average Data"
MATERIAL "Fujichrome Provia 100F (RDP III)"
KEYWORD "MEAN_DE" # Mean Delta E of samples compared to batch average
NUMBER_OF_FIELDS 18
BEGIN_DATA_FORMAT
SAMPLE_ID  XYZ_X   XYZ_Y   XYZ_Z          LAB_L   LAB_A   LAB_B          LAB_C   LAB_H          D_RED  D_GREEN  D_BLUE  D_VIS          STDEV_X STDEV_Y STDEV_Z        MEAN_DE  STDEV_DE
END_DATA_FORMAT
NUMBER_OF_SETS 288
BEGIN_DATA
A1          1.99    1.70    1.19          13.85    8.57    2.85           9.03   18.39           1.56    1.94    1.95    1.74            0.05    0.05    0.05           0.31     0.35
A2          2.65    1.83    1.00          14.57   19.02    6.78          20.20   19.63           1.34    2.09    2.02    1.67            0.06    0.05    0.04           0.31     0.36 
A3          3.03    1.72    0.84          13.93   28.80    8.22          29.95   15.94           1.20    2.40    2.05    1.65            0.07    0.04    0.04           0.35     0.42
A4          3.71    1.77    0.72          14.24   38.53   11.05          40.08   16.01           1.04    2.88    2.08    1.60            0.08    0.04    0.03           0.39     0.46 
A5          9.35    8.21    6.03          34.42   12.37    3.34          12.82   15.10           0.91    1.22    1.20    1.06            0.18    0.16    0.18           0.42     0.48
A6         11.12    8.07    5.15          34.12   27.33    7.09          28.24   14.55           0.73    1.38    1.26    1.03            0.20    0.15    0.16           0.47     0.51 
A7         13.24    8.06    4.26          34.10   41.98   11.93          43.64   15.87           0.58    1.58    1.32    1.00            0.23    0.15    0.15           0.52     0.56
A8         16.69    8.33    3.51          34.66   60.25   17.56          62.76   16.25           0.40    1.99    1.37    0.94            0.12    0.07    0.12           0.53     0.60 
A9         27.97   27.43   22.25          59.37    6.09    0.74           6.14    7.00           0.50    0.61    0.60    0.55            0.51    0.54    0.48           0.55     0.61
A10        30.07   27.48   21.17          59.42   14.00    2.96          14.32   11.95           0.42    0.65    0.62    0.54            0.58    0.57    0.51           0.59     0.65
A11        32.27   27.53   19.87          59.46   21.89    5.68          22.62   14.55           0.35    0.69    0.65    0.53            0.60    0.55    0.58           0.63     0.70
A12        37.80   27.97   17.87          59.86   38.96   10.70          40.40   15.35           0.20    0.79    0.69    0.50            0.45    0.48    0.57           0.79     0.87 
A13        69.90   74.27   62.71          89.05   -3.63   -1.39           3.89  200.94           0.16    0.12    0.13    0.13            0.43    0.38    0.28           0.22     0.26
A14        75.21   76.66   63.77          90.16    2.65   -0.48           2.69  349.65           0.09    0.12    0.12    0.11            0.23    0.31    0.24           0.22     0.24 
A15        75.32   77.61   60.50          90.60    1.00    3.46           3.60   73.86           0.09    0.11    0.14    0.11            0.17    0.19    0.27           0.17     0.18
A16        73.30   76.50   63.46          90.09   -0.95   -0.32           1.01  198.66           0.12    0.11    0.12    0.12            0.30    0.29    0.27           0.16     0.18
A17        74.84   76.46   61.89          90.07    2.29    1.17           2.58   27.06           0.09    0.12    0.13    0.11            0.21    0.28    0.27           0.20     0.23
A18        70.76   74.66   58.60          89.23   -2.58    3.00           3.96  130.71           0.14    0.12    0.16    0.13            0.32    0.30    0.31           0.18     0.20 
A19        68.06   70.74   61.64          87.36   -0.32   -3.26           3.28  264.34           0.16    0.15    0.13    0.15            0.48    0.53    0.34           0.28     0.32
A20         5.71    2.65    1.67          18.59   45.79    5.15          46.08    6.42           0.86    2.76    1.67    1.43            0.08    0.04    0.05           0.46     0.50 
A21        25.63   18.04   14.55          49.54   39.01    0.87          39.02   37.28           0.37    1.03    0.76    0.68            0.47    0.38    0.51           0.69     0.76
A22        52.69   48.19   32.14          74.94   16.77   10.74          19.92   32.63           0.16    0.40    0.43    0.29            0.68    0.79    0.80           0.69     0.75
B1          3.06    2.77    1.54          19.10    7.01    7.48          10.26   46.87           1.39    1.69    1.86    1.53            0.06    0.05    0.03           0.26     0.29
B2          3.69    2.81    1.05          19.28   16.36   14.09          21.59   40.73           1.22    1.81    2.04    1.49            0.06    0.05    0.02           0.26     0.30
B3          4.25    2.80    0.60          19.24   24.67   21.92          33.00   41.63           1.10    1.96    2.33    1.46            0.08    0.05    0.01           0.27     0.32
B4          5.01    2.79    0.14          19.18   34.96   30.36          46.31   40.97           0.96    2.24    3.12    1.43            0.10    0.05    0.00           0.45     0.53
B5         11.97   10.75    6.19          39.15   11.65   10.75          15.85   42.69           0.80    1.09    1.21    0.94            0.21    0.20    0.16           0.42     0.47
B6         13.88   10.79    4.02          39.22   24.00   22.17          32.68   42.72           0.65    1.19    1.42    0.91            0.22    0.19    0.10           0.37     0.41
B7         15.98   10.72    2.45          39.10   37.14   33.08          49.73   41.69           0.52    1.34    1.67    0.88            0.23    0.17    0.06           0.35     0.40
B8         20.18   10.97    0.90          39.54   57.47   51.47          77.15   41.84           0.34    1.66    2.16    0.83            0.13    0.09    0.02           0.19     0.21
B9         33.18   33.31   25.70          64.41    3.77    3.08           4.87   39.26           0.44    0.51    0.54    0.47            0.65    0.68    0.58           0.58     0.65
B10        34.96   33.20   22.73          64.32   10.31    8.37          13.29   39.04           0.37    0.54    0.60    0.46            0.67    0.68    0.55           0.65     0.72
B11        36.84   33.32   20.44          64.42   16.16   13.06          20.78   38.93           0.31    0.57    0.65    0.45            0.71    0.69    0.60           0.68     0.74
B12        41.89   33.50   14.44          64.56   31.44   27.03          41.47   40.69           0.18    0.66    0.82    0.42            0.52    0.61    0.47           0.86     0.95
B13        62.46   67.59   59.10          85.80   -6.19   -3.42           7.07  208.88           0.23    0.15    0.15    0.18            0.62    0.60    0.35           0.34     0.40
B14        68.90   67.29   59.53          85.65    8.86   -4.11           9.77  335.11           0.11    0.20    0.14    0.17            0.45    0.60    0.36           0.44     0.50
B15        70.86   72.68   51.21          88.30    1.67    9.23           9.38   79.77           0.11    0.15    0.22    0.13            0.35    0.43    0.46           0.30     0.34
B16        56.35   58.82   48.70          81.19   -0.91   -0.18           0.95  192.76           0.24    0.23    0.24    0.23            0.75    0.78    0.59           0.45     0.51
B17        66.37   65.00   50.13          84.48    8.34    3.87           9.19   24.91           0.11    0.22    0.23    0.18            0.51    0.64    0.59           0.47     0.53
B18        60.45   65.96   50.06          84.97   -7.31    4.80           8.74  146.73           0.23    0.16    0.24    0.19            0.64    0.62    0.52           0.35     0.40
B19        58.10   60.52   56.97          82.12   -0.61   -7.59           7.62  265.36           0.24    0.22    0.16    0.22            0.68    0.73    0.39           0.46     0.54
B20         4.40    2.62    0.83          18.47   30.09   16.32          34.23   28.47           1.05    2.13    2.11    1.48            0.07    0.04    0.02           0.26     0.32
B21        16.08   10.79    3.92          39.22   37.19   22.80          43.62   31.51           0.52    1.33    1.41    0.89            0.33    0.24    0.14           0.47     0.53
B22        32.44   27.70   16.84          59.61   21.83   12.64          25.23   30.06           0.34    0.69    0.73    0.52            0.61    0.60    0.55           0.68     0.74
C1          5.96    5.92    3.18          29.21    2.83   10.39          10.77   74.74           1.15    1.30    1.54    1.21            0.12    0.12    0.08           0.32     0.37
C2          6.45    6.03    1.96          29.50    6.84   20.98          22.06   71.95           1.07    1.32    1.81    1.19            0.12    0.12    0.04           0.28     0.35
C3          6.80    5.88    1.10          29.09   12.17   30.34          32.69   68.13           1.01    1.38    2.15    1.18            0.13    0.12    0.02           0.33     0.39
C4          7.39    5.94    0.38          29.27   17.29   43.31          46.63   68.24           0.95    1.43    2.92    1.16            0.12    0.10    0.01           0.40     0.49
C5         22.79   22.11   11.53          54.14    6.83   17.14          18.45   68.28           0.55    0.72    0.93    0.64            0.33    0.34    0.26           0.50     0.55
C6         24.51   22.14    6.35          54.17   14.28   35.91          38.65   68.31           0.46    0.76    1.26    0.62            0.31    0.31    0.12           0.42     0.46
C7         26.70   22.43    2.92          54.47   22.13   55.88          60.10   68.39           0.39    0.80    1.73    0.60            0.41    0.38    0.07           0.41     0.48
C8         29.38   22.41    0.80          54.45   32.78   78.92          85.45   67.44           0.31    0.88    2.77    0.58            0.42    0.36    0.02           0.53     0.60
C9         39.42   40.07   28.57          69.51    2.48    7.00           7.43   70.43           0.36    0.42    0.49    0.39            0.69    0.72    0.58           0.61     0.67
C10        40.38   40.04   24.22          69.49    5.56   14.49          15.53   69.00           0.32    0.44    0.58    0.38            0.70    0.73    0.58           0.67     0.73
C11        41.72   40.01   19.85          69.47    9.75   23.00          24.98   67.02           0.28    0.46    0.68    0.38            0.72    0.76    0.56           0.73     0.79
C12        46.65   40.31    8.28          69.69   23.19   54.80          59.51   67.07           0.15    0.52    1.16    0.35            0.48    0.63    0.26           0.76     0.85
C13        55.50   62.81   57.53          83.34  -12.29   -6.06          13.71  206.25           0.32    0.16    0.17    0.22            0.64    0.61    0.34           0.41     0.48
C14        63.42   58.67   56.74          81.11   16.25   -9.09          18.62  330.78           0.12    0.29    0.16    0.22            0.57    0.74    0.44           0.62     0.68
C15        69.05   71.28   41.85          87.62    0.69   19.17          19.18   87.95           0.10    0.16    0.33    0.14            0.40    0.47    0.55           0.42     0.46
C16        43.04   45.12   37.63          72.97   -1.36   -0.55           1.49  202.62           0.36    0.35    0.36    0.35            0.76    0.78    0.66           0.55     0.61
C17        58.39   54.00   39.25          78.46   15.85    6.75          17.23   23.08           0.13    0.34    0.34    0.25            0.57    0.73    0.63           0.63     0.69
C18        51.92   59.87   40.40          81.77  -14.63   10.94          18.27  143.21           0.32    0.19    0.35    0.23            0.66    0.64    0.56           0.45     0.51
C19        46.20   48.20   52.53          74.95   -0.77  -15.24          15.26  267.11           0.37    0.32    0.20    0.33            0.66    0.72    0.43           0.57     0.64
C20        11.56    8.53    1.06          35.07   26.41   41.15          48.89   57.31           0.70    1.34    2.18    1.00            0.17    0.14    0.02           0.41     0.46
C21        20.79   19.45   11.15          51.21   10.12   13.26          16.68   52.64           0.58    0.80    0.94    0.69            0.42    0.42    0.36           0.60     0.65
C22        26.47   22.41   10.69          54.45   21.26   20.29          29.39   43.66           0.41    0.80    0.96    0.61            0.43    0.41    0.35           0.66     0.72
D1          3.92    4.18    2.23          24.25   -1.64    9.38           9.53   99.92           1.37    1.42    1.72    1.37            0.08    0.08    0.05           0.35     0.38
D2          3.92    4.21    1.48          24.36   -2.09   17.20          17.33   96.92           1.36    1.41    1.96    1.37            0.08    0.08    0.04           0.30     0.33
D3          3.85    4.15    0.84          24.17   -2.29   25.84          25.94   95.07           1.37    1.40    2.33    1.37            0.07    0.09    0.02           0.32     0.38
D4          3.87    4.17    0.41          24.23   -2.21   34.12          34.19   93.70           1.38    1.40    2.92    1.36            0.07    0.09    0.01           0.42     0.50
D5         16.84   17.87    9.14          49.34   -2.14   16.62          16.76   97.33           0.74    0.77    1.05    0.74            0.26    0.29    0.21           0.53     0.59
D6         16.53   17.69    4.96          49.12   -2.90   33.94          34.06   94.88           0.73    0.77    1.41    0.74            0.29    0.33    0.13           0.39     0.46
D7         16.54   17.80    2.23          49.25   -3.42   52.44          52.55   93.73           0.73    0.76    1.96    0.73            0.25    0.29    0.03           0.49     0.58
D8         16.35   17.59    0.96          49.00   -3.40   66.72          66.81   92.91           0.76    0.76    2.74    0.73            0.25    0.28    0.02           0.47     0.53
D9         45.25   47.47   24.94          74.49   -1.50   21.79          21.85   93.94           0.30    0.34    0.58    0.32            0.69    0.72    0.50           0.58     0.62
D10        44.86   47.42   13.99          74.45   -2.47   45.27          45.34   93.13           0.28    0.34    0.90    0.31            0.63    0.68    0.34           0.56     0.61
D11        44.61   47.43    6.86          74.46   -3.21   68.68          68.75   92.68           0.28    0.33    1.36    0.30            0.67    0.71    0.17           0.45     0.50
D12        44.15   47.18    2.35          74.31   -3.87   94.61          94.68   92.34           0.31    0.33    2.30    0.30            0.56    0.51    0.04           0.50     0.56
D13        49.20   58.26   56.11          80.88  -18.05   -8.83          20.09  206.06           0.42    0.18    0.18    0.26            0.56    0.55    0.30           0.38     0.45
D14        57.50   49.84   53.48          75.97   24.42  -14.51          28.41  329.29           0.14    0.40    0.18    0.28            0.54    0.70    0.41           0.68     0.76
D15        67.40   69.85   33.72          86.92    0.10   29.04          29.04   89.80           0.10    0.17    0.44    0.14            0.42    0.51    0.55           0.48     0.53
D16        31.92   33.44   28.56          64.51   -1.17   -1.59           1.99  233.45           0.49    0.49    0.49    0.48            0.63    0.67    0.64           0.55     0.62
D17        50.11   43.01   29.46          71.56   24.58    9.09          26.21   20.30           0.15    0.49    0.47    0.33            0.54    0.66    0.64           0.71     0.77
D18        44.56   54.37   32.39          78.67  -21.52   16.79          27.30  142.04           0.42    0.21    0.46    0.28            0.59    0.59    0.55           0.48     0.54
D19        35.83   37.22   48.29          67.44   -0.19  -23.43          23.43  269.53           0.51    0.43    0.23    0.45            0.52    0.59    0.34           0.55     0.63
D20         2.80    2.81    0.96          19.27    1.58   15.42          15.50   84.14           1.47    1.62    2.16    1.53            0.06    0.07    0.03           0.34     0.38
D21        29.67   27.40    1.36          59.34   12.81   78.94          79.98   80.78           0.40    0.65    2.48    0.52            0.47    0.47    0.03           0.60     0.68
D22        39.69   42.93   50.58          71.51   -5.25  -19.01          19.73  254.56           0.48    0.35    0.21    0.39            0.67    0.77    0.42           0.65     0.73
E1          5.17    6.00    3.28          29.41   -7.19   10.07          12.37  125.55           1.31    1.22    1.54    1.23            0.10    0.12    0.10           0.40     0.45
E2          4.78    5.99    2.11          29.40  -12.03   19.39          22.81  121.81           1.37    1.18    1.82    1.23            0.10    0.13    0.05           0.37     0.42
E3          4.33    5.95    1.24          29.29  -17.42   28.70          33.58  121.25           1.48    1.14    2.20    1.24            0.09    0.13    0.03           0.42     0.49
E4          3.88    5.87    0.61          29.07  -22.95   38.59          44.91  120.74           1.64    1.11    2.85    1.25            0.09    0.13    0.01           0.51     0.60
E5         23.89   27.56   15.33          59.49  -11.37   16.04          19.67  125.34           0.64    0.54    0.81    0.57            0.41    0.48    0.41           0.63     0.70
E6         21.67   27.31    9.29          59.25  -20.39   33.17          38.94  121.57           0.72    0.51    1.11    0.57            0.38    0.46    0.26           0.47     0.54
E7         19.61   27.16    4.85          59.12  -29.74   51.74          59.67  119.89           0.83    0.47    1.55    0.58            0.31    0.42    0.10           0.38     0.45
E8         17.40   27.03    2.25          59.00  -40.73   69.15          80.25  120.50           1.02    0.43    2.27    0.59            0.19    0.23    0.03           0.28     0.32
E9         43.11   47.16   32.51          74.29   -6.87    9.06          11.37  127.17           0.37    0.32    0.44    0.33            0.50    0.54    0.46           0.44     0.50
E10        40.86   47.18   25.32          74.30  -13.68   20.80          24.89  123.32           0.41    0.30    0.58    0.33            0.58    0.62    0.45           0.51     0.56
E11        38.92   47.09   19.82          74.24  -19.48   31.28          36.85  121.91           0.45    0.28    0.72    0.33            0.54    0.59    0.38           0.50     0.54
E12        36.57   47.09   13.85          74.25  -27.08   45.29          52.77  120.88           0.50    0.25    0.93    0.34            0.47    0.50    0.28           0.46     0.50
E13        43.47   53.90   54.75          78.40  -23.51  -11.68          26.25  206.41           0.53    0.19    0.19    0.30            0.50    0.52    0.28           0.39     0.43
E14        51.64   41.70   49.94          70.66   32.47  -19.75          38.00  328.70           0.16    0.52    0.20    0.35            0.50    0.62    0.39           0.66     0.76
E15        65.64   68.10   25.80          86.05   -0.05   40.22          40.22   90.07           0.11    0.18    0.58    0.15            0.37    0.47    0.56           0.62     0.69
E16        23.03   24.22   20.87          56.31   -1.45   -1.80           2.32  230.71           0.64    0.63    0.63    0.62            0.41    0.47    0.49           0.54     0.61
E17        42.19   33.30   20.42          64.40   33.05   13.07          35.54   21.58           0.18    0.66    0.63    0.43            0.45    0.52    0.57           0.75     0.82
E18        37.90   49.11   24.88          75.52  -28.21   23.69          36.84  139.99           0.52    0.23    0.60    0.33            0.50    0.51    0.53           0.54     0.61
E19        27.38   28.30   44.30          60.16    0.36  -31.24          31.24  270.66           0.67    0.55    0.26    0.57            0.41    0.48    0.32           0.52     0.62
E20         6.66    8.05    1.37          34.09  -10.81   35.30          36.91  107.03           1.21    1.06    2.16    1.09            0.11    0.15    0.03           0.46     0.53
E21        23.65   28.47    6.18          60.31  -15.95   47.28          49.90  108.65           0.64    0.51    1.36    0.55            0.44    0.54    0.17           0.49     0.56
E22         8.25   17.41   13.50          48.77  -58.89    2.30          58.94  177.76           1.89    0.55    0.90    0.84            0.16    0.28    0.47           0.77     0.85
F1          3.26    4.11    2.95          24.02  -10.82    3.14          11.27  163.79           1.58    1.35    1.58    1.41            0.06    0.08    0.08           0.32     0.37
F2          2.66    4.10    2.49          23.99  -21.25    6.68          22.28  162.54           1.81    1.28    1.70    1.43            0.04    0.07    0.06           0.39     0.43
F3          2.25    4.16    2.08          24.18  -30.32   10.59          32.12  160.74           2.05    1.22    1.83    1.44            0.05    0.09    0.06           0.41     0.48
F4          1.73    4.12    1.62          24.08  -41.85   15.15          44.51  160.10           2.47    1.16    2.04    1.46            0.03    0.08    0.04           0.43     0.52
F5         10.90   13.88    9.95          44.06  -17.11    4.74          17.76  164.55           1.08    0.80    1.01    0.88            0.17    0.22    0.29           0.64     0.71
F6          8.81   13.97    8.30          44.19  -34.24   10.79          35.90  162.50           1.36    0.73    1.13    0.90            0.19    0.29    0.29           0.60     0.66
F7          6.86   13.54    6.78          43.56  -49.59   15.76          52.04  162.37           1.71    0.68    1.27    0.93            0.14    0.26    0.23           0.55     0.62
F8          5.91   13.53    6.02          43.54  -59.54   19.11          62.53  162.20           1.99    0.64    1.37    0.94            0.10    0.21    0.18           0.45     0.52
F9         28.55   33.24   25.90          64.35  -13.07    2.63          13.33  168.65           0.61    0.45    0.55    0.49            0.48    0.56    0.54           0.57     0.62
F10        25.49   33.11   23.60          64.25  -25.02    6.60          25.88  165.23           0.74    0.40    0.60    0.51            0.43    0.53    0.49           0.54     0.59
F11        22.85   32.99   21.30          64.15  -36.09   10.86          37.69  163.26           0.87    0.37    0.67    0.52            0.38    0.51    0.49           0.59     0.64
F12        19.19   32.66   18.69          63.88  -52.42   15.83          54.76  163.20           1.12    0.32    0.75    0.54            0.22    0.26    0.41           0.59     0.64
F13        38.55   49.96   53.47          76.04  -28.39  -14.37          31.82  206.85           0.64    0.21    0.20    0.34            0.45    0.49    0.29           0.37     0.42
F14        46.04   34.51   46.24          65.36   40.09  -24.60          47.03  328.47           0.19    0.66    0.22    0.43            0.50    0.57    0.42           0.63     0.74
F15        64.18   66.43   19.02          85.21    0.30   51.89          51.89   89.67           0.11    0.19    0.75    0.16            0.36    0.47    0.43           0.59     0.66
F16        16.06   16.97   14.51          48.22   -1.74   -1.31           2.21  216.32           0.80    0.79    0.80    0.77            0.29    0.32    0.39           0.55     0.61
F17        35.23   25.41   13.06          57.47   40.74   18.50          44.75   24.42           0.21    0.86    0.84    0.53            0.36    0.38    0.44           0.81     0.88
