targets/wolf_faust/transmissive/F060519.it8
IT8.7/1
ORIGINATOR "Wolf Faust"
DESCRIPTOR "Fujichrome Provia/Astia/Sensia, Type 3, L* a* b* (light D50, viewing angle 2)"
MANUFACTURER "Wolf Faust - http://www.coloraid.de"
CREATED "July 27, 2006"
PROD_DATE "2006:05"
DIFFUSE_GEOMETRY "opal"
SERIAL "F060519 Batch Average Data"
MATERIAL "Fujichrome Provia 100F (RDP III)"
KEYWORD "MEAN_DE" # Mean Delta E of samples compared to batch average
NUMBER_OF_FIELDS 18
BEGIN_DATA_FORMAT
SAMPLE_ID  XYZ_X   XYZ_Y   XYZ_Z          LAB_L   LAB_A   LAB_B          LAB_C   LAB_H          D_RED  D_GREEN  D_BLUE  D_VIS          STDEV_X STDEV_Y STDEV_Z        MEAN_DE  STDEV_DE
END_DATA_FORMAT
NUMBER_OF_SETS 288
BEGIN_DATA
A1          2.04    1.74    1.20          14.04    8.71    2.98           9.21   18.90           1.55    1.94    1.95    1.73            0.04    0.03    0.03           0.26     0.28
A2          2.71    1.87    1.06          14.81   19.28    6.33          20.29   18.19           1.32    2.08    1.99    1.66            0.05    0.03    0.03           0.28     0.30 
A3          3.11    1.75    0.85          14.13   29.20    8.36          30.37   15.97           1.19    2.40    2.05    1.64            0.05    0.03    0.02           0.29     0.32
A4          3.75    1.79    0.72          14.33   38.69   11.05          40.23   15.94           1.04    2.89    2.08    1.60            0.06    0.03    0.02           0.34     0.37 
A5          9.40    8.13    6.07          34.25   13.53    2.86          13.83   11.94           0.90    1.24    1.20    1.06            0.15    0.12    0.13           0.40     0.43
A6         11.32    8.21    5.26          34.42   27.49    7.06          28.38   14.41           0.73    1.37    1.25    1.02            0.20    0.13    0.14           0.43     0.47 
A7         13.25    8.01    4.30          34.00   42.49   11.52          44.03   15.17           0.58    1.60    1.32    1.00            0.21    0.12    0.10           0.44     0.47
A8         16.74    8.38    3.63          34.75   60.16   16.88          62.49   15.68           0.40    1.98    1.36    0.94            0.19    0.10    0.11           0.45     0.51 
A9         28.35   27.70   22.53          59.61    6.55    0.62           6.59    5.46           0.49    0.61    0.59    0.55            0.44    0.42    0.41           0.44     0.48
A10        30.24   27.45   21.24          59.39   14.77    2.75          15.03   10.57           0.42    0.65    0.62    0.54            0.46    0.41    0.42           0.43     0.48
A11        32.58   27.70   20.21          59.62   22.31    5.25          22.93   13.25           0.34    0.69    0.64    0.53            0.48    0.42    0.42           0.46     0.50
A12        37.74   27.88   17.97          59.78   39.11   10.32          40.45   14.78           0.20    0.80    0.68    0.50            0.37    0.37    0.48           0.61     0.68 
A13        70.20   74.60   63.04          89.21   -3.68   -1.44           3.95  201.38           0.15    0.12    0.12    0.13            0.38    0.31    0.21           0.22     0.26
A14        75.35   76.64   63.98          90.15    2.99   -0.71           3.08  346.59           0.09    0.13    0.11    0.11            0.19    0.26    0.17           0.19     0.21 
A15        75.77   78.07   60.94          90.81    1.00    3.39           3.53   73.50           0.09    0.11    0.14    0.11            0.15    0.17    0.24           0.14     0.16
A16        73.80   76.95   63.85          90.30   -0.83   -0.33           0.90  201.64           0.12    0.11    0.12    0.11            0.22    0.20    0.18           0.13     0.15
A17        74.51   75.99   60.48          89.85    2.56    2.18           3.36   40.50           0.09    0.13    0.14    0.12            0.20    0.27    0.28           0.19     0.21
A18        71.35   75.21   59.14          89.49   -2.46    2.90           3.81  130.32           0.13    0.12    0.15    0.12            0.35    0.31    0.32           0.20     0.23 
A19        68.04   70.93   61.85          87.45   -0.77   -3.31           3.40  256.83           0.16    0.15    0.13    0.15            0.51    0.52    0.28           0.29     0.32
A20         5.77    2.68    1.67          18.71   45.96    5.40          46.27    6.70           0.85    2.77    1.68    1.42            0.09    0.04    0.05           0.40     0.45 
A21        25.75   18.12   14.63          49.64   39.05    0.83          39.06    1.22           0.36    1.03    0.76    0.68            0.41    0.31    0.39           0.55     0.60
A22        52.53   47.94   32.47          74.79   17.05    9.98          19.75   30.33           0.16    0.40    0.43    0.30            0.60    0.69    0.61           0.56     0.62
B1          3.13    2.82    1.69          19.29    7.45    6.15           9.66   39.53           1.38    1.69    1.81    1.52            0.06    0.05    0.03           0.24     0.25
B2          3.78    2.86    1.09          19.47   16.91   13.93          21.90   39.48           1.21    1.81    2.03    1.48            0.07    0.05    0.03           0.28     0.31
B3          4.39    2.90    0.62          19.63   24.95   22.05          33.29   41.46           1.08    1.94    2.31    1.45            0.08    0.06    0.01           0.29     0.33
B4          5.10    2.85    0.15          19.42   35.02   30.57          46.48   41.12           0.95    2.22    3.08    1.42            0.08    0.05    0.00           0.37     0.43
B5         12.08   10.85    6.51          39.32   11.69    9.63          15.14   39.48           0.79    1.08    1.18    0.94            0.23    0.20    0.15           0.41     0.45
B6         13.96   10.80    4.17          39.25   24.39   21.30          32.38   41.12           0.64    1.19    1.40    0.91            0.21    0.17    0.09           0.39     0.42
B7         16.12   10.82    2.53          39.27   37.20   32.70          49.53   41.32           0.52    1.33    1.65    0.88            0.26    0.18    0.06           0.39     0.43
B8         20.39   11.16    1.02          39.84   57.20   50.09          76.04   41.21           0.33    1.64    2.10    0.83            0.12    0.09    0.02           0.24     0.26
B9         33.31   33.35   25.77          64.44    4.11    3.00           5.09   36.11           0.43    0.51    0.54    0.47            0.52    0.52    0.51           0.46     0.50
B10        35.46   33.51   23.06          64.57   10.93    8.15          13.64   36.72           0.36    0.54    0.59    0.46            0.56    0.55    0.45           0.46     0.51
B11        37.17   33.69   20.46          64.72   15.96   13.54          20.93   40.30           0.31    0.57    0.65    0.45            0.58    0.57    0.45           0.53     0.58
B12        41.99   33.59   14.93          64.63   31.43   25.91          40.73   39.49           0.18    0.65    0.80    0.42            0.41    0.47    0.43           0.68     0.75
B13        62.86   68.12   59.43          86.06   -6.39   -3.30           7.19  207.26           0.22    0.15    0.15    0.17            0.51    0.48    0.29           0.31     0.34
B14        68.71   66.93   59.59          85.47    9.23   -4.48          10.26  334.11           0.11    0.21    0.14    0.17            0.42    0.55    0.31           0.41     0.47
B15        71.32   73.32   51.62          88.60    1.32    9.30           9.39   81.92           0.10    0.14    0.22    0.13            0.32    0.38    0.46           0.27     0.30
B16        56.19   58.49   48.83          81.01   -0.52   -0.64           0.84  231.42           0.24    0.24    0.24    0.23            0.71    0.74    0.57           0.42     0.46
B17        66.23   64.72   50.37          84.34    8.67    3.34           9.29   21.09           0.11    0.22    0.22    0.18            0.50    0.64    0.54           0.41     0.48
B18        60.84   66.50   50.34          85.25   -7.57    4.95           9.04  146.82           0.23    0.16    0.23    0.18            0.62    0.58    0.54           0.36     0.39
B19        58.21   60.50   57.13          82.11   -0.29   -7.78           7.78  267.85           0.24    0.22    0.16    0.22            0.70    0.73    0.38           0.46     0.51
B20         4.52    2.70    0.90          18.80   30.32   15.67          34.13   27.33           1.03    2.11    2.07    1.46            0.07    0.04    0.02           0.29     0.33
B21        16.15   10.82    4.08          39.27   37.40   21.87          43.33   30.31           0.52    1.33    1.39    0.88            0.27    0.19    0.11           0.42     0.46
B22        32.54   27.54   17.10          59.47   22.81   11.76          25.66   27.27           0.33    0.70    0.72    0.52            0.53    0.50    0.38           0.54     0.57
C1          6.14    6.13    3.37          29.73    2.51    9.99          10.30   75.87           1.14    1.28    1.51    1.20            0.10    0.09    0.07           0.33     0.35
C2          6.47    6.00    2.14          29.42    7.40   19.12          20.50   68.83           1.06    1.33    1.76    1.19            0.10    0.09    0.04           0.32     0.35
C3          6.95    6.01    1.14          29.44   12.18   30.34          32.70   68.13           1.00    1.37    2.14    1.18            0.11    0.10    0.03           0.33     0.38
C4          7.48    6.09    0.41          29.63   16.58   43.41          46.47   69.09           0.94    1.40    2.88    1.16            0.11    0.09    0.01           0.34     0.40
C5         22.96   22.20   11.75          54.24    7.16   16.67          18.14   66.75           0.55    0.72    0.92    0.63            0.32    0.31    0.22           0.40     0.44
C6         24.70   22.29    6.51          54.33   14.39   35.50          38.31   67.94           0.46    0.76    1.25    0.62            0.33    0.30    0.12           0.38     0.42
C7         26.63   22.24    3.04          54.28   22.69   54.59          59.12   67.43           0.39    0.81    1.71    0.60            0.36    0.32    0.05           0.41     0.49
C8         29.47   22.39    0.81          54.43   33.19   78.62          85.34   67.11           0.31    0.89    2.75    0.58            0.36    0.32    0.02           0.43     0.50
C9         39.37   39.99   28.52          69.46    2.55    7.00           7.45   69.92           0.36    0.43    0.49    0.39            0.60    0.61    0.54           0.46     0.51
C10        40.47   40.08   24.39          69.52    5.72   14.23          15.34   68.09           0.32    0.44    0.57    0.38            0.65    0.66    0.51           0.52     0.57
C11        41.78   40.05   20.13          69.50    9.81   22.46          24.51   66.39           0.28    0.46    0.67    0.38            0.64    0.66    0.44           0.52     0.57
C12        46.65   40.33    8.54          69.70   23.13   53.86          58.62   66.76           0.15    0.52    1.15    0.35            0.40    0.52    0.23           0.63     0.70
C13        55.68   63.14   57.78          83.52  -12.59   -6.02          13.95  205.54           0.32    0.16    0.16    0.22            0.50    0.46    0.25           0.35     0.38
C14        63.36   58.51   56.88          81.02   16.49   -9.39          18.98  330.35           0.12    0.29    0.15    0.22            0.46    0.61    0.32           0.51     0.60
C15        69.33   71.74   42.14          87.84    0.35   19.17          19.18   88.95           0.10    0.15    0.33    0.14            0.35    0.41    0.51           0.35     0.40
C16        42.93   44.87   37.78          72.80   -0.99   -1.04           1.45  226.22           0.36    0.36    0.36    0.35            0.71    0.73    0.60           0.47     0.53
C17        58.38   53.90   39.68          78.40   16.08    6.09          17.20   20.73           0.13    0.34    0.33    0.25            0.55    0.69    0.61           0.54     0.61
C18        52.13   60.27   40.81          81.98  -15.01   10.77          18.47  144.32           0.32    0.18    0.34    0.23            0.61    0.59    0.57           0.43     0.46
C19        46.17   48.09   52.69          74.88   -0.56  -15.53          15.54  267.93           0.37    0.32    0.19    0.33            0.65    0.71    0.34           0.55     0.62
C20        11.84    8.73    1.21          35.46   26.70   39.80          47.93   56.15           0.69    1.33    2.11    0.99            0.19    0.15    0.02           0.41     0.48
C21        20.98   19.67   11.20          51.46    9.94   13.53          16.79   53.68           0.57    0.79    0.94    0.68            0.39    0.37    0.26           0.46     0.50
C22        26.61   22.47   10.92          54.52   21.58   19.66          29.19   42.33           0.41    0.80    0.95    0.61            0.50    0.45    0.27           0.51     0.56
D1          4.00    4.25    2.36          24.47   -1.31    8.66           8.76   98.62           1.36    1.41    1.69    1.37            0.07    0.07    0.06           0.31     0.33
D2          3.97    4.23    1.52          24.43   -1.63   16.91          16.98   95.49           1.35    1.41    1.95    1.36            0.07    0.07    0.03           0.29     0.32
D3          4.00    4.28    0.88          24.57   -1.86   25.89          25.95   94.11           1.35    1.40    2.31    1.35            0.06    0.07    0.02           0.29     0.33
D4          4.00    4.33    0.43          24.72   -2.42   34.46          34.55   94.01           1.37    1.38    2.88    1.35            0.06    0.07    0.01           0.32     0.37
D5         16.86   17.85    9.55          49.32   -1.92   15.14          15.27   97.23           0.73    0.77    1.03    0.74            0.24    0.24    0.19           0.39     0.42
D6         16.75   17.81    5.06          49.26   -2.30   33.66          33.73   93.91           0.72    0.77    1.40    0.74            0.25    0.26    0.11           0.40     0.43
D7         16.66   17.84    2.53          49.30   -3.00   49.98          50.07   93.44           0.72    0.76    1.87    0.73            0.24    0.27    0.05           0.40     0.46
D8         16.49   17.77    1.00          49.21   -3.57   66.57          66.67   93.07           0.76    0.76    2.71    0.73            0.25    0.27    0.02           0.47     0.55
D9         45.67   47.84   25.35          74.72   -1.30   21.47          21.51   93.45           0.29    0.33    0.57    0.31            0.64    0.67    0.46           0.49     0.52
D10        45.22   47.74   14.21          74.66   -2.31   45.04          45.10   92.93           0.28    0.33    0.90    0.31            0.66    0.71    0.34           0.51     0.55
D11        44.81   47.63    7.10          74.59   -3.19   67.89          67.96   92.69           0.28    0.33    1.34    0.30            0.56    0.59    0.17           0.46     0.49
D12        44.45   47.66    2.42          74.61   -4.32   94.54          94.64   92.62           0.30    0.32    2.28    0.30            0.50    0.46    0.05           0.40     0.43
D13        49.50   58.66   56.41          81.10  -18.18   -8.76          20.19  205.73           0.42    0.18    0.18    0.25            0.55    0.52    0.28           0.42     0.45
D14        57.62   49.95   53.73          76.04   24.43  -14.65          28.49  329.05           0.14    0.40    0.17    0.28            0.49    0.62    0.35           0.58     0.67
D15        67.56   70.19   33.54          87.09   -0.28   29.61          29.61   90.54           0.10    0.16    0.45    0.14            0.35    0.42    0.50           0.43     0.49
D16        31.98   33.37   28.42          64.45   -0.71   -1.46           1.64  243.84           0.49    0.49    0.49    0.48            0.58    0.59    0.56           0.50     0.55
D17        49.84   42.66   29.24          71.32   24.87    9.03          26.46   19.94           0.15    0.49    0.47    0.34            0.51    0.60    0.62           0.61     0.68
D18        44.85   54.81   32.41          78.93  -21.77   17.22          27.76  141.66           0.42    0.20    0.46    0.28            0.60    0.58    0.52           0.48     0.51
D19        35.96   37.24   48.49          67.46    0.17  -23.63          23.63  270.41           0.51    0.43    0.22    0.45            0.58    0.64    0.38           0.56     0.64
D20         2.75    2.75    1.04          19.02    1.79   13.91          14.02   82.68           1.48    1.63    2.11    1.54            0.06    0.06    0.03           0.31     0.35
D21        29.90   27.49    1.39          59.43   13.32   78.81          79.93   80.41           0.39    0.65    2.46    0.52            0.51    0.49    0.03           0.59     0.67
D22        39.95   43.24   50.85          71.72   -5.37  -18.95          19.70  254.17           0.48    0.35    0.21    0.38            0.64    0.72    0.38           0.61     0.68
E1          5.21    5.96    3.46          29.31   -6.34    8.63          10.71  126.28           1.29    1.23    1.51    1.23            0.10    0.11    0.07           0.34     0.37
E2          4.86    6.07    2.23          29.57  -11.72   18.54          21.93  122.29           1.36    1.18    1.79    1.23            0.08    0.09    0.05           0.34     0.38
E3          4.39    6.00    1.34          29.42  -17.26   27.65          32.60  121.98           1.47    1.14    2.15    1.24            0.07    0.09    0.03           0.31     0.35
E4          3.93    5.94    0.64          29.26  -23.03   38.42          44.79  120.94           1.63    1.10    2.81    1.25            0.06    0.09    0.01           0.31     0.38
E5         24.04   27.57   15.47          59.50  -10.71   15.70          19.01  124.30           0.64    0.54    0.81    0.57            0.36    0.39    0.31           0.46     0.50
E6         21.83   27.30    9.48          59.25  -19.62   32.52          37.99  121.11           0.72    0.51    1.10    0.57            0.32    0.39    0.21           0.46     0.50
E7         19.92   27.49    5.18          59.42  -29.53   50.56          58.55  120.29           0.82    0.47    1.51    0.58            0.26    0.34    0.09           0.38     0.42
E8         17.53   27.12    2.22          59.09  -40.39   69.50          80.38  120.16           1.01    0.43    2.28    0.59            0.18    0.22    0.03           0.29     0.32
E9         43.69   47.71   32.80          74.64   -6.66    9.23          11.38  125.82           0.36    0.31    0.44    0.32            0.63    0.67    0.54           0.46     0.49
E10        41.69   47.79   25.81          74.69  -12.83   20.60          24.27  121.91           0.39    0.29    0.57    0.33            0.61    0.65    0.51           0.49     0.54
E11        39.56   47.62   20.49          74.58  -18.91   30.48          35.87  121.82           0.44    0.28    0.70    0.33            0.62    0.66    0.45           0.53     0.57
E12        36.90   47.55   13.91          74.54  -27.23   45.62          53.13  120.84           0.50    0.25    0.94    0.33            0.52    0.54    0.35           0.56     0.62
E13        44.17   54.60   55.23          78.81  -23.23  -11.48          25.91  206.29           0.52    0.19    0.19    0.29            0.51    0.50    0.30           0.41     0.44
E14        52.03   42.18   50.36          71.00   32.09  -19.65          37.62  328.52           0.16    0.51    0.19    0.35            0.48    0.57    0.37           0.59     0.65
E15        66.00   68.66   25.85          86.34   -0.46   40.61          40.61   90.65           0.10    0.18    0.59    0.15            0.31    0.39    0.43           0.48     0.54
E16        23.27   24.37   20.68          56.45   -0.99   -1.17           1.55  229.41           0.63    0.63    0.64    0.62            0.50    0.50    0.47           0.53     0.57
E17        42.35   33.51   20.38          64.57   32.77   13.44          35.42   22.30           0.18    0.66    0.64    0.43            0.43    0.49    0.49           0.66     0.72
E18        38.47   49.73   24.88          75.90  -28.04   24.34          37.13  139.04           0.51    0.23    0.60    0.32            0.50    0.51    0.46           0.48     0.54
E19        27.79   28.63   44.67          60.45    0.73  -31.19          31.19  271.34           0.66    0.54    0.26    0.57            0.45    0.50    0.33           0.53     0.60
E20         6.74    8.08    1.40          34.14  -10.14   35.10          36.53  106.11           1.19    1.06    2.15    1.09            0.13    0.15    0.03           0.45     0.51
E21        23.68   28.35    6.32          60.21  -15.38   46.45          48.93  108.32           0.64    0.51    1.35    0.55            0.42    0.51    0.15           0.50     0.55
E22         8.24   17.43   13.55          48.80  -59.08    2.21          59.12  177.86           1.89    0.54    0.90    0.84            0.14    0.28    0.29           0.49     0.53
F1          3.33    4.18    3.03          24.25  -10.76    2.91          11.15  164.88           1.57    1.35    1.57    1.40            0.07    0.08    0.07           0.30     0.32
F2          2.74    4.21    2.66          24.36  -21.36    5.91          22.16  164.54           1.80    1.27    1.66    1.42            0.05    0.07    0.06           0.32     0.35
F3          2.26    4.16    2.21          24.19  -30.13    9.47          31.58  162.55           2.04    1.22    1.80    1.44            0.03    0.06    0.04           0.28     0.32
F4          1.76    4.19    1.75          24.30  -42.06   14.08          44.36  161.49           2.46    1.15    1.99    1.46            0.02    0.06    0.04           0.33     0.36
F5         11.08   14.03   10.34          44.27  -16.72    3.84          17.16  167.07           1.07    0.80    0.99    0.88            0.21    0.25    0.28           0.55     0.59
F6          8.94   14.01    8.61          44.25  -33.44    9.73          34.83  163.77           1.34    0.73    1.11    0.90            0.16    0.24    0.24           0.53     0.57
F7          6.94   13.70    7.03          43.80  -49.81   15.11          52.05  163.12           1.71    0.67    1.25    0.93            0.12    0.23    0.18           0.49     0.53
F8          5.99   13.71    6.25          43.82  -59.86   18.52          62.66  162.81           1.99    0.63    1.35    0.94            0.10    0.21    0.15           0.43     0.48
F9         28.84   33.42   26.10          64.50  -12.62    2.54          12.88  168.64           0.60    0.44    0.54    0.49            0.54    0.60    0.54           0.52     0.56
F10        25.74   33.16   23.80          64.29  -24.14    6.29          24.95  165.40           0.73    0.41    0.60    0.51            0.47    0.57    0.51           0.52     0.57
F11        23.10   33.26   21.81          64.37  -35.90   10.22          37.33  164.11           0.87    0.37    0.65    0.51            0.43    0.54    0.48           0.52     0.56
F12        19.42   32.97   18.96          64.13  -52.31   15.67          54.61  163.32           1.11    0.32    0.75    0.53            0.27    0.31    0.45           0.60     0.67
F13        39.16   50.57   53.95          76.42  -28.08  -14.24          31.48  206.88           0.63    0.21    0.20    0.33            0.48    0.49    0.30           0.41     0.44
F14        46.17   34.63   46.47          65.45   40.05  -24.72          47.07  328.31           0.19    0.65    0.22    0.43            0.46    0.51    0.36           0.59     0.65
F15        64.59   67.03   19.49          85.52   -0.11   51.42          51.42   90.12           0.11    0.19    0.74    0.16            0.33    0.43    0.39           0.51     0.59
F16        16.26   17.03   14.87          48.29   -0.91   -2.10           2.31  245.80           0.79    0.79    0.79    0.77            0.33    0.32    0.38           0.56     0.61
F17        35.32   25.48   13.39          57.54   40.76   17.70          44.44   23.47           0.21    0.86    0.83    0.53            0.32    0.33    0.36           0.63     0.69
