targets/wolf_faust/transmissive/F070907.it8
IT8.7/1
ORIGINATOR "Wolf Faust"
DESCRIPTOR "Fujichrome Provia/Astia/Sensia, Type 3, L* a* b* (light D50, viewing angle 2)"
MANUFACTURER "Wolf Faust - http://www.coloraid.de"
CREATED "September 21, 2007"
PROD_DATE "2007:09"
DIFFUSE_GEOMETRY "opal"
SERIAL "F070907 Batch Average Data"
MATERIAL "Fujichrome Provia 100F (RDP III)"
KEYWORD "MEAN_DE" # Mean Delta E of samples compared to batch average
NUMBER_OF_FIELDS 18
BEGIN_DATA_FORMAT
SAMPLE_ID  XYZ_X   XYZ_Y   XYZ_Z          LAB_L   LAB_A   LAB_B          LAB_C   LAB_H          D_RED  D_GREEN  D_BLUE  D_VIS          STDEV_X STDEV_Y STDEV_Z        MEAN_DE  STDEV_DE
END_DATA_FORMAT
NUMBER_OF_SETS 288
BEGIN_DATA
A1          2.34    1.98    1.46          15.38    9.42    1.97           9.62   11.78           1.49    1.88    1.85    1.67            0.08    0.06    0.04           0.44     0.50
A2          2.88    1.96    1.20          15.29   20.24    5.17          20.89   14.32           1.30    2.08    1.92    1.63            0.09    0.06    0.04           0.45     0.49 
A3          3.50    1.98    0.95          15.37   30.25    9.00          31.56   16.57           1.14    2.34    2.00    1.59            0.11    0.06    0.04           0.50     0.55
A4          4.08    1.99    0.81          15.43   38.81   11.38          40.44   16.34           1.01    2.72    2.03    1.56            0.11    0.05    0.03           0.54     0.59 
A5         10.24    8.78    6.40          35.55   14.61    3.61          15.06   13.88           0.86    1.21    1.17    1.03            0.25    0.22    0.21           0.73     0.78
A6         12.44    8.92    5.51          35.83   29.20    8.22          30.34   15.73           0.68    1.35    1.22    0.99            0.33    0.24    0.23           0.78     0.84 
A7         15.02    9.20    4.88          36.36   43.32   12.36          45.05   15.92           0.53    1.52    1.26    0.94            0.35    0.22    0.19           0.78     0.83
A8         17.21    8.66    3.87          35.33   60.24   16.38          62.43   15.21           0.39    1.94    1.33    0.93            0.15    0.09    0.16           0.65     0.77 
A9         30.33   29.34   23.05          61.08    7.79    2.16           8.10   15.51           0.46    0.59    0.58    0.52            0.69    0.66    0.65           0.75     0.82
A10        32.33   29.29   22.15          61.04   15.31    3.81          15.78   13.99           0.39    0.63    0.60    0.51            0.64    0.61    0.55           0.73     0.78
A11        34.90   29.62   20.96          61.32   23.02    6.67          23.98   16.16           0.31    0.66    0.62    0.50            0.65    0.60    0.56           0.75     0.81
A12        39.43   29.52   18.97          61.24   38.20   10.67          39.67   15.60           0.19    0.76    0.66    0.47            0.33    0.34    0.51           0.79     0.89 
A13        72.12   76.29   64.36          89.99   -3.00   -1.35           3.29  204.18           0.14    0.11    0.11    0.12            0.43    0.35    0.32           0.30     0.33
A14        76.23   77.72   65.13          90.65    2.63   -0.95           2.80  340.24           0.09    0.12    0.10    0.11            0.23    0.30    0.33           0.24     0.26 
A15        76.69   79.11   62.21          91.28    0.83    2.95           3.07   74.25           0.09    0.11    0.13    0.10            0.18    0.19    0.36           0.21     0.25
A16        76.25   78.95   65.20          91.21    0.23   -0.04           0.28  189.91           0.10    0.10    0.11    0.10            0.28    0.25    0.30           0.20     0.22
A17        75.34   76.81   62.11          90.23    2.63    1.23           2.91   25.00           0.09    0.12    0.13    0.11            0.24    0.30    0.38           0.23     0.26
A18        72.93   76.68   60.46          90.18   -2.09    2.76           3.47  127.07           0.12    0.11    0.14    0.12            0.39    0.32    0.45           0.30     0.34 
A19        71.46   74.19   63.86          89.01   -0.15   -2.56           2.57  266.59           0.13    0.13    0.11    0.13            0.45    0.42    0.36           0.27     0.31
A20         6.65    3.14    1.99          20.59   47.36    5.28          47.65    6.37           0.80    2.60    1.60    1.36            0.13    0.06    0.08           0.61     0.67 
A21        27.70   19.55   15.16          51.32   39.74    2.39          39.82    3.44           0.33    1.00    0.74    0.65            0.39    0.29    0.45           0.73     0.82
A22        55.04   50.49   33.81          76.37   16.62   10.72          19.78   32.79           0.15    0.37    0.41    0.27            0.34    0.34    0.53           0.51     0.60
B1          3.57    3.15    1.81          20.64    8.70    7.20          11.30   39.58           1.32    1.65    1.78    1.47            0.10    0.09    0.06           0.50     0.54
B2          4.18    3.16    1.15          20.67   17.49   15.15          23.14   40.90           1.17    1.77    2.00    1.44            0.11    0.09    0.03           0.51     0.55
B3          4.68    3.07    0.71          20.30   25.85   21.69          33.74   40.00           1.05    1.93    2.24    1.42            0.14    0.09    0.02           0.46     0.51
B4          5.76    3.17    0.17          20.69   37.23   32.55          49.45   41.15           0.90    2.21    3.02    1.37            0.16    0.09    0.00           0.64     0.73
B5         13.21   11.74    6.71          40.79   12.97   11.30          17.21   41.02           0.75    1.06    1.17    0.90            0.33    0.30    0.27           0.81     0.88
B6         15.34   11.78    4.45          40.85   25.87   22.45          34.25   40.94           0.60    1.17    1.37    0.87            0.37    0.30    0.15           0.72     0.79
B7         17.67   11.81    2.79          40.91   38.69   33.44          51.14   40.83           0.48    1.30    1.60    0.84            0.43    0.31    0.11           0.63     0.68
B8         21.11   11.69    1.14          40.72   56.89   49.83          75.62   41.21           0.32    1.60    2.04    0.81            0.19    0.14    0.03           0.31     0.35
B9         35.94   35.65   26.71          66.25    5.32    4.50           6.99   40.09           0.39    0.49    0.52    0.44            0.76    0.77    0.63           0.76     0.83
B10        37.68   35.51   23.95          66.14   11.47    9.21          14.72   38.74           0.33    0.52    0.57    0.43            0.72    0.71    0.61           0.74     0.84
B11        39.51   35.75   21.47          66.32   16.53   14.28          21.85   40.80           0.28    0.54    0.62    0.42            0.72    0.68    0.68           0.81     0.91
B12        43.89   35.58   15.87          66.19   30.34   26.28          40.15   40.89           0.16    0.62    0.77    0.40            0.43    0.51    0.50           0.93     1.07
B13        66.49   71.63   61.07          87.79   -5.64   -1.95           5.97  199.08           0.19    0.13    0.14    0.15            0.52    0.47    0.38           0.33     0.36
B14        70.16   69.19   60.97          86.60    7.47   -3.91           8.43  332.41           0.11    0.19    0.13    0.15            0.47    0.57    0.42           0.35     0.41
B15        72.57   75.32   53.79          89.54   -0.10    8.56           8.56   90.66           0.10    0.13    0.20    0.12            0.33    0.34    0.47           0.30     0.35
B16        60.38   62.66   51.83          83.26   -0.09   -0.14           0.30  216.55           0.20    0.21    0.21    0.20            0.58    0.58    0.50           0.37     0.43
B17        68.22   67.55   53.03          85.78    6.82    2.90           7.41   22.99           0.11    0.20    0.20    0.16            0.46    0.50    0.59           0.32     0.38
B18        65.12   70.56   53.19          87.27   -6.47    5.30           8.36  140.68           0.19    0.14    0.21    0.16            0.55    0.48    0.49           0.34     0.40
B19        62.23   64.35   59.15          84.14    0.43   -6.33           6.34  273.93           0.20    0.19    0.15    0.19            0.56    0.56    0.35           0.34     0.39
B20         5.25    3.17    1.04          20.70   31.34   16.77          35.54   28.16           0.97    2.03    2.00    1.40            0.12    0.07    0.03           0.41     0.45
B21        17.67   11.85    4.52          40.98   38.40   22.32          44.41   30.16           0.48    1.29    1.33    0.84            0.29    0.19    0.15           0.66     0.70
B22        35.17   29.78   18.23          61.46   23.33   12.67          26.55   28.50           0.30    0.67    0.69    0.49            0.52    0.43    0.53           0.75     0.81
C1          6.87    6.73    3.67          31.17    3.91   10.50          11.21   69.52           1.09    1.25    1.47    1.16            0.18    0.18    0.13           0.62     0.67
C2          7.28    6.63    2.27          30.94    8.96   20.58          22.45   66.48           1.01    1.30    1.73    1.15            0.20    0.18    0.08           0.58     0.64
C3          7.67    6.57    1.25          30.79   13.29   31.22          33.93   66.95           0.95    1.34    2.08    1.14            0.20    0.17    0.04           0.53     0.58
C4          8.16    6.49    0.43          30.61   18.59   44.68          48.40   67.41           0.90    1.40    2.83    1.12            0.24    0.19    0.01           0.70     0.79
C5         25.03   23.96   12.22          56.04    8.44   18.42          20.26   65.34           0.50    0.69    0.90    0.60            0.58    0.56    0.46           0.84     0.97
C6         26.67   23.87    6.90          55.96   15.60   36.62          39.81   66.91           0.42    0.74    1.22    0.58            0.61    0.57    0.22           0.80     0.90
C7         28.90   23.97    3.34          56.05   24.02   55.57          60.54   66.62           0.35    0.79    1.65    0.57            0.57    0.51    0.11           0.59     0.68
C8         31.80   24.10    0.86          56.19   34.31   80.83          87.81   67.00           0.28    0.86    2.71    0.55            0.53    0.47    0.02           0.61     0.70
C9         42.21   42.55   29.94          71.25    3.57    7.79           8.58   65.22           0.33    0.40    0.47    0.36            0.90    0.92    0.84           0.78     0.89
C10        43.53   42.75   25.69          71.38    6.93   15.11          16.62   65.33           0.28    0.42    0.55    0.35            0.80    0.81    0.73           0.75     0.85
C11        44.59   42.77   21.06          71.39    9.94   23.83          25.82   67.33           0.25    0.43    0.65    0.35            0.74    0.76    0.65           0.77     0.87
C12        48.48   42.37    9.27          71.12   22.06   53.73          58.08   67.68           0.14    0.49    1.10    0.33            0.54    0.64    0.32           0.85     0.95
C13        60.48   67.50   59.53          85.76  -10.61   -3.93          11.31  200.33           0.27    0.14    0.15    0.18            0.66    0.59    0.41           0.40     0.45
C14        64.76   60.52   58.17          82.12   14.94   -8.82          17.35  329.44           0.12    0.27    0.15    0.21            0.51    0.62    0.41           0.44     0.52
C15        70.66   73.79   44.18          88.82   -1.04   18.33          18.36   93.25           0.10    0.14    0.30    0.13            0.38    0.40    0.48           0.32     0.38
C16        47.55   49.19   40.58          75.57    0.32    0.03           0.42  158.35           0.31    0.32    0.32    0.31            0.73    0.69    0.63           0.50     0.57
C17        60.62   56.90   42.28          80.12   14.00    5.70          15.12   22.14           0.13    0.31    0.30    0.23            0.49    0.56    0.62           0.41     0.48
C18        57.66   65.25   43.57          84.61  -12.43   11.82          17.16  136.43           0.26    0.15    0.31    0.19            0.58    0.50    0.48           0.43     0.49
C19        50.84   52.11   54.77          77.35    1.58  -13.51          13.61  276.68           0.31    0.29    0.18    0.29            0.62    0.60    0.33           0.43     0.51
C20        13.30    9.67    1.28          37.25   28.82   41.97          50.91   55.52           0.64    1.30    2.07    0.94            0.22    0.15    0.02           0.43     0.50
C21        23.05   21.30   11.97          53.28   11.70   14.38          18.55   50.82           0.53    0.76    0.90    0.65            0.42    0.36    0.34           0.74     0.86
C22        28.87   24.32   11.51          56.40   22.42   21.11          30.80   43.27           0.37    0.77    0.92    0.57            0.45    0.37    0.31           0.70     0.79
D1          4.55    4.79    2.60          26.12   -0.90    9.48           9.53   95.43           1.30    1.36    1.64    1.31            0.14    0.14    0.08           0.50     0.55
D2          4.49    4.73    1.68          25.95   -0.93   17.76          17.78   92.99           1.30    1.37    1.90    1.31            0.14    0.14    0.05           0.54     0.61
D3          4.47    4.75    0.92          26.01   -1.52   27.83          27.87   93.12           1.30    1.35    2.29    1.31            0.14    0.15    0.03           0.55     0.62
D4          4.36    4.63    0.46          25.66   -1.47   35.51          35.54   92.38           1.33    1.36    2.81    1.31            0.15    0.15    0.01           0.71     0.79
D5         18.27   19.07    9.94          50.76   -0.62   16.35          16.36   92.16           0.69    0.75    1.01    0.71            0.48    0.48    0.35           0.78     0.85
D6         18.38   19.46    5.33          51.21   -1.97   35.66          35.71   93.16           0.68    0.74    1.38    0.70            0.45    0.47    0.16           0.69     0.75
D7         17.94   19.02    2.54          50.70   -2.06   52.36          52.40   92.26           0.69    0.74    1.87    0.70            0.44    0.47    0.07           0.66     0.74
D8         17.73   18.93    1.04          50.61   -2.78   68.27          68.33   92.33           0.72    0.74    2.68    0.70            0.46    0.49    0.02           0.83     0.92
D9         48.04   50.08   26.08          76.12   -0.69   22.60          22.61   91.75           0.27    0.32    0.56    0.29            0.90    0.98    0.68           0.71     0.79
D10        47.56   49.80   14.70          75.95   -1.26   45.99          46.01   91.57           0.25    0.32    0.88    0.29            0.76    0.84    0.43           0.73     0.81
D11        47.12   49.68    7.36          75.87   -2.15   69.04          69.07   91.79           0.25    0.32    1.32    0.28            0.67    0.70    0.17           0.52     0.58
D12        46.15   48.82    2.21          75.34   -2.57   97.67          97.71   91.51           0.28    0.32    2.38    0.29            0.54    0.45    0.02           0.52     0.58
D13        54.23   63.00   58.03          83.44  -15.92   -6.39          17.16  201.87           0.35    0.15    0.16    0.22            0.66    0.61    0.38           0.45     0.50
D14        58.99   51.78   54.97          77.15   22.95  -14.07          26.92  328.50           0.14    0.38    0.16    0.27            0.52    0.64    0.40           0.56     0.66
D15        68.92   72.26   35.41          88.10   -1.63   28.62          28.67   93.26           0.10    0.15    0.42    0.13            0.28    0.31    0.40           0.35     0.42
D16        35.97   37.36   30.69          67.54   -0.18    0.21           0.53  164.99           0.43    0.44    0.45    0.43            0.63    0.59    0.61           0.60     0.67
D17        52.69   46.28   31.83          73.73   22.02    9.11          23.83   22.47           0.15    0.44    0.43    0.31            0.40    0.44    0.53           0.47     0.55
D18        50.17   59.63   34.68          81.64  -18.69   18.54          26.33  135.24           0.35    0.18    0.43    0.23            0.56    0.48    0.42           0.54     0.62
D19        39.94   40.72   50.32          69.98    2.12  -21.36          21.47  275.68           0.44    0.40    0.21    0.40            0.54    0.49    0.33           0.42     0.49
D20         3.14    3.09    1.14          20.40    2.75   14.72          14.98   79.43           1.42    1.59    2.06    1.49            0.08    0.08    0.03           0.46     0.51
D21        32.32   29.61    1.62          61.32   14.04   79.38          80.61   79.97           0.36    0.62    2.33    0.49            0.44    0.38    0.02           0.52     0.60
D22        41.50   45.77   52.64          73.40   -7.83  -18.03          19.66  246.53           0.47    0.31    0.19    0.36            0.47    0.43    0.30           0.47     0.52
E1          5.89    6.66    3.77          31.01   -5.73    9.56          11.15  120.96           1.24    1.18    1.47    1.18            0.15    0.17    0.10           0.50     0.56
E2          5.53    6.80    2.43          31.35  -11.25   19.89          22.85  119.49           1.30    1.14    1.75    1.18            0.17    0.20    0.07           0.55     0.61
E3          4.98    6.62    1.42          30.93  -16.15   29.24          33.40  118.91           1.40    1.11    2.11    1.19            0.15    0.19    0.04           0.56     0.63
E4          4.52    6.60    0.69          30.88  -21.81   40.19          45.72  118.49           1.54    1.07    2.75    1.20            0.16    0.22    0.02           0.74     0.82
E5         25.83   29.28   15.78          61.03   -9.72   17.60          20.11  118.92           0.60    0.52    0.80    0.54            0.62    0.68    0.47           0.76     0.82
E6         23.65   29.11    9.67          60.87  -18.40   34.69          39.27  117.94           0.67    0.49    1.09    0.54            0.55    0.64    0.30           0.71     0.77
E7         21.29   28.72    5.44          60.53  -27.69   51.17          58.18  118.43           0.78    0.46    1.48    0.55            0.48    0.60    0.13           0.65     0.72
E8         18.95   28.63    2.24          60.45  -38.85   71.72          81.57  118.45           0.96    0.41    2.28    0.56            0.32    0.35    0.03           0.49     0.54
E9         46.17   49.88   33.52          75.99   -5.36   10.49          11.78  117.05           0.33    0.30    0.43    0.30            0.88    0.96    0.68           0.62     0.68
E10        43.86   49.87   26.33          75.99  -11.96   21.94          24.99  118.60           0.36    0.28    0.56    0.31            0.79    0.85    0.56           0.59     0.64
E11        41.74   49.56   20.84          75.80  -17.47   31.87          36.34  118.74           0.40    0.26    0.69    0.31            0.69    0.73    0.47           0.59     0.64
E12        38.25   49.02   13.30          75.46  -26.85   48.86          55.75  118.80           0.48    0.24    0.96    0.32            0.55    0.54    0.31           0.57     0.63
E13        48.50   58.74   56.80          81.15  -21.11   -9.09          22.98  203.30           0.45    0.17    0.17    0.26            0.54    0.49    0.30           0.42     0.47
E14        52.57   42.71   51.10          71.36   31.92  -19.85          37.59  328.12           0.16    0.51    0.19    0.34            0.47    0.56    0.40           0.51     0.62
E15        67.30   70.65   27.46          87.31   -1.79   39.54          39.58   92.59           0.10    0.16    0.55    0.14            0.27    0.31    0.35           0.35     0.42
E16        26.26   27.25   22.53          59.21   -0.10   -0.08           0.41  172.63           0.57    0.59    0.60    0.57            0.47    0.44    0.47           0.55     0.62
E17        44.47   35.91   22.26          66.45   30.92   12.94          33.52   22.70           0.17    0.61    0.59    0.40            0.34    0.37    0.45           0.56     0.64
E18        43.32   54.22   26.66          78.59  -24.78   25.86          35.82  133.78           0.44    0.20    0.57    0.28            0.49    0.45    0.40           0.52     0.56
E19        30.42   30.54   45.90          62.11    3.68  -29.80          30.02  277.04           0.59    0.53    0.24    0.53            0.35    0.30    0.24           0.40     0.44
E20         7.68    9.05    1.49          36.09   -9.37   37.35          38.51  104.08           1.13    1.02    2.12    1.04            0.13    0.15    0.03           0.37     0.45
E21        25.75   30.49    6.71          62.07  -14.53   47.98          50.13  106.85           0.60    0.48    1.32    0.51            0.41    0.41    0.13           0.55     0.60
E22         9.06   18.97   13.95          50.65  -59.95    4.33          60.11  175.87           1.82    0.51    0.89    0.80            0.15    0.24    0.31           0.59     0.68
F1          3.92    4.81    3.34          26.18   -9.89    4.06          10.69  157.70           1.49    1.29    1.52    1.34            0.11    0.13    0.10           0.48     0.54
F2          3.18    4.71    2.79          25.89  -20.27    7.53          21.62  159.61           1.71    1.23    1.64    1.37            0.10    0.14    0.08           0.54     0.59
F3          2.61    4.64    2.37          25.69  -29.53   10.59          31.38  160.27           1.96    1.18    1.76    1.39            0.09    0.15    0.08           0.57     0.63
F4          1.93    4.65    1.95          25.71  -43.98   14.50          46.31  161.76           2.46    1.11    1.94    1.41            0.07    0.14    0.05           0.62     0.67
F5         12.20   15.29   10.57          46.02  -16.30    6.14          17.43  159.39           1.02    0.77    0.98    0.84            0.33    0.40    0.30           0.69     0.73
F6          9.76   15.10    8.68          45.77  -33.20   12.09          35.33  159.99           1.29    0.70    1.11    0.86            0.28    0.39    0.26           0.68     0.73
F7          7.71   14.79    7.20          45.34  -49.02   17.07          51.91  160.81           1.63    0.65    1.24    0.89            0.24    0.41    0.24           0.71     0.77
F8          6.40   14.81    6.27          45.37  -62.10   21.11          65.59  161.23           1.98    0.60    1.36    0.91            0.18    0.36    0.18           0.61     0.65
F9         30.83   35.17   26.76          65.88  -11.01    3.76          11.64  161.18           0.56    0.43    0.53    0.47            0.65    0.70    0.49           0.62     0.67
F10        27.53   34.95   24.44          65.71  -22.97    7.56          24.18  161.78           0.68    0.39    0.58    0.48            0.53    0.63    0.44           0.56     0.60
F11        24.73   34.98   22.20          65.73  -34.61   11.80          36.57  161.17           0.82    0.35    0.65    0.49            0.46    0.56    0.40           0.56     0.60
F12        20.66   34.57   19.39          65.41  -51.72   16.95          54.43  161.85           1.07    0.30    0.74    0.51            0.31    0.36    0.36           0.48     0.52
F13        43.53   54.83   55.60          78.94  -25.67  -11.65          28.18  204.41           0.55    0.18    0.18    0.29            0.44    0.42    0.27           0.35     0.39
F14        46.26   34.55   46.91          65.40   40.57  -25.33          47.83  328.02           0.19    0.66    0.22    0.43            0.37    0.40    0.34           0.43     0.48
F15        65.71   68.81   20.29          86.41   -1.43   51.28          51.30   91.60           0.10    0.17    0.72    0.15            0.28    0.33    0.31           0.38     0.43
F16        18.58   19.18   15.81          50.89    0.47    0.03           0.54  169.35           0.72    0.75    0.76    0.72            0.35    0.34    0.31           0.49     0.53
F17        36.92   27.15   14.31          59.11   39.33   17.97          43.25   24.55           0.20    0.82    0.80    0.50            0.31    0.31    0.30           0.46     0.53
