targets/wolf_faust/transmissive/F080601.it8
IT8.7/1
ORIGINATOR "Wolf Faust"
DESCRIPTOR "Fujichrome Provia/Astia/Sensia, Type 3, L* a* b* (light D50, viewing angle 2)"
MANUFACTURER "Wolf Faust - http://www.coloraid.de"
CREATED "July 16, 2008"
PROD_DATE "2007:09"
DIFFUSE_GEOMETRY "opal"
SERIAL "F080601 Batch Average Data"
MATERIAL "Fujichrome Provia 100F (RDP III)"
KEYWORD "MEAN_DE" # Mean Delta E of samples compared to batch average
NUMBER_OF_FIELDS 18
BEGIN_DATA_FORMAT
SAMPLE_ID  XYZ_X   XYZ_Y   XYZ_Z          LAB_L   LAB_A   LAB_B          LAB_C   LAB_H          D_RED  D_GREEN  D_BLUE  D_VIS          STDEV_X STDEV_Y STDEV_Z        MEAN_DE  STDEV_DE
END_DATA_FORMAT
NUMBER_OF_SETS 288
BEGIN_DATA
A1          2.26    1.92    1.42          15.08    9.01    1.94           9.22   12.11           1.51    1.89    1.87    1.69            0.07    0.06    0.04           0.47     0.53
A2          2.84    1.93    1.15          15.12   20.25    5.48          20.98   15.15           1.30    2.08    1.94    1.64            0.08    0.06    0.04           0.46     0.52 
A3          3.41    1.93    0.96          15.09   30.03    8.23          31.14   15.32           1.15    2.35    1.99    1.60            0.09    0.05    0.03           0.46     0.54
A4          4.05    1.96    0.80          15.29   38.95   11.25          40.55   16.10           1.01    2.75    2.03    1.56            0.11    0.05    0.03           0.52     0.58 
A5         10.20    8.82    6.41          35.63   13.88    3.68          14.36   14.86           0.86    1.20    1.17    1.03            0.26    0.22    0.19           0.59     0.64
A6         12.52    9.03    5.41          36.04   28.84    9.11          30.25   17.52           0.68    1.33    1.24    0.98            0.32    0.23    0.18           0.62     0.69 
A7         14.89    9.12    4.74          36.22   43.17   12.88          45.05   16.61           0.53    1.52    1.28    0.95            0.37    0.23    0.18           0.65     0.72
A8         17.32    8.72    3.76          35.43   60.46   17.27          62.88   15.94           0.39    1.94    1.34    0.92            0.15    0.09    0.15           0.58     0.70 
A9         30.45   29.75   22.95          61.44    6.70    2.97           7.34   23.88           0.46    0.58    0.59    0.52            0.67    0.64    0.59           0.67     0.72
A10        32.86   29.98   21.88          61.63   14.64    5.36          15.59   20.09           0.38    0.61    0.61    0.50            0.65    0.59    0.55           0.68     0.72
A11        35.15   29.88   20.69          61.55   22.91    7.60          24.14   18.34           0.31    0.66    0.63    0.49            0.73    0.65    0.64           0.68     0.74
A12        39.61   29.71   18.78          61.40   38.08   11.36          39.74   16.60           0.19    0.76    0.67    0.47            0.45    0.46    0.58           0.79     0.89 
A13        72.25   76.46   63.46          90.07   -3.06   -0.35           3.08  186.54           0.14    0.11    0.12    0.12            0.50    0.41    0.27           0.33     0.36
A14        76.54   78.10   64.30          90.82    2.50    0.14           2.51   25.76           0.08    0.12    0.11    0.11            0.25    0.35    0.23           0.25     0.28 
A15        76.84   79.28   61.19          91.36    0.80    4.08           4.16   78.87           0.08    0.10    0.14    0.10            0.22    0.26    0.37           0.27     0.30
A16        76.25   79.07   64.30          91.27    0.02    0.90           0.91   88.02           0.10    0.10    0.11    0.10            0.27    0.26    0.22           0.19     0.21
A17        75.59   77.10   61.21          90.37    2.55    2.36           3.47   42.80           0.09    0.12    0.14    0.11            0.24    0.31    0.33           0.22     0.24
A18        72.95   76.77   59.40          90.22   -2.23    3.89           4.49  119.74           0.12    0.11    0.15    0.12            0.42    0.35    0.43           0.33     0.36 
A19        71.30   74.14   62.82          88.99   -0.40   -1.60           1.66  256.04           0.13    0.13    0.12    0.13            0.41    0.42    0.26           0.26     0.29
A20         6.72    3.18    2.06          20.74   47.45    4.88          47.70    5.87           0.79    2.59    1.58    1.35            0.13    0.06    0.06           0.57     0.63 
A21        27.83   19.66   15.19          51.45   39.69    2.52          39.77    3.64           0.33    0.99    0.75    0.64            0.41    0.29    0.36           0.58     0.63
A22        55.83   51.39   33.48          76.92   16.24   12.14          20.27   36.77           0.14    0.37    0.42    0.27            0.40    0.45    0.47           0.41     0.46
B1          3.56    3.20    1.81          20.83    7.76    7.56          10.84   44.24           1.32    1.63    1.79    1.47            0.10    0.08    0.05           0.51     0.56
B2          4.16    3.20    1.15          20.83   16.59   15.43          22.66   42.93           1.17    1.74    2.01    1.44            0.11    0.08    0.03           0.50     0.56
B3          4.59    3.00    0.64          20.06   25.82   22.50          34.25   41.07           1.06    1.94    2.29    1.43            0.12    0.08    0.02           0.51     0.58
B4          5.63    3.09    0.16          20.39   37.17   32.17          49.16   40.87           0.90    2.23    3.06    1.38            0.14    0.08    0.00           0.56     0.66
B5         13.05   11.65    6.61          40.66   12.51   11.46          16.97   42.49           0.75    1.06    1.18    0.90            0.32    0.29    0.22           0.66     0.73
B6         15.52   11.97    4.38          41.16   25.61   23.41          34.69   42.44           0.60    1.15    1.38    0.86            0.38    0.30    0.14           0.62     0.68
B7         17.61   11.77    2.72          40.85   38.62   33.90          51.39   41.28           0.48    1.30    1.62    0.84            0.39    0.27    0.10           0.58     0.62
B8         21.26   11.75    1.13          40.82   57.16   50.12          76.03   41.24           0.32    1.60    2.05    0.81            0.14    0.12    0.03           0.28     0.31
B9         36.23   36.29   26.47          66.74    4.14    5.76           7.09   54.29           0.39    0.48    0.53    0.43            0.73    0.71    0.62           0.68     0.73
B10        38.20   36.29   23.60          66.74   10.58   10.89          15.18   45.80           0.33    0.51    0.58    0.42            0.76    0.72    0.62           0.68     0.73
B11        39.91   36.33   21.34          66.77   15.85   15.28          22.02   43.96           0.28    0.53    0.63    0.41            0.70    0.67    0.58           0.65     0.71
B12        44.33   36.01   15.77          66.53   30.17   27.12          40.57   41.94           0.16    0.61    0.78    0.40            0.44    0.53    0.52           0.80     0.88
B13        67.19   72.31   60.56          88.12   -5.49   -0.89           5.56  189.17           0.18    0.13    0.14    0.15            0.62    0.56    0.33           0.36     0.40
B14        70.77   70.01   60.50          87.00    7.05   -2.75           7.57  338.70           0.11    0.18    0.14    0.15            0.47    0.62    0.33           0.43     0.49
B15        73.11   75.91   53.59          89.82   -0.17    9.25           9.26   91.07           0.10    0.12    0.20    0.12            0.33    0.35    0.47           0.29     0.32
B16        61.15   63.52   51.50          83.71   -0.23    1.00           1.04  102.78           0.20    0.20    0.22    0.20            0.67    0.70    0.52           0.37     0.42
B17        68.79   68.30   52.74          86.16    6.45    3.86           7.51   30.89           0.11    0.19    0.20    0.16            0.44    0.54    0.49           0.31     0.36
B18        65.68   71.11   52.79          87.54   -6.35    6.19           8.86  135.72           0.18    0.13    0.21    0.15            0.50    0.46    0.48           0.33     0.37
B19        62.69   64.88   58.57          84.42    0.31   -5.26           5.28  273.39           0.20    0.19    0.15    0.19            0.56    0.57    0.30           0.39     0.41
B20         5.23    3.16    1.07          20.65   31.32   16.18          35.26   27.32           0.97    2.03    1.99    1.40            0.11    0.06    0.03           0.47     0.54
B21        17.92   12.04    4.38          41.27   38.46   23.58          45.11   31.51           0.48    1.28    1.36    0.84            0.32    0.20    0.11           0.53     0.59
B22        35.50   30.37   18.12          61.97   22.28   13.77          26.20   31.72           0.30    0.65    0.70    0.48            0.48    0.42    0.40           0.54     0.59
C1          6.76    6.68    3.62          31.07    3.32   10.60          11.11   72.59           1.09    1.25    1.48    1.16            0.15    0.15    0.12           0.59     0.64
C2          7.03    6.50    2.25          30.65    7.75   20.26          21.69   69.07           1.03    1.30    1.74    1.16            0.17    0.15    0.06           0.54     0.58
C3          7.60    6.58    1.24          30.83   12.52   31.41          33.81   68.27           0.96    1.33    2.09    1.14            0.17    0.15    0.03           0.53     0.58
C4          8.00    6.38    0.42          30.36   18.26   44.39          48.00   67.64           0.91    1.40    2.85    1.13            0.20    0.16    0.01           0.66     0.71
C5         25.07   24.25   12.26          56.34    7.31   18.82          20.19   68.78           0.51    0.68    0.91    0.60            0.56    0.55    0.40           0.77     0.83
C6         27.09   24.39    7.05          56.48   15.05   36.88          39.83   67.81           0.42    0.72    1.21    0.58            0.57    0.53    0.22           0.73     0.78
C7         28.99   24.21    3.32          56.29   23.37   56.10          60.77   67.38           0.35    0.77    1.66    0.56            0.56    0.49    0.08           0.63     0.67
C8         32.13   24.51    0.87          56.60   33.73   81.33          88.05   67.48           0.27    0.84    2.72    0.54            0.52    0.45    0.02           0.64     0.68
C9         42.53   43.12   29.55          71.63    2.85    9.08           9.52   72.58           0.32    0.39    0.48    0.36            0.82    0.82    0.67           0.67     0.71
C10        43.57   43.05   25.28          71.58    6.15   16.20          17.33   69.21           0.28    0.41    0.56    0.35            0.78    0.78    0.61           0.64     0.69
C11        45.10   43.60   21.30          71.96    8.98   24.32          25.92   69.74           0.25    0.42    0.65    0.34            0.72    0.73    0.54           0.64     0.70
C12        48.98   42.84    9.13          71.45   22.03   54.77          59.04   68.09           0.14    0.49    1.11    0.32            0.41    0.55    0.27           0.69     0.75
C13        60.63   67.79   59.02          85.90  -10.89   -3.17          11.34  196.21           0.26    0.14    0.16    0.18            0.68    0.62    0.35           0.45     0.50
C14        65.51   61.54   57.88          82.67   14.27   -7.58          16.16  332.02           0.12    0.26    0.15    0.20            0.59    0.78    0.39           0.58     0.71
C15        71.08   74.25   43.82          89.04   -1.09   19.15          19.18   93.25           0.10    0.13    0.31    0.12            0.33    0.36    0.53           0.38     0.43
C16        47.79   49.78   40.20          75.94   -0.59    1.14           1.33  117.19           0.31    0.31    0.33    0.30            0.71    0.72    0.54           0.52     0.57
C17        61.29   57.83   41.92          80.64   13.35    7.04          15.09   27.83           0.12    0.30    0.31    0.22            0.50    0.62    0.57           0.41     0.50
C18        57.63   65.36   42.95          84.67  -12.76   12.69          18.00  135.15           0.26    0.15    0.32    0.19            0.59    0.52    0.49           0.42     0.47
C19        50.86   52.50   54.25          77.58    0.63  -12.56          12.58  272.88           0.31    0.28    0.18    0.29            0.62    0.62    0.31           0.54     0.59
C20        12.99    9.52    1.27          36.97   28.00   41.58          50.13   56.05           0.65    1.30    2.08    0.95            0.22    0.14    0.02           0.45     0.50
C21        23.03   21.39   11.75          53.37   11.20   15.18          18.87   53.57           0.53    0.76    0.92    0.65            0.42    0.36    0.28           0.61     0.67
C22        28.96   24.49   11.33          56.58   22.01   21.97          31.10   44.94           0.37    0.76    0.93    0.57            0.42    0.35    0.25           0.55     0.59
D1          4.46    4.74    2.58          25.97   -1.48    9.40           9.52   98.98           1.31    1.36    1.65    1.32            0.11    0.11    0.07           0.55     0.60
D2          4.37    4.64    1.57          25.69   -1.40   18.52          18.58   94.32           1.31    1.37    1.94    1.32            0.12    0.12    0.04           0.54     0.58
D3          4.35    4.66    0.90          25.74   -2.00   27.61          27.69   94.15           1.32    1.36    2.31    1.32            0.13    0.13    0.02           0.62     0.66
D4          4.35    4.70    0.47          25.84   -2.45   35.77          35.85   93.92           1.33    1.34    2.84    1.31            0.14    0.15    0.01           0.75     0.81
D5         18.47   19.36    9.77          51.10   -0.99   17.49          17.53   93.26           0.69    0.74    1.02    0.71            0.43    0.46    0.34           0.73     0.79
D6         18.27   19.44    5.27          51.19   -2.48   35.91          36.00   93.95           0.68    0.73    1.39    0.70            0.41    0.43    0.16           0.68     0.73
D7         18.25   19.44    2.64          51.20   -2.60   52.38          52.45   92.84           0.68    0.73    1.85    0.69            0.44    0.46    0.07           0.78     0.84
D8         17.85   19.04    1.04          50.73   -2.71   68.56          68.61   92.26           0.72    0.73    2.69    0.70            0.39    0.41    0.02           0.78     0.82
D9         48.28   50.67   25.83          76.48   -1.57   23.65          23.70   93.81           0.27    0.31    0.56    0.29            0.81    0.83    0.60           0.63     0.67
D10        47.97   50.42   14.85          76.33   -1.77   46.29          46.32   92.19           0.25    0.31    0.87    0.28            0.75    0.78    0.41           0.63     0.69
D11        47.62   50.26    7.31          76.23   -2.30   69.86          69.90   91.89           0.25    0.31    1.33    0.28            0.68    0.71    0.19           0.54     0.57
D12        46.57   49.30    2.28          75.64   -2.71   97.51          97.55   91.59           0.28    0.32    2.35    0.28            0.60    0.52    0.03           0.53     0.59
D13        54.32   63.25   57.57          83.57  -16.25   -5.71          17.22  199.34           0.35    0.15    0.17    0.22            0.70    0.63    0.34           0.52     0.57
D14        59.50   52.41   54.64          77.53   22.54  -13.07          26.06  329.89           0.13    0.37    0.17    0.26            0.59    0.75    0.41           0.62     0.76
D15        69.36   72.71   35.35          88.31   -1.61   29.07          29.11   93.17           0.10    0.14    0.42    0.13            0.32    0.36    0.47           0.39     0.47
D16        35.97   37.52   30.67          67.66   -0.70    0.46           0.91  142.60           0.43    0.44    0.46    0.43            0.64    0.63    0.52           0.60     0.65
D17        53.17   46.81   31.92          74.07   21.79    9.56          23.80   23.69           0.14    0.43    0.43    0.30            0.48    0.57    0.56           0.49     0.57
D18        50.17   59.75   34.49          81.70  -18.99   18.92          26.81  135.11           0.35    0.18    0.43    0.23            0.57    0.51    0.48           0.53     0.58
D19        39.73   40.75   49.80          70.00    1.38  -20.74          20.79  273.81           0.44    0.40    0.21    0.40            0.54    0.53    0.30           0.59     0.64
D20         3.12    3.11    1.13          20.49    1.96   15.05          15.18   82.60           1.42    1.58    2.07    1.49            0.08    0.07    0.03           0.49     0.57
D21        32.29   29.68    1.61          61.37   13.68   79.58          80.75   80.25           0.36    0.62    2.35    0.49            0.48    0.44    0.03           0.55     0.60
D22        41.43   46.07   52.18          73.59   -8.87  -17.19          19.35  242.71           0.48    0.31    0.20    0.36            0.51    0.51    0.29           0.54     0.58
E1          5.80    6.63    3.65          30.94   -6.38   10.20          12.04  122.06           1.25    1.18    1.49    1.18            0.17    0.17    0.11           0.65     0.72
E2          5.36    6.70    2.41          31.11  -12.30   19.62          23.16  122.09           1.32    1.13    1.75    1.18            0.14    0.17    0.07           0.63     0.68
E3          4.85    6.53    1.41          30.70  -16.73   29.06          33.54  119.93           1.42    1.11    2.13    1.20            0.13    0.16    0.03           0.66     0.70
E4          4.49    6.63    0.69          30.95  -22.55   40.34          46.22  119.20           1.55    1.06    2.77    1.20            0.14    0.19    0.02           0.79     0.84
E5         26.10   29.77   15.86          61.45  -10.42   18.11          20.90  119.92           0.60    0.51    0.80    0.53            0.59    0.65    0.49           0.76     0.82
E6         23.67   29.40    9.76          61.13  -19.41   34.81          39.86  119.14           0.67    0.48    1.09    0.54            0.50    0.58    0.29           0.74     0.80
E7         21.32   28.98    5.40          60.76  -28.54   51.73          59.09  118.89           0.78    0.45    1.49    0.55            0.44    0.54    0.13           0.68     0.73
E8         18.95   28.77    2.33          60.57  -39.38   71.11          81.29  118.98           0.96    0.41    2.25    0.56            0.28    0.31    0.03           0.43     0.49
E9         46.59   50.60   33.45          76.43   -6.06   11.35          12.87  118.12           0.32    0.29    0.43    0.30            0.76    0.77    0.63           0.61     0.65
E10        44.38   50.58   26.30          76.42  -12.33   22.75          25.88  118.47           0.36    0.27    0.56    0.30            0.71    0.71    0.54           0.65     0.68
E11        42.18   50.14   20.69          76.15  -17.65   32.77          37.22  118.31           0.40    0.26    0.70    0.30            0.72    0.74    0.52           0.68     0.73
E12        38.81   49.56   13.44          75.80  -26.52   49.05          55.76  118.40           0.47    0.24    0.96    0.31            0.61    0.59    0.35           0.68     0.74
E13        48.74   59.03   56.30          81.31  -21.15   -8.30          22.72  201.42           0.45    0.16    0.18    0.25            0.58    0.53    0.28           0.49     0.54
E14        53.34   43.69   51.02          72.02   31.06  -18.63          36.22  329.06           0.15    0.49    0.19    0.33            0.50    0.61    0.36           0.60     0.71
E15        67.73   71.07   27.57          87.52   -1.75   39.71          39.75   92.52           0.10    0.16    0.55    0.14            0.33    0.38    0.50           0.51     0.60
E16        26.60   27.76   22.67          59.67   -0.65    0.46           0.89  142.85           0.56    0.58    0.60    0.56            0.51    0.50    0.49           0.61     0.65
E17        45.26   36.80   22.67          67.13   30.29   13.32          33.09   23.73           0.17    0.60    0.59    0.39            0.40    0.44    0.49           0.56     0.63
E18        43.61   54.56   26.82          78.78  -24.74   25.92          35.84  133.67           0.43    0.20    0.57    0.28            0.50    0.45    0.41           0.59     0.65
E19        30.73   31.07   45.67          62.57    2.85  -28.74          28.88  275.66           0.58    0.52    0.25    0.53            0.46    0.46    0.29           0.57     0.63
E20         7.56    8.98    1.47          35.94   -9.86   37.31          38.59  104.80           1.14    1.02    2.13    1.04            0.15    0.15    0.03           0.49     0.56
E21        25.56   30.40    6.58          62.00  -15.01   48.40          50.67  107.23           0.60    0.48    1.33    0.52            0.39    0.41    0.11           0.53     0.58
E22         9.15   19.16   14.26          50.87  -60.21    3.91          60.34  176.29           1.82    0.50    0.88    0.80            0.20    0.29    0.30           0.58     0.63
F1          3.86    4.85    3.38          26.31  -11.40    4.02          12.10  160.53           1.51    1.28    1.52    1.34            0.11    0.12    0.11           0.66     0.72
F2          3.16    4.76    2.81          26.05  -21.25    7.70          22.61  160.06           1.72    1.22    1.64    1.36            0.10    0.13    0.09           0.71     0.79
F3          2.58    4.63    2.38          25.65  -30.08   10.50          31.87  160.75           1.96    1.18    1.76    1.39            0.10    0.14    0.07           0.72     0.78
F4          1.95    4.75    1.95          26.00  -44.90   14.99          47.33  161.53           2.47    1.09    1.95    1.40            0.07    0.14    0.06           0.66     0.71
F5         12.14   15.30   10.72          46.03  -16.83    5.66          17.76  161.40           1.03    0.76    0.97    0.84            0.30    0.36    0.36           0.73     0.79
F6          9.75   15.26    8.77          45.98  -34.28   12.14          36.37  160.50           1.30    0.69    1.11    0.86            0.25    0.34    0.27           0.73     0.77
F7          7.64   14.78    7.14          45.33  -49.64   17.30          52.57  160.78           1.64    0.64    1.25    0.89            0.21    0.35    0.22           0.75     0.80
F8          6.36   14.80    6.20          45.36  -62.49   21.40          66.06  161.10           1.99    0.60    1.37    0.91            0.18    0.33    0.18           0.69     0.77
F9         31.19   35.75   26.81          66.33  -11.64    4.46          12.47  159.02           0.55    0.42    0.53    0.46            0.63    0.66    0.56           0.68     0.73
F10        27.74   35.41   24.25          66.07  -23.68    8.54          25.18  160.16           0.68    0.38    0.59    0.47            0.54    0.63    0.55           0.65     0.70
F11        24.81   35.36   21.97          66.02  -35.55   12.77          37.77  160.24           0.82    0.34    0.65    0.49            0.48    0.59    0.55           0.65     0.71
F12        20.72   34.67   19.19          65.49  -51.75   17.52          54.64  161.30           1.06    0.30    0.74    0.51            0.34    0.39    0.45           0.70     0.77
F13        43.42   54.84   55.10          78.95  -26.04  -11.10          28.30  203.08           0.55    0.18    0.19    0.29            0.55    0.52    0.28           0.46     0.52
F14        46.89   35.28   46.83          65.97   39.87  -24.26          46.67  328.68           0.18    0.65    0.22    0.42            0.46    0.52    0.37           0.55     0.66
F15        66.16   69.25   20.27          86.63   -1.36   51.71          51.72   91.51           0.10    0.17    0.73    0.14            0.27    0.32    0.45           0.61     0.72
F16        18.65   19.48   15.77          51.24   -0.66    0.75           1.08  133.44           0.72    0.73    0.77    0.71            0.39    0.36    0.41           0.62     0.69
F17        37.60   27.85   14.45          59.75   38.75   18.73          43.04   25.79           0.20    0.80    0.79    0.49            0.31    0.32    0.39           0.62     0.70
