targets/wolf_faust/transmissive/F100301.it8
IT8.7/1
ORIGINATOR "Wolf Faust"
DESCRIPTOR "Fujichrome Provia/Astia/Sensia, Type 3, L* a* b* (light D50, viewing angle 2)"
MANUFACTURER "Wolf Faust - http://www.coloraid.de"
CREATED "March 11, 2010"
PROD_DATE "2007:09"
DIFFUSE_GEOMETRY "opal"
SERIAL "F100301 Batch Average Data"
MATERIAL "Fujichrome Provia 100F (RDP III)"
KEYWORD "MEAN_DE" # Mean Delta E of samples compared to batch average
NUMBER_OF_FIELDS 18
BEGIN_DATA_FORMAT
SAMPLE_ID  XYZ_X   XYZ_Y   XYZ_Z          LAB_L   LAB_A   LAB_B          LAB_C   LAB_H          D_RED  D_GREEN  D_BLUE  D_VIS          STDEV_X STDEV_Y STDEV_Z        MEAN_DE  STDEV_DE
END_DATA_FORMAT
NUMBER_OF_SETS 288
BEGIN_DATA
A1          2.16    1.86    1.38          14.71    8.66    1.82           8.86   11.81           1.53    1.90    1.88    1.70            0.06    0.05    0.05           0.49     0.56
A2          2.75    1.88    1.12          14.82   19.84    5.47          20.58   15.40           1.32    2.09    1.96    1.65            0.08    0.05    0.04           0.43     0.49 
A3          3.32    1.88    0.94          14.86   29.66    8.23          30.78   15.50           1.16    2.35    2.00    1.62            0.09    0.05    0.04           0.47     0.55
A4          3.97    1.93    0.80          15.11   38.57   11.05          40.12   15.99           1.02    2.74    2.04    1.57            0.09    0.05    0.04           0.57     0.65 
A5         10.11    8.80    6.63          35.60   13.37    2.68          13.65   11.31           0.87    1.20    1.15    1.03            0.24    0.21    0.23           0.71     0.79
A6         12.37    8.96    5.51          35.91   28.39    8.39          29.61   16.45           0.69    1.33    1.23    0.99            0.27    0.20    0.19           0.64     0.74 
A7         14.79    9.08    4.83          36.14   42.86   12.26          44.58   15.96           0.54    1.52    1.27    0.95            0.32    0.20    0.19           0.67     0.77
A8         17.41    8.75    3.83          35.50   60.64   16.96          62.97   15.62           0.39    1.95    1.33    0.92            0.14    0.09    0.15           0.66     0.78 
A9         30.48   29.93   23.32          61.59    6.14    2.53           6.65   22.25           0.46    0.57    0.58    0.52            0.58    0.58    0.58           0.70     0.80
A10        32.98   30.21   22.34          61.83   14.20    4.82          15.01   18.72           0.38    0.61    0.60    0.50            0.65    0.62    0.63           0.75     0.83
A11        35.47   30.25   21.26          61.87   22.63    7.00          23.69   17.17           0.31    0.65    0.62    0.49            0.65    0.62    0.60           0.75     0.82
A12        40.01   30.05   19.28          61.70   38.05   10.79          39.55   15.82           0.19    0.75    0.65    0.47            0.53    0.56    0.62           0.81     0.90 
A13        72.62   76.82   63.45          90.24   -3.00   -0.05           3.01  180.99           0.13    0.11    0.12    0.12            0.29    0.27    0.17           0.18     0.20
A14        76.89   78.61   64.34          91.06    2.22    0.50           2.27   12.83           0.08    0.11    0.11    0.10            0.16    0.19    0.15           0.10     0.12 
A15        77.04   79.52   61.24          91.47    0.73    4.22           4.28   80.21           0.08    0.10    0.14    0.10            0.22    0.22    0.24           0.14     0.16
A16        76.57   79.41   64.32          91.42    0.02    1.15           1.15   89.19           0.09    0.10    0.11    0.10            0.18    0.18    0.14           0.09     0.11
A17        75.79   77.41   61.17          90.51    2.36    2.63           3.53   48.13           0.08    0.12    0.14    0.11            0.25    0.29    0.27           0.14     0.18
A18        73.26   77.09   59.56          90.36   -2.21    3.98           4.56  119.07           0.12    0.11    0.15    0.11            0.28    0.24    0.32           0.23     0.25 
A19        71.58   74.59   62.74          89.20   -0.70   -1.16           1.37  238.90           0.13    0.13    0.12    0.13            0.32    0.34    0.17           0.25     0.30
A20         6.57    3.11    2.06          20.48   46.98    4.49          47.20    5.46           0.80    2.59    1.58    1.36            0.19    0.09    0.10           0.85     0.93 
A21        27.83   19.68   15.38          51.47   39.59    2.11          39.65    3.05           0.33    0.99    0.74    0.64            0.50    0.41    0.55           0.77     0.85
A22        55.79   51.32   33.27          76.87   16.34   12.38          20.51   37.14           0.14    0.37    0.42    0.27            0.59    0.71    0.77           0.66     0.77
B1          3.46    3.13    1.79          20.56    7.33    7.28          10.33   44.78           1.34    1.64    1.79    1.48            0.10    0.10    0.07           0.59     0.66
B2          4.02    3.11    1.11          20.49   16.12   15.33          22.24   43.55           1.19    1.75    2.03    1.45            0.08    0.07    0.05           0.49     0.56
B3          4.44    2.92    0.62          19.70   25.32   22.35          33.77   41.44           1.08    1.95    2.32    1.45            0.06    0.04    0.02           0.30     0.35
B4          5.53    3.04    0.16          20.21   36.73   31.89          48.64   40.96           0.91    2.22    3.07    1.39            0.12    0.07    0.00           0.41     0.56
B5         12.98   11.67    6.85          40.68   11.96   10.48          15.91   41.21           0.76    1.05    1.16    0.91            0.29    0.26    0.24           0.71     0.78
B6         15.37   11.91    4.42          41.07   25.11   23.01          34.06   42.49           0.60    1.15    1.38    0.87            0.32    0.25    0.15           0.63     0.71
B7         17.53   11.76    2.73          40.82   38.29   33.76          51.05   41.40           0.48    1.30    1.61    0.84            0.31    0.22    0.11           0.52     0.61
B8         21.40   11.82    1.11          40.93   57.35   50.67          76.52   41.46           0.32    1.60    2.06    0.80            0.17    0.14    0.04           0.28     0.35
B9         36.47   36.73   27.07          67.07    3.51    5.30           6.36   56.49           0.39    0.47    0.52    0.43            0.64    0.66    0.62           0.67     0.75
B10        38.30   36.48   23.92          66.88   10.28   10.54          14.72   45.69           0.33    0.50    0.58    0.42            0.76    0.72    0.63           0.70     0.81
B11        40.06   36.51   21.56          66.90   15.74   15.09          21.80   43.79           0.28    0.53    0.63    0.41            0.62    0.65    0.60           0.65     0.77
B12        44.81   36.45   16.39          66.86   30.15   26.18          39.93   40.96           0.16    0.61    0.76    0.39            0.53    0.61    0.57           0.87     0.97
B13        67.76   73.02   60.83          88.45   -5.71   -0.58           5.74  185.74           0.18    0.12    0.14    0.14            0.35    0.33    0.19           0.23     0.27
B14        71.49   70.85   60.74          87.41    6.79   -2.28           7.16  341.42           0.10    0.17    0.14    0.14            0.28    0.40    0.22           0.27     0.36
B15        73.73   76.61   53.90          90.14   -0.27    9.47           9.47   91.64           0.10    0.12    0.20    0.11            0.21    0.23    0.41           0.24     0.29
B16        61.59   64.11   51.79          84.02   -0.53    1.22           1.36  113.20           0.19    0.20    0.21    0.19            0.56    0.61    0.52           0.38     0.45
B17        69.37   68.94   52.94          86.48    6.32    4.19           7.58   33.58           0.10    0.19    0.20    0.15            0.34    0.47    0.44           0.29     0.37
B18        66.03   71.63   53.05          87.79   -6.65    6.34           9.19  136.38           0.18    0.13    0.21    0.15            0.46    0.41    0.46           0.30     0.35
B19        63.05   65.45   58.68          84.72   -0.14   -4.87           4.88  268.34           0.20    0.19    0.15    0.19            0.45    0.50    0.23           0.41     0.47
B20         5.00    3.02    1.02          20.14   30.70   16.06          34.65   27.62           1.00    2.04    2.01    1.42            0.11    0.07    0.05           0.51     0.59
B21        17.64   11.88    4.34          41.02   38.07   23.36          44.67   31.53           0.48    1.29    1.36    0.84            0.36    0.25    0.15           0.65     0.74
B22        35.51   30.40   18.33          62.00   22.17   13.38          25.89   31.10           0.30    0.65    0.69    0.48            0.57    0.57    0.54           0.73     0.81
C1          6.63    6.60    3.66          30.87    2.82   10.00          10.40   74.27           1.11    1.25    1.47    1.17            0.15    0.15    0.14           0.66     0.75
C2          6.84    6.37    2.21          30.33    7.26   20.01          21.29   70.06           1.04    1.30    1.75    1.17            0.11    0.12    0.09           0.54     0.60
C3          7.42    6.46    1.21          30.55   11.98   31.35          33.56   69.09           0.97    1.33    2.11    1.14            0.15    0.14    0.05           0.51     0.56
C4          7.88    6.33    0.42          30.23   17.68   44.20          47.60   68.19           0.92    1.40    2.86    1.14            0.14    0.12    0.01           0.44     0.55
C5         25.15   24.48   12.72          56.56    6.69   17.87          19.09   69.48           0.51    0.67    0.89    0.59            0.51    0.50    0.43           0.81     0.90
C6         27.12   24.55    7.26          56.64   14.48   36.30          39.08   68.25           0.42    0.72    1.19    0.57            0.48    0.47    0.25           0.71     0.79
C7         28.87   24.16    3.29          56.24   23.11   56.25          60.82   67.66           0.35    0.77    1.67    0.56            0.41    0.41    0.10           0.53     0.59
C8         32.15   24.55    0.87          56.63   33.64   81.36          88.04   67.54           0.27    0.84    2.73    0.54            0.41    0.38    0.02           0.50     0.60
C9         43.04   43.83   30.31          72.11    2.30    8.69           8.99   75.24           0.32    0.38    0.47    0.35            0.63    0.65    0.58           0.62     0.69
C10        43.97   43.59   25.85          71.95    5.72   15.82          16.82   70.13           0.28    0.40    0.55    0.35            0.75    0.75    0.60           0.65     0.73
C11        45.42   44.00   21.72          72.22    8.74   23.94          25.49   69.94           0.24    0.41    0.64    0.34            0.75    0.78    0.62           0.67     0.76
C12        49.44   43.31    9.46          71.76   21.91   54.17          58.43   67.98           0.13    0.48    1.09    0.32            0.40    0.54    0.29           0.73     0.81
C13        60.96   68.32   59.21          86.17  -11.23   -2.91          11.60  194.49           0.26    0.13    0.15    0.18            0.51    0.44    0.23           0.35     0.42
C14        66.25   62.37   58.12          83.11   13.99   -7.06          15.67  333.24           0.11    0.26    0.15    0.19            0.40    0.59    0.26           0.48     0.63
C15        71.67   74.90   44.01          89.34   -1.15   19.44          19.47   93.40           0.10    0.13    0.31    0.12            0.20    0.20    0.49           0.41     0.49
C16        47.90   50.09   40.44          76.12   -1.11    1.16           1.67  133.02           0.31    0.31    0.33    0.30            0.66    0.68    0.62           0.56     0.65
C17        61.83   58.39   42.15          80.95   13.26    7.29          15.13   28.79           0.12    0.29    0.31    0.22            0.48    0.63    0.65           0.47     0.58
C18        57.93   65.83   43.38          84.91  -13.05   12.58          18.12  136.05           0.26    0.15    0.31    0.19            0.56    0.45    0.56           0.51     0.57
C19        50.97   52.88   54.33          77.80   -0.07  -12.25          12.26  269.68           0.31    0.28    0.18    0.28            0.64    0.70    0.32           0.66     0.75
C20        12.64    9.29    1.21          36.54   27.49   41.61          49.87   56.55           0.66    1.31    2.11    0.96            0.24    0.18    0.04           0.46     0.52
C21        22.74   21.21   11.81          53.17   10.75   14.65          18.18   53.73           0.53    0.76    0.91    0.65            0.46    0.41    0.34           0.81     0.89
C22        28.66   24.27   11.31          56.35   21.80   21.64          30.72   44.79           0.38    0.76    0.93    0.57            0.46    0.41    0.31           0.66     0.75
D1          4.33    4.65    2.58          25.70   -1.97    8.89           9.11  102.54           1.33    1.37    1.65    1.33            0.12    0.12    0.10           0.60     0.67
D2          4.22    4.52    1.53          25.32   -1.90   18.30          18.40   95.95           1.33    1.38    1.95    1.33            0.09    0.10    0.06           0.52     0.59
D3          4.20    4.55    0.88          25.40   -2.49   27.43          27.54   95.20           1.34    1.36    2.32    1.33            0.10    0.11    0.03           0.46     0.51
D4          4.22    4.60    0.47          25.57   -3.06   35.30          35.43   94.96           1.35    1.35    2.83    1.32            0.10    0.11    0.01           0.53     0.63
D5         18.45   19.47   10.12          51.23   -1.71   16.55          16.65   95.91           0.69    0.74    1.00    0.70            0.39    0.41    0.34           0.78     0.86
D6         18.00   19.29    5.29          51.03   -3.15   35.53          35.67   95.07           0.69    0.73    1.38    0.70            0.35    0.40    0.21           0.69     0.80
D7         18.01   19.31    2.60          51.05   -3.20   52.47          52.57   93.49           0.69    0.73    1.87    0.70            0.30    0.35    0.08           0.55     0.63
D8         17.78   19.12    1.05          50.82   -3.44   68.49          68.57   92.88           0.72    0.73    2.68    0.70            0.30    0.32    0.02           0.61     0.70
D9         48.85   51.41   26.53          76.92   -1.95   23.20          23.29   94.82           0.26    0.30    0.55    0.28            0.70    0.73    0.61           0.64     0.71
D10        48.47   51.09   15.34          76.73   -2.15   45.75          45.81   92.70           0.25    0.30    0.86    0.28            0.62    0.65    0.41           0.68     0.77
D11        47.98   50.77    7.44          76.54   -2.66   69.85          69.90   92.18           0.25    0.31    1.31    0.27            0.61    0.62    0.19           0.53     0.60
D12        46.66   49.51    2.28          75.77   -3.00   97.73          97.78   91.76           0.28    0.31    2.35    0.28            0.41    0.32    0.03           0.38     0.48
D13        54.52   63.66   57.70          83.79  -16.67   -5.47          17.54  198.15           0.35    0.15    0.17    0.22            0.51    0.45    0.25           0.38     0.46
D14        60.17   53.16   54.84          77.97   22.24  -12.51          25.52  330.64           0.13    0.36    0.17    0.26            0.54    0.72    0.38           0.62     0.78
D15        70.05   73.45   35.72          88.66   -1.65   29.16          29.21   93.25           0.10    0.14    0.42    0.12            0.26    0.28    0.54           0.50     0.58
D16        36.10   37.86   31.15          67.92   -1.34    0.15           1.41  169.70           0.44    0.43    0.45    0.42            0.65    0.65    0.61           0.68     0.76
D17        53.76   47.39   32.39          74.44   21.69    9.50          23.68   23.64           0.14    0.43    0.43    0.30            0.57    0.70    0.72           0.66     0.75
D18        50.24   60.02   34.93          81.85  -19.41   18.54          26.85  136.32           0.35    0.17    0.43    0.23            0.59    0.50    0.62           0.67     0.74
D19        39.60   40.88   49.79          70.09    0.57  -20.57          20.58  271.58           0.45    0.39    0.22    0.40            0.67    0.69    0.37           0.75     0.87
D20         2.96    2.98    1.08          19.95    1.51   14.91          14.99   84.22           1.45    1.59    2.10    1.51            0.07    0.07    0.04           0.46     0.52
D21        31.93   29.45    1.59          61.18   13.25   79.47          80.57   80.53           0.37    0.62    2.36    0.49            0.45    0.43    0.03           0.58     0.66
D22        41.24   46.15   52.12          73.64   -9.67  -17.04          19.60  240.43           0.48    0.30    0.20    0.36            0.61    0.64    0.31           0.67     0.78
E1          5.66    6.52    3.68          30.68   -6.91    9.58          11.83  125.87           1.27    1.18    1.49    1.19            0.14    0.16    0.15           0.67     0.75
E2          5.18    6.54    2.38          30.73  -12.70   19.28          23.09  123.38           1.34    1.14    1.76    1.20            0.12    0.16    0.10           0.66     0.72
E3          4.71    6.39    1.37          30.37  -17.16   28.97          33.67  120.64           1.44    1.12    2.14    1.21            0.10    0.15    0.05           0.55     0.61
E4          4.41    6.59    0.69          30.86  -23.14   40.13          46.32  119.96           1.57    1.06    2.76    1.20            0.10    0.15    0.01           0.57     0.64
E5         26.10   29.96   16.42          61.62  -11.15   17.07          20.40  123.18           0.60    0.50    0.78    0.53            0.41    0.47    0.54           0.87     0.96
E6         23.61   29.53   10.03          61.24  -20.13   34.12          39.62  120.55           0.68    0.48    1.07    0.54            0.40    0.45    0.32           0.76     0.85
E7         21.09   28.89    5.41          60.69  -29.31   51.60          59.34  119.60           0.79    0.45    1.49    0.55            0.27    0.37    0.16           0.54     0.63
E8         18.79   28.63    2.30          60.45  -39.68   71.16          81.48  119.14           0.97    0.41    2.26    0.56            0.16    0.18    0.03           0.28     0.33
E9         46.89   51.09   34.02          76.73   -6.53   11.04          12.84  120.61           0.33    0.28    0.42    0.29            0.75    0.75    0.67           0.63     0.71
E10        44.58   50.99   26.83          76.67  -12.82   22.25          25.68  119.96           0.36    0.27    0.55    0.30            0.62    0.63    0.57           0.63     0.73
E11        42.37   50.57   21.34          76.42  -18.22   31.94          36.77  119.70           0.40    0.25    0.68    0.30            0.57    0.59    0.55           0.71     0.84
E12        38.81   49.76   13.86          75.92  -27.06   48.15          55.24  119.34           0.47    0.23    0.94    0.31            0.51    0.44    0.34           0.75     0.87
E13        48.72   59.26   56.36          81.43  -21.72   -8.14          23.20  200.55           0.45    0.16    0.18    0.25            0.49    0.45    0.26           0.36     0.43
E14        53.88   44.25   51.13          72.39   30.83  -18.10          35.75  329.59           0.15    0.49    0.19    0.33            0.51    0.65    0.37           0.63     0.79
E15        68.38   71.76   28.06          87.85   -1.76   39.46          39.50   92.56           0.10    0.15    0.55    0.13            0.22    0.25    0.54           0.60     0.73
E16        26.59   27.90   23.08          59.80   -1.27   -0.11           1.34  180.63           0.57    0.57    0.59    0.56            0.45    0.44    0.41           0.64     0.74
E17        45.63   37.10   23.08          67.35   30.37   12.92          33.01   23.04           0.16    0.59    0.58    0.39            0.49    0.56    0.55           0.70     0.77
E18        43.51   54.64   27.26          78.83  -25.24   25.26          35.71  134.99           0.44    0.20    0.56    0.28            0.48    0.40    0.51           0.72     0.82
E19        30.60   31.23   45.68          62.70    1.83  -28.52          28.59  273.68           0.59    0.51    0.25    0.53            0.48    0.50    0.25           0.73     0.82
E20         7.24    8.67    1.42          35.33  -10.31   36.91          38.32  105.61           1.16    1.03    2.15    1.06            0.13    0.16    0.04           0.49     0.55
E21        25.27   30.24    6.59          61.86  -15.64   48.11          50.59  108.01           0.61    0.48    1.33    0.52            0.46    0.52    0.22           0.71     0.77
E22         8.98   18.90   14.45          50.57  -60.31    2.89          60.38  177.26           1.85    0.51    0.87    0.81            0.12    0.21    0.33           0.61     0.70
F1          3.74    4.75    3.37          26.01  -11.88    3.56          12.41  163.31           1.53    1.28    1.52    1.35            0.10    0.12    0.12           0.63     0.70
F2          3.05    4.66    2.78          25.73  -21.71    7.35          22.93  161.30           1.75    1.23    1.65    1.37            0.09    0.13    0.10           0.58     0.64
F3          2.48    4.52    2.35          25.31  -30.52   10.14          32.17  161.62           2.00    1.19    1.77    1.40            0.07    0.13    0.09           0.54     0.60
F4          1.89    4.65    1.90          25.70  -44.95   14.95          47.38  161.60           2.50    1.10    1.96    1.41            0.04    0.09    0.06           0.56     0.64
F5         12.07   15.33   11.09          46.08  -17.45    4.61          18.06  165.23           1.04    0.76    0.96    0.84            0.27    0.32    0.43           0.89     1.00
F6          9.63   15.19    8.98          45.89  -34.77   11.24          36.55  162.10           1.31    0.69    1.09    0.86            0.21    0.31    0.32           0.84     0.94
F7          7.49   14.62    7.25          45.11  -50.03   16.46          52.67  161.79           1.66    0.65    1.24    0.90            0.16    0.30    0.24           0.74     0.82
F8          6.26   14.69    6.31          45.20  -62.84   20.64          66.15  161.82           2.01    0.60    1.35    0.91            0.10    0.21    0.17           0.55     0.63
F9         31.36   36.15   27.52          66.63  -12.32    3.78          12.90  162.95           0.56    0.41    0.52    0.45            0.55    0.58    0.57           0.68     0.76
F10        27.86   35.78   25.01          66.35  -24.41    7.64          25.58  162.61           0.69    0.38    0.58    0.47            0.41    0.46    0.49           0.66     0.74
F11        24.86   35.63   22.71          66.23  -36.24   11.70          38.09  162.11           0.83    0.34    0.64    0.48            0.33    0.38    0.42           0.62     0.71
F12        20.68   34.70   19.71          65.52  -52.06   16.46          54.60  162.45           1.07    0.30    0.73    0.51            0.21    0.21    0.39           0.63     0.74
F13        43.27   54.92   55.10          79.00  -26.68  -11.02          28.87  202.44           0.55    0.18    0.19    0.29            0.39    0.35    0.19           0.36     0.42
F14        47.34   35.73   46.91          66.31   39.67  -23.76          46.24  329.08           0.17    0.64    0.22    0.41            0.43    0.51    0.34           0.59     0.71
F15        66.73   69.86   20.62          86.93   -1.39   51.50          51.52   91.55           0.10    0.17    0.72    0.14            0.18    0.21    0.45           0.64     0.79
F16        18.49   19.42   16.00          51.18   -1.24    0.07           1.36  174.12           0.73    0.73    0.76    0.71            0.34    0.34    0.38           0.68     0.79
F17        37.66   27.86   14.62          59.76   38.91   18.32          43.01   25.20           0.20    0.80    0.79    0.49            0.74    0.65    0.53           0.88     0.97
