targets/wolf_faust/transmissive/F101122.it8
IT8.7/1
ORIGINATOR "Wolf Faust"
DESCRIPTOR "Fujichrome Provia/Astia/Sensia, Type 3, L* a* b* (light D50, viewing angle 2)"
MANUFACTURER "Wolf Faust - http://www.coloraid.de"
CREATED "November 23, 2010"
PROD_DATE "2007:09"
DIFFUSE_GEOMETRY "opal"
SERIAL "F101122 Batch Average Data"
MATERIAL "Fujichrome Provia 100F (RDP III)"
KEYWORD "MEAN_DE" # Mean Delta E of samples compared to batch average
NUMBER_OF_FIELDS 18
BEGIN_DATA_FORMAT
SAMPLE_ID  XYZ_X   XYZ_Y   XYZ_Z          LAB_L   LAB_A   LAB_B          LAB_C   LAB_H          D_RED  D_GREEN  D_BLUE  D_VIS          STDEV_X STDEV_Y STDEV_Z        MEAN_DE  STDEV_DE
END_DATA_FORMAT
NUMBER_OF_SETS 288
BEGIN_DATA
A1          2.05    1.77    1.30          14.24    8.26    1.99           8.50   13.52           1.55    1.92    1.91    1.72            0.06    0.05    0.04           0.37     0.44
A2          2.61    1.79    1.05          14.32   19.46    5.60          20.25   16.07           1.34    2.11    1.99    1.68            0.08    0.06    0.04           0.30     0.38 
A3          3.17    1.80    0.89          14.40   29.15    8.24          30.29   15.79           1.18    2.37    2.03    1.63            0.09    0.05    0.03           0.32     0.42
A4          3.82    1.86    0.75          14.73   37.98   11.26          39.61   16.51           1.04    2.75    2.07    1.59            0.09    0.05    0.02           0.32     0.42 
A5          9.71    8.45    6.05          34.90   13.21    4.07          13.82   17.12           0.88    1.21    1.20    1.04            0.25    0.22    0.14           0.49     0.55
A6         11.76    8.52    4.97          35.04   27.95    9.60          29.56   18.95           0.70    1.36    1.28    1.01            0.29    0.21    0.14           0.48     0.58 
A7         14.13    8.65    4.34          35.31   42.43   13.52          44.53   17.67           0.55    1.54    1.32    0.97            0.27    0.18    0.14           0.50     0.58
A8         17.12    8.57    3.41          35.14   60.59   19.01          63.50   17.41           0.39    1.97    1.39    0.93            0.15    0.10    0.11           0.41     0.52 
A9         29.10   28.56   21.65          60.39    6.10    3.68           7.14   31.15           0.48    0.59    0.62    0.53            0.55    0.53    0.40           0.66     0.75
A10        31.43   28.71   20.47          60.52   14.27    6.27          15.60   23.74           0.40    0.63    0.64    0.52            0.60    0.55    0.38           0.67     0.77
A11        33.91   28.78   19.41          60.59   22.81    8.60          24.38   20.65           0.32    0.68    0.66    0.51            0.54    0.48    0.35           0.59     0.69
A12        38.98   28.97   17.46          60.76   38.85   13.18          41.03   18.74           0.19    0.78    0.70    0.48            0.34    0.39    0.30           0.55     0.67 
A13        71.66   76.16   62.73          89.93   -3.70    0.12           3.70  178.18           0.14    0.11    0.13    0.12            0.25    0.16    0.11           0.20     0.26
A14        76.46   78.02   63.67          90.79    2.50    0.68           2.59   15.24           0.08    0.12    0.12    0.11            0.09    0.07    0.11           0.12     0.16 
A15        76.88   79.44   60.32          91.43    0.57    5.07           5.10   83.61           0.08    0.10    0.15    0.10            0.11    0.12    0.16           0.14     0.16
A16        76.07   79.06   63.72          91.26   -0.33    1.45           1.49  102.76           0.10    0.10    0.12    0.10            0.13    0.10    0.15           0.12     0.14
A17        75.46   76.97   60.34          90.31    2.53    3.11           4.01   50.85           0.08    0.12    0.14    0.11            0.17    0.21    0.18           0.15     0.18
A18        72.68   76.71   58.60          90.19   -2.66    4.65           5.36  119.78           0.12    0.11    0.16    0.12            0.25    0.20    0.27           0.20     0.23 
A19        70.65   73.61   61.99          88.74   -0.70   -1.22           1.41  240.36           0.14    0.13    0.13    0.13            0.32    0.30    0.15           0.20     0.24
A20         6.36    3.01    1.92          20.10   46.37    5.11          46.65    6.29           0.82    2.59    1.62    1.38            0.17    0.08    0.05           0.47     0.57 
A21        26.90   18.96   14.24          50.64   39.44    3.56          39.60    5.16           0.34    1.01    0.78    0.66            0.46    0.35    0.28           0.49     0.56
A22        54.91   50.33   32.07          76.27   16.70   13.15          21.26   38.21           0.14    0.38    0.44    0.27            0.44    0.55    0.41           0.43     0.54
B1          3.27    2.96    1.64          19.88    7.18    7.66          10.51   46.86           1.36    1.66    1.83    1.50            0.09    0.09    0.05           0.43     0.49
B2          3.84    2.97    1.04          19.90   15.91   15.32          22.09   43.91           1.21    1.77    2.06    1.47            0.11    0.09    0.03           0.39     0.48
B3          4.27    2.80    0.58          19.22   25.05   22.17          33.46   41.50           1.09    1.96    2.34    1.46            0.11    0.08    0.02           0.40     0.50
B4          5.26    2.89    0.15          19.59   36.21   30.87          47.58   40.45           0.93    2.25    3.06    1.41            0.14    0.08    0.00           0.52     0.71
B5         12.31   11.05    6.18          39.67   11.80   11.68          16.61   44.70           0.78    1.08    1.21    0.93            0.26    0.24    0.18           0.53     0.60
B6         14.67   11.35    4.06          40.17   24.83   23.58          34.24   43.51           0.62    1.17    1.42    0.89            0.31    0.26    0.10           0.52     0.61
B7         16.86   11.26    2.50          40.01   38.15   34.23          51.26   41.90           0.49    1.32    1.66    0.86            0.32    0.23    0.07           0.43     0.51
B8         21.06   11.55    1.03          40.50   57.62   51.00          76.95   41.51           0.32    1.62    2.09    0.81            0.14    0.11    0.03           0.28     0.34
B9         34.71   34.90   24.98          65.67    3.64    6.53           7.49   60.83           0.41    0.49    0.56    0.45            0.59    0.57    0.42           0.61     0.69
B10        36.81   35.02   22.25          65.76   10.30   11.77          15.65   48.80           0.34    0.52    0.61    0.44            0.58    0.56    0.40           0.62     0.72
B11        38.53   34.99   19.89          65.74   15.93   16.47          22.92   45.95           0.29    0.55    0.67    0.43            0.56    0.53    0.38           0.62     0.73
B12        43.68   35.16   14.65          65.87   31.11   28.74          42.36   42.73           0.16    0.63    0.81    0.40            0.36    0.45    0.26           0.63     0.78
B13        66.30   71.68   59.69          87.81   -6.16   -0.54           6.19  184.98           0.19    0.13    0.15    0.15            0.46    0.38    0.19           0.26     0.35
B14        70.32   69.43   59.62          86.72    7.31   -2.36           7.68  342.13           0.11    0.19    0.14    0.15            0.35    0.46    0.20           0.30     0.41
B15        72.84   75.72   52.38          89.73   -0.36   10.41          10.42   91.99           0.10    0.13    0.22    0.12            0.26    0.25    0.32           0.17     0.21
B16        59.97   62.44   50.14          83.15   -0.56    1.55           1.66  110.04           0.20    0.21    0.23    0.20            0.58    0.58    0.33           0.37     0.44
B17        68.19   67.57   51.43          85.79    6.70    4.67           8.17   34.89           0.11    0.20    0.22    0.16            0.31    0.42    0.24           0.26     0.35
B18        64.81   70.52   51.60          87.25   -7.06    6.99           9.94  135.26           0.19    0.14    0.22    0.16            0.45    0.38    0.28           0.28     0.34
B19        61.66   63.95   57.62          83.94   -0.02   -5.12           5.12  269.77           0.20    0.20    0.16    0.20            0.54    0.53    0.19           0.35     0.44
B20         4.86    2.94    0.99          19.80   30.42   16.02          34.38   27.78           1.01    2.05    2.03    1.43            0.14    0.09    0.03           0.41     0.49
B21        17.13   11.52    4.09          40.44   37.77   23.83          44.66   32.25           0.50    1.30    1.39    0.86            0.37    0.27    0.12           0.52     0.60
B22        34.31   29.31   16.99          61.05   22.19   14.75          26.65   33.62           0.31    0.67    0.73    0.50            0.46    0.41    0.24           0.54     0.61
C1          6.30    6.28    3.34          30.10    2.73   10.81          11.16   75.80           1.13    1.27    1.52    1.19            0.17    0.17    0.09           0.47     0.56
C2          6.54    6.09    2.07          29.63    7.21   20.16          21.41   70.32           1.06    1.32    1.78    1.19            0.17    0.17    0.05           0.47     0.57
C3          7.11    6.17    1.13          29.84   12.03   31.20          33.44   68.91           0.99    1.36    2.14    1.16            0.18    0.16    0.04           0.44     0.53
C4          7.48    5.99    0.41          29.40   17.60   43.00          46.46   67.74           0.94    1.42    2.86    1.16            0.20    0.15    0.01           0.56     0.73
C5         23.93   23.23   11.51          55.31    6.83   19.23          20.41   70.45           0.53    0.70    0.94    0.61            0.50    0.46    0.29           0.65     0.75
C6         25.91   23.39    6.56          55.47   14.59   37.21          39.97   68.59           0.44    0.74    1.25    0.59            0.38    0.38    0.14           0.52     0.59
C7         27.92   23.24    3.09          55.32   23.39   56.02          60.71   67.34           0.36    0.80    1.70    0.58            0.48    0.41    0.08           0.50     0.60
C8         31.20   23.70    0.83          55.79   33.81   80.53          87.34   67.22           0.29    0.86    2.74    0.55            0.44    0.37    0.01           0.49     0.61
C9         41.08   41.81   28.12          70.73    2.37    9.85          10.14   76.44           0.34    0.41    0.51    0.37            0.66    0.65    0.53           0.61     0.70
C10        42.14   41.69   23.84          70.66    5.92   17.21          18.20   71.01           0.30    0.42    0.59    0.37            0.68    0.67    0.48           0.62     0.71
C11        43.63   42.14   19.77          70.96    9.02   25.72          27.26   70.66           0.26    0.43    0.69    0.35            0.67    0.68    0.43           0.64     0.75
C12        48.44   41.99    8.51          70.86   23.07   55.98          60.55   67.60           0.14    0.50    1.15    0.33            0.41    0.56    0.17           0.63     0.76
C13        59.40   66.90   58.13          85.45  -11.86   -3.04          12.25  194.35           0.28    0.14    0.16    0.19            0.62    0.52    0.27           0.35     0.48
C14        64.74   60.50   56.83          82.11   14.94   -7.47          16.70  333.46           0.12    0.27    0.16    0.21            0.43    0.58    0.27           0.41     0.57
C15        70.80   74.05   42.46          88.94   -1.26   20.67          20.71   93.50           0.10    0.14    0.32    0.12            0.26    0.28    0.36           0.24     0.29
C16        46.17   48.32   38.62          75.02   -1.17    1.66           2.06  124.45           0.32    0.32    0.35    0.32            0.75    0.72    0.44           0.58     0.68
C17        60.47   56.78   40.39          80.06   13.94    8.00          16.08   29.86           0.12    0.31    0.33    0.23            0.45    0.58    0.41           0.43     0.53
C18        56.40   64.46   41.63          84.20  -13.76   13.55          19.32  135.43           0.27    0.16    0.33    0.20            0.55    0.46    0.35           0.35     0.45
C19        49.40   51.20   53.19          76.80    0.09  -12.77          12.77  270.42           0.32    0.29    0.19    0.30            0.69    0.67    0.27           0.55     0.68
C20        12.31    9.05    1.18          36.07   27.30   41.20          49.43   56.47           0.67    1.32    2.12    0.97            0.27    0.21    0.03           0.60     0.69
C21        21.97   20.50   10.99          52.39   10.57   15.78          19.00   56.19           0.55    0.78    0.95    0.66            0.40    0.35    0.18           0.67     0.75
C22        27.87   23.58   10.58          55.66   21.70   22.70          31.41   46.29           0.39    0.78    0.97    0.59            0.45    0.37    0.13           0.60     0.68
D1          4.10    4.40    2.35          24.94   -1.97    9.53           9.73  101.68           1.35    1.39    1.69    1.35            0.13    0.13    0.07           0.45     0.55
D2          4.02    4.31    1.43          24.66   -1.87   18.31          18.40   95.82           1.35    1.40    1.98    1.36            0.12    0.13    0.05           0.45     0.54
D3          3.99    4.32    0.83          24.69   -2.45   27.01          27.12   95.18           1.36    1.39    2.35    1.35            0.12    0.13    0.03           0.45     0.56
D4          3.97    4.33    0.44          24.73   -2.95   34.31          34.44   94.91           1.38    1.37    2.85    1.35            0.11    0.11    0.01           0.53     0.67
D5         17.55   18.51    9.16          50.11   -1.61   17.87          17.94   95.14           0.71    0.76    1.06    0.72            0.35    0.34    0.20           0.55     0.64
D6         17.32   18.52    4.92          50.12   -2.91   35.88          36.00   94.64           0.71    0.75    1.42    0.72            0.35    0.34    0.10           0.56     0.66
D7         17.35   18.55    2.46          50.15   -2.86   52.02          52.10   93.15           0.71    0.75    1.89    0.71            0.32    0.31    0.04           0.57     0.67
D8         17.03   18.27    1.00          49.83   -3.22   67.50          67.58   92.74           0.74    0.75    2.70    0.72            0.34    0.32    0.01           0.56     0.71
D9         47.20   49.68   24.79          75.87   -1.94   24.45          24.53   94.54           0.28    0.32    0.59    0.30            0.82    0.84    0.59           0.57     0.65
D10        46.79   49.27   13.85          75.62   -2.00   47.65          47.69   92.40           0.26    0.32    0.91    0.29            0.63    0.64    0.32           0.55     0.64
D11        46.54   49.21    6.86          75.58   -2.55   70.63          70.68   92.07           0.26    0.32    1.37    0.29            0.55    0.55    0.13           0.46     0.53
D12        45.54   48.53    2.21          75.16   -3.55   97.33          97.39   92.09           0.29    0.32    2.37    0.29            0.54    0.41    0.02           0.47     0.61
D13        53.10   62.38   56.79          83.11  -17.38   -5.69          18.29  198.13           0.37    0.15    0.18    0.23            0.63    0.55    0.28           0.40     0.54
D14        58.66   51.29   53.60          76.85   23.44  -13.11          26.86  330.79           0.13    0.38    0.18    0.27            0.46    0.61    0.28           0.51     0.71
D15        69.09   72.50   34.06          88.21   -1.74   30.76          30.81   93.24           0.10    0.15    0.44    0.13            0.22    0.24    0.36           0.30     0.37
D16        34.47   36.17   29.17          66.64   -1.39    1.08           1.80  141.06           0.45    0.45    0.48    0.44            0.62    0.61    0.37           0.69     0.80
D17        52.29   45.72   30.32          73.36   22.57   10.82          25.03   25.62           0.14    0.45    0.46    0.31            0.40    0.52    0.36           0.50     0.61
D18        48.82   58.72   33.14          81.13  -20.18   19.92          28.36  135.37           0.36    0.18    0.45    0.24            0.57    0.47    0.33           0.46     0.57
D19        38.35   39.50   48.78          69.11    0.84  -21.10          21.12  272.29           0.46    0.41    0.22    0.42            0.67    0.65    0.26           0.67     0.81
D20         2.89    2.92    1.05          19.74    1.32   14.90          14.96   84.93           1.46    1.60    2.11    1.52            0.09    0.09    0.03           0.44     0.49
D21        31.13   28.65    1.53          60.47   13.39   78.94          80.06   80.37           0.38    0.64    2.38    0.50            0.52    0.44    0.02           0.63     0.75
D22        40.14   44.92   51.16          72.84   -9.61  -17.37          19.85  241.05           0.50    0.32    0.21    0.37            0.62    0.62    0.22           0.61     0.74
E1          5.36    6.19    3.35          29.89   -7.00   10.38          12.52  123.97           1.29    1.21    1.54    1.21            0.14    0.17    0.10           0.46     0.56
E2          4.95    6.24    2.21          30.02  -12.51   19.52          23.19  122.66           1.36    1.16    1.80    1.22            0.15    0.18    0.06           0.49     0.59
E3          4.48    6.07    1.29          29.58  -16.78   28.60          33.16  120.41           1.46    1.14    2.17    1.23            0.12    0.15    0.03           0.48     0.58
E4          4.12    6.16    0.66          29.82  -22.73   38.99          45.14  120.24           1.60    1.09    2.78    1.23            0.13    0.17    0.01           0.57     0.71
E5         24.95   28.68   14.93          60.49  -11.10   18.78          21.82  120.57           0.62    0.52    0.83    0.55            0.46    0.48    0.32           0.62     0.72
E6         22.63   28.31    9.11          60.17  -19.92   35.40          40.62  119.36           0.70    0.49    1.13    0.56            0.37    0.40    0.17           0.56     0.64
E7         20.39   27.98    5.10          59.87  -29.15   51.74          59.38  119.39           0.81    0.46    1.52    0.57            0.36    0.45    0.13           0.49     0.57
E8         18.24   28.02    2.23          59.91  -40.15   70.83          81.42  119.55           0.99    0.41    2.28    0.57            0.26    0.28    0.03           0.30     0.40
E9         45.04   49.20   31.88          75.57   -6.75   12.22          13.96  118.89           0.34    0.30    0.45    0.31            0.72    0.71    0.53           0.49     0.58
E10        42.89   49.24   24.81          75.60  -13.16   23.95          27.33  118.78           0.38    0.28    0.59    0.31            0.66    0.64    0.42           0.55     0.64
E11        40.84   48.95   19.50          75.42  -18.57   33.99          38.73  118.65           0.42    0.27    0.73    0.32            0.63    0.58    0.32           0.55     0.65
E12        37.63   48.56   12.69          75.18  -27.63   50.05          57.17  118.90           0.49    0.24    0.99    0.32            0.46    0.42    0.24           0.45     0.56
E13        47.54   58.15   55.56          80.82  -22.34   -8.35          23.85  200.50           0.47    0.17    0.19    0.26            0.64    0.58    0.30           0.41     0.57
E14        52.49   42.60   49.97          71.28   32.05  -18.73          37.12  329.71           0.15    0.51    0.20    0.34            0.53    0.66    0.37           0.59     0.81
E15        67.47   70.83   26.33          87.40   -1.80   41.61          41.65   92.48           0.10    0.16    0.58    0.14            0.23    0.27    0.41           0.38     0.52
E16        25.42   26.70   21.44          58.70   -1.37    1.17           1.84  138.58           0.59    0.59    0.62    0.58            0.52    0.52    0.31           0.74     0.85
E17        44.45   35.85   21.19          66.40   31.05   14.95          34.47   25.71           0.17    0.61    0.62    0.40            0.44    0.52    0.38           0.57     0.69
E18        42.36   53.54   25.56          78.19  -25.90   27.08          37.48  133.72           0.45    0.20    0.59    0.29            0.54    0.47    0.32           0.47     0.59
E19        29.52   30.01   44.70          61.66    2.26  -29.14          29.23  274.43           0.61    0.53    0.26    0.54            0.60    0.60    0.28           0.72     0.88
E20         7.06    8.45    1.37          34.91  -10.29   36.76          38.17  105.63           1.17    1.04    2.17    1.07            0.17    0.19    0.03           0.55     0.64
E21        24.58   29.47    6.26          61.19  -15.67   48.43          50.90  107.93           0.62    0.49    1.36    0.53            0.42    0.44    0.12           0.58     0.66
E22         8.64   18.38   13.40          49.95  -60.55    4.60          60.72  175.66           1.86    0.52    0.91    0.82            0.13    0.22    0.20           0.29     0.35
F1          3.54    4.52    3.11          25.31  -11.95    4.20          12.66  160.63           1.55    1.31    1.56    1.37            0.10    0.13    0.10           0.43     0.52
F2          2.93    4.48    2.59          25.20  -21.63    7.96          23.05  159.80           1.76    1.25    1.69    1.39            0.11    0.16    0.10           0.51     0.60
F3          2.33    4.27    2.17          24.54  -30.21   10.43          31.96  160.94           2.02    1.21    1.81    1.43            0.07    0.13    0.08           0.43     0.54
F4          1.80    4.42    1.78          25.03  -44.28   15.07          46.78  161.21           2.52    1.12    2.00    1.43            0.04    0.10    0.04           0.43     0.50
F5         11.45   14.60   10.00          45.09  -17.52    6.36          18.64  160.06           1.06    0.78    1.01    0.86            0.29    0.34    0.29           0.60     0.71
F6          9.10   14.44    8.08          44.85  -34.63   12.73          36.90  159.82           1.33    0.71    1.15    0.88            0.23    0.31    0.21           0.56     0.63
F7          7.11   13.95    6.58          44.15  -49.66   17.62          52.69  160.46           1.68    0.67    1.29    0.92            0.17    0.29    0.15           0.47     0.55
F8          6.02   14.18    5.82          44.49  -62.41   21.66          66.07  160.86           2.03    0.61    1.40    0.93            0.13    0.27    0.18           0.45     0.52
F9         29.94   34.58   25.49          65.42  -12.38    5.18          13.42  157.30           0.58    0.43    0.56    0.47            0.58    0.61    0.41           0.60     0.71
F10        26.65   34.38   23.09          65.26  -24.60    9.30          26.30  159.28           0.71    0.39    0.62    0.49            0.48    0.54    0.35           0.50     0.59
F11        23.83   34.39   20.85          65.27  -36.54   13.67          39.01  159.48           0.85    0.35    0.68    0.50            0.42    0.48    0.30           0.46     0.56
F12        19.96   33.89   18.07          64.88  -52.81   18.90          56.09  160.30           1.09    0.31    0.78    0.52            0.30    0.33    0.29           0.41     0.53
F13        42.28   53.97   54.31          78.44  -27.22  -11.14          29.41  202.25           0.57    0.18    0.20    0.30            0.48    0.45    0.22           0.36     0.49
F14        46.18   34.45   45.87          65.32   40.69  -24.24          47.36  329.22           0.18    0.66    0.23    0.43            0.44    0.53    0.30           0.55     0.78
F15        65.94   68.99   19.07          86.50   -1.29   54.00          54.02   91.37           0.10    0.17    0.76    0.14            0.21    0.26    0.33           0.39     0.54
F16        17.72   18.69   14.85          50.32   -1.60    1.45           2.18  137.34           0.74    0.75    0.80    0.73            0.42    0.45    0.42           0.64     0.75
F17        36.98   27.17   13.36          59.13   39.45   20.52          44.47   27.48           0.20    0.82    0.83    0.50            0.32    0.36    0.26           0.47     0.59
