targets/wolf_faust/transmissive/F110406.it8
IT8.7/1
ORIGINATOR "Wolf Faust"
DESCRIPTOR "Fujichrome Provia/Astia/Sensia, Type 3, L* a* b* (light D50, viewing angle 2)"
MANUFACTURER "Wolf Faust - http://www.coloraid.de"
CREATED "April 08, 2011"
PROD_DATE "2009:03"
DIFFUSE_GEOMETRY "opal"
SERIAL "F110406 Batch Average Data"
MATERIAL "Fujichrome Provia 100F (RDP III)"
KEYWORD "MEAN_DE" # Mean Delta E of samples compared to batch average
NUMBER_OF_FIELDS 18
BEGIN_DATA_FORMAT
SAMPLE_ID  XYZ_X   XYZ_Y   XYZ_Z          LAB_L   LAB_A   LAB_B          LAB_C   LAB_H          D_RED  D_GREEN  D_BLUE  D_VIS          STDEV_X STDEV_Y STDEV_Z        MEAN_DE  STDEV_DE
END_DATA_FORMAT
NUMBER_OF_SETS 288
BEGIN_DATA
A1          2.18    1.88    1.32          14.83    8.56    2.79           9.01   18.05           1.52    1.89    1.91    1.70            0.05    0.05    0.04           0.26     0.31
A2          2.76    1.89    1.13          14.92   19.69    5.39          20.41   15.31           1.31    2.08    1.95    1.65            0.05    0.03    0.02           0.24     0.28 
A3          3.37    1.91    0.90          15.02   29.80    9.11          31.17   17.00           1.15    2.35    2.03    1.61            0.06    0.04    0.02           0.29     0.34
A4          3.90    1.90    0.78          14.97   38.14   11.16          39.74   16.31           1.03    2.74    2.05    1.58            0.07    0.03    0.02           0.31     0.37 
A5          9.96    8.58    6.06          35.17   14.01    4.49          14.72   17.75           0.87    1.21    1.20    1.04            0.15    0.14    0.14           0.42     0.47
A6         12.00    8.67    5.18          35.35   28.29    9.03          29.69   17.70           0.69    1.35    1.26    1.00            0.19    0.15    0.13           0.42     0.48 
A7         14.24    8.70    4.52          35.39   42.78   12.64          44.61   16.46           0.55    1.54    1.30    0.97            0.22    0.14    0.11           0.44     0.52
A8         17.18    8.59    3.58          35.19   60.70   17.96          63.30   16.48           0.39    1.97    1.37    0.93            0.10    0.06    0.10           0.38     0.47 
A9         29.97   29.20   22.36          60.95    6.98    3.26           7.71   25.01           0.46    0.59    0.60    0.52            0.56    0.58    0.53           0.61     0.69
A10        31.83   28.94   20.94          60.73   14.83    5.69          15.89   20.99           0.39    0.63    0.63    0.52            0.47    0.46    0.40           0.60     0.69
A11        34.20   29.11   19.91          60.88   22.54    8.05          23.94   19.66           0.32    0.67    0.65    0.50            0.40    0.40    0.32           0.60     0.68
A12        39.04   28.96   17.83          60.75   39.07   12.31          40.97   17.49           0.19    0.78    0.69    0.48            0.34    0.38    0.37           0.66     0.76 
A13        73.02   77.28   63.66          90.45   -3.09    0.10           3.10  178.07           0.13    0.10    0.12    0.11            0.43    0.40    0.25           0.21     0.25
A14        77.01   78.67   64.50          91.09    2.33    0.40           2.37    9.90           0.08    0.11    0.11    0.10            0.29    0.35    0.26           0.23     0.28 
A15        77.43   80.02   61.56          91.70    0.53    4.29           4.33   82.89           0.08    0.10    0.14    0.09            0.29    0.32    0.39           0.19     0.24
A16        76.87   79.81   64.45          91.60   -0.16    1.33           1.34   97.04           0.09    0.10    0.11    0.10            0.31    0.33    0.26           0.15     0.18
A17        75.91   77.50   60.94          90.55    2.41    2.93           3.80   50.60           0.08    0.12    0.14    0.11            0.36    0.44    0.41           0.27     0.31
A18        73.75   77.63   59.80          90.61   -2.26    4.16           4.74  118.44           0.11    0.11    0.15    0.11            0.48    0.45    0.45           0.24     0.29 
A19        72.16   75.07   63.05          89.42   -0.47   -1.08           1.18  246.15           0.13    0.12    0.12    0.13            0.51    0.52    0.31           0.29     0.34
A20         6.54    3.09    1.87          20.39   47.02    6.17          47.42    7.48           0.80    2.61    1.63    1.36            0.17    0.08    0.08           0.62     0.70 
A21        27.23   19.04   14.74          50.74   40.37    2.43          40.45    3.44           0.33    1.02    0.76    0.66            0.43    0.33    0.44           0.63     0.74
A22        54.69   50.15   32.16          76.16   16.63   12.82          21.00   37.63           0.15    0.38    0.44    0.28            0.59    0.71    0.69           0.67     0.77
B1          3.38    3.05    1.74          20.23    7.53    7.23          10.44   43.84           1.34    1.65    1.80    1.49            0.09    0.09    0.05           0.33     0.40
B2          3.94    2.98    1.07          19.95   17.27   15.05          22.91   41.07           1.19    1.79    2.04    1.46            0.09    0.07    0.03           0.30     0.36
B3          4.55    2.99    0.62          19.99   25.52   22.74          34.18   41.71           1.06    1.93    2.32    1.43            0.09    0.06    0.01           0.31     0.39
B4          5.59    3.08    0.16          20.37   36.74   32.08          48.78   41.12           0.91    2.21    3.06    1.38            0.12    0.07    0.00           0.46     0.54
B5         12.74   11.43    6.50          40.30   12.00   11.33          16.51   43.34           0.77    1.06    1.19    0.91            0.24    0.24    0.17           0.47     0.53
B6         15.03   11.65    4.32          40.65   24.89   22.85          33.79   42.56           0.61    1.16    1.39    0.88            0.30    0.22    0.14           0.51     0.57
B7         17.41   11.64    2.69          40.64   38.43   33.75          51.15   41.29           0.48    1.30    1.62    0.85            0.24    0.16    0.05           0.34     0.40
B8         21.22   11.68    1.04          40.70   57.49   51.25          77.02   41.72           0.32    1.61    2.09    0.81            0.14    0.11    0.02           0.23     0.26
B9         35.12   34.99   25.61          65.74    4.75    5.52           7.29   49.30           0.40    0.50    0.54    0.45            0.58    0.62    0.51           0.62     0.71
B10        37.34   35.39   22.65          66.05   10.76   11.50          15.76   46.89           0.33    0.52    0.60    0.43            0.50    0.50    0.45           0.63     0.71
B11        39.06   35.27   20.47          65.96   16.69   15.65          22.89   43.15           0.28    0.55    0.65    0.43            0.52    0.54    0.48           0.61     0.70
B12        43.52   35.00   14.82          65.74   31.20   28.09          41.99   42.00           0.16    0.63    0.81    0.41            0.64    0.67    0.43           0.85     0.97
B13        67.18   72.56   60.62          88.24   -6.03   -0.74           6.07  186.97           0.19    0.12    0.14    0.15            0.33    0.29    0.21           0.23     0.28
B14        71.28   70.46   60.66          87.22    7.17   -2.53           7.61  340.56           0.10    0.18    0.14    0.15            0.48    0.63    0.43           0.39     0.50
B15        73.52   76.43   52.88          90.06   -0.36   10.44          10.44   91.98           0.10    0.12    0.21    0.11            0.29    0.32    0.50           0.29     0.34
B16        61.03   63.57   51.07          83.74   -0.62    1.54           1.67  111.69           0.20    0.20    0.22    0.20            0.63    0.65    0.64           0.43     0.49
B17        69.16   68.65   52.26          86.33    6.50    4.68           8.01   35.77           0.10    0.19    0.21    0.16            0.47    0.61    0.56           0.42     0.49
B18        65.84   71.53   52.45          87.74   -6.87    6.91           9.74  134.84           0.18    0.13    0.22    0.15            0.59    0.53    0.58           0.32     0.41
B19        62.70   65.09   58.55          84.53   -0.14   -5.06           5.06  268.37           0.20    0.19    0.15    0.19            0.70    0.74    0.45           0.42     0.50
B20         4.91    2.94    0.96          19.78   31.10   16.37          35.15   27.75           1.00    2.07    2.04    1.43            0.15    0.10    0.05           0.41     0.48
B21        17.49   11.71    4.11          40.76   38.36   24.27          45.40   32.32           0.48    1.30    1.39    0.85            0.36    0.26    0.15           0.52     0.60
B22        34.33   29.19   17.04          60.95   22.71   14.47          26.94   32.50           0.31    0.67    0.73    0.50            0.56    0.53    0.56           0.75     0.90
C1          6.41    6.29    3.42          30.14    3.70   10.32          10.97   70.28           1.11    1.28    1.50    1.19            0.14    0.15    0.11           0.41     0.48
C2          6.93    6.44    2.20          30.50    7.39   20.43          21.73   70.11           1.04    1.30    1.75    1.16            0.14    0.14    0.06           0.38     0.45
C3          7.44    6.42    1.13          30.44   12.72   32.23          34.65   68.47           0.96    1.34    2.15    1.15            0.14    0.14    0.03           0.41     0.48
C4          7.98    6.40    0.43          30.40   17.83   44.31          47.76   68.08           0.91    1.39    2.83    1.13            0.14    0.12    0.01           0.41     0.51
C5         24.44   23.74   11.88          55.83    6.83   19.02          20.22   70.25           0.52    0.69    0.92    0.61            0.35    0.35    0.17           0.55     0.64
C6         26.19   23.48    6.53          55.56   15.34   37.54          40.56   67.77           0.43    0.74    1.25    0.59            0.49    0.47    0.23           0.53     0.63
C7         28.51   23.84    3.28          55.93   23.06   55.75          60.33   67.52           0.36    0.78    1.67    0.57            0.44    0.41    0.08           0.44     0.53
C8         31.48   23.95    0.86          56.04   33.77   80.56          87.35   67.26           0.28    0.85    2.73    0.55            0.48    0.43    0.01           0.64     0.72
C9         41.58   42.15   28.53          70.97    2.85    9.59          10.01   73.46           0.33    0.40    0.50    0.37            0.65    0.69    0.56           0.61     0.70
C10        42.61   42.09   24.45          70.93    6.16   16.56          17.67   69.58           0.29    0.42    0.58    0.36            0.54    0.57    0.49           0.61     0.70
C11        44.07   42.37   19.95          71.12    9.60   25.63          27.37   69.47           0.25    0.43    0.68    0.35            0.51    0.56    0.46           0.68     0.78
C12        48.78   42.44    8.84          71.17   22.67   55.31          59.78   67.71           0.14    0.49    1.13    0.33            0.58    0.68    0.28           0.71     0.82
C13        60.52   67.95   59.05          85.98  -11.48   -3.06          11.88  194.94           0.27    0.13    0.16    0.18            0.51    0.46    0.26           0.31     0.38
C14        65.73   61.57   57.82          82.68   14.70   -7.50          16.50  332.99           0.11    0.26    0.15    0.20            0.43    0.60    0.31           0.48     0.64
C15        71.65   74.91   43.27          89.35   -1.21   20.36          20.39   93.41           0.10    0.13    0.32    0.12            0.33    0.35    0.52           0.36     0.43
C16        46.99   49.03   39.41          75.47   -0.81    1.38           1.63  119.53           0.31    0.32    0.34    0.31            0.63    0.67    0.54           0.54     0.62
C17        61.42   57.79   41.49          80.62   13.74    7.56          15.68   28.82           0.12    0.30    0.32    0.22            0.62    0.80    0.72           0.63     0.73
C18        57.51   65.50   42.61          84.74  -13.34   13.24          18.80  135.21           0.26    0.15    0.32    0.19            0.73    0.65    0.68           0.48     0.58
C19        50.51   52.27   54.08          77.44    0.29  -12.61          12.62  271.29           0.31    0.29    0.18    0.29            0.77    0.82    0.43           0.62     0.72
C20        12.69    9.29    1.16          36.54   27.87   42.34          50.69   56.64           0.66    1.31    2.14    0.96            0.35    0.27    0.04           0.56     0.65
C21        22.54   21.00   11.42          52.95   10.82   15.44          18.85   54.97           0.54    0.77    0.93    0.65            0.45    0.42    0.39           0.66     0.77
C22        28.08   23.61   11.15          55.70   22.39   20.99          30.70   43.15           0.38    0.78    0.94    0.59            0.51    0.47    0.40           0.72     0.83
D1          4.30    4.56    2.49          25.45   -1.37    9.17           9.28   98.50           1.33    1.38    1.66    1.34            0.11    0.13    0.09           0.37     0.46
D2          4.12    4.43    1.52          25.06   -2.15   17.98          18.11   96.82           1.34    1.38    1.96    1.34            0.09    0.11    0.04           0.31     0.37
D3          4.12    4.39    0.86          24.92   -1.52   26.90          26.94   93.23           1.33    1.39    2.33    1.34            0.09    0.10    0.02           0.35     0.44
D4          4.14    4.44    0.45          25.08   -2.06   34.67          34.73   93.40           1.35    1.37    2.83    1.33            0.08    0.09    0.01           0.38     0.47
D5         18.04   19.03    9.52          50.72   -1.65   17.69          17.77   95.32           0.70    0.75    1.04    0.71            0.27    0.28    0.15           0.43     0.52
D6         17.71   18.85    5.21          50.51   -2.44   35.05          35.14   93.99           0.70    0.75    1.39    0.71            0.31    0.34    0.15           0.46     0.53
D7         17.68   18.87    2.45          50.53   -2.72   52.76          52.83   92.95           0.70    0.74    1.90    0.71            0.26    0.29    0.04           0.43     0.52
D8         17.70   18.83    1.04          50.49   -2.42   68.05          68.10   92.04           0.72    0.74    2.67    0.70            0.30    0.31    0.02           0.47     0.61
D9         47.53   49.84   24.72          75.97   -1.44   24.74          24.79   93.34           0.27    0.32    0.59    0.29            0.71    0.78    0.58           0.61     0.71
D10        47.21   49.67   14.34          75.86   -1.88   46.78          46.81   92.31           0.26    0.32    0.89    0.29            0.59    0.64    0.33           0.57     0.68
D11        47.00   49.68    7.11          75.87   -2.52   70.07          70.12   92.06           0.25    0.32    1.34    0.28            0.50    0.52    0.13           0.37     0.44
D12        46.58   49.45    2.29          75.73   -3.07   97.63          97.68   91.80           0.28    0.31    2.35    0.28            0.46    0.41    0.03           0.32     0.42
D13        54.20   63.38   57.61          83.64  -16.84   -5.63          17.75  198.49           0.36    0.15    0.17    0.22            0.47    0.43    0.23           0.29     0.38
D14        59.52   52.18   54.48          77.38   23.20  -13.14          26.67  330.47           0.13    0.37    0.17    0.26            0.49    0.66    0.32           0.59     0.78
D15        69.90   73.33   34.50          88.61   -1.72   30.80          30.85   93.19           0.09    0.14    0.43    0.12            0.28    0.35    0.58           0.51     0.60
D16        35.11   36.66   29.48          67.02   -0.80    1.23           1.50  121.81           0.44    0.45    0.48    0.44            0.66    0.75    0.67           0.66     0.74
D17        52.96   46.41   30.93          73.81   22.35   10.65          24.76   25.48           0.14    0.44    0.45    0.30            0.63    0.78    0.76           0.76     0.88
D18        49.62   59.42   33.24          81.52  -19.69   20.44          28.38  133.92           0.35    0.18    0.45    0.24            0.63    0.59    0.69           0.58     0.69
D19        39.29   40.29   49.51          69.67    1.39  -20.97          21.02  273.79           0.45    0.40    0.22    0.41            0.69    0.78    0.40           0.73     0.86
D20         3.02    3.01    1.10          20.06    2.09   14.82          14.96   81.98           1.43    1.60    2.09    1.50            0.11    0.12    0.05           0.46     0.54
D21        31.58   28.99    1.51          60.77   13.73   79.70          80.87   80.22           0.37    0.63    2.40    0.50            0.53    0.52    0.03           0.58     0.68
D22        40.68   45.26   51.75          73.06   -8.86  -17.64          19.74  243.33           0.49    0.31    0.21    0.37            0.59    0.68    0.31           0.59     0.70
E1          5.62    6.43    3.55          30.47   -6.49   10.03          11.95  122.91           1.26    1.19    1.50    1.20            0.13    0.15    0.10           0.37     0.45
E2          5.16    6.44    2.32          30.49  -11.99   19.32          22.74  121.83           1.34    1.15    1.77    1.20            0.12    0.15    0.05           0.39     0.47
E3          4.75    6.40    1.28          30.41  -16.78   30.12          34.48  119.13           1.43    1.12    2.19    1.21            0.10    0.14    0.03           0.37     0.48
E4          4.27    6.30    0.68          30.15  -22.07   39.24          45.02  119.36           1.57    1.08    2.76    1.22            0.08    0.12    0.01           0.44     0.55
E5         25.58   29.19   15.48          60.95  -10.42   18.19          20.97  119.81           0.60    0.52    0.81    0.54            0.48    0.52    0.36           0.47     0.54
E6         22.95   28.61    9.50          60.43  -19.62   34.48          39.67  119.63           0.69    0.49    1.10    0.55            0.33    0.42    0.15           0.47     0.56
E7         20.98   28.73    5.21          60.54  -29.17   52.34          59.92  119.13           0.79    0.45    1.51    0.55            0.25    0.31    0.07           0.33     0.39
E8         18.64   28.35    2.21          60.21  -39.36   71.57          81.68  118.81           0.97    0.41    2.30    0.57            0.19    0.21    0.02           0.22     0.30
E9         45.85   50.02   32.68          76.08   -6.65   11.90          13.63  119.19           0.33    0.29    0.44    0.30            0.71    0.76    0.54           0.51     0.61
E10        43.67   49.91   25.95          76.01  -12.64   22.64          25.93  119.17           0.37    0.28    0.57    0.31            0.60    0.64    0.49           0.47     0.54
E11        41.66   49.84   20.32          75.97  -18.44   33.23          38.00  119.04           0.41    0.26    0.71    0.31            0.70    0.75    0.50           0.54     0.61
E12        37.93   48.93   13.00          75.41  -27.64   49.60          56.78  119.13           0.49    0.24    0.98    0.32            0.43    0.43    0.26           0.42     0.50
E13        47.99   58.66   56.20          81.11  -22.32   -8.54          23.89  200.93           0.46    0.16    0.18    0.26            0.44    0.42    0.19           0.27     0.37
E14        52.93   42.95   50.54          71.52   32.14  -18.95          37.31  329.49           0.15    0.51    0.19    0.34            0.51    0.64    0.34           0.60     0.79
E15        68.10   71.48   26.58          87.72   -1.78   41.73          41.77   92.45           0.10    0.15    0.58    0.13            0.31    0.37    0.57           0.60     0.71
E16        25.35   26.54   21.65          58.55   -1.02    0.49           1.16  153.24           0.59    0.59    0.62    0.58            0.50    0.54    0.53           0.58     0.66
E17        44.59   35.88   21.64          66.43   31.36   14.12          34.39   24.24           0.17    0.62    0.61    0.40            0.58    0.66    0.68           0.76     0.90
E18        42.46   53.70   25.61          78.29  -26.02   27.16          37.61  133.77           0.45    0.20    0.59    0.28            0.44    0.40    0.57           0.62     0.74
E19        29.61   30.05   45.08          61.69    2.44  -29.55          29.65  274.71           0.61    0.53    0.25    0.54            0.59    0.68    0.40           0.74     0.89
E20         7.31    8.73    1.35          35.45  -10.21   37.96          39.31  105.05           1.16    1.03    2.19    1.06            0.19    0.24    0.04           0.53     0.65
E21        25.38   30.16    6.43          61.79  -14.90   48.72          50.95  107.01           0.60    0.49    1.35    0.52            0.46    0.55    0.16           0.54     0.62
E22         8.71   18.45   13.55          50.03  -60.29    4.33          60.45  175.89           1.85    0.52    0.91    0.82            0.14    0.25    0.43           0.69     0.83
F1          3.64    4.56    3.21          25.45  -10.91    3.69          11.52  161.31           1.52    1.31    1.54    1.36            0.10    0.12    0.10           0.41     0.49
F2          3.02    4.56    2.69          25.45  -21.04    7.54          22.35  160.28           1.74    1.24    1.66    1.38            0.10    0.14    0.09           0.38     0.45
F3          2.38    4.38    2.26          24.87  -30.65   10.19          32.30  161.61           2.02    1.20    1.79    1.42            0.05    0.10    0.05           0.38     0.47
F4          1.84    4.52    1.78          25.31  -44.36   15.58          47.02  160.65           2.48    1.11    2.00    1.43            0.03    0.07    0.02           0.32     0.42
F5         11.77   15.01   10.25          45.65  -17.68    6.50          18.84  159.81           1.04    0.77    1.00    0.85            0.18    0.23    0.16           0.41     0.47
F6          9.45   14.89    8.50          45.48  -34.51   12.26          36.62  160.45           1.31    0.70    1.12    0.87            0.18    0.27    0.17           0.40     0.47
F7          7.38   14.35    6.98          44.74  -49.47   16.91          52.28  161.13           1.65    0.66    1.26    0.91            0.13    0.24    0.10           0.39     0.48
F8          6.14   14.40    6.10          44.81  -62.48   20.91          65.88  161.49           2.01    0.61    1.37    0.92            0.06    0.13    0.06           0.25     0.31
F9         30.21   34.99   25.94          65.74  -12.75    4.95          13.68  158.79           0.57    0.43    0.55    0.47            0.43    0.49    0.38           0.49     0.56
F10        26.87   34.67   23.72          65.49  -24.66    8.51          26.09  160.95           0.70    0.39    0.60    0.48            0.38    0.48    0.34           0.46     0.53
F11        24.36   34.83   21.81          65.61  -35.71   12.36          37.79  160.90           0.83    0.35    0.66    0.49            0.25    0.31    0.27           0.31     0.37
F12        20.12   34.07   18.77          65.02  -52.65   17.62          55.52  161.50           1.09    0.31    0.76    0.52            0.18    0.23    0.27           0.30     0.38
F13        43.04   54.70   55.00          78.87  -26.81  -11.14          29.03  202.56           0.56    0.18    0.19    0.30            0.34    0.33    0.13           0.24     0.33
F14        46.65   34.84   46.44          65.63   40.67  -24.39          47.42  329.05           0.18    0.66    0.22    0.42            0.38    0.45    0.24           0.50     0.68
F15        66.56   69.64   19.64          86.82   -1.30   53.34          53.36   91.40           0.10    0.17    0.74    0.14            0.34    0.40    0.41           0.45     0.58
F16        17.94   18.72   15.14          50.35   -0.59    0.75           0.98  127.69           0.73    0.75    0.78    0.73            0.29    0.33    0.33           0.43     0.49
F17        36.89   27.00   13.72          58.97   39.83   19.30          44.26   25.85           0.20    0.82    0.82    0.51            0.53    0.54    0.42           0.59     0.75
