targets/wolf_faust/transmissive/F110807.it8
IT8.7/1
ORIGINATOR "Wolf Faust"
DESCRIPTOR "Fujichrome Provia/Astia/Sensia, Type 3, L* a* b* (light D50, viewing angle 2)"
MANUFACTURER "Wolf Faust - http://www.coloraid.de"
CREATED "August 31, 2011"
PROD_DATE "2009:03"
DIFFUSE_GEOMETRY "opal"
SERIAL "F110807 Batch Average Data"
MATERIAL "Fujichrome Provia 100F (RDP III)"
KEYWORD "MEAN_DE" # Mean Delta E of samples compared to batch average
NUMBER_OF_FIELDS 18
BEGIN_DATA_FORMAT
SAMPLE_ID  XYZ_X   XYZ_Y   XYZ_Z          LAB_L   LAB_A   LAB_B          LAB_C   LAB_H          D_RED  D_GREEN  D_BLUE  D_VIS          STDEV_X STDEV_Y STDEV_Z        MEAN_DE  STDEV_DE
END_DATA_FORMAT
NUMBER_OF_SETS 288
BEGIN_DATA
A1          2.08    1.79    1.29          14.36    8.26    2.36           8.59   15.89           1.54    1.91    1.92    1.72            0.07    0.06    0.05           0.38     0.44
A2          2.62    1.80    1.10          14.41   19.21    5.07          19.86   14.78           1.34    2.10    1.97    1.67            0.08    0.05    0.03           0.37     0.46 
A3          3.21    1.82    0.88          14.53   29.15    8.68          30.42   16.58           1.17    2.36    2.04    1.63            0.08    0.05    0.03           0.40     0.49
A4          3.70    1.81    0.75          14.46   37.29   10.70          38.80   16.01           1.05    2.73    2.07    1.60            0.09    0.04    0.02           0.46     0.56 
A5          9.46    8.16    5.78          34.32   13.67    4.32          14.35   17.48           0.89    1.23    1.22    1.06            0.19    0.15    0.20           0.65     0.80
A6         11.38    8.23    4.94          34.45   27.83    8.74          29.18   17.44           0.72    1.37    1.28    1.02            0.23    0.15    0.14           0.59     0.74 
A7         13.61    8.31    4.31          34.62   42.13   12.52          43.96   16.54           0.57    1.56    1.32    0.99            0.26    0.15    0.12           0.61     0.76
A8         16.74    8.35    3.38          34.70   60.41   18.47          63.17   17.00           0.40    1.98    1.39    0.94            0.14    0.08    0.06           0.40     0.47 
A9         28.50   27.82   21.19          59.72    6.66    3.44           7.51   27.23           0.48    0.61    0.63    0.55            0.49    0.46    0.43           0.67     0.77
A10        30.60   27.83   20.11          59.74   14.60    5.67          15.66   21.19           0.41    0.65    0.65    0.53            0.50    0.46    0.48           0.69     0.81
A11        32.97   28.04   19.07          59.92   22.37    8.17          23.82   20.06           0.33    0.69    0.67    0.52            0.60    0.53    0.47           0.61     0.72
A12        38.20   28.13   17.00          60.00   39.63   12.93          41.68   18.07           0.19    0.80    0.71    0.49            0.48    0.51    0.47           0.62     0.76 
A13        72.18   76.57   63.19          90.12   -3.44    0.00           3.45  179.85           0.14    0.11    0.12    0.12            0.38    0.32    0.24           0.26     0.31
A14        76.63   78.16   63.95          90.85    2.58    0.52           2.64   11.45           0.08    0.12    0.12    0.10            0.26    0.34    0.30           0.23     0.26 
A15        77.01   79.57   60.56          91.49    0.57    4.93           4.97   83.34           0.08    0.10    0.14    0.10            0.23    0.23    0.35           0.19     0.23
A16        76.47   79.43   64.13          91.43   -0.23    1.35           1.37   99.85           0.09    0.10    0.12    0.10            0.24    0.23    0.25           0.18     0.21
A17        75.31   76.70   59.96          90.18    2.76    3.28           4.29   49.82           0.08    0.13    0.15    0.11            0.30    0.37    0.36           0.22     0.27
A18        72.70   76.72   58.52          90.19   -2.65    4.74           5.43  119.13           0.12    0.11    0.16    0.12            0.63    0.56    0.60           0.30     0.38 
A19        71.27   74.17   62.46          89.00   -0.52   -1.23           1.34  246.29           0.13    0.13    0.13    0.13            0.46    0.49    0.41           0.29     0.34
A20         6.23    2.95    1.79          19.86   46.09    6.07          46.49    7.50           0.82    2.60    1.65    1.38            0.12    0.06    0.07           0.55     0.69 
A21        26.23   18.33   13.86          49.89   39.96    3.26          40.10    4.67           0.35    1.03    0.79    0.67            0.44    0.35    0.45           0.75     0.91
A22        53.69   49.12   30.96          75.52   16.86   13.56          21.64   38.81           0.15    0.39    0.46    0.28            0.62    0.73    0.63           0.61     0.76
B1          3.20    2.89    1.67          19.58    7.28    6.87          10.01   43.36           1.37    1.67    1.82    1.51            0.10    0.10    0.07           0.47     0.53
B2          3.72    2.81    1.02          19.27   16.92   14.51          22.29   40.61           1.21    1.81    2.06    1.49            0.11    0.08    0.04           0.41     0.48
B3          4.29    2.82    0.60          19.29   25.08   21.96          33.34   41.20           1.09    1.96    2.33    1.46            0.12    0.08    0.02           0.39     0.49
B4          5.20    2.87    0.15          19.50   35.90   30.73          47.26   40.57           0.94    2.24    3.07    1.42            0.13    0.07    0.01           0.47     0.60
B5         12.24   10.97    6.23          39.52   11.96   11.23          16.41   43.18           0.78    1.08    1.21    0.93            0.35    0.31    0.33           0.74     0.93
B6         14.20   11.00    4.07          39.59   24.45   22.49          33.22   42.61           0.64    1.18    1.42    0.90            0.31    0.24    0.15           0.62     0.75
B7         16.64   11.12    2.60          39.78   37.96   33.05          50.33   41.04           0.50    1.32    1.64    0.87            0.28    0.19    0.08           0.48     0.57
B8         20.82   11.39    1.00          40.22   57.63   51.02          76.97   41.52           0.32    1.63    2.11    0.82            0.17    0.14    0.04           0.29     0.35
B9         34.13   34.02   24.86          64.97    4.67    5.54           7.26   49.86           0.41    0.51    0.56    0.46            0.79    0.78    0.78           0.71     0.84
B10        36.02   34.15   21.79          65.08   10.60   11.48          15.63   47.24           0.35    0.53    0.62    0.45            0.59    0.59    0.58           0.72     0.85
B11        37.69   34.00   19.56          64.96   16.61   15.83          22.95   43.60           0.29    0.57    0.67    0.44            0.63    0.61    0.60           0.73     0.87
B12        42.90   34.23   14.21          65.14   31.96   28.64          42.92   41.87           0.16    0.65    0.83    0.41            0.46    0.55    0.47           0.83     1.03
B13        66.33   71.78   60.09          87.86   -6.30   -0.86           6.36  187.76           0.19    0.13    0.15    0.15            0.43    0.39    0.34           0.29     0.34
B14        70.37   69.34   59.92          86.67    7.62   -2.74           8.10  340.21           0.11    0.19    0.14    0.15            0.35    0.44    0.38           0.27     0.33
B15        72.99   75.88   52.02          89.80   -0.37   10.94          10.94   91.94           0.10    0.12    0.22    0.12            0.22    0.23    0.34           0.21     0.25
B16        59.91   62.41   50.17          83.13   -0.64    1.49           1.62  113.59           0.21    0.21    0.23    0.20            0.58    0.65    0.61           0.40     0.46
B17        68.07   67.36   50.98          85.68    6.92    4.98           8.53   35.76           0.11    0.20    0.22    0.16            0.47    0.58    0.52           0.37     0.47
B18        64.48   70.32   51.15          87.15   -7.38    7.32          10.40  135.24           0.19    0.14    0.23    0.16            0.55    0.46    0.55           0.40     0.48
B19        61.66   64.01   57.92          83.97   -0.13   -5.38           5.38  268.58           0.21    0.20    0.16    0.20            0.63    0.68    0.44           0.43     0.49
B20         4.69    2.81    0.93          19.25   30.53   15.99          34.46   27.65           1.02    2.09    2.05    1.45            0.11    0.07    0.03           0.41     0.49
B21        16.73   11.22    3.88          39.94   37.76   24.25          44.88   32.71           0.50    1.31    1.42    0.87            0.36    0.25    0.16           0.69     0.85
B22        33.23   28.27   16.14          60.13   22.39   15.18          27.05   34.12           0.32    0.69    0.76    0.51            0.62    0.59    0.57           0.87     1.02
C1          6.08    5.98    3.28          29.35    3.54    9.97          10.58   70.48           1.13    1.30    1.52    1.21            0.16    0.17    0.14           0.63     0.73
C2          6.56    6.12    2.11          29.70    7.16   19.86          21.12   70.18           1.06    1.32    1.77    1.18            0.17    0.16    0.07           0.50     0.57
C3          7.03    6.06    1.07          29.57   12.44   31.54          33.91   68.48           0.99    1.37    2.17    1.17            0.17    0.15    0.04           0.42     0.49
C4          7.50    6.01    0.41          29.43   17.58   43.11          46.55   67.82           0.93    1.42    2.88    1.16            0.16    0.12    0.01           0.48     0.61
C5         23.37   22.71   11.35          54.77    6.68   18.78          19.94   70.39           0.54    0.71    0.95    0.62            0.42    0.40    0.37           0.81     0.99
C6         25.39   22.74    6.32          54.80   15.29   37.13          40.16   67.62           0.44    0.76    1.27    0.61            0.61    0.57    0.30           0.72     0.85
C7         27.40   22.87    3.17          54.94   22.96   54.84          59.45   67.29           0.37    0.80    1.68    0.59            0.51    0.45    0.13           0.49     0.58
C8         30.16   22.84    0.82          54.91   33.77   79.18          86.08   66.91           0.30    0.88    2.74    0.57            0.41    0.35    0.02           0.44     0.56
C9         40.09   40.69   27.53          69.96    2.66    9.50           9.87   74.35           0.35    0.42    0.52    0.38            0.65    0.67    0.63           0.74     0.87
C10        41.27   40.77   23.62          70.01    6.08   16.49          17.58   69.75           0.31    0.43    0.59    0.38            0.68    0.70    0.68           0.80     0.95
C11        42.61   40.94   19.12          70.13    9.57   25.68          27.41   69.57           0.26    0.45    0.70    0.37            0.68    0.70    0.59           0.79     0.94
C12        48.06   41.49    8.52          70.52   23.52   55.34          60.13   66.97           0.14    0.51    1.15    0.34            0.40    0.56    0.30           0.82     0.99
C13        59.49   67.00   58.48          85.51  -11.87   -3.30          12.32  195.54           0.28    0.14    0.16    0.19            0.43    0.36    0.28           0.33     0.40
C14        64.70   60.29   57.07          82.00   15.34   -7.91          17.26  332.73           0.12    0.28    0.16    0.21            0.48    0.61    0.43           0.40     0.53
C15        70.98   74.18   42.48          89.01   -1.17   20.76          20.80   93.21           0.10    0.13    0.32    0.12            0.26    0.27    0.61           0.51     0.61
C16        45.88   47.95   38.60          74.79   -1.00    1.29           1.65  127.19           0.33    0.33    0.35    0.32            0.88    0.91    0.83           0.66     0.77
C17        60.23   56.33   40.38          79.80   14.48    7.57          16.35   27.58           0.12    0.31    0.33    0.23            0.54    0.66    0.85           0.64     0.74
C18        56.51   64.56   41.90          84.26  -13.72   13.30          19.11  135.90           0.27    0.16    0.33    0.20            0.52    0.44    0.65           0.57     0.66
C19        49.30   51.06   53.34          76.71    0.18  -13.08          13.08  270.80           0.32    0.30    0.19    0.30            0.66    0.71    0.35           0.54     0.63
C20        12.20    8.96    1.14          35.90   27.32   41.55          49.73   56.68           0.67    1.32    2.15    0.97            0.28    0.22    0.05           0.53     0.61
C21        21.59   20.19   10.84          52.05   10.33   15.67          18.77   56.55           0.55    0.78    0.96    0.67            0.43    0.40    0.37           0.89     1.08
C22        27.13   22.86   10.59          54.93   21.93   21.41          30.65   44.30           0.39    0.79    0.97    0.60            0.51    0.45    0.41           0.91     1.10
D1          4.06    4.32    2.39          24.70   -1.53    8.74           8.87   99.92           1.35    1.40    1.68    1.36            0.13    0.13    0.11           0.56     0.64
D2          3.89    4.19    1.44          24.27   -2.18   17.54          17.68   97.08           1.36    1.41    1.98    1.37            0.11    0.12    0.06           0.50     0.56
D3          3.88    4.13    0.82          24.09   -1.49   26.19          26.24   93.25           1.36    1.41    2.35    1.37            0.10    0.11    0.02           0.43     0.50
D4          3.87    4.16    0.43          24.18   -2.01   33.50          33.56   93.43           1.38    1.40    2.86    1.36            0.09    0.10    0.01           0.46     0.54
D5         17.18   18.16    9.08          49.68   -1.77   17.42          17.51   95.82           0.72    0.77    1.06    0.73            0.34    0.34    0.31           0.72     0.86
D6         16.91   18.02    4.99          49.52   -2.57   34.48          34.58   94.26           0.72    0.76    1.41    0.73            0.33    0.34    0.14           0.64     0.76
D7         16.97   18.14    2.40          49.66   -2.81   51.70          51.78   93.11           0.72    0.76    1.91    0.72            0.39    0.40    0.09           0.49     0.59
D8         16.85   17.96    1.01          49.45   -2.58   66.78          66.83   92.21           0.74    0.76    2.69    0.72            0.34    0.34    0.02           0.52     0.66
D9         46.17   48.47   23.91          75.12   -1.58   24.76          24.81   93.66           0.28    0.33    0.60    0.31            0.65    0.68    0.64           0.75     0.89
D10        46.07   48.49   13.85          75.13   -1.91   46.82          46.85   92.34           0.27    0.33    0.91    0.30            0.78    0.83    0.58           0.76     0.94
D11        46.12   48.80    7.04          75.33   -2.63   69.40          69.45   92.17           0.26    0.32    1.35    0.29            0.55    0.60    0.20           0.55     0.62
D12        45.74   48.72    2.27          75.28   -3.48   96.96          97.02   92.05           0.29    0.32    2.35    0.29            0.45    0.40    0.04           0.34     0.40
D13        53.28   62.50   57.03          83.18  -17.20   -5.82          18.16  198.70           0.37    0.15    0.17    0.22            0.53    0.46    0.32           0.40     0.48
D14        58.42   50.88   53.62          76.60   23.92  -13.56          27.50  330.45           0.13    0.39    0.18    0.27            0.59    0.76    0.48           0.59     0.78
D15        69.13   72.47   33.57          88.20   -1.62   31.46          31.51   92.94           0.10    0.15    0.45    0.13            0.25    0.27    0.59           0.59     0.69
D16        34.55   36.09   29.18          66.58   -0.83    0.97           1.40  134.80           0.45    0.46    0.48    0.44            0.71    0.78    0.83           0.86     0.97
D17        51.84   45.13   29.72          72.98   23.05   11.11          25.59   25.74           0.14    0.46    0.47    0.31            0.55    0.69    0.62           0.73     0.87
D18        48.58   58.45   32.50          80.99  -20.20   20.62          28.87  134.41           0.36    0.18    0.46    0.24            0.66    0.57    0.66           0.66     0.81
D19        37.98   39.01   48.70          68.75    1.18  -21.63          21.67  273.11           0.47    0.42    0.23    0.42            0.55    0.57    0.31           0.61     0.72
D20         2.86    2.86    1.06          19.48    1.76   14.37          14.48   83.00           1.46    1.61    2.10    1.52            0.07    0.08    0.03           0.41     0.47
D21        30.46   28.01    1.48          59.89   13.38   78.46          79.59   80.32           0.39    0.65    2.40    0.51            0.51    0.46    0.04           0.55     0.66
D22        39.87   44.49   51.19          72.56   -9.22  -17.89          20.13  242.74           0.50    0.32    0.21    0.37            0.64    0.74    0.38           0.67     0.76
E1          5.32    6.10    3.39          29.67   -6.53    9.73          11.72  123.87           1.28    1.21    1.53    1.22            0.18    0.21    0.16           0.60     0.69
E2          4.87    6.09    2.21          29.63  -11.87   18.89          22.32  122.14           1.36    1.18    1.80    1.23            0.15    0.20    0.10           0.54     0.62
E3          4.47    6.03    1.23          29.49  -16.54   29.28          33.63  119.46           1.45    1.14    2.21    1.23            0.13    0.17    0.03           0.56     0.65
E4          3.99    5.90    0.64          29.16  -21.72   38.21          43.95  119.62           1.60    1.11    2.79    1.25            0.10    0.13    0.02           0.46     0.55
E5         24.60   28.09   14.99          59.97  -10.32   17.72          20.51  120.23           0.62    0.53    0.83    0.56            0.57    0.66    0.53           0.76     0.85
E6         22.04   27.55    9.15          59.48  -19.64   34.06          39.32  119.98           0.71    0.51    1.12    0.57            0.44    0.52    0.29           0.65     0.75
E7         20.17   27.71    5.08          59.62  -29.15   51.41          59.10  119.56           0.81    0.47    1.53    0.57            0.36    0.44    0.15           0.46     0.54
E8         18.21   27.83    2.18          59.74  -39.60   70.98          81.28  119.16           0.99    0.42    2.30    0.58            0.23    0.26    0.05           0.30     0.35
E9         44.46   48.62   31.69          75.21   -6.89   11.90          13.76  120.07           0.35    0.30    0.46    0.32            0.76    0.79    0.63           0.60     0.70
E10        42.36   48.55   25.06          75.17  -12.88   22.76          26.16  119.52           0.38    0.29    0.59    0.32            0.69    0.69    0.56           0.64     0.74
E11        40.06   48.19   19.27          74.94  -18.91   33.64          38.60  119.34           0.43    0.27    0.74    0.32            0.59    0.60    0.46           0.62     0.72
E12        36.94   47.94   12.54          74.78  -28.19   49.81          57.23  119.50           0.50    0.24    1.00    0.33            0.49    0.44    0.25           0.57     0.67
E13        46.99   57.71   55.59          80.58  -22.81   -8.80          24.45  201.11           0.48    0.17    0.19    0.27            0.48    0.41    0.26           0.35     0.47
E14        51.95   41.86   49.76          70.77   32.83  -19.36          38.11  329.47           0.16    0.52    0.20    0.35            0.52    0.65    0.38           0.58     0.82
E15        67.53   70.82   25.78          87.40   -1.64   42.56          42.59   92.20           0.10    0.16    0.59    0.14            0.19    0.23    0.44           0.43     0.60
E16        24.54   25.80   20.98          57.84   -1.44    0.63           1.58  154.74           0.60    0.60    0.63    0.59            0.46    0.50    0.41           0.58     0.68
E17        43.63   34.86   20.53          65.64   32.00   14.97          35.33   25.08           0.17    0.63    0.64    0.41            0.45    0.54    0.42           0.48     0.67
E18        41.68   52.93   24.99          77.83  -26.40   27.49          38.11  133.84           0.46    0.21    0.60    0.29            0.52    0.45    0.47           0.50     0.66
E19        28.63   29.09   44.37          60.86    2.29  -30.11          30.20  274.34           0.63    0.54    0.26    0.56            0.46    0.49    0.27           0.58     0.72
E20         7.11    8.54    1.33          35.07  -10.52   37.48          38.93  105.68           1.17    1.04    2.20    1.07            0.21    0.24    0.05           0.50     0.60
E21        24.52   29.27    6.21          61.01  -15.20   48.36          50.69  107.45           0.62    0.50    1.37    0.53            0.38    0.41    0.13           0.52     0.61
E22         8.39   17.94   12.87          49.42  -60.39    5.14          60.61  175.14           1.87    0.53    0.94    0.83            0.13    0.22    0.33           0.47     0.63
F1          3.44    4.33    3.06          24.73  -10.93    3.58          11.51  161.89           1.55    1.33    1.57    1.39            0.13    0.16    0.14           0.53     0.62
F2          2.81    4.25    2.55          24.49  -20.74    7.08          21.91  161.16           1.77    1.27    1.69    1.41            0.10    0.14    0.10           0.50     0.58
F3          2.24    4.13    2.16          24.10  -30.28    9.75          31.81  162.15           2.05    1.23    1.81    1.44            0.07    0.12    0.08           0.45     0.54
F4          1.74    4.26    1.68          24.50  -43.53   15.21          46.11  160.74           2.50    1.14    2.03    1.45            0.03    0.08    0.06           0.41     0.48
F5         11.37   14.50    9.97          44.94  -17.51    6.19          18.58  160.52           1.06    0.78    1.01    0.86            0.33    0.42    0.41           0.67     0.77
F6          8.93   14.13    8.11          44.41  -34.23   11.89          36.23  160.84           1.34    0.72    1.15    0.89            0.23    0.34    0.27           0.54     0.64
F7          7.01   13.69    6.67          43.78  -49.03   16.60          51.76  161.30           1.68    0.68    1.28    0.93            0.19    0.33    0.23           0.50     0.61
F8          5.87   13.83    5.85          43.99  -61.92   20.65          65.27  161.56           2.04    0.62    1.40    0.94            0.09    0.19    0.14           0.35     0.42
F9         29.07   33.78   25.01          64.79  -12.95    4.94          13.87  159.09           0.59    0.44    0.57    0.48            0.57    0.62    0.52           0.57     0.67
F10        25.98   33.66   22.96          64.69  -24.87    8.56          26.30  161.01           0.72    0.40    0.62    0.50            0.40    0.45    0.41           0.49     0.56
F11        23.53   33.81   21.07          64.81  -35.87   12.45          37.97  160.85           0.85    0.36    0.68    0.51            0.37    0.44    0.36           0.46     0.52
F12        19.54   33.36   18.08          64.45  -53.09   18.14          56.10  161.14           1.11    0.31    0.78    0.53            0.19    0.18    0.24           0.36     0.46
F13        42.41   54.03   54.47          78.48  -27.01  -11.24          29.25  202.60           0.57    0.18    0.20    0.30            0.46    0.40    0.23           0.42     0.49
F14        45.70   33.88   45.65          64.87   41.27  -24.75          48.12  329.05           0.18    0.67    0.23    0.43            0.42    0.49    0.26           0.51     0.73
F15        66.06   69.03   19.00          86.52   -1.10   54.17          54.18   91.17           0.10    0.17    0.76    0.14            0.17    0.22    0.37           0.49     0.67
F16        17.43   18.26   14.66          49.81   -0.97    1.04           1.47  131.89           0.75    0.76    0.80    0.74            0.32    0.35    0.35           0.64     0.73
F17        36.44   26.58   13.14          58.58   40.02   20.18          44.82   26.76           0.20    0.83    0.84    0.51            0.34    0.38    0.35           0.55     0.69
