targets/wolf_faust/transmissive/F111224.it8
IT8.7/1
ORIGINATOR "Wolf Faust"
DESCRIPTOR "Fujichrome Provia/Astia/Sensia, Type 3, L* a* b* (light D50, viewing angle 2)"
MANUFACTURER "Wolf Faust - http://www.coloraid.de"
CREATED "December 18, 2011"
PROD_DATE "2011:12"
DIFFUSE_GEOMETRY "opal"
SERIAL "F111224 Batch Average Data"
MATERIAL "Fujichrome Provia 100F (RDP III)"
KEYWORD "MEAN_DE" # Mean Delta E of samples compared to batch average
NUMBER_OF_FIELDS 18
BEGIN_DATA_FORMAT
SAMPLE_ID  XYZ_X   XYZ_Y   XYZ_Z          LAB_L   LAB_A   LAB_B          LAB_C   LAB_H          D_RED  D_GREEN  D_BLUE  D_VIS          STDEV_X STDEV_Y STDEV_Z        MEAN_DE  STDEV_DE
END_DATA_FORMAT
NUMBER_OF_SETS 288
BEGIN_DATA
A1          2.33    1.98    1.40          15.38    9.19    2.70           9.58   16.36           1.49    1.88    1.87    1.67            0.05    0.04    0.03           0.33     0.38
A2          2.88    2.02    1.13          15.58   18.99    6.63          20.12   19.25           1.30    2.03    1.96    1.63            0.06    0.04    0.02           0.32     0.38 
A3          3.41    1.94    0.95          15.17   29.78    8.58          30.99   16.07           1.15    2.33    2.00    1.60            0.06    0.04    0.02           0.23     0.28
A4          3.97    1.94    0.77          15.16   38.35   11.64          40.07   16.88           1.02    2.70    2.05    1.57            0.08    0.04    0.02           0.26     0.35 
A5          9.83    8.42    6.01          34.84   14.45    4.15          15.03   16.02           0.87    1.23    1.20    1.04            0.16    0.15    0.10           0.38     0.44
A6         11.90    8.47    5.27          34.94   29.35    7.90          30.39   15.07           0.70    1.38    1.24    1.01            0.21    0.16    0.10           0.32     0.40 
A7         13.87    8.35    4.33          34.70   43.46   12.55          45.24   16.11           0.56    1.59    1.31    0.98            0.22    0.14    0.10           0.37     0.43
A8         17.08    8.52    3.63          35.03   60.85   17.40          63.29   15.96           0.39    1.98    1.36    0.93            0.11    0.07    0.08           0.28     0.34 
A9         29.41   28.35   22.31          60.20    8.09    2.06           8.36   14.34           0.47    0.61    0.60    0.54            0.43    0.49    0.34           0.59     0.69
A10        31.18   28.18   21.06          60.05   15.37    4.26          15.96   15.52           0.40    0.65    0.62    0.53            0.45    0.48    0.37           0.61     0.70
A11        33.45   28.30   20.15          60.16   23.06    6.30          23.91   15.29           0.33    0.69    0.64    0.51            0.48    0.52    0.43           0.59     0.68
A12        38.37   28.24   17.89          60.10   39.76   11.08          41.28   15.57           0.20    0.80    0.68    0.49            0.40    0.44    0.42           0.62     0.73 
A13        72.90   77.24   63.60          90.43   -3.26    0.14           3.27  177.58           0.13    0.10    0.12    0.12            0.20    0.20    0.11           0.11     0.14
A14        76.32   77.97   64.43          90.77    2.31   -0.09           2.31  297.95           0.09    0.12    0.11    0.11            0.17    0.22    0.11           0.16     0.20 
A15        77.14   79.78   62.72          91.59    0.42    2.98           3.01   81.93           0.08    0.10    0.13    0.10            0.13    0.15    0.12           0.12     0.14
A16        75.49   78.22   64.24          90.88    0.13    0.29           0.33   65.44           0.10    0.11    0.11    0.11            0.21    0.23    0.12           0.13     0.15
A17        75.47   77.12   61.71          90.38    2.28    1.87           2.95   39.45           0.09    0.12    0.13    0.11            0.14    0.19    0.10           0.16     0.18
A18        73.43   77.39   61.27          90.50   -2.46    2.53           3.53  134.25           0.12    0.11    0.14    0.11            0.25    0.22    0.16           0.16     0.18 
A19        70.34   73.81   62.46          88.83   -1.76   -1.52           2.33  220.60           0.14    0.13    0.13    0.13            0.36    0.36    0.13           0.24     0.28
A20         6.25    2.93    1.82          19.77   46.63    5.56          46.96    6.80           0.82    2.63    1.63    1.39            0.08    0.04    0.02           0.20     0.27 
A21        26.26   18.36   14.54          49.93   39.94    1.55          39.97    2.23           0.35    1.03    0.76    0.67            0.31    0.25    0.22           0.42     0.49
A22        53.32   48.72   32.20          75.27   16.98   11.22          20.36   33.45           0.16    0.39    0.43    0.29            0.37    0.47    0.30           0.55     0.67
B1          3.33    2.97    1.65          19.91    8.09    7.61          11.11   43.26           1.35    1.67    1.82    1.50            0.07    0.07    0.02           0.32     0.39
B2          3.85    2.94    1.12          19.81   16.58   13.99          21.70   40.16           1.20    1.79    2.01    1.47            0.07    0.06    0.02           0.25     0.32
B3          4.59    3.00    0.65          20.05   25.78   22.33          34.11   40.90           1.06    1.94    2.28    1.43            0.09    0.06    0.02           0.32     0.39
B4          5.34    3.06    0.24          20.29   34.12   30.47          45.75   41.76           0.94    2.13    2.82    1.40            0.12    0.07    0.01           0.37     0.52
B5         12.68   11.22    6.42          39.94   13.14   11.07          17.19   40.10           0.76    1.08    1.19    0.92            0.21    0.20    0.10           0.41     0.50
B6         14.65   11.15    4.19          39.82   26.18   22.17          34.31   40.26           0.62    1.20    1.40    0.89            0.24    0.21    0.08           0.46     0.54
B7         16.90   11.22    2.60          39.95   38.63   33.27          50.98   40.74           0.49    1.33    1.63    0.86            0.29    0.21    0.05           0.43     0.51
B8         20.42   11.01    0.97          39.60   58.39   50.40          77.13   40.80           0.33    1.69    2.11    0.83            0.14    0.11    0.03           0.31     0.36
B9         34.77   34.46   25.93          65.32    5.35    4.25           6.85   38.51           0.41    0.50    0.53    0.45            0.48    0.58    0.37           0.63     0.74
B10        36.54   34.43   22.88          65.30   11.36    9.76          14.99   40.69           0.34    0.53    0.59    0.44            0.55    0.63    0.41           0.66     0.75
B11        38.23   34.61   20.65          65.44   16.28   14.38          21.73   41.46           0.29    0.56    0.64    0.43            0.58    0.65    0.45           0.66     0.74
B12        42.89   34.28   14.53          65.18   31.75   27.87          42.25   41.28           0.17    0.65    0.81    0.41            0.45    0.54    0.34           0.70     0.81
B13        66.95   72.60   61.08          88.26   -6.64   -1.16           6.74  189.90           0.19    0.12    0.14    0.15            0.30    0.30    0.16           0.18     0.21
B14        70.52   69.84   61.14          86.92    6.87   -3.53           7.72  332.81           0.11    0.18    0.13    0.15            0.30    0.43    0.20           0.33     0.39
B15        73.29   76.45   54.06          90.07   -0.88    9.18           9.22   95.45           0.10    0.12    0.20    0.11            0.20    0.22    0.31           0.20     0.25
B16        59.72   62.26   51.14          83.05   -0.74    0.26           0.81  163.03           0.21    0.21    0.22    0.21            0.50    0.54    0.37           0.35     0.41
B17        68.02   67.42   52.69          85.72    6.65    3.16           7.37   25.43           0.11    0.20    0.20    0.16            0.39    0.50    0.30           0.36     0.42
B18        65.13   71.12   52.78          87.54   -7.60    6.21           9.81  140.75           0.19    0.13    0.21    0.15            0.41    0.37    0.28           0.25     0.30
B19        61.66   64.22   58.65          84.08   -0.62   -5.93           5.96  264.00           0.21    0.19    0.15    0.20            0.53    0.60    0.21           0.42     0.50
B20         5.01    3.05    1.00          20.24   30.30   16.59          34.54   28.69           1.00    2.03    2.02    1.42            0.07    0.04    0.02           0.22     0.26
B21        16.91   11.19    3.99          39.91   38.90   23.52          45.46   31.16           0.50    1.33    1.39    0.87            0.20    0.14    0.03           0.33     0.39
B22        33.31   28.09   16.91          59.97   23.38   13.08          26.79   29.23           0.32    0.70    0.73    0.51            0.35    0.34    0.17           0.51     0.60
C1          6.36    6.21    3.45          29.93    4.08    9.81          10.63   67.41           1.11    1.29    1.49    1.19            0.12    0.11    0.03           0.43     0.51
C2          6.83    6.22    2.12          29.96    8.80   20.21          22.05   66.46           1.03    1.33    1.76    1.17            0.13    0.13    0.04           0.47     0.56
C3          7.43    6.34    1.14          30.26   13.34   31.83          34.51   67.26           0.96    1.36    2.13    1.15            0.15    0.13    0.03           0.37     0.44
C4          7.81    6.24    0.51          30.01   18.03   42.07          45.77   66.80           0.92    1.41    2.66    1.14            0.15    0.13    0.01           0.41     0.52
C5         24.07   23.24   11.87          55.31    7.45   18.15          19.62   67.69           0.52    0.70    0.92    0.61            0.33    0.37    0.20           0.50     0.58
C6         25.73   23.14    6.61          55.22   14.91   36.58          39.50   67.82           0.44    0.75    1.24    0.60            0.40    0.40    0.12           0.53     0.60
C7         27.89   23.14    3.06          55.22   23.68   56.09          60.88   67.11           0.36    0.80    1.70    0.58            0.37    0.36    0.05           0.51     0.58
C8         30.28   23.12    0.93          55.19   32.99   77.89          84.59   67.04           0.30    0.87    2.59    0.57            0.41    0.38    0.02           0.54     0.64
C9         41.03   41.53   28.93          70.54    3.06    8.18           8.74   69.48           0.34    0.41    0.49    0.37            0.51    0.59    0.37           0.56     0.63
C10        42.10   41.48   24.61          70.51    6.43   15.54          16.83   67.50           0.30    0.43    0.57    0.37            0.56    0.66    0.45           0.65     0.74
C11        42.67   40.97   20.08          70.15    9.67   23.69          25.59   67.80           0.27    0.45    0.68    0.37            0.54    0.65    0.44           0.65     0.74
C12        47.46   40.86    7.79          70.07   23.77   57.35          62.08   67.49           0.14    0.52    1.20    0.34            0.42    0.56    0.13           0.64     0.74
C13        60.33   68.01   59.53          86.01  -12.06   -3.49          12.55  196.12           0.27    0.13    0.15    0.18            0.34    0.33    0.14           0.23     0.28
C14        64.74   60.52   58.20          82.12   14.90   -8.86          17.33  329.28           0.12    0.27    0.15    0.21            0.39    0.54    0.25           0.47     0.58
C15        71.28   74.81   44.60          89.31   -1.81   18.65          18.74   95.54           0.10    0.13    0.30    0.12            0.20    0.22    0.32           0.24     0.29
C16        46.36   48.03   39.91          74.85    0.14   -0.36           0.52  259.45           0.32    0.33    0.33    0.32            0.46    0.51    0.36           0.47     0.55
C17        59.85   55.80   41.62          79.50   14.87    5.46          15.85   20.17           0.13    0.32    0.31    0.24            0.43    0.58    0.41           0.54     0.63
C18        56.60   64.79   42.78          84.37  -14.01   12.39          18.70  138.50           0.28    0.15    0.32    0.20            1.33    1.49    1.02           0.63     0.84
C19        49.87   51.56   54.28          77.01    0.43  -13.57          13.58  271.78           0.32    0.29    0.18    0.30            0.47    0.57    0.20           0.54     0.66
C20        12.36    8.97    1.14          35.92   28.34   41.56          50.31   55.71           0.67    1.34    2.13    0.97            0.12    0.09    0.02           0.30     0.35
C21        21.71   20.12   11.12          51.98   11.20   14.66          18.45   52.62           0.55    0.79    0.94    0.67            0.26    0.27    0.12           0.49     0.58
C22        26.97   22.67   10.79          54.73   22.13   20.44          30.13   42.72           0.40    0.80    0.95    0.60            0.24    0.24    0.04           0.56     0.67
D1          4.17    4.34    2.35          24.77   -0.25    9.21           9.21   91.53           1.33    1.41    1.69    1.36            0.09    0.09    0.04           0.41     0.48
D2          4.23    4.41    1.56          24.99   -0.32   17.38          17.38   91.05           1.31    1.40    1.93    1.34            0.09    0.10    0.03           0.39     0.45
D3          4.24    4.44    0.85          25.09   -0.63   27.31          27.32   91.31           1.31    1.39    2.32    1.33            0.10    0.11    0.02           0.41     0.49
D4          4.16    4.40    0.54          24.94   -1.13   32.79          32.81   91.96           1.34    1.38    2.66    1.34            0.10    0.11    0.01           0.47     0.59
D5         17.90   18.75    9.48          50.39   -0.91   17.23          17.26   93.01           0.70    0.76    1.04    0.72            0.26    0.31    0.14           0.51     0.58
D6         17.74   18.59    5.02          50.20   -0.98   35.49          35.51   91.58           0.69    0.76    1.41    0.71            0.28    0.32    0.07           0.51     0.60
D7         17.48   18.54    2.37          50.15   -2.16   52.77          52.82   92.34           0.70    0.75    1.92    0.71            0.29    0.34    0.05           0.52     0.61
D8         17.57   18.66    1.13          50.28   -2.26   66.41          66.45   91.95           0.72    0.74    2.56    0.71            0.35    0.41    0.02           0.71     0.83
D9         46.82   48.91   25.45          75.40   -0.94   22.46          22.48   92.40           0.28    0.33    0.57    0.30            0.51    0.58    0.38           0.47     0.53
D10        46.41   48.87   14.31          75.37   -1.97   46.01          46.06   92.46           0.26    0.33    0.89    0.30            0.48    0.57    0.21           0.47     0.55
D11        45.94   48.59    7.09          75.19   -2.55   68.97          69.02   92.12           0.26    0.33    1.34    0.29            0.51    0.57    0.10           0.44     0.52
D12        45.42   48.48    2.08          75.12   -3.72   98.51          98.58   92.16           0.30    0.32    2.44    0.29            0.36    0.29    0.01           0.42     0.52
D13        53.72   63.24   58.06          83.57  -17.74   -6.22          18.80  199.31           0.37    0.15    0.16    0.22            0.34    0.35    0.13           0.24     0.30
D14        59.10   51.90   55.06          77.22   22.93  -14.05          26.89  328.51           0.14    0.38    0.16    0.27            0.36    0.48    0.26           0.45     0.58
D15        69.38   73.13   35.27          88.51   -2.43   29.54          29.64   94.70           0.10    0.14    0.42    0.13            0.19    0.21    0.33           0.30     0.38
D16        34.74   36.13   29.85          66.62   -0.35   -0.06           0.50  212.66           0.45    0.46    0.47    0.44            0.35    0.42    0.26           0.47     0.54
D17        51.88   45.12   30.77          72.97   23.18    9.45          25.04   22.18           0.15    0.46    0.45    0.32            0.38    0.49    0.33           0.50     0.60
D18        49.39   59.59   34.00          81.62  -20.69   19.48          28.42  136.73           0.36    0.17    0.44    0.24            0.26    0.25    0.17           0.25     0.31
D19        39.08   40.37   50.14          69.73    0.50  -21.58          21.59  271.33           0.46    0.40    0.21    0.41            0.34    0.41    0.17           0.49     0.58
D20         3.05    3.01    1.13          20.09    2.59   14.40          14.63   79.79           1.43    1.60    2.06    1.50            0.04    0.04    0.01           0.27     0.31
D21        30.79   28.20    1.44          60.07   13.87   79.24          80.44   80.07           0.38    0.65    2.41    0.51            0.33    0.35    0.02           0.54     0.62
D22        41.27   44.18   51.74          72.35   -4.00  -18.85          19.28  258.01           0.45    0.34    0.20    0.37            0.40    0.50    0.20           0.54     0.65
E1          5.54    6.30    3.50          30.14   -5.97    9.79          11.47  121.35           1.26    1.21    1.51    1.21            0.09    0.12    0.04           0.44     0.51
E2          5.14    6.28    2.16          30.10  -10.51   20.09          22.67  117.62           1.32    1.17    1.80    1.21            0.11    0.14    0.04           0.52     0.60
E3          4.76    6.33    1.33          30.23  -15.88   29.19          33.23  118.54           1.42    1.13    2.15    1.21            0.10    0.15    0.03           0.50     0.59
E4          4.39    6.29    0.77          30.14  -20.27   37.35          42.50  118.49           1.52    1.10    2.60    1.22            0.10    0.15    0.01           0.53     0.64
E5         24.98   28.40   15.45          60.25   -9.89   17.05          19.71  120.11           0.61    0.53    0.81    0.55            0.30    0.38    0.21           0.55     0.65
E6         22.85   28.48    9.50          60.32  -19.52   34.30          39.47  119.65           0.69    0.49    1.10    0.55            0.31    0.41    0.14           0.57     0.65
E7         21.00   28.68    5.31          60.50  -28.90   51.77          59.29  119.17           0.79    0.45    1.50    0.56            0.31    0.42    0.06           0.53     0.61
E8         18.62   28.42    2.17          60.27  -39.74   72.02          82.26  118.89           0.98    0.41    2.31    0.57            0.17    0.21    0.03           0.29     0.34
E9         45.53   49.40   33.50          75.70   -5.92   10.01          11.63  120.58           0.34    0.30    0.43    0.31            0.45    0.53    0.36           0.43     0.49
E10        42.79   48.82   25.82          75.34  -12.32   21.71          24.96  119.58           0.38    0.29    0.57    0.31            0.45    0.53    0.35           0.44     0.51
E11        40.79   48.73   20.17          75.28  -18.11   32.34          37.06  119.25           0.42    0.27    0.71    0.32            0.42    0.50    0.33           0.44     0.50
E12        37.29   48.60   12.18          75.20  -28.85   51.57          59.09  119.23           0.50    0.24    1.02    0.32            0.33    0.33    0.18           0.38     0.43
E13        48.01   58.91   56.79          81.24  -22.83   -8.92          24.51  201.34           0.47    0.16    0.17    0.26            0.31    0.33    0.15           0.21     0.27
E14        53.26   43.50   51.56          71.89   31.41  -19.45          36.94  328.24           0.15    0.50    0.18    0.34            0.35    0.45    0.25           0.46     0.58
E15        67.72   71.44   27.33          87.70   -2.53   40.42          40.50   93.59           0.10    0.15    0.56    0.13            0.17    0.20    0.29           0.31     0.39
E16        25.25   26.21   21.86          58.24   -0.11   -0.45           0.62  240.35           0.59    0.60    0.61    0.58            0.26    0.32    0.22           0.48     0.58
E17        44.09   35.29   21.59          65.97   31.89   13.42          34.60   22.83           0.17    0.63    0.61    0.41            0.30    0.36    0.24           0.45     0.56
E18        42.78   54.33   26.31          78.65  -26.64   26.56          37.62  135.09           0.45    0.20    0.58    0.28            0.19    0.20    0.15           0.24     0.28
E19        30.16   30.86   46.17          62.39    1.54  -29.65          29.69  272.97           0.61    0.52    0.24    0.53            0.21    0.30    0.13           0.45     0.55
E20         7.24    8.44    1.30          34.89   -8.43   37.59          38.52  102.64           1.15    1.05    2.20    1.07            0.08    0.12    0.01           0.40     0.48
E21        24.55   29.39    6.38          61.12  -15.51   47.79          50.25  107.98           0.62    0.49    1.35    0.53            0.23    0.30    0.06           0.51     0.62
E22         8.77   18.51   13.71          50.11  -60.08    4.04          60.22  176.16           1.83    0.52    0.90    0.81            0.05    0.14    0.11           0.43     0.53
F1          3.52    4.31    3.10          24.65   -9.43    3.14           9.95  161.62           1.53    1.34    1.55    1.39            0.07    0.09    0.04           0.48     0.56
F2          3.08    4.51    2.67          25.29  -19.41    7.46          20.79  158.99           1.70    1.26    1.66    1.38            0.06    0.09    0.03           0.48     0.55
F3          2.48    4.44    2.37          25.09  -29.46    9.57          30.97  162.01           1.97    1.20    1.76    1.41            0.05    0.10    0.03           0.51     0.60
F4          1.82    4.47    1.75          25.16  -44.36   15.62          47.03  160.60           2.49    1.12    2.01    1.43            0.04    0.10    0.04           0.56     0.63
F5         11.59   14.57   10.17          45.04  -16.31    5.71          17.29  160.72           1.04    0.79    1.00    0.86            0.18    0.25    0.14           0.54     0.64
F6          9.54   14.81    8.63          45.37  -33.32   11.58          35.27  160.84           1.30    0.71    1.11    0.87            0.16    0.27    0.13           0.58     0.69
F7          7.65   14.79    7.21          45.34  -49.58   17.00          52.42  161.07           1.63    0.64    1.24    0.89            0.15    0.29    0.12           0.59     0.68
F8          6.22   14.73    6.07          45.27  -63.52   21.83          67.16  161.03           2.01    0.59    1.38    0.91            0.11    0.25    0.13           0.49     0.56
F9         30.08   34.55   26.10          65.39  -11.74    4.06          12.42  160.95           0.57    0.43    0.54    0.47            0.39    0.47    0.28           0.52     0.61
F10        26.95   34.56   23.87          65.40  -23.96    8.08          25.28  161.37           0.70    0.39    0.60    0.49            0.33    0.43    0.25           0.45     0.53
F11        24.32   34.72   21.62          65.53  -35.49   12.59          37.66  160.47           0.83    0.35    0.66    0.49            0.28    0.39    0.25           0.39     0.44
F12        20.37   34.57   18.90          65.41  -53.12   18.00          56.09  161.28           1.08    0.30    0.75    0.51            0.19    0.24    0.28           0.39     0.45
F13        42.89   54.84   55.59          78.95  -27.59  -11.63          29.94  202.85           0.57    0.18    0.18    0.30            0.24    0.26    0.13           0.19     0.23
F14        47.64   36.09   47.84          66.59   39.28  -24.37          46.22  328.18           0.18    0.63    0.21    0.41            0.28    0.33    0.23           0.38     0.46
F15        66.21   69.65   20.31          86.83   -2.09   51.96          52.00   92.30           0.10    0.17    0.73    0.14            0.14    0.18    0.21           0.26     0.34
F16        17.60   18.28   15.11          49.83   -0.13   -0.06           0.42  213.38           0.74    0.77    0.78    0.74            0.15    0.19    0.10           0.44     0.52
F17        37.11   27.16   14.02          59.12   39.89   18.75          44.07   25.18           0.20    0.82    0.81    0.50            0.23    0.25    0.14           0.36     0.42
