targets/wolf_faust/transmissive/F120911.it8
IT8.7/1
ORIGINATOR "Wolf Faust"
DESCRIPTOR "Fujichrome Provia/Astia/Sensia, Type 3, L* a* b* (light D50, viewing angle 2)"
MANUFACTURER "Wolf Faust - http://www.coloraid.de"
CREATED "October 04, 2012"
PROD_DATE "2012:08"
DIFFUSE_GEOMETRY "opal"
SERIAL "F120911 Batch Average Data"
MATERIAL "Fujichrome Provia 100F (RDP III)"
KEYWORD "MEAN_DE" # Mean Delta E of samples compared to batch average
NUMBER_OF_FIELDS 18
BEGIN_DATA_FORMAT
SAMPLE_ID  XYZ_X   XYZ_Y   XYZ_Z          LAB_L   LAB_A   LAB_B          LAB_C   LAB_H          D_RED  D_GREEN  D_BLUE  D_VIS          STDEV_X STDEV_Y STDEV_Z        MEAN_DE  STDEV_DE
END_DATA_FORMAT
NUMBER_OF_SETS 288
BEGIN_DATA
A1          2.30    1.97    1.35          15.33    8.82    3.25           9.40   20.22           1.50    1.88    1.90    1.67            0.04    0.04    0.03           0.33     0.36
A2          2.87    2.02    1.15          15.57   18.83    6.28          19.85   18.43           1.31    2.03    1.95    1.63            0.03    0.03    0.03           0.30     0.33 
A3          3.40    1.93    0.97          15.11   29.86    8.14          30.95   15.26           1.15    2.34    1.99    1.60            0.04    0.03    0.02           0.32     0.34
A4          3.96    1.92    0.80          15.05   38.64   10.81          40.12   15.63           1.02    2.75    2.03    1.57            0.05    0.03    0.01           0.30     0.34 
A5          9.90    8.58    6.21          35.16   13.58    3.78          14.10   15.55           0.87    1.21    1.19    1.04            0.13    0.12    0.10           0.38     0.41
A6         11.75    8.53    5.40          35.05   27.86    7.45          28.84   14.96           0.71    1.35    1.24    1.01            0.15    0.12    0.10           0.37     0.40 
A7         13.90    8.41    4.42          34.81   43.15   12.25          44.86   15.85           0.56    1.58    1.31    0.98            0.18    0.12    0.09           0.39     0.43
A8         17.29    8.63    3.72          35.26   61.00   17.20          63.38   15.75           0.39    1.97    1.35    0.93            0.07    0.05    0.06           0.23     0.28 
A9         29.57   28.85   22.65          60.65    6.77    2.19           7.12   17.86           0.47    0.59    0.59    0.53            0.40    0.39    0.32           0.58     0.62
A10        31.48   28.79   21.43          60.60   14.13    4.46          14.82   17.50           0.40    0.63    0.62    0.52            0.39    0.37    0.29           0.51     0.56
A11        33.78   28.90   20.54          60.69   21.91    6.42          22.83   16.34           0.33    0.67    0.63    0.51            0.38    0.37    0.32           0.52     0.57
A12        39.14   29.06   18.31          60.83   39.04   11.40          40.67   16.28           0.19    0.77    0.68    0.48            0.27    0.30    0.31           0.49     0.54 
A13        73.25   77.79   63.68          90.69   -3.62    0.50           3.65  172.20           0.13    0.10    0.12    0.11            0.20    0.20    0.16           0.15     0.17
A14        76.96   78.76   64.55          91.12    2.05    0.42           2.10   11.56           0.08    0.11    0.11    0.10            0.12    0.17    0.16           0.13     0.14 
A15        77.75   80.53   62.76          91.92    0.20    3.51           3.52   86.75           0.08    0.10    0.13    0.09            0.13    0.15    0.15           0.12     0.13
A16        76.12   79.02   64.42          91.24   -0.14    0.75           0.77  100.41           0.10    0.10    0.11    0.10            0.15    0.17    0.16           0.14     0.15
A17        76.18   78.04   61.74          90.80    1.90    2.57           3.20   53.60           0.08    0.12    0.13    0.11            0.13    0.18    0.14           0.15     0.17
A18        73.95   78.08   61.29          90.81   -2.74    3.04           4.09  132.06           0.12    0.10    0.14    0.11            0.16    0.17    0.16           0.14     0.16 
A19        70.67   74.33   62.41          89.08   -2.11   -1.06           2.36  206.60           0.14    0.12    0.13    0.13            0.27    0.28    0.21           0.21     0.22
A20         6.22    2.90    1.83          19.66   46.79    5.25          47.09    6.41           0.82    2.67    1.63    1.39            0.10    0.05    0.04           0.34     0.39 
A21        26.50   18.72   14.61          50.36   39.04    2.13          39.10    3.12           0.35    1.01    0.76    0.67            0.35    0.29    0.34           0.48     0.53
A22        53.23   49.19   32.39          75.57   15.49   11.44          19.26   36.44           0.16    0.38    0.43    0.29            0.49    0.59    0.52           0.56     0.62
B1          3.42    3.04    1.70          20.21    8.16    7.60          11.15   42.95           1.33    1.66    1.81    1.49            0.05    0.05    0.03           0.34     0.37
B2          3.86    2.97    1.17          19.93   16.18   13.54          21.10   39.92           1.21    1.78    1.99    1.47            0.05    0.04    0.02           0.34     0.38
B3          4.58    3.05    0.69          20.25   24.84   21.93          33.14   41.45           1.07    1.91    2.26    1.43            0.07    0.05    0.02           0.40     0.43
B4          5.34    3.07    0.23          20.32   34.07   30.61          45.80   41.94           0.94    2.13    2.83    1.39            0.09    0.05    0.00           0.36     0.45
B5         12.74   11.41    6.57          40.27   12.13   10.99          16.37   42.18           0.77    1.06    1.18    0.91            0.20    0.20    0.12           0.45     0.48
B6         14.69   11.31    4.29          40.09   25.30   22.07          33.57   41.10           0.62    1.18    1.39    0.89            0.21    0.17    0.08           0.45     0.48
B7         16.93   11.33    2.66          40.14   38.03   33.16          50.46   41.09           0.49    1.32    1.63    0.86            0.26    0.19    0.05           0.44     0.48
B8         20.85   11.32    0.97          40.12   58.23   51.20          77.54   41.32           0.32    1.65    2.11    0.82            0.10    0.07    0.02           0.25     0.28
B9         35.09   35.10   25.83          65.83    4.27    5.29           6.80   51.14           0.40    0.49    0.54    0.45            0.41    0.42    0.31           0.52     0.56
B10        36.83   35.10   23.25          65.83   10.07    9.97          14.17   44.69           0.34    0.52    0.59    0.44            0.40    0.42    0.32           0.59     0.63
B11        38.44   34.95   20.96          65.71   15.79   14.23          21.25   42.02           0.29    0.55    0.64    0.43            0.40    0.41    0.31           0.53     0.58
B12        43.49   34.93   14.85          65.70   31.31   27.93          41.96   41.73           0.16    0.63    0.81    0.41            0.29    0.35    0.26           0.53     0.59
B13        67.01   72.92   60.90          88.41   -7.16   -0.72           7.20  185.75           0.19    0.12    0.14    0.14            0.33    0.30    0.24           0.22     0.24
B14        70.65   69.86   60.92          86.93    7.09   -3.29           7.82  335.10           0.11    0.18    0.13    0.15            0.31    0.38    0.29           0.28     0.32
B15        73.72   77.08   53.89          90.36   -1.24    9.85           9.93   97.19           0.10    0.11    0.20    0.11            0.21    0.24    0.31           0.21     0.23
B16        59.48   62.00   50.85          82.91   -0.73    0.35           0.84  153.17           0.21    0.21    0.22    0.21            0.50    0.53    0.41           0.39     0.43
B17        68.06   67.31   52.41          85.66    6.98    3.36           7.76   25.74           0.11    0.20    0.21    0.16            0.36    0.46    0.39           0.37     0.41
B18        65.36   71.58   52.67          87.76   -8.04    6.71          10.48  140.17           0.19    0.13    0.22    0.15            0.37    0.34    0.34           0.28     0.31
B19        61.58   64.14   58.35          84.04   -0.61   -5.69           5.73  263.81           0.21    0.19    0.16    0.20            0.56    0.61    0.36           0.41     0.45
B20         5.00    3.05    1.02          20.24   30.22   16.28          34.33   28.30           1.00    2.02    2.01    1.42            0.09    0.06    0.03           0.39     0.42
B21        16.69   11.21    4.18          39.92   37.60   22.43          43.78   30.81           0.51    1.32    1.38    0.87            0.24    0.17    0.08           0.38     0.42
B22        33.74   28.84   17.12          60.64   21.98   13.74          25.92   32.01           0.32    0.67    0.73    0.50            0.41    0.42    0.35           0.55     0.60
C1          6.39    6.31    3.51          30.18    3.34    9.81          10.37   71.21           1.12    1.27    1.49    1.19            0.08    0.09    0.04           0.37     0.40
C2          6.86    6.32    2.18          30.20    8.06   20.10          21.66   68.16           1.03    1.31    1.75    1.17            0.09    0.09    0.03           0.44     0.47
C3          7.45    6.44    1.24          30.50   12.52   30.85          33.30   67.91           0.96    1.34    2.09    1.15            0.10    0.09    0.02           0.43     0.46
C4          7.84    6.33    0.52          30.22   17.40   42.31          45.75   67.64           0.92    1.39    2.67    1.14            0.12    0.10    0.01           0.41     0.45
C5         24.39   23.69   12.06          55.78    6.84   18.42          19.65   69.64           0.52    0.69    0.91    0.61            0.32    0.34    0.16           0.55     0.61
C6         26.05   23.49    6.70          55.57   14.75   36.79          39.64   68.16           0.44    0.74    1.24    0.59            0.36    0.36    0.12           0.52     0.56
C7         27.74   23.45    3.23          55.53   21.78   55.43          59.56   68.55           0.37    0.78    1.68    0.58            0.30    0.29    0.06           0.54     0.59
C8         30.51   23.52    0.95          55.60   32.09   78.28          84.60   67.71           0.30    0.85    2.60    0.56            0.29    0.26    0.01           0.42     0.48
C9         41.11   41.87   29.07          70.78    2.26    8.37           8.68   74.93           0.34    0.40    0.49    0.37            0.46    0.48    0.38           0.54     0.58
C10        42.14   41.75   24.51          70.69    5.76   16.03          17.04   70.26           0.30    0.42    0.57    0.37            0.45    0.48    0.36           0.54     0.59
C11        43.17   41.54   20.37          70.55    9.43   23.78          25.58   68.38           0.26    0.44    0.67    0.36            0.42    0.45    0.34           0.56     0.61
C12        48.36   41.96    7.94          70.84   22.95   58.07          62.44   68.44           0.14    0.50    1.20    0.33            0.26    0.38    0.11           0.46     0.53
C13        59.92   67.95   59.25          85.98  -12.88   -3.26          13.29  194.20           0.28    0.13    0.16    0.18            0.32    0.29    0.25           0.24     0.28
C14        65.45   61.50   58.20          82.64   14.22   -7.95          16.30  330.79           0.12    0.26    0.15    0.20            0.34    0.45    0.28           0.36     0.44
C15        71.52   75.24   44.13          89.51   -2.16   19.57          19.68   96.29           0.10    0.13    0.31    0.12            0.25    0.27    0.39           0.31     0.35
C16        46.05   48.26   39.69          74.99   -1.35    0.18           1.40  171.57           0.33    0.32    0.34    0.32            0.54    0.57    0.46           0.51     0.55
C17        60.38   56.54   41.39          79.92   14.32    6.48          15.72   24.35           0.12    0.31    0.32    0.23            0.37    0.50    0.43           0.48     0.54
C18        56.61   65.20   42.77          84.59  -14.90   12.78          19.63  139.39           0.28    0.15    0.32    0.19            0.40    0.35    0.40           0.42     0.46
C19        49.62   51.86   54.06          77.19   -1.01  -13.02          13.06  265.55           0.33    0.28    0.18    0.29            0.57    0.62    0.33           0.50     0.55
C20        12.37    9.05    1.18          36.08   27.68   41.28          49.70   56.16           0.67    1.32    2.12    0.97            0.19    0.15    0.03           0.47     0.53
C21        22.09   20.61   11.26          52.52   10.62   15.17          18.52   55.01           0.54    0.77    0.94    0.66            0.30    0.31    0.21           0.55     0.59
C22        27.26   23.22   11.04          55.29   20.84   20.63          29.33   44.71           0.40    0.78    0.95    0.59            0.41    0.40    0.26           0.56     0.61
D1          4.20    4.44    2.49          25.08   -1.08    8.59           8.66   97.14           1.33    1.39    1.66    1.35            0.05    0.06    0.04           0.35     0.39
D2          4.26    4.51    1.61          25.27   -1.10   17.37          17.41   93.63           1.31    1.38    1.92    1.33            0.06    0.07    0.03           0.43     0.47
D3          4.25    4.52    0.88          25.31   -1.39   27.27          27.30   92.92           1.32    1.37    2.31    1.33            0.06    0.06    0.01           0.39     0.43
D4          4.16    4.45    0.55          25.11   -1.89   32.93          32.98   93.28           1.34    1.37    2.66    1.33            0.06    0.07    0.01           0.41     0.44
D5         17.86   18.83    9.64          50.49   -1.56   16.88          16.96   95.29           0.70    0.75    1.03    0.72            0.21    0.24    0.15           0.49     0.55
D6         17.86   18.96    5.13          50.64   -2.22   35.65          35.72   93.56           0.69    0.74    1.40    0.71            0.23    0.26    0.08           0.41     0.45
D7         17.70   18.84    2.52          50.50   -2.45   52.18          52.24   92.69           0.70    0.74    1.88    0.71            0.20    0.24    0.04           0.50     0.56
D8         17.69   19.02    1.16          50.71   -3.41   66.75          66.84   92.92           0.72    0.73    2.56    0.70            0.18    0.21    0.01           0.48     0.55
D9         47.09   49.39   25.69          75.69   -1.50   22.55          22.60   93.82           0.28    0.32    0.57    0.30            0.45    0.50    0.38           0.55     0.60
D10        46.69   49.30   14.48          75.64   -2.36   46.03          46.09   92.94           0.26    0.32    0.89    0.29            0.39    0.44    0.24           0.49     0.52
D11        46.43   49.33    7.19          75.65   -3.17   69.35          69.42   92.62           0.26    0.32    1.33    0.29            0.42    0.45    0.11           0.42     0.46
D12        45.29   48.43    2.08          75.10   -3.99   98.39          98.47   92.32           0.30    0.32    2.44    0.29            0.29    0.25    0.02           0.35     0.39
D13        53.65   63.36   57.83          83.63  -18.21   -5.88          19.13  197.88           0.37    0.14    0.17    0.22            0.35    0.32    0.24           0.25     0.30
D14        59.75   52.74   55.00          77.72   22.31  -13.12          25.88  329.53           0.13    0.37    0.17    0.26            0.32    0.43    0.28           0.42     0.50
D15        69.79   73.69   35.40          88.77   -2.68   29.80          29.93   95.15           0.10    0.14    0.42    0.12            0.23    0.26    0.40           0.37     0.43
D16        34.80   36.51   30.13          66.90   -1.35   -0.01           1.39  178.94           0.45    0.45    0.46    0.44            0.45    0.49    0.43           0.55     0.59
D17        52.37   45.74   30.96          73.38   22.71    9.86          24.76   23.46           0.14    0.45    0.45    0.31            0.44    0.56    0.47           0.61     0.67
D18        49.25   59.62   34.18          81.63  -21.13   19.25          28.59  137.67           0.37    0.17    0.44    0.24            0.52    0.48    0.48           0.47     0.53
D19        39.18   40.85   50.00          70.07   -0.65  -20.84          20.85  268.20           0.46    0.39    0.21    0.40            0.51    0.58    0.29           0.58     0.64
D20         3.07    3.04    1.10          20.21    2.34   14.95          15.13   81.10           1.42    1.59    2.08    1.50            0.07    0.07    0.03           0.41     0.44
D21        31.09   28.63    1.52          60.45   13.32   78.97          80.09   80.42           0.38    0.64    2.38    0.50            0.44    0.45    0.03           0.65     0.72
D22        41.34   44.61   51.55          72.63   -5.02  -18.16          18.85  254.55           0.45    0.33    0.20    0.37            0.51    0.58    0.28           0.56     0.62
E1          5.71    6.51    3.59          30.66   -6.27   10.09          11.88  121.87           1.25    1.19    1.50    1.19            0.07    0.10    0.05           0.40     0.44
E2          5.23    6.44    2.28          30.50  -11.22   19.69          22.67  119.68           1.32    1.16    1.78    1.20            0.08    0.10    0.04           0.44     0.47
E3          4.77    6.43    1.37          30.47  -16.76   29.10          33.58  119.95           1.42    1.12    2.14    1.21            0.07    0.09    0.02           0.45     0.48
E4          4.41    6.39    0.78          30.38  -21.14   37.61          43.14  119.34           1.53    1.08    2.61    1.21            0.07    0.10    0.01           0.43     0.47
E5         25.37   29.02   15.69          60.80  -10.62   17.41          20.40  121.40           0.61    0.52    0.80    0.54            0.27    0.34    0.25           0.51     0.57
E6         23.01   28.95    9.82          60.74  -20.65   33.95          39.74  121.31           0.70    0.48    1.08    0.55            0.27    0.35    0.16           0.47     0.53
E7         21.05   28.98    5.39          60.76  -29.79   51.82          59.77  119.90           0.80    0.44    1.49    0.55            0.25    0.34    0.09           0.42     0.46
E8         18.89   28.64    2.20          60.46  -39.21   72.11          82.08  118.54           0.96    0.41    2.30    0.56            0.09    0.11    0.02           0.23     0.26
E9         45.38   49.45   33.26          75.73   -6.47   10.42          12.27  121.84           0.34    0.30    0.43    0.31            0.46    0.50    0.43           0.51     0.55
E10        42.96   49.18   26.11          75.57  -12.79   21.59          25.10  120.65           0.38    0.28    0.57    0.31            0.41    0.45    0.37           0.51     0.55
E11        40.88   49.14   20.52          75.54  -18.94   32.06          37.24  120.57           0.42    0.26    0.70    0.31            0.39    0.45    0.33           0.48     0.52
E12        37.14   48.52   12.23          75.15  -29.10   51.33          59.00  119.55           0.51    0.24    1.02    0.32            0.27    0.30    0.17           0.32     0.36
E13        47.92   58.96   56.55          81.27  -23.23   -8.61          24.78  200.34           0.47    0.16    0.18    0.26            0.32    0.31    0.21           0.26     0.29
E14        53.76   44.15   51.41          72.33   30.81  -18.53          35.95  328.98           0.15    0.49    0.19    0.33            0.31    0.40    0.27           0.45     0.52
E15        68.01   71.83   27.00          87.89   -2.70   41.30          41.39   93.75           0.10    0.15    0.57    0.13            0.24    0.28    0.38           0.41     0.49
E16        25.24   26.42   21.83          58.44   -1.02   -0.05           1.08  182.98           0.59    0.60    0.61    0.58            0.34    0.37    0.35           0.54     0.57
E17        44.55   35.83   21.57          66.39   31.40   14.19          34.46   24.32           0.17    0.62    0.61    0.40            0.36    0.42    0.40           0.59     0.63
E18        42.56   54.20   26.06          78.58  -26.98   26.88          38.08  135.11           0.45    0.20    0.58    0.28            0.41    0.40    0.37           0.46     0.51
E19        30.22   31.23   45.99          62.70    0.41  -28.90          28.90  270.82           0.61    0.51    0.25    0.53            0.39    0.44    0.26           0.53     0.60
E20         7.31    8.67    1.40          35.34   -9.75   37.19          38.45  104.69           1.15    1.03    2.16    1.06            0.14    0.17    0.03           0.50     0.56
E21        24.92   29.90    6.53          61.57  -15.87   47.89          50.45  108.33           0.62    0.49    1.34    0.52            0.37    0.44    0.11           0.49     0.55
E22         8.70   18.44   13.75          50.03  -60.38    3.78          60.50  176.42           1.85    0.52    0.90    0.82            0.14    0.27    0.25           0.41     0.46
F1          3.62    4.44    3.16          25.09   -9.72    3.42          10.31  160.62           1.51    1.33    1.54    1.37            0.06    0.08    0.05           0.34     0.38
F2          2.94    4.48    2.78          25.20  -21.40    6.48          22.36  163.16           1.76    1.25    1.64    1.39            0.04    0.07    0.05           0.37     0.40
F3          2.47    4.49    2.28          25.21  -30.24   10.59          32.04  160.71           1.98    1.19    1.79    1.41            0.04    0.08    0.04           0.41     0.45
F4          1.83    4.56    1.79          25.44  -45.22   15.68          47.86  160.87           2.50    1.11    2.00    1.42            0.03    0.07    0.03           0.38     0.43
F5         11.69   14.88   10.35          45.46  -17.49    5.87          18.45  161.44           1.05    0.77    0.99    0.85            0.14    0.20    0.16           0.45     0.50
F6          9.49   14.87    8.69          45.45  -34.04   11.49          35.93  161.35           1.30    0.70    1.11    0.87            0.12    0.20    0.14           0.41     0.46
F7          7.64   14.91    7.28          45.51  -50.37   17.00          53.16  161.35           1.64    0.64    1.24    0.89            0.09    0.18    0.11           0.39     0.44
F8          6.16   14.65    6.10          45.15  -63.74   21.51          67.27  161.36           2.02    0.60    1.38    0.91            0.05    0.12    0.07           0.28     0.31
F9         30.27   34.91   26.46          65.68  -12.26    3.94          12.88  162.16           0.57    0.43    0.54    0.47            0.31    0.38    0.40           0.47     0.52
F10        27.05   34.96   23.93          65.72  -24.91    8.52          26.33  161.12           0.70    0.38    0.60    0.48            0.29    0.37    0.39           0.50     0.55
F11        24.37   34.83   21.82          65.62  -35.65   12.34          37.72  160.90           0.83    0.35    0.66    0.49            0.27    0.35    0.34           0.44     0.49
F12        20.26   34.41   19.07          65.28  -53.10   17.41          55.88  161.85           1.09    0.30    0.75    0.51            0.14    0.18    0.25           0.33     0.37
F13        42.78   54.83   55.33          78.94  -27.87  -11.36          30.09  202.17           0.57    0.17    0.19    0.30            0.27    0.27    0.20           0.22     0.25
F14        48.07   36.61   47.71          66.98   38.78  -23.53          45.36  328.75           0.17    0.62    0.21    0.40            0.28    0.34    0.28           0.41     0.48
F15        66.68   70.20   20.47          87.10   -2.22   52.10          52.15   92.44           0.10    0.16    0.72    0.14            0.19    0.25    0.33           0.45     0.52
F16        17.62   18.43   15.37          50.01   -0.81   -0.40           0.96  204.26           0.74    0.76    0.78    0.74            0.23    0.25    0.28           0.48     0.51
F17        37.41   27.50   14.28          59.44   39.52   18.61          43.68   25.21           0.20    0.81    0.80    0.50            0.36    0.35    0.29           0.56     0.60
