targets/wolf_faust/transmissive/F120615.it8
IT8.7/1
ORIGINATOR "Wolf Faust"
DESCRIPTOR "Fujichrome Provia/Astia/Sensia, Type 3, L* a* b* (light D50, viewing angle 2)"
MANUFACTURER "Wolf Faust - http://www.coloraid.de"
CREATED "March 23, 2012"
PROD_DATE "2011:12"
SERIAL "F120615 Batch Average Data"
MATERIAL "Fujichrome Provia 100F (RDP III)"
KEYWORD "MEAN_DE" # Mean Delta E of samples compared to batch average
NUMBER_OF_FIELDS 18
BEGIN_DATA_FORMAT
SAMPLE_ID  XYZ_X   XYZ_Y   XYZ_Z          LAB_L   LAB_A   LAB_B          LAB_C   LAB_H          D_RED  D_GREEN  D_BLUE  D_VIS          STDEV_X STDEV_Y STDEV_Z        MEAN_DE  STDEV_DE
END_DATA_FORMAT
NUMBER_OF_SETS 288
BEGIN_DATA
A1          2.37    2.03    1.44          15.63    9.01    2.71           9.42   16.71           1.49    1.86    1.86    1.66            0.07    0.06    0.03           0.43     0.50
A2          2.93    2.06    1.14          15.78   19.07    6.76          20.23   19.52           1.30    2.02    1.95    1.62            0.09    0.07    0.03           0.39     0.48 
A3          3.47    1.96    0.96          15.29   30.15    8.60          31.36   15.91           1.14    2.34    1.99    1.60            0.11    0.06    0.02           0.42     0.54
A4          4.02    1.94    0.77          15.18   38.95   11.65          40.66   16.64           1.01    2.77    2.05    1.57            0.13    0.06    0.01           0.55     0.70 
A5         10.06    8.67    6.29          35.33   14.10    3.69          14.58   14.65           0.86    1.21    1.18    1.03            0.32    0.27    0.17           0.50     0.62
A6         12.14    8.68    5.52          35.36   29.17    7.37          30.09   14.19           0.69    1.36    1.22    1.00            0.40    0.28    0.15           0.59     0.72 
A7         14.10    8.52    4.52          35.03   43.41   12.02          45.05   15.48           0.55    1.57    1.29    0.97            0.45    0.28    0.15           0.55     0.71
A8         17.22    8.60    3.81          35.20   60.86   16.54          63.07   15.20           0.39    1.97    1.33    0.93            0.25    0.15    0.15           0.45     0.54 
A9         30.00   29.09   23.21          60.85    7.53    1.48           7.67   11.10           0.46    0.59    0.58    0.53            0.94    0.89    0.67           0.75     0.88
A10        31.73   28.89   21.88          60.68   14.65    3.73          15.12   14.28           0.40    0.63    0.60    0.52            0.90    0.83    0.64           0.69     0.81
A11        34.02   28.99   21.01          60.76   22.42    5.60          23.10   14.03           0.32    0.67    0.62    0.51            0.95    0.86    0.64           0.68     0.80
A12        39.03   28.96   18.74          60.74   39.09   10.31          40.42   14.77           0.19    0.78    0.66    0.48            0.65    0.67    0.61           0.72     0.87 
A13        73.44   77.94   64.24          90.75   -3.51    0.07           3.51  178.85           0.13    0.10    0.12    0.11            0.79    0.76    0.53           0.36     0.41
A14        77.08   78.93   65.19          91.20    1.96   -0.05           1.97  238.85           0.08    0.11    0.11    0.10            0.59    0.73    0.47           0.36     0.44 
A15        77.76   80.53   63.38          91.92    0.22    2.91           2.93   85.58           0.08    0.10    0.12    0.09            0.54    0.62    0.49           0.28     0.33
A16        76.10   79.03   64.92          91.25   -0.21    0.28           0.36  122.02           0.10    0.10    0.11    0.10            0.63    0.72    0.51           0.31     0.37
A17        76.12   77.95   62.35          90.76    1.95    1.90           2.73   44.45           0.09    0.12    0.13    0.11            0.73    0.84    0.66           0.39     0.46
A18        73.92   78.02   61.86          90.79   -2.68    2.43           3.62  137.77           0.12    0.10    0.13    0.11            0.64    0.68    0.53           0.30     0.35 
A19        70.88   74.55   63.04          89.18   -2.11   -1.48           2.58  215.07           0.14    0.12    0.12    0.13            0.70    0.76    0.52           0.34     0.40
A20         6.31    2.94    1.86          19.80   47.18    5.24          47.47    6.33           0.81    2.68    1.62    1.38            0.17    0.08    0.03           0.52     0.63 
A21        26.84   18.92   15.33          50.58   39.44    0.68          39.45    0.98           0.35    1.01    0.74    0.66            0.75    0.58    0.52           0.64     0.76
A22        54.33   50.01   33.37          76.07   16.09   10.85          19.41   34.02           0.15    0.38    0.42    0.28            1.08    1.18    0.87           0.73     0.88
B1          3.39    3.03    1.69          20.17    7.87    7.68          11.00   44.30           1.34    1.66    1.82    1.49            0.10    0.09    0.03           0.47     0.54
B2          3.92    3.01    1.16          20.06   16.49   13.95          21.60   40.23           1.20    1.78    2.00    1.46            0.13    0.10    0.03           0.49     0.60
B3          4.69    3.07    0.66          20.32   25.93   22.65          34.43   41.13           1.05    1.93    2.28    1.42            0.15    0.10    0.01           0.59     0.71
B4          5.44    3.11    0.22          20.49   34.44   31.13          46.42   42.11           0.93    2.13    2.88    1.39            0.19    0.10    0.00           0.71     0.91
B5         12.96   11.54    6.73          40.46   12.72   10.62          16.57   39.84           0.76    1.06    1.17    0.91            0.41    0.36    0.20           0.56     0.69
B6         14.92   11.42    4.37          40.28   25.84   21.91          33.87   40.29           0.61    1.18    1.38    0.88            0.49    0.38    0.15           0.64     0.77
B7         17.19   11.47    2.69          40.36   38.44   33.31          50.87   40.91           0.49    1.31    1.62    0.85            0.50    0.35    0.10           0.62     0.73
B8         20.64   11.17    1.01          39.87   58.27   50.23          76.93   40.76           0.33    1.67    2.09    0.82            0.22    0.17    0.03           0.35     0.41
B9         35.44   35.31   26.91          65.98    4.76    3.69           6.03   37.86           0.40    0.49    0.52    0.45            0.94    0.90    0.64           0.72     0.83
B10        37.15   35.23   23.76          65.92   10.71    9.19          14.11   40.65           0.34    0.52    0.58    0.44            0.93    0.87    0.58           0.67     0.79
B11        38.88   35.41   21.53          66.06   15.66   13.69          20.80   41.17           0.29    0.54    0.62    0.43            0.90    0.86    0.60           0.64     0.75
B12        43.73   35.26   15.38          65.95   30.95   27.05          41.11   41.16           0.16    0.63    0.79    0.40            0.55    0.65    0.46           0.70     0.83
B13        67.52   73.39   61.69          88.63   -7.00   -1.12           7.09  189.05           0.19    0.11    0.14    0.14            0.86    0.79    0.42           0.44     0.53
B14        71.41   70.98   61.93          87.48    6.35   -3.34           7.17  332.27           0.11    0.17    0.13    0.14            0.63    0.77    0.39           0.48     0.58
B15        74.02   77.34   54.86          90.48   -1.14    9.03           9.10   97.21           0.10    0.11    0.19    0.11            0.46    0.52    0.45           0.29     0.32
B16        60.61   63.43   52.06          83.66   -1.28    0.30           1.34  167.15           0.21    0.20    0.21    0.20            0.94    0.98    0.63           0.53     0.62
B17        68.99   68.65   53.66          86.33    6.13    3.16           6.90   27.36           0.11    0.19    0.20    0.16            0.69    0.84    0.59           0.48     0.57
B18        65.86   72.00   53.61          87.97   -7.82    6.05           9.89  142.28           0.19    0.12    0.21    0.15            0.76    0.73    0.52           0.39     0.45
B19        62.47   65.27   59.39          84.62   -1.09   -5.75           5.86  259.16           0.21    0.18    0.15    0.19            0.76    0.87    0.41           0.53     0.66
B20         5.07    3.09    1.00          20.39   30.49   16.73          34.78   28.75           0.99    2.03    2.02    1.41            0.12    0.07    0.01           0.48     0.60
B21        17.32   11.53    4.19          40.46   38.71   23.28          45.17   31.02           0.49    1.31    1.37    0.86            0.43    0.30    0.11           0.54     0.63
B22        34.16   29.08   17.87          60.85   22.54   12.40          25.73   28.83           0.31    0.67    0.70    0.50            0.70    0.66    0.41           0.59     0.69
C1          6.48    6.37    3.55          30.31    3.60    9.76          10.41   69.75           1.11    1.27    1.48    1.18            0.16    0.16    0.07           0.42     0.50
C2          6.97    6.38    2.18          30.36    8.45   20.38          22.07   67.48           1.03    1.31    1.75    1.16            0.21    0.19    0.05           0.55     0.65
C3          7.56    6.49    1.16          30.62   13.02   32.11          34.65   67.93           0.96    1.34    2.13    1.14            0.22    0.18    0.02           0.65     0.78
C4          7.97    6.41    0.50          30.41   17.78   42.90          46.44   67.49           0.91    1.39    2.70    1.13            0.26    0.20    0.01           0.66     0.85
C5         24.54   23.81   12.47          55.89    6.95   17.43          18.77   68.27           0.52    0.69    0.90    0.60            0.71    0.68    0.39           0.62     0.75
C6         26.10   23.63    6.90          55.71   14.33   36.19          38.93   68.40           0.44    0.73    1.22    0.59            0.73    0.67    0.23           0.66     0.78
C7         28.32   23.65    3.16          55.73   23.17   56.25          60.83   67.61           0.36    0.79    1.69    0.57            0.69    0.61    0.10           0.70     0.81
C8         30.74   23.63    0.95          55.71   32.48   78.46          84.92   67.51           0.30    0.85    2.61    0.56            0.70    0.59    0.03           0.70     0.86
C9         41.77   42.44   29.96          71.17    2.58    7.62           8.05   71.32           0.33    0.40    0.47    0.37            0.97    0.93    0.61           0.65     0.77
C10        42.86   42.42   25.59          71.16    5.88   14.91          16.03   68.48           0.29    0.41    0.55    0.36            0.89    0.85    0.50           0.60     0.71
C11        43.38   41.86   20.96          70.77    9.09   22.96          24.70   68.39           0.26    0.44    0.66    0.36            0.87    0.86    0.51           0.60     0.70
C12        48.27   41.88    8.14          70.78   22.94   57.22          61.65   68.16           0.14    0.50    1.18    0.33            0.49    0.64    0.22           0.64     0.76
C13        60.82   68.69   60.06          86.35  -12.37   -3.44          12.85  195.51           0.27    0.13    0.15    0.18            0.89    0.80    0.37           0.51     0.65
C14        65.67   61.74   58.95          82.77   14.17   -8.49          16.52  329.06           0.12    0.26    0.14    0.20            0.67    0.85    0.43           0.60     0.74
C15        71.93   75.59   45.48          89.67   -2.01   18.21          18.32   96.29           0.10    0.12    0.29    0.12            0.48    0.55    0.48           0.31     0.36
C16        47.18   49.12   40.90          75.52   -0.50   -0.48           0.75  223.40           0.31    0.32    0.32    0.31            0.87    0.88    0.55           0.64     0.72
C17        60.91   57.13   42.82          80.25   14.15    5.23          15.09   20.30           0.12    0.30    0.30    0.23            0.63    0.80    0.58           0.62     0.72
C18        57.78   66.17   44.17          85.08  -14.16   11.90          18.50  139.96           0.27    0.14    0.30    0.19            0.80    0.74    0.51           0.45     0.53
C19        50.60   52.55   54.92          77.61   -0.19  -13.23          13.24  269.12           0.32    0.28    0.18    0.29            0.88    1.00    0.47           0.71     0.90
C20        12.54    9.13    1.18          36.24   28.14   41.59          50.22   55.92           0.66    1.32    2.12    0.96            0.24    0.19    0.03           0.49     0.56
C21        22.22   20.74   11.70          52.65   10.58   14.10          17.63   53.11           0.55    0.77    0.92    0.66            0.58    0.57    0.29           0.66     0.80
C22        27.64   23.44   11.42          55.52   21.40   19.86          29.20   42.86           0.39    0.78    0.93    0.59            0.61    0.57    0.27           0.59     0.69
D1          4.26    4.47    2.43          25.16   -0.69    9.24           9.27   94.28           1.33    1.40    1.67    1.34            0.13    0.14    0.06           0.44     0.53
D2          4.31    4.52    1.58          25.33   -0.70   17.79          17.81   92.24           1.31    1.39    1.93    1.33            0.15    0.15    0.04           0.51     0.61
D3          4.33    4.57    0.86          25.46   -0.98   27.75          27.77   92.03           1.31    1.37    2.33    1.32            0.15    0.15    0.02           0.55     0.66
D4          4.25    4.52    0.53          25.32   -1.53   33.59          33.62   92.62           1.33    1.37    2.70    1.33            0.17    0.17    0.02           0.66     0.80
D5         18.26   19.22    9.92          50.93   -1.41   16.70          16.76   94.82           0.70    0.74    1.01    0.71            0.54    0.54    0.29           0.60     0.73
D6         18.08   19.04    5.21          50.73   -1.49   35.40          35.43   92.42           0.68    0.75    1.39    0.71            0.52    0.53    0.14           0.64     0.77
D7         17.80   19.00    2.47          50.69   -2.76   52.89          52.97   92.99           0.70    0.74    1.90    0.70            0.50    0.49    0.05           0.76     0.91
D8         17.89   19.11    1.15          50.81   -2.84   67.04          67.10   92.43           0.71    0.73    2.58    0.70            0.53    0.53    0.03           0.81     0.99
D9         47.26   49.51   26.23          75.76   -1.32   21.74          21.78   93.46           0.28    0.32    0.55    0.30            1.45    1.48    0.97           0.78     0.99
D10        47.00   49.65   14.92          75.85   -2.44   45.28          45.34   93.08           0.26    0.32    0.87    0.29            0.87    0.89    0.38           0.56     0.65
D11        46.41   49.25    7.30          75.61   -3.04   68.82          68.89   92.53           0.26    0.32    1.32    0.29            0.86    0.87    0.22           0.54     0.63
D12        45.65   48.71    2.09          75.27   -3.71   98.67          98.74   92.16           0.30    0.32    2.45    0.29            0.82    0.71    0.04           0.59     0.74
D13        54.11   63.78   58.53          83.85  -17.98   -6.21          19.02  199.04           0.37    0.14    0.16    0.22            0.85    0.79    0.35           0.52     0.67
D14        60.12   53.17   55.89          77.97   22.09  -13.62          25.95  328.36           0.13    0.36    0.16    0.26            0.59    0.76    0.36           0.66     0.82
D15        70.09   73.96   36.29          88.90   -2.60   28.78          28.90   95.16           0.10    0.13    0.41    0.12            0.47    0.53    0.45           0.33     0.38
D16        35.42   37.07   30.90          67.33   -1.10   -0.48           1.23  204.19           0.44    0.44    0.45    0.43            0.66    0.64    0.42           0.59     0.67
D17        52.85   46.30   31.95          73.74   22.39    8.96          24.12   21.82           0.14    0.44    0.43    0.31            0.53    0.65    0.50           0.59     0.69
D18        49.89   60.19   34.98          81.94  -20.76   18.63          27.89  138.10           0.36    0.17    0.43    0.23            0.68    0.64    0.44           0.45     0.53
D19        39.62   41.20   50.60          70.31   -0.33  -21.10          21.11  269.09           0.45    0.39    0.21    0.40            0.82    0.89    0.54           0.75     0.90
D20         3.08    3.06    1.14          20.29    2.28   14.63          14.81   81.14           1.42    1.59    2.06    1.49            0.07    0.07    0.02           0.38     0.46
D21        31.35   28.94    1.50          60.72   13.11   79.69          80.76   80.66           0.38    0.63    2.40    0.50            0.72    0.70    0.04           0.85     1.00
D22        41.98   45.22   52.34          73.03   -4.80  -18.33          18.96  255.30           0.45    0.33    0.20    0.36            0.89    0.98    0.47           0.78     0.97
E1          5.61    6.42    3.59          30.45   -6.43    9.73          11.67  123.44           1.26    1.19    1.50    1.20            0.15    0.17    0.07           0.47     0.54
E2          5.23    6.43    2.20          30.48  -11.06   20.39          23.19  118.47           1.32    1.16    1.80    1.20            0.15    0.18    0.05           0.52     0.59
E3          4.83    6.47    1.34          30.56  -16.43   29.59          33.85  119.05           1.41    1.12    2.15    1.20            0.14    0.17    0.02           0.59     0.67
E4          4.48    6.46    0.77          30.54  -20.91   38.10          43.46  118.77           1.52    1.08    2.64    1.21            0.17    0.22    0.02           0.64     0.77
E5         25.46   29.04   16.13          60.81  -10.33   16.37          19.36  122.25           0.61    0.52    0.79    0.54            0.70    0.75    0.45           0.62     0.74
E6         23.21   28.99    9.86          60.77  -19.90   33.87          39.28  120.44           0.69    0.48    1.08    0.55            0.61    0.71    0.29           0.61     0.71
E7         21.23   29.06    5.45          60.83  -29.25   51.63          59.34  119.53           0.79    0.45    1.48    0.55            0.50    0.62    0.13           0.58     0.68
E8         18.77   28.63    2.23          60.45  -39.75   71.84          82.10  118.96           0.97    0.41    2.29    0.56            0.33    0.34    0.02           0.52     0.62
E9         46.23   50.26   34.53          76.22   -6.20    9.42          11.28  123.35           0.33    0.29    0.41    0.30            0.99    0.99    0.70           0.59     0.71
E10        43.53   49.75   26.83          75.91  -12.61   20.94          24.45  121.05           0.37    0.28    0.55    0.31            0.91    0.92    0.56           0.57     0.69
E11        41.33   49.48   21.01          75.74  -18.48   31.43          36.46  120.45           0.41    0.26    0.69    0.31            0.88    0.90    0.50           0.55     0.66
E12        37.58   48.98   12.62          75.44  -28.90   50.70          58.36  119.68           0.50    0.23    1.00    0.32            0.67    0.64    0.31           0.54     0.67
E13        48.33   59.35   57.22          81.48  -23.02   -8.94          24.70  201.23           0.46    0.16    0.17    0.25            0.67    0.64    0.30           0.48     0.59
E14        54.13   44.59   52.26          72.62   30.50  -18.96          35.92  328.14           0.15    0.48    0.18    0.33            0.50    0.65    0.31           0.66     0.83
E15        68.45   72.28   28.35          88.10   -2.69   39.41          39.50   93.91           0.10    0.15    0.54    0.13            0.36    0.42    0.39           0.35     0.39
E16        25.81   26.96   22.77          58.94   -0.77   -0.99           1.27  233.03           0.58    0.59    0.59    0.57            0.49    0.50    0.34           0.55     0.61
E17        44.92   36.24   22.64          66.70   31.13   12.64          33.60   22.11           0.17    0.61    0.59    0.40            0.42    0.50    0.36           0.51     0.63
E18        43.21   54.85   27.31          78.95  -26.65   25.37          36.79  136.41           0.45    0.19    0.56    0.28            0.61    0.58    0.39           0.46     0.55
E19        30.63   31.61   46.63          63.01    0.59  -29.11          29.12  271.15           0.60    0.50    0.24    0.52            0.51    0.58    0.29           0.66     0.79
E20         7.34    8.65    1.33          35.29   -9.19   37.87          38.97  103.64           1.15    1.04    2.19    1.06            0.14    0.16    0.02           0.46     0.51
E21        24.94   30.00    6.57          61.65  -16.14   47.85          50.50  108.64           0.62    0.48    1.33    0.52            0.50    0.58    0.12           0.61     0.71
E22         9.01   18.94   14.35          50.62  -60.31    3.23          60.40  176.93           1.83    0.51    0.88    0.80            0.16    0.28    0.24           0.39     0.44
F1          3.57    4.40    3.16          24.95   -9.87    3.22          10.38  161.96           1.52    1.33    1.54    1.38            0.10    0.11    0.06           0.42     0.48
F2          3.12    4.61    2.70          25.59  -19.95    7.72          21.39  158.84           1.70    1.24    1.66    1.37            0.09    0.13    0.06           0.41     0.48
F3          2.53    4.56    2.40          25.44  -30.09    9.91          31.68  161.76           1.97    1.19    1.75    1.40            0.08    0.14    0.07           0.43     0.51
F4          1.85    4.59    1.78          25.53  -45.25   15.97          47.98  160.56           2.51    1.10    2.01    1.42            0.05    0.12    0.04           0.47     0.56
F5         11.87   14.98   10.63          45.60  -16.79    5.20          17.58  162.80           1.04    0.77    0.97    0.85            0.37    0.45    0.30           0.56     0.69
F6          9.77   15.23    8.98          45.94  -33.92   11.31          35.76  161.57           1.29    0.69    1.09    0.86            0.28    0.40    0.23           0.58     0.67
F7          7.83   15.17    7.49          45.86  -50.14   16.80          52.88  161.48           1.63    0.63    1.22    0.88            0.21    0.36    0.21           0.51     0.60
F8          6.36   15.04    6.26          45.68  -63.92   21.70          67.50  161.25           2.01    0.58    1.36    0.90            0.14    0.29    0.16           0.39     0.47
F9         30.63   35.28   27.00          65.96  -12.12    3.51          12.62  163.85           0.57    0.42    0.53    0.47            0.78    0.85    0.62           0.64     0.73
F10        27.46   35.29   24.80          65.97  -24.35    7.36          25.43  163.18           0.69    0.38    0.58    0.48            0.67    0.76    0.56           0.55     0.66
F11        24.77   35.36   22.48          66.02  -35.70   11.77          37.59  161.75           0.82    0.34    0.64    0.49            0.56    0.67    0.49           0.52     0.61
F12        20.64   34.87   19.63          65.65  -52.82   16.84          55.44  162.32           1.08    0.30    0.73    0.51            0.38    0.44    0.40           0.49     0.60
F13        43.19   55.23   56.01          79.17  -27.67  -11.67          30.04  202.87           0.56    0.17    0.18    0.29            0.62    0.61    0.27           0.49     0.60
F14        48.47   37.07   48.55          67.33   38.38  -23.91          45.22  328.08           0.17    0.61    0.20    0.40            0.50    0.60    0.32           0.69     0.84
F15        66.91   70.46   21.17          87.22   -2.26   50.90          50.95   92.54           0.10    0.16    0.70    0.14            0.39    0.45    0.39           0.42     0.49
F16        18.01   18.82   15.83          50.47   -0.74   -0.73           1.06  224.70           0.74    0.75    0.76    0.73            0.33    0.33    0.27           0.49     0.55
F17        37.68   27.81   14.78          59.71   39.20   17.81          43.06   24.44           0.20    0.80    0.78    0.49            0.36    0.40    0.31           0.52     0.61
