targets/wolf_faust/transmissive/F130405.it8
IT8.7/1
ORIGINATOR "Wolf Faust"
DESCRIPTOR "Fujichrome Provia/Astia/Sensia, Type 3, L* a* b* (light D50, viewing angle 2)"
MANUFACTURER "Wolf Faust - http://www.coloraid.de"
CREATED "May 06, 2013"
PROD_DATE "2011:12"
DIFFUSE_GEOMETRY "opal"
SERIAL "F130405 Batch Average Data"
MATERIAL "Fujichrome Provia 100F (RDP III)"
KEYWORD "MEAN_DE" # Mean Delta E of samples compared to batch average
NUMBER_OF_FIELDS 18
BEGIN_DATA_FORMAT
SAMPLE_ID  XYZ_X   XYZ_Y   XYZ_Z          LAB_L   LAB_A   LAB_B          LAB_C   LAB_H          D_RED  D_GREEN  D_BLUE  D_VIS          STDEV_X STDEV_Y STDEV_Z        MEAN_DE  STDEV_DE
END_DATA_FORMAT
NUMBER_OF_SETS 288
BEGIN_DATA
A1          2.30    1.97    1.33          15.34    8.87    3.55           9.56   21.79           1.49    1.88    1.91    1.67            0.04    0.04    0.03           0.44     0.49
A2          2.87    2.01    1.12          15.54   18.94    6.66          20.08   19.37           1.31    2.04    1.97    1.63            0.07    0.05    0.03           0.40     0.47 
A3          3.42    1.93    0.95          15.12   30.12    8.52          31.30   15.80           1.14    2.36    2.00    1.60            0.07    0.04    0.02           0.35     0.40
A4          3.99    1.92    0.79          15.09   38.91   11.13          40.47   15.96           1.02    2.78    2.04    1.57            0.08    0.04    0.01           0.38     0.43 
A5          9.97    8.63    6.30          35.25   13.80    3.53          14.24   14.33           0.87    1.21    1.18    1.04            0.19    0.17    0.10           0.42     0.48
A6         11.90    8.62    5.51          35.25   28.01    7.20          28.92   14.42           0.70    1.35    1.23    1.00            0.25    0.19    0.09           0.45     0.50 
A7         14.03    8.48    4.48          34.97   43.31   12.17          44.99   15.70           0.55    1.57    1.30    0.97            0.25    0.16    0.08           0.40     0.46
A8         17.35    8.66    3.79          35.32   61.06   16.84          63.34   15.42           0.39    1.97    1.34    0.93            0.11    0.08    0.07           0.22     0.25 
A9         30.02   29.31   23.09          61.05    6.77    2.03           7.08   16.62           0.46    0.58    0.58    0.52            0.58    0.60    0.40           0.60     0.70
A10        31.90   29.21   21.85          60.96   14.09    4.27          14.73   16.87           0.39    0.62    0.61    0.51            0.60    0.60    0.37           0.62     0.71
A11        34.27   29.35   20.99          61.09   21.86    6.20          22.73   15.83           0.32    0.66    0.62    0.50            0.60    0.59    0.44           0.59     0.67
A12        39.53   29.46   18.78          61.18   38.76   10.97          40.28   15.80           0.19    0.76    0.66    0.47            0.37    0.42    0.38           0.56     0.64 
A13        73.56   78.04   64.06          90.80   -3.47    0.33           3.48  174.65           0.13    0.10    0.12    0.11            0.22    0.16    0.18           0.21     0.25
A14        77.34   79.18   64.98          91.31    1.99    0.34           2.02    9.74           0.08    0.11    0.11    0.10            0.12    0.15    0.16           0.12     0.14 
A15        77.91   80.65   63.03          91.98    0.29    3.34           3.36   85.01           0.08    0.10    0.13    0.09            0.10    0.12    0.15           0.15     0.17
A16        76.38   79.26   64.73          91.35   -0.10    0.64           0.66   97.35           0.10    0.10    0.11    0.10            0.19    0.18    0.16           0.17     0.20
A17        76.43   78.29   62.08          90.91    1.90    2.43           3.09   52.00           0.08    0.11    0.13    0.10            0.11    0.14    0.13           0.12     0.14
A18        74.15   78.22   61.60          90.88   -2.60    2.85           3.86  132.40           0.12    0.10    0.14    0.11            0.18    0.13    0.18           0.19     0.23 
A19        71.25   74.94   62.91          89.37   -2.13   -1.04           2.37  206.12           0.14    0.12    0.12    0.13            0.34    0.31    0.16           0.21     0.24
A20         6.34    2.95    1.88          19.86   47.27    5.12          47.55    6.18           0.81    2.69    1.62    1.38            0.12    0.06    0.03           0.38     0.44 
A21        26.99   19.12   15.06          50.83   39.01    1.77          39.05    2.59           0.34    1.00    0.75    0.66            0.40    0.32    0.25           0.51     0.56
A22        53.62   49.61   32.88          75.83   15.34   11.16          18.97   36.02           0.16    0.38    0.43    0.28            0.54    0.60    0.37           0.51     0.55
B1          3.42    3.04    1.67          20.19    8.20    7.89          11.39   43.86           1.33    1.66    1.82    1.49            0.07    0.07    0.03           0.50     0.57
B2          3.88    2.98    1.14          19.96   16.35   14.02          21.53   40.60           1.20    1.78    2.01    1.47            0.10    0.08    0.02           0.56     0.65
B3          4.61    3.07    0.66          20.31   25.00   22.53          33.66   42.01           1.06    1.91    2.29    1.43            0.10    0.07    0.02           0.56     0.66
B4          5.37    3.08    0.23          20.35   34.25   30.79          46.06   41.95           0.94    2.13    2.87    1.39            0.12    0.08    0.00           0.53     0.62
B5         12.90   11.54    6.68          40.48   12.30   10.86          16.41   41.43           0.76    1.06    1.17    0.91            0.28    0.27    0.13           0.45     0.55
B6         14.88   11.44    4.34          40.31   25.47   22.18          33.77   41.05           0.61    1.18    1.39    0.88            0.35    0.28    0.08           0.53     0.64
B7         17.13   11.46    2.68          40.34   38.22   33.36          50.73   41.12           0.49    1.31    1.62    0.85            0.38    0.28    0.06           0.52     0.63
B8         20.93   11.38    0.98          40.21   58.23   51.28          77.59   41.37           0.32    1.65    2.12    0.82            0.14    0.11    0.02           0.31     0.39
B9         35.56   35.57   26.29          66.19    4.30    5.10           6.68   49.89           0.40    0.49    0.53    0.44            0.68    0.74    0.47           0.61     0.71
B10        37.33   35.60   23.68          66.21   10.06    9.83          14.06   44.33           0.34    0.51    0.58    0.43            0.69    0.72    0.44           0.62     0.72
B11        38.90   35.40   21.35          66.06   15.75   14.03          21.10   41.70           0.29    0.54    0.63    0.43            0.60    0.63    0.37           0.57     0.65
B12        43.85   35.33   15.25          66.01   31.02   27.47          41.43   41.53           0.16    0.63    0.79    0.40            0.42    0.51    0.28           0.55     0.66
B13        67.55   73.36   61.35          88.62   -6.88   -0.80           6.92  186.64           0.19    0.12    0.14    0.14            0.43    0.34    0.21           0.31     0.36
B14        71.10   70.36   61.33          87.17    7.00   -3.27           7.73  334.95           0.10    0.18    0.13    0.15            0.32    0.41    0.21           0.29     0.35
B15        74.00   77.31   54.35          90.46   -1.12    9.55           9.62   96.71           0.10    0.11    0.20    0.11            0.26    0.27    0.26           0.19     0.21
B16        60.08   62.58   51.36          83.22   -0.62    0.31           0.75  156.21           0.21    0.21    0.22    0.20            0.51    0.54    0.28           0.39     0.45
B17        68.63   67.97   53.03          85.99    6.82    3.26           7.56   25.57           0.11    0.20    0.20    0.16            0.35    0.44    0.32           0.34     0.39
B18        65.83   71.96   53.13          87.95   -7.78    6.52          10.15  140.02           0.19    0.12    0.21    0.15            0.40    0.34    0.25           0.32     0.36
B19        62.07   64.65   58.66          84.30   -0.63   -5.56           5.59  263.58           0.21    0.19    0.15    0.19            0.57    0.57    0.34           0.36     0.41
B20         5.09    3.10    1.01          20.43   30.54   16.75          34.83   28.74           0.99    2.02    2.02    1.41            0.09    0.06    0.01           0.35     0.41
B21        17.04   11.45    4.29          40.32   37.83   22.44          43.99   30.67           0.50    1.31    1.36    0.86            0.29    0.20    0.05           0.43     0.50
B22        34.31   29.37   17.63          61.11   21.94   13.39          25.71   31.40           0.31    0.67    0.71    0.50            0.43    0.41    0.25           0.56     0.63
C1          6.37    6.29    3.52          30.12    3.36    9.64          10.21   70.74           1.12    1.28    1.49    1.19            0.13    0.14    0.06           0.44     0.50
C2          6.91    6.36    2.15          30.29    8.10   20.48          22.02   68.41           1.03    1.31    1.76    1.17            0.17    0.16    0.04           0.56     0.65
C3          7.51    6.48    1.22          30.60   12.65   31.21          33.68   67.92           0.96    1.34    2.10    1.14            0.16    0.15    0.02           0.59     0.70
C4          7.89    6.36    0.52          30.29   17.48   42.47          45.93   67.63           0.91    1.39    2.68    1.14            0.20    0.17    0.01           0.63     0.75
C5         24.70   23.98   12.33          56.06    6.93   18.12          19.40   69.05           0.51    0.68    0.90    0.60            0.58    0.60    0.29           0.60     0.70
C6         26.34   23.73    6.81          55.81   14.90   36.75          39.65   67.92           0.43    0.73    1.23    0.59            0.62    0.61    0.16           0.63     0.77
C7         27.94   23.59    3.24          55.68   21.90   55.58          59.74   68.49           0.37    0.78    1.68    0.58            0.52    0.49    0.05           0.64     0.77
C8         30.57   23.56    0.95          55.64   32.11   78.36          84.68   67.71           0.30    0.85    2.61    0.56            0.60    0.50    0.02           0.75     0.86
C9         41.60   42.37   29.55          71.12    2.27    8.20           8.51   74.48           0.34    0.40    0.48    0.37            0.65    0.71    0.40           0.53     0.63
C10        42.62   42.23   24.94          71.03    5.75   15.84          16.85   70.05           0.29    0.42    0.57    0.36            0.64    0.69    0.40           0.54     0.61
C11        43.63   41.99   20.79          70.86    9.45   23.44          25.28   68.04           0.26    0.44    0.66    0.36            0.64    0.68    0.38           0.53     0.61
C12        48.68   42.36    8.14          71.12   22.63   57.80          62.07   68.62           0.14    0.50    1.18    0.33            0.41    0.55    0.13           0.55     0.70
C13        60.35   68.27   59.53          86.14  -12.58   -3.26          13.00  194.55           0.27    0.13    0.15    0.18            0.50    0.41    0.27           0.39     0.45
C14        65.95   62.05   58.66          82.94   14.06   -7.90          16.13  330.67           0.11    0.26    0.14    0.20            0.40    0.54    0.25           0.41     0.53
C15        71.86   75.51   44.66          89.63   -1.99   19.14          19.25   95.95           0.10    0.12    0.30    0.12            0.34    0.35    0.32           0.23     0.27
C16        46.69   48.87   40.24          75.37   -1.23    0.12           1.29  174.02           0.32    0.32    0.33    0.31            0.59    0.63    0.35           0.53     0.60
C17        61.00   57.26   42.12          80.32   14.04    6.24          15.37   23.97           0.12    0.30    0.31    0.23            0.48    0.62    0.39           0.50     0.59
C18        57.32   65.79   43.40          84.89  -14.46   12.51          19.13  139.14           0.27    0.15    0.31    0.19            0.51    0.44    0.30           0.41     0.48
C19        50.38   52.66   54.58          77.67   -1.04  -12.75          12.79  265.31           0.32    0.28    0.18    0.29            0.54    0.59    0.22           0.49     0.58
C20        12.63    9.24    1.18          36.44   27.87   41.85          50.28   56.34           0.66    1.31    2.12    0.96            0.23    0.17    0.01           0.52     0.63
C21        22.64   21.16   11.69          53.12   10.55   14.90          18.26   54.71           0.54    0.76    0.92    0.65            0.40    0.38    0.17           0.56     0.65
C22        27.81   23.72   11.38          55.81   20.84   20.47          29.22   44.49           0.39    0.77    0.93    0.59            0.41    0.37    0.17           0.55     0.62
D1          4.22    4.46    2.46          25.13   -1.11    8.94           9.01   97.08           1.33    1.39    1.67    1.35            0.09    0.11    0.04           0.48     0.57
D2          4.27    4.50    1.57          25.27   -1.03   17.78          17.81   93.31           1.31    1.39    1.93    1.33            0.11    0.12    0.03           0.58     0.69
D3          4.26    4.52    0.86          25.32   -1.30   27.52          27.55   92.70           1.31    1.38    2.33    1.33            0.11    0.13    0.02           0.56     0.68
D4          4.17    4.47    0.54          25.16   -1.84   33.11          33.16   93.18           1.34    1.37    2.68    1.33            0.11    0.13    0.01           0.58     0.70
D5         18.06   19.00    9.80          50.69   -1.40   16.66          16.72   94.78           0.70    0.75    1.02    0.71            0.38    0.42    0.20           0.53     0.62
D6         18.07   19.14    5.18          50.85   -2.02   35.78          35.83   93.22           0.68    0.74    1.40    0.70            0.37    0.40    0.08           0.55     0.67
D7         17.79   18.89    2.52          50.56   -2.28   52.27          52.32   92.50           0.69    0.74    1.88    0.70            0.36    0.38    0.02           0.68     0.85
D8         17.83   19.14    1.16          50.85   -3.28   66.93          67.01   92.81           0.72    0.73    2.57    0.70            0.39    0.43    0.01           0.71     0.87
D9         47.65   49.94   26.19          76.03   -1.39   22.25          22.29   93.57           0.27    0.31    0.56    0.29            0.69    0.77    0.41           0.47     0.56
D10        47.19   49.78   14.83          75.93   -2.25   45.63          45.69   92.82           0.26    0.32    0.88    0.29            0.59    0.65    0.23           0.43     0.50
D11        46.82   49.66    7.29          75.86   -2.98   69.29          69.35   92.46           0.26    0.31    1.33    0.28            0.57    0.59    0.09           0.42     0.52
D12        45.72   48.76    2.11          75.30   -3.66   98.53          98.60   92.13           0.29    0.32    2.44    0.29            0.48    0.36    0.01           0.49     0.60
D13        54.06   63.64   58.09          83.78  -17.80   -5.88          18.75  198.27           0.36    0.14    0.16    0.22            0.66    0.63    0.41           0.41     0.50
D14        60.27   53.35   55.47          78.08   22.00  -12.99          25.54  329.44           0.13    0.36    0.16    0.26            0.46    0.60    0.32           0.52     0.65
D15        70.08   73.90   35.84          88.88   -2.51   29.36          29.47   94.88           0.10    0.13    0.42    0.12            0.29    0.30    0.31           0.25     0.30
D16        35.38   37.08   30.65          67.33   -1.26   -0.09           1.34  183.21           0.44    0.44    0.46    0.43            0.57    0.61    0.36           0.60     0.69
D17        53.01   46.46   31.68          73.84   22.34    9.55          24.30   23.16           0.14    0.44    0.44    0.30            0.53    0.64    0.42           0.56     0.65
D18        49.90   60.13   34.71          81.91  -20.59   18.96          27.99  137.36           0.36    0.17    0.43    0.23            0.54    0.49    0.34           0.47     0.52
D19        39.89   41.61   50.52          70.60   -0.70  -20.51          20.52  268.04           0.45    0.38    0.21    0.40            0.48    0.53    0.24           0.49     0.58
D20         3.10    3.07    1.10          20.33    2.41   15.23          15.42   80.99           1.42    1.59    2.09    1.49            0.05    0.06    0.01           0.41     0.48
D21        31.56   29.09    1.56          60.86   13.29   79.26          80.36   80.48           0.37    0.63    2.37    0.49            0.51    0.46    0.01           0.65     0.79
D22        42.03   45.38   52.06          73.14   -5.14  -17.83          18.56  253.91           0.44    0.33    0.20    0.36            0.58    0.59    0.30           0.50     0.60
E1          5.66    6.45    3.57          30.52   -6.17   10.01          11.76  121.65           1.25    1.19    1.50    1.20            0.12    0.15    0.06           0.45     0.51
E2          5.25    6.48    2.26          30.59  -11.26   20.01          22.96  119.37           1.32    1.15    1.79    1.20            0.13    0.17    0.05           0.56     0.65
E3          4.80    6.46    1.34          30.55  -16.75   29.56          33.98  119.54           1.42    1.11    2.16    1.20            0.12    0.17    0.03           0.51     0.61
E4          4.43    6.42    0.78          30.45  -21.15   37.81          43.32  119.23           1.53    1.08    2.63    1.21            0.12    0.18    0.02           0.59     0.73
E5         25.71   29.33   16.03          61.07  -10.40   17.04          19.97  121.38           0.60    0.52    0.79    0.54            0.52    0.60    0.32           0.55     0.64
E6         23.17   29.09    9.99          60.85  -20.45   33.59          39.32  121.34           0.69    0.48    1.07    0.55            0.53    0.64    0.24           0.58     0.69
E7         21.20   29.11    5.42          60.87  -29.60   51.83          59.69  119.73           0.79    0.44    1.49    0.55            0.39    0.51    0.09           0.52     0.63
E8         18.98   28.74    2.22          60.55  -39.11   72.05          81.98  118.49           0.96    0.41    2.30    0.56            0.23    0.24    0.03           0.39     0.47
E9         45.95   50.00   33.77          76.07   -6.28   10.26          12.03  121.49           0.33    0.29    0.43    0.30            0.64    0.69    0.44           0.48     0.55
E10        43.60   49.81   26.70          75.95  -12.59   21.24          24.69  120.66           0.37    0.28    0.55    0.31            0.63    0.67    0.39           0.45     0.51
E11        41.37   49.59   20.90          75.81  -18.65   31.77          36.84  120.42           0.41    0.26    0.69    0.31            0.56    0.58    0.30           0.43     0.49
E12        37.56   48.90   12.54          75.39  -28.75   50.84          58.41  119.49           0.50    0.23    1.01    0.32            0.40    0.37    0.13           0.38     0.45
E13        48.38   59.34   56.91          81.48  -22.85   -8.63          24.42  200.70           0.46    0.16    0.17    0.25            0.42    0.38    0.16           0.35     0.42
E14        54.25   44.70   51.84          72.69   30.48  -18.37          35.59  328.92           0.15    0.48    0.18    0.33            0.45    0.57    0.32           0.56     0.71
E15        68.33   72.09   27.54          88.01   -2.57   40.61          40.69   93.62           0.10    0.15    0.56    0.13            0.27    0.27    0.24           0.25     0.30
E16        25.68   26.85   22.23          58.83   -0.85   -0.14           0.95  186.04           0.58    0.59    0.61    0.57            0.41    0.45    0.32           0.57     0.63
E17        44.93   36.24   22.02          66.70   31.18   13.83          34.11   23.92           0.16    0.61    0.60    0.40            0.40    0.48    0.34           0.54     0.63
E18        43.01   54.59   26.63          78.80  -26.62   26.27          37.40  135.38           0.45    0.19    0.57    0.28            0.56    0.51    0.39           0.57     0.64
E19        30.73   31.79   46.40          63.17    0.27  -28.57          28.58  270.54           0.60    0.50    0.24    0.52            0.41    0.47    0.27           0.52     0.64
E20         7.40    8.78    1.41          35.56   -9.75   37.42          38.67  104.60           1.15    1.03    2.16    1.05            0.12    0.14    0.02           0.52     0.64
E21        25.23   30.24    6.62          61.86  -15.83   47.99          50.53  108.26           0.61    0.48    1.33    0.52            0.35    0.39    0.05           0.51     0.61
E22         8.84   18.67   14.19          50.30  -60.34    3.10          60.42  177.06           1.84    0.51    0.88    0.81            0.12    0.21    0.17           0.27     0.31
F1          3.62    4.45    3.16          25.09   -9.76    3.47          10.37  160.46           1.51    1.33    1.55    1.37            0.08    0.10    0.05           0.40     0.46
F2          2.94    4.49    2.75          25.23  -21.51    6.73          22.54  162.62           1.76    1.24    1.65    1.39            0.07    0.11    0.04           0.46     0.56
F3          2.47    4.50    2.26          25.26  -30.43   10.88          32.31  160.34           1.98    1.19    1.80    1.40            0.06    0.11    0.02           0.53     0.66
F4          1.82    4.55    1.77          25.42  -45.33   15.85          48.02  160.73           2.51    1.11    2.01    1.42            0.05    0.11    0.02           0.53     0.66
F5         11.83   15.02   10.59          45.66  -17.35    5.44          18.18  162.61           1.04    0.77    0.98    0.85            0.24    0.31    0.21           0.48     0.55
F6          9.57   14.97    8.86          45.59  -34.00   11.12          35.77  161.89           1.30    0.70    1.10    0.87            0.20    0.31    0.16           0.45     0.55
F7          7.68   14.97    7.38          45.59  -50.31   16.76          53.03  161.57           1.63    0.64    1.23    0.89            0.17    0.31    0.15           0.47     0.58
F8          6.15   14.64    6.14          45.13  -63.73   21.26          67.19  161.56           2.02    0.60    1.37    0.91            0.14    0.29    0.13           0.46     0.54
F9         30.61   35.21   26.77          65.91  -11.98    3.80          12.57  162.39           0.56    0.43    0.53    0.47            0.55    0.62    0.39           0.48     0.58
F10        27.30   35.19   24.26          65.89  -24.67    8.21          26.00  161.59           0.69    0.38    0.59    0.48            0.46    0.56    0.33           0.46     0.54
F11        24.69   35.19   22.26          65.89  -35.49   11.97          37.46  161.36           0.82    0.35    0.65    0.49            0.39    0.51    0.31           0.41     0.48
F12        20.44   34.57   19.45          65.41  -52.78   16.83          55.40  162.31           1.08    0.30    0.74    0.51            0.23    0.27    0.21           0.27     0.32
F13        43.17   55.14   55.63          79.12  -27.51  -11.37          29.76  202.45           0.56    0.17    0.19    0.29            0.42    0.40    0.20           0.34     0.41
F14        48.50   37.08   48.08          67.33   38.43  -23.37          44.98  328.70           0.17    0.61    0.21    0.40            0.39    0.46    0.29           0.49     0.62
F15        66.80   70.27   20.87          87.13   -2.11   51.34          51.38   92.36           0.10    0.16    0.71    0.14            0.38    0.37    0.18           0.28     0.36
F16        17.92   18.71   15.72          50.34   -0.64   -0.69           0.99  221.32           0.74    0.75    0.77    0.73            0.30    0.33    0.25           0.58     0.64
F17        37.79   27.87   14.66          59.77   39.32   18.22          43.34   24.86           0.19    0.80    0.79    0.49            0.26    0.29    0.24           0.49     0.54
