targets/wolf_faust/transmissive/F140203.it8
IT8.7/1
ORIGINATOR "Wolf Faust"
DESCRIPTOR "Fujichrome Provia/Astia/Sensia, Type 3, L* a* b* (light D50, viewing angle 2)"
MANUFACTURER "Wolf Faust - http://www.coloraid.de"
CREATED "February 09, 2014"
PROD_DATE "2013:03"
DIFFUSE_GEOMETRY "opal"
SERIAL "F140203 Batch Average Data"
MATERIAL "Fujichrome Provia 100F (RDP III)"
KEYWORD "MEAN_DE" # Mean Delta E of samples compared to batch average
NUMBER_OF_FIELDS 18
BEGIN_DATA_FORMAT
SAMPLE_ID  XYZ_X   XYZ_Y   XYZ_Z          LAB_L   LAB_A   LAB_B          LAB_C   LAB_H          D_RED  D_GREEN  D_BLUE  D_VIS          STDEV_X STDEV_Y STDEV_Z        MEAN_DE  STDEV_DE
END_DATA_FORMAT
NUMBER_OF_SETS 288
BEGIN_DATA
A1          2.04    1.73    1.21          13.99    9.12    2.78           9.53   16.95           1.54    1.94    1.94    1.73            0.06    0.05    0.05           0.34     0.42
A2          2.54    1.73    1.00          14.01   19.53    5.84          20.38   16.65           1.35    2.13    2.01    1.69            0.07    0.05    0.04           0.35     0.43 
A3          3.21    1.82    0.86          14.53   29.30    9.03          30.66   17.13           1.17    2.37    2.05    1.63            0.08    0.05    0.03           0.39     0.46
A4          3.66    1.81    0.75          14.47   36.66   10.87          38.23   16.52           1.06    2.70    2.07    1.60            0.09    0.04    0.02           0.38     0.46 
A5          9.43    8.12    5.49          34.23   13.83    5.58          14.91   21.96           0.89    1.24    1.24    1.06            0.22    0.18    0.16           0.40     0.51
A6         11.19    7.99    4.71          33.97   28.51    9.13          29.94   17.77           0.72    1.40    1.30    1.03            0.27    0.19    0.15           0.41     0.54 
A7         13.64    8.22    4.04          34.44   43.11   13.78          45.26   17.72           0.56    1.59    1.35    0.99            0.26    0.15    0.12           0.42     0.52
A8         16.66    8.40    3.37          34.80   59.51   18.69          62.37   17.43           0.41    1.95    1.39    0.94            0.16    0.10    0.10           0.29     0.41 
A9         27.83   26.87   20.37          58.86    7.77    3.61           8.58   24.94           0.49    0.63    0.64    0.56            0.42    0.36    0.40           0.47     0.59
A10        29.99   27.02   19.22          58.99   15.53    6.24          16.74   21.92           0.41    0.67    0.66    0.54            0.43    0.35    0.37           0.48     0.57
A11        31.97   27.02   18.25          58.99   22.82    8.36          24.31   20.12           0.34    0.71    0.69    0.53            0.44    0.37    0.38           0.46     0.57
A12        36.90   27.20   16.41          59.16   39.07   12.85          41.13   18.20           0.21    0.81    0.73    0.51            0.30    0.29    0.35           0.45     0.56 
A13        69.55   74.07   59.07          88.95   -3.98    2.05           4.48  152.77           0.15    0.12    0.15    0.13            0.40    0.44    0.44           0.27     0.31
A14        73.10   74.27   59.46          89.05    3.11    1.82           3.61   30.37           0.10    0.14    0.15    0.13            0.50    0.58    0.64           0.33     0.39 
A15        74.45   76.95   58.25          90.30    0.53    5.19           5.22   84.22           0.09    0.12    0.16    0.11            0.52    0.61    0.66           0.32     0.39
A16        69.80   72.39   58.71          88.16   -0.01    1.04           1.04   91.15           0.13    0.14    0.15    0.14            0.51    0.56    0.60           0.31     0.36
A17        73.09   74.74   57.47          89.27    2.14    4.22           4.74   63.15           0.10    0.13    0.17    0.12            0.45    0.52    0.58           0.27     0.34
A18        71.56   75.13   57.31          89.45   -1.85    4.70           5.05  111.50           0.12    0.12    0.17    0.12            0.46    0.51    0.52           0.25     0.32 
A19        63.69   67.21   56.70          85.61   -2.53   -1.29           2.84  207.00           0.19    0.17    0.17    0.18            0.60    0.63    0.62           0.34     0.40
A20         5.94    2.82    1.69          19.32   45.20    6.17          45.62    7.77           0.85    2.61    1.67    1.40            0.12    0.06    0.06           0.40     0.50 
A21        25.41   17.69   13.17          49.11   39.88    3.78          40.06    5.41           0.36    1.05    0.81    0.69            0.39    0.32    0.34           0.44     0.53
A22        51.90   47.15   29.72          74.28   17.57   13.37          22.08   37.28           0.16    0.41    0.47    0.30            0.61    0.70    0.61           0.52     0.64
B1          3.11    2.78    1.55          19.13    7.80    7.43          10.77   43.59           1.38    1.70    1.85    1.53            0.08    0.07    0.06           0.37     0.44
B2          3.67    2.78    1.00          19.15   16.67   14.60          22.16   41.21           1.22    1.82    2.07    1.49            0.09    0.07    0.04           0.36     0.43
B3          4.29    2.83    0.55          19.33   24.80   23.04          33.85   42.89           1.09    1.95    2.38    1.46            0.11    0.07    0.02           0.43     0.49
B4          5.05    2.75    0.15          19.02   36.12   29.90          46.89   39.61           0.95    2.29    3.05    1.43            0.11    0.06    0.00           0.45     0.59
B5         12.06   10.71    5.82          39.09   12.61   12.33          17.64   44.37           0.78    1.10    1.24    0.94            0.23    0.20    0.16           0.40     0.48
B6         14.23   10.81    3.71          39.25   26.09   24.16          35.56   42.80           0.63    1.21    1.46    0.90            0.29    0.22    0.12           0.43     0.51
B7         16.40   10.84    2.34          39.30   38.62   34.39          51.72   41.69           0.50    1.35    1.69    0.88            0.30    0.20    0.08           0.46     0.54
B8         20.08   11.01    1.07          39.60   56.72   48.93          74.91   40.78           0.34    1.64    2.06    0.83            0.13    0.09    0.04           0.30     0.43
B9         33.03   32.78   23.57          63.98    5.09    6.18           8.02   50.50           0.42    0.53    0.58    0.48            0.46    0.39    0.44           0.48     0.56
B10        34.93   32.93   20.94          64.10   11.19   11.49          16.05   45.76           0.36    0.55    0.64    0.46            0.36    0.31    0.36           0.43     0.51
B11        36.44   32.80   18.60          64.00   16.65   16.21          23.24   44.24           0.31    0.58    0.69    0.46            0.37    0.31    0.32           0.45     0.51
B12        41.46   33.11   13.75          64.25   31.48   28.31          42.34   41.96           0.18    0.66    0.84    0.43            0.25    0.27    0.25           0.41     0.51
B13        63.14   68.77   56.03          86.39   -7.15    0.75           7.19  174.02           0.21    0.14    0.18    0.17            0.37    0.37    0.37           0.30     0.35
B14        67.05   65.88   55.79          84.93    7.92   -1.51           8.07  349.21           0.12    0.21    0.17    0.17            0.42    0.49    0.52           0.27     0.34
B15        70.59   73.31   50.76          88.60   -0.21   10.25          10.26   91.19           0.11    0.14    0.23    0.13            0.41    0.50    0.53           0.33     0.39
B16        56.42   58.51   47.57          81.02    0.01    0.83           0.85   89.37           0.23    0.24    0.25    0.23            0.53    0.54    0.53           0.33     0.39
B17        65.07   63.92   49.24          83.92    7.85    3.90           8.77   26.41           0.12    0.23    0.23    0.19            0.45    0.51    0.58           0.31     0.38
B18        61.80   67.61   49.52          85.81   -7.74    6.85          10.34  138.49           0.21    0.15    0.24    0.17            0.42    0.44    0.46           0.31     0.37
B19        57.95   60.14   53.46          81.91   -0.10   -4.24           4.24  268.73           0.23    0.22    0.19    0.22            0.42    0.46    0.46           0.29     0.35
B20         4.53    2.70    0.86          18.79   30.40   16.35          34.52   28.27           1.03    2.11    2.09    1.46            0.16    0.10    0.05           0.44     0.56
B21        16.17   10.70    3.65          39.07   38.32   24.26          45.35   32.33           0.51    1.35    1.44    0.89            0.26    0.20    0.13           0.45     0.52
B22        31.86   26.90   15.38          58.88   22.92   14.87          27.32   32.98           0.33    0.71    0.77    0.53            0.42    0.44    0.36           0.51     0.58
C1          6.08    5.93    3.14          29.23    4.09   10.68          11.44   69.06           1.13    1.31    1.54    1.21            0.14    0.13    0.09           0.40     0.46
C2          6.45    5.84    1.96          28.99    8.98   20.07          21.99   65.90           1.05    1.36    1.80    1.20            0.14    0.12    0.07           0.41     0.47
C3          6.82    5.82    1.04          28.96   13.00   31.01          33.62   67.26           1.00    1.39    2.18    1.19            0.13    0.11    0.04           0.45     0.51
C4          7.27    5.80    0.41          28.90   17.69   42.12          45.68   67.22           0.95    1.44    2.83    1.17            0.14    0.11    0.01           0.49     0.56
C5         22.99   22.15   10.58          54.19    7.49   20.16          21.51   69.62           0.54    0.72    0.98    0.63            0.33    0.27    0.21           0.47     0.53
C6         24.67   21.92    5.79          53.94   15.93   38.12          41.31   67.32           0.45    0.78    1.31    0.62            0.32    0.26    0.14           0.45     0.51
C7         26.44   21.77    2.84          53.78   24.06   55.30          60.31   66.49           0.38    0.83    1.73    0.61            0.29    0.22    0.08           0.50     0.57
C8         28.99   21.82    0.79          53.83   33.95   77.99          85.06   66.48           0.31    0.91    2.72    0.59            0.26    0.18    0.01           0.31     0.36
C9         38.88   39.08   26.40          68.81    3.84    9.43          10.19   67.85           0.35    0.44    0.53    0.40            0.38    0.31    0.35           0.42     0.49
C10        39.86   39.13   22.22          68.84    6.78   17.13          18.42   68.40           0.32    0.46    0.62    0.39            0.32    0.28    0.35           0.43     0.51
C11        41.28   39.31   18.11          68.97   10.57   25.86          27.94   67.76           0.27    0.47    0.73    0.38            0.30    0.25    0.31           0.43     0.52
C12        46.20   39.84    8.27          69.36   23.35   54.27          59.08   66.72           0.16    0.53    1.16    0.35            0.15    0.18    0.14           0.36     0.46
C13        55.78   63.55   54.32          83.73  -13.27   -2.02          13.43  188.66           0.31    0.16    0.19    0.21            0.25    0.25    0.29           0.32     0.38
C14        61.57   57.16   52.99          80.27   15.60   -6.57          16.93  337.17           0.13    0.30    0.19    0.23            0.32    0.37    0.41           0.26     0.33
C15        68.18   71.29   40.04          87.62   -1.21   21.50          21.53   93.23           0.11    0.15    0.35    0.14            0.30    0.40    0.34           0.31     0.37
C16        42.53   44.21   35.41          72.37   -0.30    1.51           1.56  100.51           0.35    0.37    0.39    0.35            0.45    0.43    0.41           0.37     0.44
C17        56.71   52.47   37.11          77.56   15.64    8.09          17.61   27.34           0.14    0.35    0.36    0.26            0.32    0.37    0.42           0.32     0.38
C18        52.69   60.91   38.66          82.33  -15.04   14.19          20.68  136.65           0.31    0.18    0.37    0.22            0.37    0.42    0.40           0.36     0.43
C19        45.86   47.60   49.09          74.57   -0.10  -12.05          12.05  269.52           0.36    0.33    0.23    0.33            0.37    0.41    0.41           0.37     0.43
C20        11.79    8.56    1.04          35.11   27.84   41.61          50.06   56.21           0.69    1.36    2.18    0.99            0.19    0.17    0.05           0.46     0.51
C21        20.89   19.25   10.02          50.97   11.61   16.43          20.12   54.74           0.56    0.81    0.99    0.69            0.29    0.30    0.23           0.52     0.58
C22        26.31   21.98    9.65          54.01   22.54   22.90          32.13   45.45           0.40    0.82    1.01    0.61            0.35    0.35    0.25           0.50     0.57
D1          3.92    4.12    2.20          24.05   -0.76    9.33           9.36   94.65           1.36    1.43    1.72    1.38            0.08    0.08    0.07           0.38     0.43
D2          3.92    4.16    1.42          24.18   -1.26   17.65          17.69   94.09           1.35    1.42    1.98    1.37            0.08    0.09    0.06           0.39     0.45
D3          3.88    4.14    0.81          24.12   -1.57   26.42          26.47   93.41           1.36    1.41    2.35    1.37            0.07    0.07    0.03           0.34     0.39
D4          3.81    4.06    0.44          23.88   -1.54   32.89          32.92   92.68           1.38    1.41    2.81    1.37            0.08    0.07    0.00           0.42     0.47
D5         16.69   17.49    8.37          48.87   -0.94   18.57          18.60   92.88           0.73    0.79    1.10    0.75            0.23    0.21    0.14           0.41     0.46
D6         16.72   17.42    4.47          48.78   -0.44   36.01          36.01   90.69           0.71    0.79    1.46    0.74            0.23    0.20    0.09           0.48     0.54
D7         16.43   17.36    2.19          48.71   -1.76   51.90          51.93   91.94           0.73    0.78    1.95    0.74            0.23    0.22    0.06           0.49     0.56
D8         16.56   17.50    0.97          48.88   -1.74   66.41          66.44   91.50           0.74    0.78    2.68    0.73            0.22    0.19    0.01           0.47     0.53
D9         44.79   46.76   22.66          74.04   -0.85   25.23          25.25   91.92           0.29    0.35    0.63    0.32            0.36    0.31    0.33           0.42     0.49
D10        44.96   47.24   12.91          74.34   -1.69   48.00          48.03   92.02           0.27    0.34    0.95    0.31            0.22    0.19    0.18           0.43     0.50
D11        44.68   47.22    6.53          74.33   -2.43   69.89          69.93   91.99           0.28    0.34    1.39    0.31            0.23    0.24    0.11           0.45     0.57
D12        44.48   47.53    2.33          74.53   -3.87   95.16          95.24   92.33           0.30    0.33    2.28    0.30            0.15    0.17    0.04           0.40     0.46
D13        49.87   59.21   53.10          81.40  -18.49   -4.73          19.09  194.34           0.40    0.17    0.21    0.25            0.21    0.23    0.27           0.32     0.38
D14        56.30   49.22   50.13          75.59   23.13  -11.47          25.82  333.62           0.15    0.40    0.21    0.29            0.29    0.31    0.37           0.28     0.36
D15        66.32   69.56   31.57          86.78   -1.66   32.02          32.06   92.96           0.11    0.16    0.48    0.15            0.27    0.35    0.25           0.32     0.40
D16        32.05   33.34   26.43          64.44   -0.37    1.84           1.90  100.71           0.48    0.49    0.52    0.48            0.31    0.29    0.27           0.39     0.46
D17        49.24   42.56   27.30          71.26   23.55   12.12          26.49   27.24           0.16    0.49    0.50    0.34            0.31    0.36    0.34           0.37     0.44
D18        45.53   55.35   30.32          79.24  -21.16   20.96          29.79  135.28           0.40    0.20    0.49    0.27            0.39    0.48    0.38           0.45     0.53
D19        36.21   37.44   45.40          67.61    0.37  -19.73          19.73  271.07           0.49    0.43    0.26    0.44            0.35    0.39    0.38           0.41     0.46
D20         2.78    2.77    1.01          19.11    1.94   14.47          14.60   82.36           1.47    1.63    2.12    1.54            0.07    0.08    0.05           0.43     0.49
D21        29.79   26.94    1.31          58.92   15.07   78.85          80.28   79.18           0.39    0.67    2.47    0.52            0.33    0.36    0.04           0.48     0.56
D22        39.88   42.39   47.56          71.14   -3.05  -16.20          16.49  259.35           0.45    0.36    0.24    0.39            0.49    0.58    0.52           0.51     0.56
E1          5.15    5.88    3.14          29.11   -6.11   10.49          12.14  120.21           1.29    1.23    1.56    1.24            0.09    0.09    0.08           0.33     0.39
E2          4.66    5.76    2.04          28.80  -11.03   18.96          21.93  120.19           1.37    1.20    1.83    1.25            0.07    0.09    0.05           0.33     0.37
E3          4.31    5.79    1.13          28.87  -15.91   29.47          33.50  118.37           1.46    1.16    2.25    1.25            0.08    0.10    0.04           0.34     0.38
E4          3.92    5.74    0.65          28.76  -21.06   37.39          42.91  119.39           1.60    1.13    2.74    1.26            0.07    0.09    0.01           0.36     0.43
E5         23.60   26.86   13.59          58.84   -9.85   19.40          21.76  116.91           0.63    0.56    0.87    0.57            0.28    0.28    0.19           0.44     0.49
E6         21.72   27.09    8.54          59.06  -19.31   35.50          40.42  118.54           0.71    0.51    1.15    0.57            0.22    0.25    0.10           0.45     0.51
E7         19.68   26.91    4.58          58.89  -28.43   52.82          59.99  118.29           0.82    0.48    1.58    0.58            0.19    0.19    0.10           0.52     0.62
E8         17.80   27.24    2.30          59.20  -39.45   69.03          79.51  119.74           0.99    0.43    2.22    0.59            0.16    0.20    0.04           0.36     0.44
E9         42.82   46.49   30.12          73.86   -5.88   12.01          13.37  116.07           0.36    0.33    0.48    0.33            0.30    0.25    0.27           0.39     0.44
E10        41.43   47.41   23.48          74.45  -12.59   24.40          27.46  117.28           0.39    0.30    0.62    0.33            0.20    0.18    0.21           0.44     0.52
E11        39.38   47.55   18.51          74.54  -19.29   34.59          39.60  119.15           0.43    0.28    0.75    0.33            0.14    0.14    0.17           0.41     0.51
E12        36.67   47.13   12.46          74.27  -26.87   49.15          56.01  118.66           0.50    0.25    1.00    0.34            0.12    0.14    0.12           0.44     0.53
E13        44.39   54.98   51.95          79.03  -23.53   -7.56          24.72  197.82           0.50    0.19    0.22    0.29            0.19    0.20    0.24           0.33     0.40
E14        50.49   41.06   46.76          70.22   31.37  -16.85          35.61  331.77           0.17    0.53    0.23    0.36            0.22    0.24    0.31           0.31     0.37
E15        64.70   67.83   24.17          85.92   -1.59   42.91          42.94   92.12           0.12    0.18    0.62    0.15            0.20    0.30    0.18           0.35     0.45
E16        23.14   24.01   19.10          56.09   -0.03    1.50           1.53   90.04           0.62    0.64    0.67    0.62            0.19    0.20    0.15           0.39     0.46
E17        41.66   33.10   18.83          64.24   32.15   16.13          35.97   26.64           0.19    0.66    0.67    0.43            0.28    0.30    0.23           0.35     0.41
E18        39.14   50.16   23.16          76.16  -27.04   27.96          38.90  134.04           0.49    0.23    0.64    0.32            0.31    0.41    0.25           0.42     0.48
E19        27.82   28.43   41.70          60.28    1.59  -27.78          27.83  273.27           0.64    0.55    0.29    0.57            0.34    0.39    0.41           0.47     0.53
E20         6.67    7.91    1.21          33.80   -9.35   36.86          38.03  104.23           1.19    1.07    2.23    1.10            0.11    0.15    0.05           0.48     0.53
E21        23.62   28.14    5.73          60.01  -14.80   48.86          51.05  106.85           0.64    0.51    1.41    0.55            0.31    0.41    0.13           0.59     0.69
E22         7.90   17.23   12.24          48.54  -61.02    5.42          61.26  174.92           1.93    0.54    0.96    0.85            0.14    0.25    0.26           0.46     0.54
F1          3.32    4.11    2.80          24.03   -9.93    4.27          10.81  156.77           1.55    1.36    1.60    1.41            0.06    0.07    0.07           0.31     0.35
F2          2.67    4.03    2.40          23.76  -20.15    7.08          21.36  160.64           1.79    1.30    1.71    1.44            0.05    0.06    0.06           0.28     0.34
F3          2.23    4.06    2.00          23.86  -29.42   10.81          31.34  159.83           2.03    1.24    1.85    1.45            0.05    0.07    0.05           0.38     0.43
F4          1.65    4.04    1.55          23.80  -42.69   15.48          45.41  160.07           2.52    1.16    2.07    1.47            0.03    0.06    0.04           0.35     0.43
F5         10.85   13.71    9.15          43.81  -16.43    7.04          17.88  156.81           1.07    0.81    1.05    0.88            0.13    0.15    0.14           0.38     0.42
F6          8.74   13.77    7.68          43.90  -33.57   12.64          35.88  159.37           1.34    0.73    1.17    0.90            0.12    0.17    0.12           0.43     0.50
F7          7.11   13.98    6.35          44.21  -49.86   18.73          53.26  159.42           1.68    0.66    1.31    0.92            0.11    0.19    0.10           0.47     0.56
F8          5.88   13.76    5.49          43.89  -61.39   22.22          65.29  160.10           2.02    0.63    1.43    0.94            0.09    0.18    0.09           0.47     0.55
F9         28.17   32.44   23.74          63.70  -11.79    5.40          12.97  155.42           0.60    0.46    0.59    0.50            0.28    0.28    0.25           0.42     0.48
F10        25.26   32.65   21.68          63.87  -24.36    9.63          26.20  158.44           0.73    0.41    0.64    0.51            0.19    0.20    0.19           0.43     0.48
F11        22.76   32.77   19.85          63.97  -35.72   13.51          38.19  159.28           0.86    0.37    0.70    0.52            0.12    0.13    0.20           0.44     0.52
F12        19.63   33.06   17.26          64.21  -51.56   19.56          55.14  159.22           1.08    0.32    0.80    0.53            0.14    0.14    0.19           0.51     0.58
F13        39.40   50.94   50.77          76.64  -28.29  -10.37          30.13  200.12           0.61    0.20    0.23    0.33            0.14    0.20    0.24           0.31     0.36
F14        45.07   34.07   43.26          65.02   38.82  -21.58          44.41  330.93           0.19    0.66    0.26    0.43            0.20    0.20    0.28           0.31     0.39
F15        63.41   66.22   18.19          85.11   -1.00   53.51          53.51   91.07           0.11    0.19    0.78    0.16            0.28    0.37    0.16           0.39     0.47
F16        16.23   16.91   13.39          48.15   -0.41    1.50           1.58  104.27           0.77    0.80    0.84    0.77            0.19    0.21    0.17           0.36     0.45
F17        35.23   25.70   12.39          57.75   39.56   20.84          44.71   27.78           0.22    0.85    0.87    0.53            0.23    0.23    0.17           0.34     0.39
