targets/wolf_faust/transmissive/F140601.it8
IT8.7/1
ORIGINATOR "Wolf Faust"
DESCRIPTOR "Fujichrome Provia/Astia/Sensia, Type 3, L* a* b* (light D50, viewing angle 2)"
MANUFACTURER "Wolf Faust - http://www.coloraid.de"
CREATED "June 22, 2014"
PROD_DATE "2013:07"
DIFFUSE_GEOMETRY "opal"
SERIAL "F140601 Batch Average Data"
MATERIAL "Fujichrome Provia 100F (RDP III)"
KEYWORD "MEAN_DE" # Mean Delta E of samples compared to batch average
NUMBER_OF_FIELDS 18
BEGIN_DATA_FORMAT
SAMPLE_ID  XYZ_X   XYZ_Y   XYZ_Z          LAB_L   LAB_A   LAB_B          LAB_C   LAB_H          D_RED  D_GREEN  D_BLUE  D_VIS          STDEV_X STDEV_Y STDEV_Z        MEAN_DE  STDEV_DE
END_DATA_FORMAT
NUMBER_OF_SETS 288
BEGIN_DATA
A1          2.26    1.91    1.26          14.99    9.58    3.82          10.32   21.71           1.49    1.90    1.93    1.68            0.04    0.03    0.02           0.29     0.33
A2          2.75    1.83    1.09          14.59   20.86    5.54          21.58   14.87           1.31    2.13    1.97    1.66            0.04    0.03    0.02           0.27     0.31 
A3          3.36    1.91    0.91          15.02   29.64    9.02          30.99   16.91           1.15    2.34    2.03    1.61            0.06    0.03    0.02           0.29     0.33
A4          4.02    1.94    0.78          15.19   38.89   11.55          40.57   16.55           1.01    2.75    2.05    1.57            0.06    0.03    0.01           0.29     0.33 
A5          9.96    8.55    6.12          35.10   14.29    4.07          14.86   15.91           0.87    1.22    1.19    1.04            0.13    0.11    0.08           0.38     0.42
A6         11.88    8.55    5.17          35.11   28.49    8.67          29.78   16.93           0.70    1.36    1.26    1.01            0.17    0.12    0.07           0.34     0.38 
A7         14.13    8.51    4.43          35.03   43.69   12.52          45.45   16.00           0.55    1.58    1.31    0.97            0.17    0.11    0.06           0.32     0.36
A8         17.32    8.64    3.59          35.29   61.01   18.09          63.64   16.51           0.39    1.97    1.36    0.93            0.08    0.05    0.06           0.30     0.36 
A9         29.48   28.70   22.49          60.51    7.04    2.25           7.40   17.68           0.47    0.60    0.60    0.53            0.27    0.24    0.32           0.53     0.59
A10        31.71   28.77   21.24          60.58   15.03    4.82          15.79   17.76           0.39    0.64    0.62    0.52            0.33    0.29    0.35           0.55     0.61
A11        34.03   28.66   19.92          60.48   23.66    7.33          24.77   17.22           0.32    0.68    0.65    0.51            0.31    0.28    0.31           0.53     0.58
A12        39.06   28.91   17.87          60.70   39.35   12.15          41.18   17.15           0.19    0.78    0.69    0.48            0.23    0.24    0.32           0.52     0.59 
A13        74.28   78.70   64.24          91.10   -3.26    0.67           3.33  168.36           0.12    0.10    0.12    0.11            0.21    0.19    0.19           0.17     0.19
A14        77.27   78.96   64.84          91.22    2.29    0.30           2.31    7.54           0.08    0.11    0.11    0.10            0.14    0.17    0.19           0.14     0.16 
A15        78.14   80.98   62.78          92.12    0.11    3.84           3.85   88.37           0.08    0.09    0.13    0.09            0.12    0.14    0.19           0.15     0.17
A16        76.65   79.54   64.77          91.48   -0.10    0.82           0.83   97.09           0.09    0.10    0.11    0.10            0.15    0.15    0.20           0.13     0.14
A17        76.60   78.44   62.20          90.98    1.96    2.43           3.13   51.17           0.08    0.11    0.13    0.10            0.16    0.19    0.19           0.13     0.15
A18        74.55   78.67   61.81          91.08   -2.66    2.99           4.00  131.64           0.11    0.10    0.14    0.11            0.19    0.17    0.19           0.17     0.19 
A19        70.61   74.18   62.58          89.01   -1.95   -1.33           2.36  214.37           0.14    0.13    0.13    0.13            0.23    0.22    0.17           0.13     0.15
A20         6.28    2.94    1.80          19.81   46.83    5.89          47.20    7.17           0.82    2.66    1.64    1.38            0.09    0.04    0.02           0.29     0.34 
A21        26.89   18.83   14.20          50.49   40.08    3.39          40.23    4.83           0.34    1.02    0.78    0.66            0.27    0.20    0.25           0.42     0.48
A22        53.70   49.06   31.61          75.49   17.04   12.49          21.13   36.23           0.15    0.39    0.44    0.29            0.34    0.38    0.43           0.41     0.47
B1          3.34    2.99    1.67          20.00    7.89    7.57          10.94   43.84           1.35    1.66    1.82    1.50            0.05    0.04    0.02           0.33     0.37
B2          3.99    2.99    0.94          20.02   17.62   17.04          24.51   44.04           1.18    1.79    2.11    1.46            0.06    0.05    0.02           0.29     0.34
B3          4.57    3.00    0.65          20.03   25.60   22.27          33.93   41.02           1.06    1.94    2.29    1.43            0.07    0.05    0.01           0.31     0.36
B4          5.34    2.95    0.20          19.84   36.14   30.37          47.20   40.05           0.93    2.23    2.89    1.40            0.08    0.04    0.00           0.29     0.36
B5         12.77   11.32    6.29          40.12   12.96   11.95          17.63   42.67           0.76    1.07    1.20    0.92            0.17    0.14    0.08           0.41     0.47
B6         14.83   11.31    4.20          40.10   26.08   22.60          34.51   40.91           0.61    1.19    1.40    0.89            0.19    0.15    0.06           0.39     0.44
B7         17.19   11.42    2.59          40.28   38.83   33.97          51.59   41.18           0.48    1.32    1.64    0.85            0.23    0.15    0.04           0.39     0.47
B8         20.89   11.33    0.96          40.14   58.35   51.40          77.76   41.38           0.32    1.66    2.12    0.82            0.10    0.07    0.03           0.28     0.33
B9         35.04   34.87   25.39          65.64    4.89    5.75           7.55   49.55           0.40    0.50    0.55    0.45            0.33    0.31    0.36           0.54     0.59
B10        36.99   34.97   22.91          65.72   11.05   10.44          15.20   43.36           0.34    0.53    0.60    0.44            0.33    0.31    0.34           0.52     0.58
B11        38.57   34.76   20.25          65.56   16.85   15.41          22.83   42.44           0.28    0.56    0.66    0.43            0.33    0.30    0.31           0.48     0.52
B12        43.34   34.66   14.50          65.48   31.82   28.47          42.70   41.82           0.16    0.64    0.82    0.41            0.25    0.28    0.28           0.50     0.56
B13        67.99   73.74   61.33          88.80   -6.68   -0.47           6.70  184.05           0.18    0.11    0.14    0.14            0.33    0.28    0.23           0.22     0.25
B14        70.96   69.96   60.97          86.98    7.57   -3.26           8.24  336.70           0.10    0.18    0.13    0.15            0.33    0.38    0.26           0.22     0.27
B15        74.15   77.45   53.90          90.53   -1.09   10.14          10.20   96.12           0.10    0.11    0.20    0.11            0.21    0.21    0.36           0.27     0.30
B16        60.02   62.08   50.79          82.96    0.38    0.49           0.64   51.47           0.20    0.22    0.22    0.21            0.45    0.47    0.42           0.30     0.34
B17        68.31   67.36   52.44          85.68    7.43    3.38           8.16   24.42           0.11    0.20    0.21    0.16            0.33    0.39    0.38           0.27     0.31
B18        66.04   72.11   52.69          88.02   -7.64    7.13          10.45  136.99           0.18    0.12    0.22    0.15            0.40    0.36    0.40           0.30     0.34
B19        61.87   64.02   58.29          83.98    0.32   -5.74           5.75  273.18           0.20    0.20    0.16    0.20            0.38    0.38    0.26           0.22     0.27
B20         5.04    3.06    0.92          20.27   30.60   17.82          35.41   30.22           0.99    2.03    2.07    1.41            0.07    0.04    0.02           0.32     0.37
B21        17.19   11.40    4.06          40.24   38.95   23.69          45.60   31.31           0.49    1.32    1.39    0.86            0.22    0.14    0.06           0.31     0.36
B22        33.53   28.23   16.62          60.10   23.59   13.98          27.42   30.65           0.31    0.69    0.74    0.51            0.35    0.31    0.31           0.49     0.54
C1          6.39    6.26    3.43          30.07    3.80   10.17          10.86   69.52           1.11    1.28    1.50    1.19            0.09    0.08    0.04           0.28     0.33
C2          6.83    6.28    2.02          30.11    8.17   21.40          22.90   69.10           1.03    1.32    1.80    1.17            0.09    0.07    0.03           0.28     0.35
C3          7.41    6.30    1.13          30.16   13.64   31.70          34.51   66.72           0.96    1.36    2.14    1.15            0.09    0.07    0.02           0.35     0.41
C4          7.91    6.33    0.51          30.23   17.97   42.52          46.16   67.09           0.91    1.40    2.69    1.14            0.10    0.08    0.01           0.35     0.40
C5         24.09   23.15   11.62          55.22    7.89   18.76          20.36   67.19           0.52    0.71    0.93    0.61            0.31    0.30    0.20           0.54     0.60
C6         26.22   23.37    6.44          55.45   15.94   37.74          40.96   67.10           0.43    0.75    1.26    0.59            0.23    0.22    0.08           0.38     0.42
C7         28.11   23.27    3.16          55.34   23.99   55.63          60.58   66.67           0.36    0.80    1.68    0.58            0.29    0.25    0.04           0.38     0.44
C8         30.52   23.23    0.93          55.31   33.39   78.07          84.91   66.85           0.29    0.87    2.60    0.56            0.30    0.26    0.02           0.38     0.43
C9         41.32   41.78   28.62          70.72    3.16    8.99           9.53   70.63           0.33    0.41    0.50    0.37            0.35    0.34    0.39           0.51     0.57
C10        42.40   41.68   24.23          70.65    6.72   16.47          17.79   67.80           0.29    0.43    0.58    0.37            0.36    0.35    0.38           0.55     0.61
C11        43.35   41.39   19.66          70.45   10.42   25.06          27.14   67.41           0.25    0.45    0.69    0.36            0.35    0.35    0.32           0.52     0.58
C12        48.10   41.48    8.12          70.51   23.66   56.82          61.55   67.39           0.14    0.51    1.18    0.34            0.24    0.30    0.11           0.40     0.45
C13        60.99   68.82   59.65          86.41  -12.24   -2.92          12.59  193.43           0.27    0.13    0.15    0.18            0.41    0.35    0.22           0.28     0.32
C14        65.54   61.29   58.10          82.53   14.93   -8.04          16.95  331.69           0.11    0.27    0.15    0.20            0.35    0.44    0.27           0.26     0.36
C15        71.93   75.60   43.99          89.67   -2.02   20.03          20.13   95.76           0.10    0.12    0.31    0.12            0.25    0.25    0.42           0.37     0.43
C16        46.61   48.21   39.29          74.96    0.36    0.66           0.80   60.07           0.31    0.33    0.34    0.32            0.46    0.48    0.42           0.44     0.49
C17        60.33   56.25   41.07          79.76   14.90    6.60          16.30   23.91           0.12    0.32    0.32    0.23            0.39    0.47    0.51           0.44     0.51
C18        57.58   65.97   42.73          84.98  -14.23   13.51          19.62  136.49           0.27    0.15    0.32    0.19            0.44    0.38    0.44           0.45     0.50
C19        50.11   51.78   53.99          77.15    0.49  -13.03          13.04  272.15           0.31    0.29    0.19    0.29            0.47    0.48    0.31           0.35     0.43
C20        12.26    8.95    1.10          35.89   27.78   42.07          50.42   56.57           0.67    1.33    2.16    0.97            0.17    0.11    0.02           0.43     0.48
C21        21.77   20.11   11.05          51.96   11.52   14.86          18.81   52.20           0.55    0.79    0.94    0.67            0.26    0.23    0.19           0.47     0.51
C22        27.73   23.23   10.61          55.31   22.66   22.01          31.59   44.15           0.38    0.79    0.96    0.59            0.34    0.30    0.19           0.43     0.49
D1          4.18    4.39    2.39          24.92   -0.67    9.11           9.13   94.19           1.33    1.40    1.68    1.35            0.06    0.06    0.03           0.24     0.28
D2          4.24    4.44    1.46          25.07   -0.56   18.72          18.72   91.71           1.31    1.40    1.98    1.34            0.07    0.06    0.02           0.28     0.33
D3          4.22    4.43    0.85          25.05   -0.68   27.31          27.32   91.43           1.31    1.39    2.33    1.33            0.06    0.06    0.02           0.35     0.41
D4          4.18    4.43    0.53          25.05   -1.33   33.10          33.12   92.30           1.33    1.38    2.68    1.33            0.07    0.08    0.01           0.34     0.40
D5         17.89   18.66    9.39          50.29   -0.57   17.39          17.40   91.89           0.70    0.76    1.04    0.72            0.24    0.24    0.14           0.50     0.54
D6         17.73   18.51    5.05          50.11   -0.59   35.15          35.15   90.97           0.68    0.76    1.40    0.72            0.22    0.22    0.06           0.46     0.52
D7         17.70   18.61    2.37          50.22   -1.30   52.95          52.96   91.41           0.69    0.75    1.92    0.71            0.24    0.27    0.05           0.51     0.58
D8         17.75   18.90    1.14          50.57   -2.51   66.82          66.87   92.15           0.71    0.74    2.57    0.70            0.23    0.24    0.02           0.43     0.49
D9         47.22   49.29   25.09          75.63   -0.87   23.51          23.53   92.12           0.27    0.32    0.58    0.30            0.37    0.37    0.37           0.51     0.56
D10        47.03   49.34   14.10          75.66   -1.53   47.07          47.10   91.86           0.25    0.32    0.90    0.29            0.33    0.34    0.22           0.49     0.53
D11        46.54   49.00    7.09          75.45   -1.96   69.42          69.45   91.62           0.26    0.32    1.34    0.29            0.31    0.30    0.09           0.39     0.43
D12        45.47   48.56    2.11          75.17   -3.81   98.31          98.38   92.22           0.30    0.32    2.42    0.29            0.35    0.31    0.03           0.34     0.40
D13        54.24   63.86   58.11          83.89  -17.82   -5.70          18.71  197.74           0.36    0.14    0.17    0.22            0.35    0.30    0.18           0.26     0.31
D14        59.71   52.41   54.80          77.53   23.05  -13.23          26.58  330.14           0.13    0.37    0.17    0.26            0.34    0.41    0.27           0.28     0.40
D15        69.98   73.83   34.75          88.84   -2.57   30.85          30.96   94.76           0.10    0.14    0.43    0.12            0.21    0.22    0.39           0.42     0.49
D16        34.80   36.14   29.31          66.63   -0.15    0.82           0.88   98.97           0.44    0.46    0.48    0.44            0.42    0.40    0.39           0.48     0.54
D17        52.17   45.37   30.27          73.13   23.24   10.51          25.51   24.33           0.14    0.46    0.46    0.31            0.38    0.44    0.50           0.50     0.59
D18        49.67   59.97   33.63          81.82  -20.83   20.38          29.14  135.63           0.36    0.17    0.45    0.23            0.41    0.36    0.43           0.54     0.59
D19        39.13   40.42   49.72          69.76    0.51  -21.05          21.06  271.38           0.45    0.40    0.22    0.41            0.44    0.46    0.28           0.39     0.50
D20         3.04    3.01    1.03          20.07    2.52   15.82          16.02   80.95           1.42    1.60    2.12    1.50            0.05    0.05    0.02           0.32     0.36
D21        31.00   28.37    1.51          60.22   13.99   78.76          79.99   79.93           0.38    0.64    2.38    0.50            0.37    0.34    0.02           0.43     0.54
D22        40.88   43.96   51.26          72.20   -4.56  -18.58          19.13  256.21           0.46    0.34    0.21    0.37            0.41    0.43    0.28           0.38     0.46
E1          5.60    6.30    3.51          30.16   -5.32    9.74          11.10  118.67           1.25    1.21    1.51    1.20            0.08    0.08    0.03           0.33     0.37
E2          5.11    6.25    2.22          30.03  -10.64   19.42          22.15  118.71           1.33    1.17    1.79    1.21            0.06    0.06    0.01           0.30     0.35
E3          4.68    6.23    1.31          29.98  -15.76   29.02          33.02  118.51           1.42    1.14    2.16    1.22            0.06    0.08    0.02           0.36     0.40
E4          4.40    6.32    0.76          30.22  -20.60   37.67          42.94  118.67           1.52    1.09    2.63    1.22            0.06    0.09    0.02           0.34     0.39
E5         25.20   28.42   14.99          60.26   -9.07   18.23          20.36  116.45           0.60    0.53    0.83    0.55            0.24    0.27    0.21           0.49     0.54
E6         22.91   28.52    9.58          60.36  -19.45   34.10          39.26  119.71           0.69    0.49    1.10    0.55            0.23    0.26    0.13           0.46     0.50
E7         20.90   28.53    5.23          60.36  -28.80   51.93          59.39  119.01           0.79    0.45    1.51    0.56            0.26    0.34    0.09           0.45     0.53
E8         18.56   28.25    2.11          60.12  -39.39   72.28          82.31  118.59           0.97    0.41    2.34    0.57            0.18    0.20    0.02           0.28     0.33
E9         45.37   49.01   32.25          75.46   -5.33   11.46          12.64  114.95           0.33    0.31    0.45    0.31            0.37    0.36    0.40           0.49     0.54
E10        43.17   49.09   25.53          75.51  -11.91   22.51          25.47  117.90           0.37    0.29    0.58    0.31            0.34    0.33    0.35           0.50     0.56
E11        40.89   48.80   20.13          75.32  -17.99   32.49          37.14  118.97           0.41    0.27    0.71    0.32            0.37    0.35    0.30           0.53     0.58
E12        37.51   48.86   11.98          75.36  -28.80   52.42          59.81  118.78           0.50    0.23    1.03    0.32            0.29    0.28    0.14           0.38     0.41
E13        48.34   59.33   56.75          81.47  -22.94   -8.47          24.46  200.28           0.46    0.16    0.18    0.25            0.31    0.29    0.18           0.23     0.28
E14        53.70   43.86   51.14          72.13   31.49  -18.56          36.55  329.48           0.15    0.49    0.19    0.33            0.32    0.36    0.28           0.25     0.37
E15        68.30   72.07   26.78          88.00   -2.59   41.88          41.96   93.54           0.10    0.15    0.57    0.13            0.23    0.24    0.34           0.42     0.48
E16        25.18   26.06   21.26          58.09    0.20    0.48           0.63  108.57           0.58    0.61    0.63    0.58            0.34    0.34    0.35           0.55     0.60
E17        44.24   35.38   21.03          66.05   32.00   14.66          35.20   24.61           0.17    0.63    0.62    0.41            0.31    0.34    0.39           0.52     0.60
E18        42.91   54.52   25.86          78.77  -26.74   27.55          38.40  134.15           0.45    0.19    0.59    0.28            0.37    0.34    0.34           0.56     0.63
E19        30.04   30.73   45.58          62.28    1.53  -29.13          29.17  273.01           0.60    0.52    0.25    0.53            0.41    0.44    0.40           0.40     0.48
E20         7.21    8.52    1.36          35.04   -9.37   37.09          38.26  104.18           1.15    1.04    2.18    1.06            0.10    0.10    0.02           0.38     0.44
E21        24.98   29.45    6.22          61.17  -13.91   48.57          50.52  105.98           0.60    0.50    1.36    0.53            0.27    0.27    0.06           0.38     0.44
E22         8.69   18.30   13.60          49.86  -59.74    3.91          59.87  176.26           1.83    0.52    0.91    0.82            0.08    0.14    0.19           0.39     0.44
F1          3.58    4.37    3.06          24.87   -9.33    3.78          10.07  157.97           1.51    1.34    1.56    1.38            0.06    0.06    0.03           0.25     0.29
F2          2.91    4.41    2.67          24.99  -21.07    6.95          22.19  161.74           1.75    1.25    1.67    1.40            0.04    0.05    0.02           0.32     0.38
F3          2.42    4.37    2.23          24.86  -29.79   10.39          31.55  160.76           1.98    1.21    1.80    1.42            0.03    0.05    0.03           0.28     0.31
F4          1.76    4.37    1.74          24.86  -44.47   15.21          47.00  161.12           2.50    1.13    2.01    1.44            0.02    0.06    0.02           0.34     0.39
F5         11.68   14.74   10.13          45.28  -16.76    6.24          17.89  159.59           1.04    0.78    1.00    0.85            0.15    0.18    0.15           0.48     0.52
F6          9.45   14.70    8.68          45.22  -33.38   11.16          35.20  161.51           1.30    0.71    1.11    0.88            0.11    0.16    0.13           0.46     0.49
F7          7.63   14.69    7.26          45.20  -49.14   16.58          51.86  161.35           1.62    0.65    1.24    0.89            0.09    0.16    0.09           0.44     0.48
F8          6.08   14.48    5.96          44.91  -63.58   21.74          67.20  161.12           2.02    0.60    1.39    0.92            0.07    0.14    0.07           0.35     0.38
F9         30.25   34.62   25.93          65.45  -11.36    4.47          12.21  158.50           0.56    0.44    0.55    0.47            0.35    0.37    0.42           0.55     0.61
F10        27.01   34.72   23.54          65.53  -24.28    8.92          25.87  159.82           0.69    0.39    0.61    0.48            0.29    0.33    0.35           0.50     0.54
F11        24.38   34.74   21.52          65.54  -35.30   12.81          37.56  160.05           0.82    0.35    0.67    0.49            0.24    0.30    0.30           0.45     0.49
F12        20.21   34.40   18.74          65.28  -53.34   18.12          56.34  161.24           1.09    0.30    0.76    0.51            0.17    0.21    0.26           0.46     0.52
F13        43.09   55.11   55.44          79.10  -27.67  -11.19          29.85  202.03           0.56    0.17    0.19    0.29            0.29    0.29    0.20           0.22     0.27
F14        48.25   36.71   47.53          67.06   38.93  -23.20          45.32  329.21           0.17    0.62    0.21    0.40            0.29    0.29    0.27           0.23     0.31
F15        66.78   70.25   20.04          87.12   -2.09   53.02          53.06   92.26           0.10    0.16    0.74    0.14            0.22    0.24    0.31           0.44     0.51
F16        17.69   18.42   14.92          50.00   -0.38    0.71           0.84  119.92           0.74    0.76    0.79    0.74            0.21    0.22    0.21           0.44     0.49
F17        37.58   27.64   13.88          59.56   39.52   19.87          44.24   26.69           0.19    0.81    0.82    0.50            0.22    0.22    0.26           0.48     0.55
