targets/wolf_faust/transmissive/F150204.it8
IT8.7/1
ORIGINATOR "Wolf Faust"
DESCRIPTOR "Fujichrome Provia/Astia/Sensia, Type 3, L* a* b* (light D50, viewing angle 2)"
MANUFACTURER "Wolf Faust - http://www.coloraid.de"
CREATED "February 12, 2015"
PROD_DATE "2013:07"
DIFFUSE_GEOMETRY "opal"
SERIAL "F150204 Batch Average Data"
MATERIAL "Fujichrome Provia 100F (RDP III)"
KEYWORD "MEAN_DE" # Mean Delta E of samples compared to batch average
NUMBER_OF_FIELDS 18
BEGIN_DATA_FORMAT
SAMPLE_ID  XYZ_X   XYZ_Y   XYZ_Z          LAB_L   LAB_A   LAB_B          LAB_C   LAB_H          D_RED  D_GREEN  D_BLUE  D_VIS          STDEV_X STDEV_Y STDEV_Z        MEAN_DE  STDEV_DE
END_DATA_FORMAT
NUMBER_OF_SETS 288
BEGIN_DATA
A1          2.10    1.77    1.16          14.24    9.23    3.83          10.00   22.55           1.53    1.93    1.97    1.72            0.04    0.04    0.01           0.34     0.39
A2          2.55    1.70    0.99          13.83   20.41    5.58          21.16   15.29           1.34    2.16    2.01    1.69            0.04    0.03    0.01           0.33     0.37 
A3          3.12    1.77    0.82          14.23   29.07    9.07          30.46   17.32           1.18    2.38    2.07    1.64            0.06    0.04    0.01           0.30     0.39
A4          3.75    1.81    0.72          14.45   38.14   11.39          39.80   16.62           1.04    2.81    2.09    1.60            0.07    0.04    0.01           0.30     0.40 
A5          9.34    8.04    5.78          34.07   13.77    3.87          14.31   15.68           0.89    1.24    1.22    1.06            0.13    0.11    0.13           0.52     0.61
A6         11.15    8.03    4.87          34.05   27.83    8.41          29.07   16.82           0.73    1.39    1.28    1.03            0.15    0.11    0.11           0.53     0.62 
A7         13.25    7.97    4.17          33.91   42.87   12.10          44.55   15.76           0.57    1.61    1.33    1.00            0.17    0.11    0.11           0.51     0.62
A8         16.18    8.06    3.38          34.10   59.82   17.42          62.31   16.24           0.41    2.01    1.39    0.96            0.09    0.06    0.08           0.39     0.48 
A9         27.76   27.05   21.31          59.02    6.80    1.99           7.10   16.26           0.50    0.62    0.62    0.56            0.32    0.30    0.39           0.61     0.70
A10        29.89   27.15   20.10          59.11   14.63    4.61          15.35   17.47           0.42    0.66    0.64    0.54            0.37    0.34    0.39           0.62     0.72
A11        32.11   27.05   18.84          59.02   23.21    7.11          24.28   17.02           0.34    0.71    0.67    0.53            0.38    0.35    0.39           0.68     0.76
A12        37.04   27.39   17.01          59.34   38.73   11.75          40.48   16.87           0.21    0.80    0.71    0.50            0.23    0.23    0.34           0.57     0.68 
A13        71.33   75.72   61.86          89.73   -3.52    0.61           3.58  170.22           0.14    0.11    0.13    0.12            0.25    0.24    0.32           0.23     0.27
A14        74.46   76.12   62.51          89.91    2.20    0.29           2.23    7.70           0.10    0.13    0.13    0.12            0.20    0.26    0.33           0.26     0.30 
A15        75.29   78.06   60.34          90.81    0.04    3.97           3.97   89.36           0.09    0.11    0.15    0.11            0.16    0.17    0.31           0.22     0.26
A16        73.78   76.67   62.44          90.17   -0.30    0.80           0.87  111.48           0.11    0.12    0.13    0.12            0.18    0.23    0.31           0.26     0.31
A17        73.73   75.53   59.76          89.64    1.88    2.54           3.17   53.29           0.10    0.13    0.15    0.12            0.23    0.28    0.32           0.28     0.32
A18        71.54   75.64   59.35          89.69   -2.90    3.04           4.21  133.81           0.13    0.11    0.15    0.12            0.37    0.37    0.39           0.31     0.35 
A19        67.59   71.18   60.18          87.57   -2.27   -1.45           2.70  212.27           0.16    0.14    0.14    0.15            0.30    0.33    0.33           0.30     0.35
A20         5.87    2.74    1.69          18.98   45.92    5.59          46.26    6.94           0.85    2.71    1.67    1.41            0.08    0.04    0.02           0.33     0.43 
A21        25.46   17.85   13.63          49.32   39.25    2.88          39.36    4.19           0.36    1.04    0.79    0.69            0.24    0.18    0.30           0.67     0.81
A22        51.28   46.87   30.26          74.10   16.71   12.20          20.70   36.12           0.17    0.41    0.46    0.31            0.37    0.40    0.50           0.60     0.72
B1          3.10    2.77    1.54          19.11    7.61    7.53          10.70   44.66           1.38    1.70    1.86    1.53            0.06    0.05    0.02           0.34     0.40
B2          3.71    2.79    0.87          19.17   17.19   16.85          24.07   44.42           1.21    1.82    2.15    1.49            0.06    0.05    0.01           0.30     0.39
B3          4.25    2.79    0.59          19.17   25.01   21.92          33.26   41.22           1.09    1.97    2.33    1.46            0.07    0.04    0.01           0.30     0.38
B4          5.01    2.76    0.18          19.04   35.49   29.42          46.10   39.65           0.95    2.26    2.96    1.43            0.08    0.05    0.01           0.34     0.45
B5         12.05   10.71    5.99          39.09   12.53   11.55          17.04   42.66           0.78    1.10    1.22    0.94            0.14    0.12    0.12           0.50     0.59
B6         13.97   10.67    3.96          39.01   25.48   22.14          33.76   40.99           0.64    1.21    1.42    0.91            0.17    0.13    0.08           0.45     0.55
B7         16.19   10.75    2.42          39.16   38.08   33.43          50.68   41.28           0.51    1.35    1.67    0.88            0.19    0.13    0.05           0.43     0.50
B8         19.64   10.64    0.89          38.97   57.28   50.59          76.43   41.45           0.35    1.68    2.16    0.84            0.11    0.08    0.02           0.27     0.30
B9         33.27   33.13   24.25          64.27    4.71    5.43           7.20   48.92           0.42    0.52    0.57    0.47            0.37    0.36    0.48           0.66     0.77
B10        35.00   33.11   21.84          64.25   10.75    9.97          14.67   42.80           0.36    0.55    0.62    0.46            0.32    0.31    0.44           0.63     0.74
B11        36.57   32.98   19.32          64.15   16.48   14.91          22.23   42.12           0.31    0.58    0.68    0.45            0.36    0.35    0.43           0.63     0.76
B12        41.24   32.94   13.85          64.11   31.41   27.81          41.95   41.52           0.18    0.66    0.84    0.43            0.24    0.27    0.36           0.62     0.77
B13        65.06   70.78   59.10          87.38   -7.06   -0.70           7.10  185.60           0.20    0.13    0.16    0.16            0.42    0.45    0.51           0.30     0.37
B14        68.18   67.23   58.91          85.62    7.45   -3.54           8.25  334.58           0.12    0.20    0.15    0.17            0.30    0.37    0.29           0.28     0.32
B15        71.42   74.69   51.91          89.25   -1.25   10.09          10.17   97.05           0.11    0.13    0.22    0.12            0.27    0.27    0.38           0.31     0.37
B16        57.46   59.60   48.94          81.62   -0.04    0.28           0.39  127.36           0.22    0.23    0.24    0.22            0.42    0.41    0.43           0.39     0.44
B17        65.70   64.82   50.54          84.39    7.26    3.24           7.96   24.02           0.12    0.22    0.22    0.18            0.28    0.32    0.37           0.36     0.43
B18        63.34   69.38   50.78          86.69   -7.98    6.94          10.58  138.99           0.20    0.14    0.23    0.16            0.39    0.35    0.31           0.33     0.39
B19        59.27   61.50   56.36          82.64   -0.05   -6.05           6.05  269.55           0.22    0.21    0.17    0.21            0.35    0.34    0.25           0.28     0.34
B20         4.68    2.84    0.84          19.38   29.96   17.70          34.80   30.57           1.02    2.07    2.11    1.44            0.07    0.05    0.02           0.31     0.35
B21        16.25   10.79    3.87          39.22   38.16   23.10          44.61   31.19           0.51    1.34    1.41    0.88            0.18    0.12    0.06           0.47     0.57
B22        31.91   26.94   16.01          58.92   22.93   13.40          26.56   30.28           0.33    0.71    0.75    0.53            0.22    0.20    0.28           0.64     0.76
C1          5.93    5.83    3.19          28.99    3.49    9.97          10.56   70.70           1.14    1.31    1.53    1.22            0.11    0.11    0.05           0.44     0.51
C2          6.36    5.86    1.87          29.04    7.89   21.11          22.53   69.51           1.07    1.34    1.83    1.20            0.11    0.10    0.03           0.33     0.41
C3          6.93    5.90    1.04          29.15   13.23   31.26          33.94   67.07           0.99    1.39    2.18    1.18            0.11    0.10    0.02           0.34     0.40
C4          7.43    5.95    0.46          29.30   17.52   41.83          45.35   67.27           0.94    1.43    2.75    1.16            0.11    0.09    0.01           0.41     0.50
C5         22.81   21.96   11.08          53.99    7.56   18.26          19.76   67.50           0.54    0.73    0.95    0.64            0.24    0.22    0.24           0.62     0.72
C6         24.81   22.14    6.11          54.17   15.57   37.01          40.15   67.19           0.45    0.77    1.28    0.62            0.24    0.19    0.12           0.55     0.63
C7         26.59   22.00    2.94          54.02   23.63   54.95          59.82   66.73           0.38    0.82    1.72    0.60            0.26    0.21    0.05           0.45     0.54
C8         28.93   22.00    0.86          54.03   32.87   76.99          83.72   66.88           0.32    0.89    2.65    0.59            0.23    0.21    0.02           0.36     0.44
C9         39.39   39.87   27.47          69.37    3.00    8.59           9.10   70.71           0.35    0.43    0.51    0.39            0.47    0.48    0.56           0.67     0.79
C10        40.39   39.75   23.22          69.29    6.48   16.00          17.26   67.94           0.31    0.45    0.60    0.39            0.46    0.45    0.51           0.65     0.77
C11        41.35   39.50   18.83          69.11   10.21   24.53          26.57   67.40           0.27    0.47    0.71    0.38            0.44    0.41    0.42           0.65     0.76
C12        46.00   39.61    7.75          69.19   23.50   55.98          60.71   67.23           0.16    0.53    1.20    0.36            0.38    0.38    0.18           0.50     0.59
C13        58.50   66.26   57.73          85.13  -12.61   -3.18          13.01  194.14           0.29    0.14    0.17    0.19            0.57    0.60    0.57           0.37     0.45
C14        63.04   58.91   56.27          81.24   14.81   -8.38          17.02  330.49           0.13    0.28    0.16    0.22            0.52    0.51    0.58           0.34     0.40
C15        69.43   73.02   42.40          88.46   -2.10   19.91          20.02   96.02           0.11    0.14    0.32    0.13            0.55    0.57    0.54           0.43     0.51
C16        44.60   46.29   37.93          73.73   -0.09    0.35           0.50  147.21           0.33    0.35    0.36    0.33            0.46    0.47    0.52           0.49     0.59
C17        58.06   54.16   39.71          78.55   14.66    6.30          15.96   23.25           0.14    0.33    0.33    0.25            0.54    0.55    0.63           0.53     0.62
C18        55.18   63.45   41.18          83.68  -14.55   13.23          19.67  137.74           0.29    0.16    0.34    0.21            0.52    0.56    0.54           0.52     0.60
C19        47.89   49.65   52.21          75.85    0.04  -13.33          13.33  270.19           0.34    0.31    0.20    0.31            0.52    0.52    0.56           0.39     0.48
C20        11.48    8.38    1.01          34.76   27.17   41.50          49.60   56.78           0.70    1.36    2.21    1.00            0.18    0.13    0.02           0.62     0.74
C21        20.66   19.16   10.60          50.87   10.96   14.39          18.09   52.68           0.57    0.81    0.96    0.69            0.19    0.16    0.19           0.61     0.74
C22        26.36   22.15   10.21          54.19   21.99   21.35          30.65   44.14           0.41    0.81    0.98    0.61            0.24    0.21    0.19           0.60     0.71
D1          3.88    4.08    2.21          23.94   -0.81    9.05           9.09   95.10           1.36    1.43    1.72    1.38            0.07    0.07    0.03           0.37     0.44
D2          3.93    4.13    1.33          24.09   -0.66   18.62          18.64   92.02           1.34    1.43    2.02    1.37            0.08    0.07    0.02           0.37     0.43
D3          3.95    4.15    0.77          24.17   -0.84   27.16          27.18   91.78           1.34    1.42    2.38    1.36            0.07    0.07    0.01           0.38     0.46
D4          3.93    4.18    0.49          24.26   -1.51   32.65          32.68   92.64           1.36    1.40    2.75    1.36            0.06    0.07    0.01           0.39     0.47
D5         16.92   17.70    8.95          49.13   -0.81   16.90          16.92   92.76           0.72    0.78    1.06    0.74            0.18    0.18    0.22           0.65     0.77
D6         16.71   17.48    4.77          48.86   -0.83   34.50          34.51   91.38           0.71    0.79    1.43    0.74            0.17    0.17    0.10           0.51     0.59
D7         16.72   17.63    2.22          49.04   -1.54   52.24          52.26   91.69           0.72    0.78    1.95    0.73            0.17    0.17    0.05           0.48     0.56
D8         16.81   17.93    1.06          49.41   -2.65   65.89          65.94   92.30           0.74    0.76    2.61    0.72            0.20    0.23    0.03           0.49     0.56
D9         45.00   47.02   24.01          74.20   -0.97   23.00          23.02   92.42           0.29    0.34    0.60    0.32            0.40    0.40    0.49           0.63     0.78
D10        44.76   46.99   13.43          74.18   -1.56   46.29          46.32   91.94           0.28    0.34    0.92    0.31            0.35    0.35    0.33           0.66     0.80
D11        44.28   46.63    6.67          73.95   -1.96   68.61          68.64   91.64           0.28    0.34    1.37    0.31            0.33    0.31    0.14           0.52     0.62
D12        43.26   46.14    1.96          73.63   -3.60   97.02          97.09   92.12           0.32    0.34    2.45    0.31            0.31    0.27    0.04           0.33     0.40
D13        51.79   61.24   56.02          82.51  -18.17   -5.93          19.12  198.08           0.39    0.16    0.18    0.23            0.32    0.30    0.22           0.28     0.35
D14        57.22   50.19   52.89          76.18   22.83  -13.50          26.52  329.39           0.15    0.39    0.18    0.28            0.23    0.30    0.23           0.26     0.32
D15        67.18   70.85   33.24          87.41   -2.49   30.60          30.70   94.65           0.12    0.15    0.45    0.14            0.56    0.64    0.53           0.56     0.67
D16        33.12   34.52   28.21          65.37   -0.59    0.45           0.86  152.45           0.47    0.48    0.49    0.46            0.28    0.27    0.34           0.52     0.64
D17        49.90   43.39   29.16          71.82   22.90   10.03          25.01   23.64           0.16    0.47    0.47    0.33            0.32    0.35    0.45           0.54     0.63
D18        47.35   57.38   32.25          80.39  -21.01   19.97          29.00  136.47           0.38    0.19    0.47    0.25            0.34    0.30    0.37           0.55     0.68
D19        37.22   38.57   47.90          68.44    0.11  -21.26          21.26  270.29           0.48    0.42    0.23    0.43            0.27    0.24    0.15           0.28     0.34
D20         2.81    2.78    0.93          19.15    2.29   15.72          15.89   81.72           1.46    1.63    2.17    1.53            0.05    0.05    0.01           0.45     0.51
D21        29.41   26.97    1.41          58.95   13.53   77.68          78.85   80.12           0.40    0.66    2.41    0.53            0.25    0.25    0.05           0.57     0.61
D22        39.04   42.16   49.49          70.98   -5.02  -18.70          19.36  254.98           0.48    0.36    0.22    0.39            0.28    0.30    0.22           0.32     0.36
E1          5.21    5.87    3.26          29.09   -5.39    9.62          11.03  119.28           1.28    1.24    1.54    1.24            0.09    0.10    0.04           0.44     0.51
E2          4.76    5.85    2.06          29.03  -10.65   19.19          21.95  119.03           1.36    1.20    1.83    1.24            0.08    0.10    0.03           0.38     0.46
E3          4.37    5.85    1.20          29.02  -15.72   28.78          32.79  118.64           1.45    1.16    2.21    1.25            0.07    0.08    0.02           0.38     0.43
E4          4.14    5.99    0.70          29.38  -20.48   37.43          42.66  118.69           1.56    1.11    2.69    1.24            0.06    0.09    0.02           0.45     0.51
E5         23.87   26.98   14.29          58.95   -9.11   17.75          19.96  117.19           0.63    0.56    0.85    0.57            0.24    0.28    0.34           0.68     0.81
E6         21.62   26.99    9.07          58.96  -19.36   33.46          38.66  120.05           0.72    0.52    1.12    0.58            0.19    0.23    0.19           0.55     0.63
E7         19.77   27.06    4.92          59.03  -28.55   51.21          58.63  119.15           0.82    0.48    1.53    0.58            0.17    0.19    0.09           0.44     0.51
E8         17.55   26.72    1.97          58.71  -38.70   71.19          81.03  118.53           1.00    0.44    2.37    0.59            0.15    0.18    0.05           0.41     0.49
E9         43.18   46.72   30.83          74.01   -5.44   11.15          12.41  116.05           0.35    0.33    0.47    0.33            0.39    0.40    0.52           0.60     0.73
E10        41.04   46.77   24.39          74.04  -11.99   22.02          25.08  118.58           0.39    0.31    0.60    0.33            0.36    0.35    0.44           0.65     0.80
E11        38.85   46.49   19.19          73.86  -18.04   31.94          36.69  119.46           0.44    0.29    0.73    0.34            0.32    0.32    0.41           0.70     0.84
E12        35.59   46.46   11.36          73.84  -28.60   51.64          59.03  118.98           0.52    0.26    1.06    0.34            0.29    0.27    0.25           0.65     0.77
E13        46.12   56.85   54.68          80.09  -23.16   -8.68          24.74  200.53           0.48    0.17    0.19    0.27            0.29    0.28    0.21           0.29     0.35
E14        51.30   41.85   49.29          70.76   31.15  -18.84          36.41  328.84           0.17    0.51    0.21    0.35            0.20    0.24    0.23           0.22     0.26
E15        65.72   69.32   25.71          86.66   -2.47   41.42          41.49   93.41           0.11    0.16    0.59    0.15            0.14    0.15    0.42           0.55     0.70
E16        23.85   24.80   20.39          56.88   -0.26    0.14           0.64  182.01           0.61    0.63    0.64    0.61            0.19    0.21    0.28           0.61     0.74
E17        42.13   33.68   20.24          64.71   31.55   13.97          34.51   23.88           0.19    0.65    0.64    0.43            0.16    0.18    0.32           0.52     0.67
E18        40.75   51.99   24.75          77.27  -26.82   26.95          38.03  134.87           0.47    0.21    0.61    0.30            0.29    0.26    0.35           0.65     0.79
E19        28.47   29.22   43.81          60.98    1.15  -29.22          29.25  272.25           0.63    0.54    0.27    0.56            0.20    0.19    0.12           0.29     0.33
E20         6.68    7.93    1.23          33.85   -9.45   36.68          37.88  104.46           1.19    1.07    2.23    1.10            0.09    0.10    0.03           0.52     0.59
E21        23.62   27.96    5.86          59.86  -14.11   47.98          50.01  106.39           0.63    0.52    1.39    0.55            0.18    0.18    0.08           0.46     0.54
E22         8.22   17.39   12.97          48.75  -59.00    3.71          59.12  176.40           1.87    0.55    0.92    0.84            0.06    0.08    0.23           0.55     0.66
F1          3.32    4.07    2.83          23.91   -9.42    3.81          10.17  158.03           1.55    1.37    1.59    1.41            0.07    0.08    0.04           0.43     0.52
F2          2.70    4.13    2.47          24.09  -20.91    7.03          22.06  161.43           1.79    1.28    1.70    1.43            0.05    0.07    0.03           0.34     0.40
F3          2.26    4.11    2.05          24.02  -29.48   10.62          31.34  160.19           2.02    1.23    1.84    1.44            0.04    0.06    0.02           0.36     0.43
F4          1.66    4.15    1.61          24.16  -43.96   15.37          46.57  160.73           2.55    1.15    2.05    1.46            0.02    0.04    0.02           0.30     0.34
F5         11.03   13.99    9.70          44.21  -16.81    5.86          17.81  160.80           1.07    0.80    1.02    0.88            0.13    0.16    0.24           0.58     0.69
F6          8.93   13.96    8.24          44.17  -33.15   10.98          34.92  161.68           1.33    0.73    1.13    0.90            0.09    0.13    0.18           0.50     0.57
F7          7.21   13.94    6.89          44.15  -48.56   16.28          51.22  161.46           1.65    0.67    1.26    0.92            0.07    0.12    0.13           0.44     0.50
F8          5.77   13.78    5.62          43.91  -62.70   21.60          66.32  160.99           2.06    0.62    1.42    0.94            0.06    0.12    0.12           0.40     0.46
F9         28.76   33.00   24.85          64.16  -11.44    4.17          12.19  160.02           0.59    0.45    0.57    0.49            0.28    0.31    0.44           0.63     0.74
F10        25.60   33.02   22.50          64.17  -24.22    8.56          25.70  160.55           0.72    0.41    0.63    0.51            0.24    0.26    0.40           0.62     0.74
F11        23.07   32.99   20.51          64.15  -35.11   12.46          37.26  160.47           0.85    0.37    0.69    0.52            0.20    0.23    0.38           0.61     0.74
F12        19.13   32.66   17.89          63.89  -52.71   17.59          55.57  161.55           1.11    0.32    0.78    0.54            0.17    0.19    0.38           0.67     0.80
F13        41.09   52.77   53.46          77.74  -27.80  -11.43          30.06  202.35           0.59    0.19    0.20    0.31            0.25    0.26    0.20           0.27     0.32
F14        46.03   34.99   45.81          65.74   38.44  -23.44          45.03  328.63           0.19    0.64    0.23    0.42            0.17    0.19    0.18           0.17     0.23
F15        64.31   67.56   19.25          85.79   -1.89   52.39          52.42   92.07           0.11    0.18    0.75    0.15            0.11    0.11    0.34           0.56     0.73
F16        16.71   17.47   14.28          48.84   -0.73    0.35           0.93  164.27           0.76    0.78    0.81    0.76            0.15    0.16    0.16           0.53     0.65
F17        35.68   26.23   13.37          58.26   38.89   19.00          43.29   26.03           0.22    0.83    0.83    0.52            0.12    0.13    0.23           0.51     0.63
