targets/wolf_faust/transmissive/F151006.it8
IT8.7/1
ORIGINATOR "Wolf Faust"
DESCRIPTOR "Fujichrome Provia/Astia/Sensia, Type 3, L* a* b* (light D50, viewing angle 2)"
MANUFACTURER "Wolf Faust - http://www.coloraid.de"
CREATED "October 09, 2015"
PROD_DATE "2013:03"
DIFFUSE_GEOMETRY "opal"
SERIAL "F151006 Batch Average Data"
MATERIAL "Fujichrome Provia 100F (RDP III)"
KEYWORD "MEAN_DE" # Mean Delta E of samples compared to batch average
NUMBER_OF_FIELDS 18
BEGIN_DATA_FORMAT
SAMPLE_ID  XYZ_X   XYZ_Y   XYZ_Z          LAB_L   LAB_A   LAB_B          LAB_C   LAB_H          D_RED  D_GREEN  D_BLUE  D_VIS          STDEV_X STDEV_Y STDEV_Z        MEAN_DE  STDEV_DE
END_DATA_FORMAT
NUMBER_OF_SETS 288
BEGIN_DATA
A1          2.03    1.71    1.20          13.89    9.13    2.78           9.55   16.92           1.55    1.95    1.95    1.73            0.06    0.05    0.05           0.34     0.42
A2          2.53    1.71    0.99          13.91   19.57    5.85          20.43   16.65           1.35    2.14    2.01    1.69            0.07    0.05    0.04           0.35     0.43 
A3          3.19    1.81    0.85          14.44   29.36    9.06          30.72   17.14           1.17    2.38    2.05    1.63            0.08    0.05    0.03           0.39     0.46
A4          3.64    1.80    0.74          14.38   36.72   10.90          38.31   16.54           1.06    2.72    2.08    1.60            0.09    0.04    0.02           0.38     0.46 
A5          9.39    8.09    5.45          34.16   13.86    5.63          14.96   22.13           0.89    1.24    1.25    1.06            0.22    0.18    0.15           0.40     0.51
A6         11.15    7.96    4.68          33.89   28.51    9.19          29.96   17.86           0.72    1.40    1.30    1.03            0.27    0.19    0.15           0.41     0.54 
A7         13.59    8.19    4.02          34.36   43.09   13.83          45.26   17.79           0.56    1.59    1.35    0.99            0.26    0.15    0.12           0.42     0.52
A8         16.59    8.36    3.35          34.73   59.47   18.73          62.35   17.48           0.41    1.96    1.40    0.94            0.16    0.10    0.10           0.29     0.41 
A9         27.72   26.76   20.26          58.75    7.77    3.65           8.59   25.23           0.49    0.63    0.64    0.56            0.42    0.36    0.40           0.47     0.59
A10        29.87   26.91   19.12          58.89   15.52    6.29          16.74   22.08           0.41    0.67    0.67    0.55            0.43    0.35    0.37           0.48     0.57
A11        31.84   26.91   18.15          58.89   22.81    8.40          24.31   20.23           0.34    0.71    0.69    0.54            0.44    0.37    0.38           0.46     0.57
A12        36.78   27.09   16.32          59.06   39.08   12.91          41.16   18.27           0.21    0.81    0.73    0.51            0.30    0.29    0.34           0.45     0.56 
A13        69.45   73.98   58.97          88.91   -4.01    2.07           4.52  152.64           0.15    0.12    0.16    0.13            0.41    0.44    0.44           0.27     0.31
A14        73.04   74.19   59.36          89.01    3.15    1.86           3.66   30.45           0.10    0.14    0.15    0.13            0.50    0.59    0.64           0.34     0.39 
A15        74.41   76.89   58.15          90.27    0.56    5.25           5.28   83.92           0.09    0.12    0.16    0.11            0.53    0.61    0.66           0.32     0.39
A16        69.70   72.29   58.61          88.11   -0.01    1.05           1.06   90.89           0.13    0.14    0.16    0.14            0.52    0.57    0.61           0.31     0.36
A17        73.04   74.67   57.36          89.24    2.18    4.27           4.80   62.97           0.10    0.14    0.17    0.12            0.45    0.52    0.58           0.27     0.34
A18        71.48   75.05   57.21          89.41   -1.85    4.74           5.10  111.33           0.12    0.12    0.17    0.12            0.46    0.51    0.52           0.25     0.32 
A19        63.55   67.07   56.59          85.54   -2.55   -1.30           2.87  206.78           0.19    0.17    0.17    0.18            0.60    0.63    0.62           0.34     0.41
A20         5.91    2.80    1.68          19.24   45.22    6.20          45.65    7.81           0.85    2.63    1.68    1.41            0.12    0.06    0.06           0.40     0.50 
A21        25.31   17.61   13.10          49.02   39.84    3.84          40.03    5.50           0.36    1.06    0.81    0.69            0.39    0.32    0.34           0.44     0.53
A22        51.75   46.99   29.58          74.18   17.61   13.42          22.14   37.32           0.16    0.41    0.47    0.30            0.61    0.70    0.61           0.52     0.64
B1          3.09    2.76    1.53          19.04    7.83    7.45          10.81   43.60           1.38    1.70    1.86    1.53            0.08    0.07    0.06           0.37     0.44
B2          3.65    2.76    0.99          19.07   16.70   14.64          22.21   41.23           1.22    1.82    2.07    1.50            0.09    0.07    0.04           0.36     0.43
B3          4.26    2.81    0.54          19.26   24.84   23.08          33.91   42.89           1.09    1.96    2.39    1.46            0.11    0.07    0.02           0.43     0.49
B4          5.03    2.73    0.15          18.95   36.16   29.89          46.92   39.58           0.95    2.29    3.08    1.43            0.11    0.06    0.00           0.45     0.59
B5         12.02   10.67    5.78          39.01   12.63   12.39          17.69   44.44           0.79    1.10    1.24    0.94            0.23    0.20    0.16           0.40     0.48
B6         14.18   10.76    3.68          39.17   26.09   24.20          35.59   42.85           0.63    1.21    1.46    0.91            0.29    0.22    0.12           0.43     0.51
B7         16.33   10.79    2.32          39.22   38.60   34.43          51.72   41.73           0.50    1.35    1.69    0.88            0.30    0.20    0.08           0.46     0.54
B8         20.01   10.97    1.06          39.53   56.69   48.97          74.91   40.82           0.34    1.64    2.07    0.83            0.13    0.09    0.04           0.30     0.43
B9         32.89   32.65   23.45          63.87    5.08    6.22           8.04   50.73           0.43    0.53    0.58    0.48            0.46    0.39    0.44           0.48     0.56
B10        34.79   32.79   20.83          63.99   11.18   11.53          16.06   45.89           0.36    0.56    0.64    0.46            0.36    0.31    0.36           0.43     0.51
B11        36.29   32.67   18.50          63.89   16.64   16.25          23.26   44.32           0.31    0.59    0.70    0.46            0.37    0.31    0.32           0.45     0.51
B12        41.33   32.99   13.67          64.15   31.51   28.35          42.39   41.98           0.18    0.66    0.84    0.43            0.25    0.27    0.24           0.41     0.51
B13        63.00   68.64   55.92          86.33   -7.20    0.76           7.25  173.97           0.22    0.14    0.18    0.17            0.37    0.38    0.37           0.30     0.35
B14        66.95   65.75   55.67          84.87    7.97   -1.50           8.11  349.33           0.12    0.21    0.17    0.18            0.42    0.49    0.53           0.27     0.34
B15        70.52   73.23   50.62          88.56   -0.19   10.33          10.34   91.08           0.11    0.14    0.23    0.13            0.41    0.50    0.53           0.33     0.39
B16        56.26   58.35   47.43          80.93   -0.01    0.84           0.86   90.82           0.23    0.24    0.25    0.23            0.53    0.54    0.53           0.33     0.39
B17        64.95   63.78   49.11          83.85    7.90    3.94           8.83   26.49           0.12    0.23    0.24    0.19            0.45    0.51    0.58           0.31     0.38
B18        61.66   67.48   49.38          85.75   -7.80    6.89          10.41  138.52           0.21    0.15    0.24    0.18            0.42    0.45    0.46           0.31     0.37
B19        57.79   59.98   53.33          81.83   -0.12   -4.25           4.25  268.46           0.23    0.22    0.19    0.22            0.42    0.46    0.46           0.29     0.36
B20         4.50    2.68    0.85          18.71   30.44   16.39          34.58   28.31           1.03    2.12    2.09    1.47            0.16    0.10    0.05           0.44     0.56
B21        16.10   10.66    3.62          39.00   38.30   24.30          45.36   32.39           0.52    1.35    1.44    0.89            0.26    0.20    0.13           0.45     0.51
B22        31.73   26.78   15.29          58.77   22.90   14.91          27.33   33.06           0.34    0.72    0.78    0.53            0.42    0.43    0.36           0.51     0.58
C1          6.06    5.90    3.12          29.15    4.12   10.72          11.49   68.98           1.13    1.31    1.54    1.21            0.14    0.13    0.09           0.40     0.46
C2          6.42    5.81    1.94          28.92    9.01   20.12          22.04   65.87           1.06    1.36    1.80    1.20            0.14    0.12    0.07           0.41     0.47
C3          6.79    5.80    1.03          28.89   13.03   31.06          33.68   67.24           1.00    1.40    2.18    1.19            0.13    0.11    0.04           0.45     0.51
C4          7.24    5.78    0.40          28.84   17.72   42.14          45.72   67.20           0.95    1.45    2.85    1.18            0.14    0.11    0.01           0.49     0.56
C5         22.90   22.06   10.52          54.09    7.50   20.20          21.55   69.63           0.54    0.73    0.98    0.64            0.32    0.27    0.21           0.46     0.53
C6         24.57   21.83    5.75          53.85   15.92   38.13          41.33   67.33           0.45    0.78    1.31    0.62            0.32    0.26    0.14           0.45     0.51
C7         26.34   21.68    2.81          53.69   24.04   55.30          60.30   66.50           0.38    0.83    1.74    0.61            0.29    0.22    0.08           0.49     0.57
C8         28.88   21.73    0.78          53.74   33.93   78.00          85.06   66.49           0.31    0.91    2.73    0.59            0.25    0.18    0.01           0.31     0.36
C9         38.73   38.93   26.27          68.70    3.82    9.47          10.21   68.00           0.36    0.44    0.53    0.40            0.38    0.31    0.34           0.42     0.49
C10        39.71   38.98   22.11          68.73    6.77   17.16          18.45   68.47           0.32    0.46    0.62    0.39            0.32    0.28    0.34           0.43     0.51
C11        41.12   39.16   18.02          68.87   10.57   25.89          27.97   67.79           0.27    0.47    0.73    0.38            0.30    0.25    0.30           0.43     0.52
C12        46.08   39.71    8.22          69.26   23.41   54.29          59.13   66.67           0.16    0.53    1.16    0.35            0.15    0.18    0.14           0.36     0.46
C13        55.62   63.41   54.20          83.66  -13.34   -2.02          13.49  188.62           0.31    0.16    0.20    0.21            0.25    0.25    0.29           0.32     0.38
C14        61.44   57.01   52.87          80.19   15.66   -6.57          16.98  337.22           0.13    0.30    0.19    0.23            0.32    0.37    0.41           0.26     0.33
C15        68.09   71.19   39.90          87.58   -1.19   21.61          21.64   93.16           0.11    0.15    0.35    0.14            0.31    0.40    0.34           0.31     0.37
C16        42.36   44.05   35.26          72.26   -0.32    1.53           1.59  101.11           0.36    0.37    0.39    0.36            0.44    0.43    0.41           0.37     0.44
C17        56.57   52.31   36.96          77.47   15.69    8.13          17.67   27.40           0.14    0.35    0.37    0.26            0.33    0.37    0.42           0.32     0.38
C18        52.53   60.75   38.52          82.25  -15.11   14.25          20.77  136.67           0.31    0.18    0.37    0.23            0.37    0.43    0.40           0.36     0.44
C19        45.69   47.43   48.95          74.47   -0.12  -12.07          12.07  269.45           0.36    0.33    0.23    0.33            0.37    0.41    0.41           0.37     0.43
C20        11.75    8.52    1.03          35.04   27.85   41.65          50.11   56.23           0.69    1.36    2.19    0.99            0.19    0.17    0.05           0.46     0.51
C21        20.81   19.17    9.96          50.88   11.62   16.47          20.16   54.80           0.56    0.81    0.99    0.69            0.29    0.30    0.23           0.51     0.58
C22        26.21   21.89    9.59          53.91   22.53   22.93          32.15   45.51           0.41    0.82    1.01    0.62            0.35    0.35    0.25           0.50     0.57
D1          3.90    4.09    2.18          23.97   -0.74    9.36           9.39   94.49           1.36    1.43    1.72    1.38            0.08    0.08    0.07           0.38     0.43
D2          3.90    4.13    1.41          24.10   -1.24   17.68          17.73   94.00           1.36    1.42    1.98    1.37            0.08    0.09    0.06           0.39     0.45
D3          3.86    4.11    0.80          24.04   -1.55   26.47          26.51   93.35           1.36    1.41    2.36    1.37            0.07    0.07    0.03           0.35     0.39
D4          3.79    4.04    0.43          23.80   -1.51   32.91          32.94   92.64           1.38    1.42    2.82    1.37            0.08    0.07    0.00           0.42     0.47
D5         16.63   17.42    8.32          48.78   -0.90   18.61          18.64   92.78           0.73    0.79    1.10    0.75            0.23    0.21    0.14           0.41     0.46
D6         16.65   17.35    4.44          48.69   -0.40   36.03          36.03   90.64           0.71    0.79    1.47    0.74            0.22    0.20    0.09           0.48     0.53
D7         16.37   17.29    2.18          48.62   -1.72   51.90          51.93   91.90           0.73    0.78    1.96    0.74            0.22    0.22    0.06           0.49     0.56
D8         16.50   17.43    0.96          48.79   -1.70   66.43          66.45   91.47           0.74    0.78    2.69    0.73            0.22    0.19    0.01           0.47     0.53
D9         44.63   46.59   22.55          73.93   -0.86   25.27          25.29   91.95           0.29    0.35    0.63    0.32            0.36    0.31    0.32           0.42     0.49
D10        44.80   47.08   12.84          74.24   -1.70   48.02          48.05   92.02           0.28    0.34    0.95    0.31            0.22    0.19    0.18           0.43     0.50
D11        44.53   47.06    6.49          74.23   -2.43   69.89          69.93   91.99           0.28    0.34    1.39    0.31            0.23    0.24    0.11           0.45     0.57
D12        44.33   47.38    2.32          74.43   -3.88   95.14          95.22   92.34           0.30    0.33    2.29    0.30            0.15    0.17    0.04           0.40     0.46
D13        49.72   59.06   52.98          81.32  -18.56   -4.73          19.15  194.30           0.40    0.17    0.21    0.25            0.21    0.23    0.27           0.32     0.38
D14        56.16   49.07   49.99          75.49   23.19  -11.48          25.87  333.66           0.15    0.40    0.21    0.29            0.29    0.31    0.37           0.28     0.36
D15        66.23   69.45   31.43          86.73   -1.63   32.14          32.18   92.89           0.12    0.16    0.48    0.15            0.27    0.35    0.25           0.32     0.41
D16        31.92   33.21   26.31          64.33   -0.38    1.88           1.94  100.68           0.48    0.49    0.53    0.48            0.31    0.28    0.27           0.39     0.46
D17        49.10   42.42   27.17          71.16   23.59   12.17          26.55   27.30           0.16    0.49    0.51    0.34            0.31    0.36    0.34           0.37     0.44
D18        45.37   55.19   30.19          79.15  -21.22   21.02          29.87  135.28           0.40    0.20    0.50    0.27            0.39    0.48    0.38           0.45     0.53
D19        36.08   37.30   45.25          67.50    0.37  -19.73          19.74  271.08           0.49    0.43    0.26    0.44            0.35    0.39    0.38           0.41     0.46
D20         2.76    2.75    1.00          19.02    1.95   14.50          14.63   82.32           1.47    1.63    2.13    1.54            0.07    0.08    0.05           0.43     0.49
D21        29.67   26.83    1.30          58.82   15.06   78.83          80.26   79.18           0.39    0.68    2.48    0.53            0.32    0.36    0.04           0.48     0.56
D22        39.74   42.24   47.41          71.03   -3.05  -16.21          16.50  259.34           0.45    0.37    0.24    0.39            0.49    0.58    0.52           0.51     0.56
E1          5.13    5.85    3.12          29.03   -6.08   10.53          12.15  119.99           1.30    1.23    1.56    1.24            0.09    0.09    0.08           0.33     0.39
E2          4.63    5.73    2.03          28.72  -11.00   18.99          21.94  120.08           1.38    1.21    1.83    1.25            0.07    0.09    0.05           0.33     0.37
E3          4.29    5.76    1.12          28.79  -15.89   29.51          33.51  118.30           1.47    1.17    2.25    1.25            0.08    0.10    0.04           0.34     0.38
E4          3.89    5.71    0.64          28.68  -21.04   37.42          42.93  119.35           1.60    1.13    2.76    1.26            0.07    0.09    0.01           0.36     0.43
E5         23.50   26.75   13.51          58.74   -9.83   19.44          21.78  116.81           0.64    0.56    0.88    0.58            0.28    0.28    0.19           0.44     0.49
E6         21.63   26.98    8.49          58.96  -19.27   35.52          40.41  118.47           0.72    0.52    1.16    0.58            0.22    0.25    0.10           0.45     0.51
E7         19.60   26.81    4.55          58.79  -28.38   52.82          59.97  118.25           0.82    0.48    1.59    0.58            0.18    0.19    0.10           0.52     0.62
E8         17.73   27.14    2.28          59.10  -39.38   69.02          79.47  119.71           0.99    0.43    2.23    0.59            0.16    0.19    0.04           0.36     0.44
E9         42.66   46.33   29.98          73.76   -5.90   12.04          13.41  116.11           0.36    0.33    0.48    0.34            0.29    0.25    0.27           0.39     0.44
E10        41.27   47.25   23.37          74.35  -12.61   24.44          27.51  117.29           0.39    0.30    0.62    0.33            0.20    0.17    0.21           0.44     0.52
E11        39.23   47.39   18.41          74.44  -19.32   34.63          39.65  119.15           0.44    0.28    0.76    0.33            0.14    0.14    0.17           0.41     0.51
E12        36.54   46.98   12.39          74.18  -26.89   49.18          56.05  118.67           0.50    0.26    1.00    0.34            0.12    0.14    0.12           0.44     0.53
E13        44.25   54.84   51.82          78.95  -23.58   -7.57          24.76  197.79           0.50    0.19    0.22    0.29            0.19    0.20    0.24           0.33     0.40
E14        50.35   40.92   46.62          70.12   31.42  -16.85          35.65  331.79           0.17    0.53    0.23    0.36            0.22    0.24    0.31           0.31     0.37
E15        64.62   67.73   24.06          85.87   -1.55   43.03          43.05   92.06           0.12    0.18    0.62    0.16            0.21    0.30    0.18           0.35     0.45
E16        23.05   23.91   19.00          56.00   -0.02    1.55           1.58   89.63           0.62    0.64    0.68    0.62            0.19    0.20    0.15           0.39     0.46
E17        41.53   32.98   18.73          64.14   32.17   16.18          36.01   26.70           0.19    0.66    0.68    0.43            0.28    0.30    0.23           0.35     0.41
E18        39.00   50.00   23.05          76.07  -27.08   28.01          38.96  134.03           0.49    0.23    0.64    0.32            0.31    0.41    0.24           0.42     0.48
E19        27.71   28.32   41.55          60.18    1.61  -27.77          27.81  273.31           0.64    0.55    0.29    0.57            0.34    0.39    0.41           0.47     0.53
E20         6.65    7.88    1.20          33.72   -9.30   36.90          38.05  104.15           1.19    1.08    2.24    1.10            0.11    0.15    0.05           0.48     0.53
E21        23.53   28.03    5.69          59.91  -14.76   48.86          51.04  106.81           0.64    0.52    1.41    0.55            0.31    0.41    0.13           0.59     0.69
E22         7.86   17.15   12.17          48.45  -61.00    5.47          61.24  174.88           1.93    0.54    0.96    0.85            0.14    0.25    0.25           0.46     0.54
F1          3.30    4.08    2.78          23.95   -9.93    4.29          10.82  156.63           1.56    1.36    1.60    1.41            0.06    0.07    0.07           0.31     0.35
F2          2.65    4.00    2.38          23.67  -20.18    7.10          21.39  160.62           1.79    1.30    1.72    1.44            0.05    0.06    0.06           0.28     0.34
F3          2.21    4.03    1.99          23.77  -29.47   10.82          31.39  159.85           2.04    1.24    1.85    1.45            0.05    0.07    0.05           0.38     0.43
F4          1.63    4.01    1.53          23.71  -42.82   15.48          45.53  160.12           2.55    1.16    2.07    1.48            0.03    0.06    0.04           0.35     0.43
F5         10.81   13.65    9.10          43.73  -16.39    7.09          17.86  156.60           1.07    0.81    1.05    0.89            0.13    0.15    0.14           0.38     0.42
F6          8.71   13.71    7.63          43.82  -33.52   12.68          35.84  159.28           1.35    0.74    1.17    0.91            0.12    0.17    0.12           0.43     0.50
F7          7.08   13.92    6.31          44.12  -49.82   18.75          53.23  159.37           1.68    0.66    1.31    0.92            0.11    0.19    0.10           0.47     0.56
F8          5.84   13.70    5.45          43.80  -61.36   22.24          65.27  160.08           2.03    0.63    1.43    0.94            0.09    0.18    0.09           0.47     0.55
F9         28.06   32.31   23.62          63.60  -11.79    5.44          12.98  155.23           0.60    0.46    0.59    0.50            0.28    0.28    0.25           0.42     0.48
F10        25.16   32.52   21.57          63.77  -24.34    9.67          26.19  158.33           0.73    0.42    0.65    0.51            0.19    0.20    0.19           0.43     0.48
F11        22.67   32.65   19.74          63.88  -35.69   13.56          38.18  159.20           0.86    0.38    0.70    0.52            0.12    0.13    0.20           0.44     0.52
F12        19.56   32.94   17.17          64.11  -51.52   19.61          55.13  159.16           1.08    0.32    0.80    0.53            0.14    0.14    0.19           0.51     0.58
F13        39.28   50.80   50.63          76.56  -28.32  -10.36          30.16  200.10           0.61    0.20    0.23    0.33            0.14    0.20    0.24           0.31     0.36
F14        44.93   33.94   43.12          64.92   38.84  -21.57          44.43  330.95           0.19    0.66    0.26    0.43            0.20    0.20    0.28           0.31     0.39
F15        63.33   66.11   18.10          85.05   -0.95   53.62          53.63   91.01           0.11    0.19    0.78    0.16            0.28    0.37    0.16           0.40     0.47
F16        16.17   16.84   13.31          48.06   -0.39    1.56           1.63  102.84           0.78    0.80    0.84    0.77            0.19    0.21    0.16           0.36     0.45
F17        35.11   25.60   12.32          57.65   39.56   20.89          44.74   27.84           0.22    0.85    0.87    0.53            0.23    0.23    0.17           0.34     0.39
