targets/wolf_faust/transmissive/F160320.it8
IT8.7/1
ORIGINATOR "Wolf Faust"
DESCRIPTOR "Fujichrome Provia/Astia/Sensia, Type 3, L* a* b* (light D50, viewing angle 2)"
MANUFACTURER "Wolf Faust - http://www.coloraid.de"
CREATED "April 02, 2016"
PROD_DATE "2014:03"
DIFFUSE_GEOMETRY "opal"
SERIAL "F160320 Batch Average Data"
MATERIAL "Fujichrome Provia 100F (RDP III)"
KEYWORD "MEAN_DE" # Mean Delta E of samples compared to batch average
NUMBER_OF_FIELDS 18
BEGIN_DATA_FORMAT
SAMPLE_ID  XYZ_X   XYZ_Y   XYZ_Z          LAB_L   LAB_A   LAB_B          LAB_C   LAB_H          D_RED  D_GREEN  D_BLUE  D_VIS          STDEV_X STDEV_Y STDEV_Z        MEAN_DE  STDEV_DE
END_DATA_FORMAT
NUMBER_OF_SETS 288
BEGIN_DATA
A1          2.03    1.73    1.23          14.02    8.70    2.59           9.08   16.56           1.55    1.93    1.94    1.73            0.04    0.04    0.03           0.22     0.25
A2          2.49    1.71    0.98          13.87   19.08    5.85          19.96   17.05           1.36    2.13    2.02    1.69            0.04    0.03    0.03           0.26     0.30 
A3          3.18    1.81    0.87          14.45   29.00    8.58          30.24   16.49           1.18    2.36    2.04    1.63            0.04    0.02    0.02           0.25     0.28
A4          3.61    1.79    0.74          14.33   36.51   10.73          38.05   16.38           1.07    2.72    2.08    1.61            0.04    0.02    0.01           0.22     0.26 
A5          9.28    8.00    5.44          33.97   13.70    5.38          14.72   21.44           0.89    1.25    1.25    1.07            0.09    0.08    0.06           0.23     0.26
A6         11.22    8.07    4.75          34.13   28.03    9.20          29.50   18.16           0.72    1.39    1.30    1.03            0.13    0.11    0.09           0.26     0.30 
A7         13.69    8.29    4.05          34.57   42.86   13.98          45.08   18.07           0.56    1.58    1.35    0.98            0.10    0.08    0.08           0.25     0.30
A8         16.63    8.37    3.34          34.74   59.62   18.81          62.51   17.51           0.41    1.96    1.40    0.94            0.03    0.03    0.04           0.22     0.26 
A9         27.88   27.10   20.57          59.07    7.06    3.57           7.92   26.76           0.49    0.62    0.64    0.56            0.27    0.29    0.25           0.39     0.44
A10        30.03   27.18   19.38          59.14   15.06    6.16          16.27   22.26           0.41    0.66    0.66    0.54            0.26    0.29    0.21           0.38     0.43
A11        32.00   27.09   18.13          59.06   22.62    8.72          24.25   21.09           0.34    0.71    0.69    0.53            0.26    0.28    0.20           0.38     0.43
A12        37.41   27.67   16.68          59.59   38.85   12.96          40.96   18.45           0.21    0.80    0.72    0.50            0.22    0.25    0.17           0.35     0.41 
A13        70.54   75.18   59.56          89.47   -4.10    2.46           4.78  149.09           0.14    0.11    0.15    0.13            0.22    0.23    0.24           0.17     0.20
A14        73.97   75.22   60.04          89.49    3.00    2.01           3.61   33.81           0.09    0.13    0.14    0.12            0.23    0.27    0.26           0.15     0.18 
A15        75.46   78.17   58.77          90.86    0.16    5.64           5.64   88.35           0.09    0.11    0.16    0.10            0.23    0.28    0.27           0.18     0.22
A16        70.69   73.55   59.21          88.71   -0.48    1.48           1.56  107.94           0.13    0.13    0.15    0.13            0.24    0.28    0.29           0.17     0.20
A17        74.14   76.05   57.83          89.88    1.67    4.91           5.19   71.21           0.09    0.13    0.16    0.12            0.24    0.28    0.31           0.19     0.22
A18        73.38   76.81   58.20          90.23   -1.41    5.14           5.33  105.38           0.11    0.11    0.16    0.11            0.17    0.23    0.24           0.18     0.20 
A19        65.12   68.79   57.30          86.40   -2.69   -0.55           2.75  191.54           0.18    0.16    0.17    0.17            0.28    0.29    0.23           0.20     0.22
A20         5.95    2.83    1.70          19.33   45.32    6.08          45.73    7.63           0.84    2.64    1.67    1.40            0.06    0.03    0.03           0.24     0.29 
A21        25.68   17.94   13.41          49.42   39.72    3.64          39.89    5.23           0.36    1.05    0.80    0.68            0.26    0.24    0.24           0.46     0.51
A22        52.48   47.83   30.16          74.72   17.21   13.42          21.83   37.94           0.16    0.40    0.46    0.30            0.36    0.44    0.31           0.41     0.46
B1          3.06    2.76    1.52          19.06    7.16    7.59          10.43   46.68           1.39    1.69    1.87    1.53            0.05    0.05    0.04           0.26     0.29
B2          3.61    2.76    0.99          19.06   16.19   14.69          21.86   42.21           1.23    1.81    2.08    1.50            0.05    0.04    0.03           0.25     0.28
B3          4.32    2.85    0.56          19.43   24.85   22.96          33.83   42.73           1.09    1.95    2.37    1.46            0.05    0.04    0.02           0.21     0.24
B4          5.08    2.77    0.15          19.10   36.22   30.04          47.06   39.67           0.94    2.28    3.04    1.43            0.06    0.04    0.00           0.21     0.28
B5         12.03   10.79    5.92          39.22   11.81   12.09          16.90   45.68           0.79    1.09    1.23    0.94            0.12    0.11    0.08           0.30     0.33
B6         14.23   10.89    3.68          39.39   25.50   24.56          35.40   43.92           0.63    1.20    1.47    0.90            0.12    0.10    0.05           0.23     0.26
B7         16.11   10.67    2.29          39.02   38.25   34.35          51.41   41.93           0.51    1.35    1.70    0.88            0.13    0.09    0.04           0.23     0.27
B8         20.08   10.99    1.05          39.56   56.90   49.17          75.20   40.84           0.34    1.65    2.07    0.83            0.06    0.05    0.03           0.27     0.33
B9         32.86   32.69   23.24          63.91    4.81    6.68           8.23   54.22           0.43    0.53    0.59    0.48            0.21    0.24    0.17           0.38     0.43
B10        34.82   32.84   20.96          64.03   11.08   11.34          15.86   45.65           0.36    0.55    0.64    0.46            0.28    0.29    0.13           0.35     0.41
B11        36.56   33.02   18.37          64.18   16.30   17.03          23.57   46.25           0.31    0.58    0.70    0.45            0.25    0.27    0.13           0.36     0.42
B12        41.60   33.21   13.47          64.33   31.54   29.21          42.99   42.80           0.18    0.66    0.85    0.43            0.16    0.21    0.09           0.26     0.31
B13        63.59   69.49   56.22          86.74   -7.64    1.17           7.73  171.32           0.21    0.14    0.18    0.17            0.18    0.17    0.13           0.16     0.19
B14        67.58   66.43   56.03          85.21    7.87   -1.28           7.97  350.75           0.12    0.21    0.17    0.17            0.15    0.21    0.15           0.17     0.21
B15        71.28   74.28   50.99          89.05   -0.72   10.78          10.80   93.82           0.11    0.13    0.23    0.13            0.11    0.14    0.13           0.15     0.18
B16        56.64   58.78   47.74          81.17   -0.08    0.89           0.91   95.15           0.23    0.24    0.25    0.23            0.24    0.27    0.13           0.29     0.33
B17        65.41   64.29   49.32          84.12    7.79    4.14           8.83   28.00           0.12    0.22    0.23    0.18            0.20    0.28    0.22           0.28     0.33
B18        62.28   68.35   49.67          86.18   -8.25    7.32          11.03  138.42           0.21    0.15    0.24    0.17            0.17    0.17    0.15           0.22     0.24
B19        58.12   60.38   53.53          82.05   -0.26   -4.09           4.10  266.41           0.23    0.22    0.19    0.22            0.30    0.33    0.21           0.27     0.30
B20         4.55    2.72    0.84          18.87   30.39   16.70          34.68   28.79           1.03    2.11    2.10    1.46            0.07    0.05    0.03           0.24     0.28
B21        16.33   10.88    3.68          39.37   38.00   24.57          45.25   32.89           0.51    1.34    1.44    0.88            0.16    0.13    0.07           0.25     0.28
B22        32.11   27.21   15.62          59.17   22.57   14.76          26.97   33.19           0.33    0.71    0.77    0.53            0.28    0.30    0.18           0.41     0.44
C1          5.97    5.85    3.11          29.03    3.68   10.60          11.22   70.86           1.14    1.31    1.55    1.22            0.07    0.07    0.05           0.23     0.26
C2          6.38    5.84    1.94          28.99    8.35   20.32          21.97   67.66           1.06    1.35    1.81    1.20            0.07    0.06    0.04           0.25     0.29
C3          6.79    5.85    1.06          29.03   12.33   30.74          33.12   68.15           1.00    1.38    2.17    1.19            0.06    0.06    0.03           0.28     0.31
C4          7.28    5.78    0.40          28.86   17.96   42.18          45.84   66.93           0.94    1.45    2.84    1.17            0.06    0.05    0.01           0.20     0.23
C5         22.90   22.17   10.55          54.21    7.03   20.30          21.48   70.91           0.54    0.72    0.98    0.63            0.16    0.18    0.13           0.34     0.40
C6         24.61   21.96    5.80          53.98   15.49   38.14          41.17   67.90           0.45    0.77    1.31    0.62            0.18    0.19    0.07           0.27     0.32
C7         26.51   21.90    2.82          53.92   23.74   55.66          60.51   66.90           0.38    0.83    1.74    0.60            0.09    0.11    0.04           0.29     0.32
C8         29.08   21.95    0.78          53.97   33.70   78.38          85.32   66.73           0.31    0.90    2.75    0.59            0.12    0.11    0.01           0.20     0.22
C9         39.09   39.47   26.58          69.09    3.26    9.62          10.16   71.26           0.35    0.43    0.53    0.40            0.17    0.18    0.18           0.34     0.40
C10        40.12   39.57   22.39          69.16    6.20   17.34          18.42   70.32           0.32    0.45    0.62    0.39            0.22    0.22    0.09           0.29     0.33
C11        41.31   39.62   18.26          69.20    9.70   25.92          27.68   69.48           0.28    0.46    0.72    0.38            0.20    0.21    0.09           0.29     0.33
C12        46.41   40.00    8.11          69.47   23.43   55.07          59.84   66.95           0.15    0.53    1.17    0.35            0.18    0.24    0.07           0.27     0.32
C13        56.16   64.21   54.55          84.08  -13.80   -1.68          13.90  186.94           0.31    0.15    0.19    0.21            0.18    0.17    0.10           0.20     0.24
C14        62.15   57.84   53.24          80.65   15.32   -6.19          16.53  338.01           0.13    0.30    0.19    0.23            0.15    0.22    0.13           0.22     0.27
C15        68.82   72.19   40.40          88.06   -1.69   21.79          21.85   94.43           0.11    0.14    0.35    0.13            0.14    0.18    0.18           0.17     0.19
C16        42.78   44.62   35.79          72.64   -0.70    1.44           1.61  115.84           0.35    0.36    0.38    0.35            0.32    0.37    0.22           0.33     0.39
C17        57.13   52.96   37.32          77.85   15.40    8.30          17.50   28.32           0.14    0.35    0.36    0.26            0.18    0.21    0.29           0.30     0.36
C18        53.05   61.54   39.00          82.67  -15.58   14.33          21.17  137.39           0.31    0.17    0.37    0.22            0.30    0.29    0.18           0.28     0.32
C19        46.03   47.94   49.16          74.79   -0.56  -11.75          11.76  267.28           0.36    0.32    0.23    0.33            0.25    0.29    0.36           0.35     0.40
C20        11.69    8.56    1.03          35.12   27.14   41.75          49.80   56.98           0.69    1.35    2.19    0.99            0.12    0.10    0.03           0.27     0.30
C21        20.80   19.36   10.18          51.11   10.63   16.14          19.33   56.63           0.57    0.80    0.98    0.69            0.19    0.22    0.12           0.35     0.40
C22        26.48   22.22    9.77          54.26   22.15   22.94          31.89   46.00           0.40    0.81    1.00    0.61            0.19    0.21    0.13           0.32     0.37
D1          3.88    4.13    2.19          24.10   -1.46    9.50           9.61   98.72           1.37    1.42    1.72    1.38            0.05    0.06    0.03           0.22     0.24
D2          3.81    4.05    1.37          23.85   -1.48   17.64          17.70   94.81           1.37    1.43    2.00    1.38            0.05    0.06    0.03           0.26     0.29
D3          3.83    4.13    0.79          24.09   -2.24   26.67          26.77   94.79           1.37    1.41    2.37    1.37            0.04    0.05    0.02           0.22     0.24
D4          3.82    4.09    0.43          23.95   -1.74   33.12          33.16   93.01           1.38    1.41    2.83    1.37            0.03    0.04    0.01           0.25     0.28
D5         16.57   17.44    8.48          48.81   -1.35   18.07          18.12   94.28           0.73    0.79    1.09    0.75            0.12    0.14    0.09           0.33     0.37
D6         16.44   17.31    4.50          48.65   -1.40   35.62          35.65   92.25           0.72    0.79    1.46    0.75            0.12    0.15    0.05           0.31     0.36
D7         16.45   17.49    2.19          48.87   -2.30   52.19          52.24   92.53           0.73    0.78    1.96    0.74            0.13    0.14    0.03           0.31     0.35
D8         16.48   17.49    0.96          48.88   -2.19   66.58          66.62   91.88           0.75    0.77    2.71    0.73            0.09    0.10    0.01           0.27     0.33
D9         45.38   47.34   22.80          74.41   -0.76   25.61          25.62   91.71           0.29    0.34    0.62    0.31            0.32    0.35    0.24           0.33     0.39
D10        45.39   47.71   12.94          74.64   -1.74   48.43          48.47   92.06           0.27    0.34    0.95    0.31            0.19    0.19    0.06           0.24     0.27
D11        44.94   47.56    6.52          74.55   -2.62   70.28          70.33   92.13           0.27    0.33    1.39    0.30            0.21    0.24    0.07           0.27     0.30
D12        44.58   47.76    2.22          74.67   -4.22   96.41          96.50   92.51           0.30    0.32    2.36    0.30            0.24    0.26    0.03           0.31     0.35
D13        49.94   59.60   53.23          81.62  -19.22   -4.49          19.74  193.16           0.41    0.17    0.21    0.25            0.25    0.22    0.09           0.22     0.28
D14        56.78   49.74   50.32          75.91   22.93  -11.13          25.49  334.12           0.14    0.40    0.21    0.28            0.25    0.32    0.18           0.30     0.36
D15        66.93   70.42   31.96          87.20   -2.12   32.15          32.22   93.78           0.11    0.16    0.47    0.14            0.18    0.21    0.21           0.18     0.22
D16        32.04   33.58   26.85          64.63   -1.21    1.45           1.90  129.66           0.48    0.49    0.52    0.48            0.34    0.40    0.23           0.39     0.47
D17        49.64   43.04   27.60          71.58   23.24   12.18          26.24   27.65           0.16    0.48    0.50    0.33            0.21    0.25    0.25           0.33     0.41
D18        45.67   55.84   30.78          79.52  -21.97   20.72          30.20  136.68           0.40    0.20    0.49    0.27            0.34    0.33    0.23           0.28     0.33
D19        36.16   37.68   45.44          67.78   -0.58  -19.47          19.48  268.29           0.49    0.42    0.26    0.44            0.26    0.29    0.34           0.41     0.47
D20         2.67    2.68    1.01          18.72    1.59   13.77          13.87   83.40           1.49    1.64    2.12    1.55            0.04    0.05    0.02           0.27     0.30
D21        29.69   27.13    1.31          59.09   13.95   79.21          80.43   80.01           0.40    0.66    2.49    0.52            0.17    0.18    0.01           0.28     0.33
D22        40.02   42.83   47.67          71.44   -3.94  -15.80          16.29  256.01           0.45    0.36    0.24    0.38            0.30    0.35    0.31           0.37     0.41
E1          5.05    5.78    3.10          28.85   -6.31   10.37          12.14  121.30           1.30    1.24    1.57    1.24            0.07    0.08    0.05           0.25     0.28
E2          4.63    5.81    2.03          28.92  -11.87   19.31          22.67  121.59           1.39    1.20    1.84    1.25            0.06    0.07    0.04           0.30     0.33
E3          4.22    5.71    1.11          28.66  -16.28   29.46          33.66  118.92           1.48    1.17    2.26    1.26            0.05    0.07    0.02           0.27     0.31
E4          3.85    5.71    0.64          28.67  -21.72   37.44          43.28  120.12           1.62    1.12    2.77    1.26            0.03    0.05    0.01           0.33     0.38
E5         23.60   27.00   13.81          58.97  -10.38   19.06          21.71  118.58           0.64    0.55    0.87    0.57            0.07    0.09    0.11           0.27     0.29
E6         21.65   27.13    8.52          59.10  -19.80   35.67          40.80  119.04           0.72    0.51    1.16    0.57            0.09    0.12    0.04           0.27     0.33
E7         19.61   26.98    4.69          58.96  -29.07   52.35          59.88  119.04           0.83    0.48    1.57    0.58            0.13    0.20    0.04           0.35     0.41
E8         17.71   27.19    2.23          59.15  -39.74   69.54          80.09  119.74           1.00    0.43    2.26    0.59            0.21    0.30    0.04           0.40     0.47
E9         43.14   47.07   30.42          74.24   -6.54   12.17          13.82  118.24           0.36    0.32    0.47    0.33            0.28    0.29    0.20           0.32     0.36
E10        41.27   47.25   23.68          74.35  -12.61   23.86          26.98  117.85           0.39    0.30    0.61    0.33            0.25    0.27    0.21           0.26     0.31
E11        39.50   47.66   18.65          74.61  -19.22   34.41          39.42  119.18           0.43    0.27    0.75    0.33            0.24    0.25    0.17           0.28     0.32
E12        36.51   47.29   12.23          74.37  -27.81   49.97          57.19  119.10           0.51    0.25    1.01    0.33            0.25    0.23    0.13           0.31     0.36
E13        44.74   55.56   52.12          79.36  -23.97   -7.17          25.02  196.66           0.50    0.18    0.22    0.28            0.28    0.24    0.10           0.27     0.33
E14        51.01   41.62   46.97          70.61   31.07  -16.42          35.15  332.14           0.16    0.52    0.23    0.35            0.33    0.40    0.28           0.35     0.47
E15        65.25   68.61   24.46          86.31   -2.03   43.05          43.10   92.69           0.11    0.17    0.62    0.15            0.28    0.37    0.24           0.31     0.36
E16        23.30   24.30   19.40          56.39   -0.58    1.37           1.51  113.69           0.62    0.64    0.67    0.62            0.23    0.26    0.23           0.41     0.46
E17        42.11   33.60   19.11          64.64   31.74   16.23          35.65   27.08           0.18    0.65    0.67    0.43            0.26    0.29    0.25           0.38     0.46
E18        39.51   50.79   23.61          76.55  -27.55   27.79          39.13  134.75           0.49    0.22    0.63    0.31            0.37    0.36    0.23           0.39     0.45
E19        27.87   28.69   41.67          60.50    0.84  -27.37          27.38  271.75           0.64    0.55    0.29    0.56            0.39    0.45    0.48           0.56     0.62
E20         6.67    7.98    1.24          33.95  -10.02   36.76          38.10  105.25           1.20    1.07    2.23    1.09            0.10    0.13    0.03           0.35     0.43
E21        23.77   28.45    5.83          60.29  -15.34   48.86          51.21  107.43           0.64    0.51    1.40    0.54            0.20    0.26    0.07           0.35     0.39
E22         8.07   17.50   12.37          48.88  -61.00    5.63          61.26  174.73           1.91    0.54    0.95    0.84            0.12    0.20    0.13           0.34     0.37
F1          3.24    4.04    2.76          23.79  -10.19    4.18          11.02  157.68           1.57    1.36    1.61    1.42            0.04    0.05    0.04           0.21     0.24
F2          2.64    4.05    2.38          23.83  -21.01    7.30          22.24  160.84           1.80    1.29    1.72    1.44            0.04    0.05    0.03           0.26     0.29
F3          2.19    4.01    1.98          23.71  -29.56   10.78          31.47  159.96           2.04    1.24    1.86    1.45            0.03    0.05    0.03           0.21     0.23
F4          1.64    4.08    1.59          23.93  -43.39   15.21          45.98  160.68           2.55    1.16    2.06    1.47            0.02    0.05    0.03           0.26     0.29
F5         10.76   13.67    9.16          43.75  -16.81    6.89          18.17  157.70           1.08    0.81    1.05    0.89            0.09    0.10    0.06           0.24     0.27
F6          8.65   13.74    7.66          43.85  -34.16   12.63          36.42  159.71           1.35    0.73    1.17    0.91            0.07    0.10    0.06           0.22     0.26
F7          6.86   13.62    6.24          43.68  -50.02   18.31          53.27  159.89           1.70    0.67    1.32    0.93            0.06    0.09    0.04           0.20     0.24
F8          5.81   13.74    5.44          43.85  -61.94   22.38          65.86  160.13           2.04    0.62    1.44    0.94            0.07    0.10    0.06           0.24     0.29
F9         28.73   33.07   24.06          64.21  -11.78    5.68          13.08  154.29           0.59    0.45    0.58    0.49            0.24    0.30    0.19           0.33     0.38
F10        25.48   32.97   21.90          64.14  -24.55    9.64          26.38  158.56           0.72    0.41    0.64    0.51            0.28    0.32    0.21           0.32     0.37
F11        22.86   33.01   20.04          64.17  -36.09   13.44          38.51  159.57           0.86    0.37    0.70    0.52            0.24    0.28    0.17           0.27     0.32
F12        19.52   33.10   17.41          64.24  -52.29   19.28          55.73  159.76           1.09    0.32    0.79    0.53            0.24    0.25    0.17           0.38     0.47
F13        39.71   51.48   50.94          76.97  -28.71  -10.00          30.40  199.21           0.61    0.20    0.23    0.32            0.30    0.27    0.13           0.31     0.38
F14        45.81   34.87   43.67          65.65   38.22  -21.00          43.61  331.22           0.19    0.64    0.25    0.42            0.31    0.35    0.22           0.37     0.46
F15        63.86   66.87   18.10          85.44   -1.41   54.29          54.31   91.48           0.11    0.19    0.79    0.16            0.27    0.36    0.15           0.27     0.33
F16        16.36   17.22   13.45          48.53   -1.34    2.00           2.42  123.95           0.77    0.79    0.84    0.77            0.20    0.24    0.15           0.37     0.43
F17        35.82   26.35   12.47          58.37   38.89   21.70          44.53   29.16           0.21    0.83    0.87    0.52            0.21    0.23    0.17           0.33     0.38
