targets/wolf_faust/transmissive/N031018.it8
IT8.7/1
ORIGINATOR "Wolf Faust"
DESCRIPTOR "Velvia 100F and Astia 100F, Type 3, L* a* b* (light D50, viewing angle 2)"
MANUFACTURER "Wolf Faust - http://www.coloraid.de"
CREATED "December 29, 2003"
PROD_DATE "2003:10"
DIFFUSE_GEOMETRY "opal"
SERIAL "N031018 Batch average data"
MATERIAL "Fujichrome Velvia 100F (RVP 100F)"
KEYWORD "MEAN_DE" # Mean Delta E of samples compared to batch average
NUMBER_OF_FIELDS 17
BEGIN_DATA_FORMAT
SAMPLE_ID   XYZ_X   XYZ_Y   XYZ_Z          LAB_L   LAB_A   LAB_B          LAB_C   LAB_H          STDEV_X  STDEV_Y  STDEV_Z          STDEV_L  STDEV_A  STDEV_B        MEAN_DE  STDEV_DE
END_DATA_FORMAT
NUMBER_OF_SETS 288
BEGIN_DATA
A1           2.22    1.91    1.33          15.01    8.55    2.94           9.05   19.02            0.09     0.08     0.05            0.43     0.29     0.16           0.48    0.54
A2           2.82    1.93    1.14          15.13   19.81    5.64          20.60   15.88            0.09     0.07     0.04            0.40     0.34     0.13           0.48    0.54 
A3           3.25    1.80    0.91          14.41   30.42    7.86          31.42   14.48            0.10     0.06     0.04            0.35     0.25     0.19           0.41    0.47
A4           4.31    1.91    0.71          15.02   43.76   12.42          45.48   15.84            0.08     0.04     0.02            0.20     0.23     0.24           0.35    0.39 
A5           9.76    8.46    6.04          34.93   13.47    4.15          14.11   17.13            0.30     0.29     0.14            0.58     0.23     0.54           0.74    0.83
A6          11.62    8.35    5.22          34.69   28.47    7.72          29.50   15.17            0.27     0.20     0.14            0.40     0.38     0.45           0.63    0.71 
A7          13.86    8.43    4.53          34.85   42.74   11.68          44.30   15.28            0.21     0.16     0.11            0.32     0.27     0.39           0.51    0.57
A8          17.16    8.52    3.70          35.05   61.20   17.00          63.52   15.52            0.08     0.07     0.06            0.13     0.28     0.33           0.41    0.46 
A9          28.81   28.03   22.48          59.92    7.04    1.25           7.19   10.43            0.33     0.45     0.29            0.41     0.64     0.76           0.94    1.07
A10         30.80   28.05   21.50          59.94   14.47    3.18          14.83   12.50            0.27     0.41     0.21            0.37     0.69     0.68           0.88    1.04
A11         32.87   27.96   20.10          59.85   22.34    5.87          23.11   14.77            0.23     0.40     0.20            0.36     0.81     0.69           0.94    1.12
A12         36.28   28.45   18.81          60.29   32.12    9.37          33.47   16.28            0.11     0.25     0.23            0.22     0.81     0.57           0.90    1.02 
A13         68.52   71.19   57.92          87.58   -0.28    0.84           0.89   109.58            0.47     0.47     0.70            0.23     0.06     0.33           0.33    0.41
A14         67.74   68.97   56.45          86.49    2.72    0.49           2.80   10.47            0.41     0.33     0.71            0.16     0.20     0.47           0.42    0.53 
A15         71.25   73.47   58.19          88.67    0.89    2.44           2.60   69.91            0.57     0.57     0.69            0.27     0.04     0.29           0.33    0.40
A16         64.77   67.11   55.78          85.56    0.15   -0.42           0.50   270.60            0.31     0.27     0.50            0.14     0.17     0.36           0.35    0.42
A17         66.36   67.19   54.87          85.60    3.52    0.61           3.59   10.03            0.34     0.28     0.57            0.14     0.25     0.39           0.41    0.48
A18         67.75   70.65   56.23          87.31   -0.80    2.13           2.28   110.92            0.27     0.34     0.47            0.16     0.15     0.24           0.27    0.33 
A19         64.11   66.51   55.66          85.26   -0.06   -0.82           0.83   259.86            0.39     0.42     0.43            0.21     0.06     0.42           0.39    0.47
A20          1.81    1.15    0.43          10.15   20.23    9.31          22.27   24.71            0.05     0.04     0.02            0.27     0.31     0.25           0.41    0.49 
A21          5.53    2.90    0.42          19.64   39.23   25.93          47.02   33.46            0.14     0.08     0.02            0.35     0.21     0.37           0.47    0.55
A22         10.85    5.27    0.33          27.50   53.91   41.22          67.86   37.40            0.17     0.10     0.02            0.28     0.18     0.15           0.31    0.36
B1           3.30    2.92    1.71          19.72    8.36    6.67          10.70   38.61            0.10     0.10     0.05            0.42     0.28     0.36           0.56    0.62
B2           3.89    2.97    1.15          19.91   16.70   13.84          21.69   39.65            0.10     0.09     0.03            0.37     0.30     0.31           0.51    0.57
B3           4.62    3.09    0.69          20.38   24.84   22.13          33.26   41.70            0.10     0.08     0.03            0.30     0.31     0.19           0.41    0.47
B4           5.29    2.94    0.15          19.79   35.67   31.33          47.48   41.29            0.09     0.06     0.01            0.26     0.14     0.27           0.31    0.40
B5          12.51   11.20    6.53          39.92   12.09   10.56          16.05   41.12            0.29     0.27     0.14            0.45     0.32     0.47           0.65    0.73
B6          14.49   11.29    4.26          40.06   24.20   22.17          32.82   42.50            0.25     0.23     0.11            0.37     0.34     0.31           0.53    0.59
B7          16.76   11.26    2.58          40.01   37.64   33.60          50.45   41.75            0.18     0.16     0.07            0.27     0.28     0.33           0.45    0.51
B8          20.46   11.25    1.09          40.00   56.88   49.22          75.22   40.87            0.05     0.07     0.03            0.11     0.33     0.23           0.37    0.42
B9          33.53   33.14   25.43          64.27    5.62    3.30           6.57   30.61            0.40     0.57     0.21            0.46     0.62     0.77           0.96    1.10
B10         35.47   33.32   22.93          64.42   11.63    8.14          14.22   35.03            0.32     0.49     0.27            0.40     0.68     0.67           0.90    1.03
B11         37.23   33.59   20.49          64.63   16.54   13.31          21.25   38.83            0.24     0.42     0.19            0.34     0.69     0.60           0.84    0.97
B12         39.86   33.72   17.54          64.74   24.46   19.85          31.51   39.07            0.07     0.23     0.14            0.19     0.73     0.38           0.75    0.85
B13         59.07   64.45   55.48          84.20   -7.24   -2.45           7.65   198.64            0.32     0.29     0.54            0.15     0.17     0.40           0.40    0.46
B14         59.98   57.55   53.54          80.49   10.92   -6.78          12.86   328.25            0.24     0.22     0.69            0.12     0.63     0.82           0.91    1.04
B15         66.89   69.75   45.16          86.87   -0.79   13.77          13.79   93.27            0.40     0.43     0.29            0.21     0.06     0.23           0.27    0.32
B16         49.60   51.47   43.11          76.96   -0.07   -0.81           0.91   255.29            0.42     0.47     0.39            0.28     0.35     0.56           0.62    0.72
B17         56.12   54.06   41.51          78.50   10.15    3.86          10.88   20.91            0.45     0.61     0.37            0.36     0.58     0.43           0.71    0.80
B18         57.32   63.46   45.54          83.69   -9.27    7.82          12.13   139.84            0.52     0.45     0.43            0.24     0.40     0.11           0.42    0.47
B19         51.99   53.74   52.80          78.31    0.45   -9.74           9.75   272.55            0.53     0.55     0.54            0.32     0.34     0.76           0.77    0.89
B20          3.60    2.37    0.55          17.30   23.61   19.40          30.56   39.41            0.10     0.08     0.03            0.37     0.20     0.25           0.41    0.49
B21          9.97    4.92    0.39          26.50   51.53   38.35          64.23   36.66            0.13     0.08     0.01            0.23     0.17     0.34           0.37    0.44
B22         33.46   29.42   16.53          61.15   18.83   16.00          24.73   40.36            0.37     0.43     0.30            0.37     0.70     0.67           0.92    1.04
C1           6.24    6.11    3.31          29.67    3.89   10.27          10.99   69.20            0.20     0.20     0.12            0.50     0.29     0.34           0.59    0.67
C2           6.85    6.23    2.14          29.98    8.87   20.08          21.96   66.16            0.15     0.15     0.05            0.37     0.27     0.36           0.52    0.58
C3           7.17    6.20    1.22          29.92   12.30   30.05          32.47   67.73            0.18     0.17     0.04            0.41     0.27     0.33           0.54    0.59
C4           7.67    6.02    0.38          29.46   19.05   43.59          47.57   66.39            0.11     0.11     0.01            0.27     0.19     0.29           0.38    0.44
C5          23.86   23.18   11.78          55.26    6.77   18.34          19.56   69.72            0.36     0.48     0.20            0.49     0.61     0.56           0.84    0.96
C6          25.35   22.82    6.48          54.89   14.75   36.56          39.43   68.02            0.36     0.48     0.15            0.50     0.72     0.48           0.88    1.00
C7          27.08   22.50    3.07          54.55   23.32   54.90          59.66   66.98            0.32     0.44     0.09            0.46     0.71     0.29           0.79    0.89
C8          30.02   22.86    0.82          54.93   33.14   79.27          85.92   67.32            0.29     0.36     0.02            0.38     0.55     0.41           0.69    0.78
C9          40.04   40.51   28.25          69.83    3.07    8.07           8.65   69.05            0.40     0.55     0.26            0.39     0.48     0.52           0.72    0.81
C10         41.00   40.51   24.45          69.83    6.03   14.66          15.86   67.64            0.31     0.47     0.29            0.33     0.52     0.42           0.67    0.75
C11         42.18   40.45   20.03          69.79    9.78   23.16          25.15   67.11            0.26     0.44     0.20            0.31     0.60     0.41           0.69    0.79
C12         44.64   41.08   14.54          70.23   15.12   36.55          39.55   67.53            0.22     0.36     0.17            0.25     0.66     0.20           0.65    0.73
C13         53.36   60.62   54.78          82.17  -12.65   -5.20          13.68   202.36            0.38     0.35     0.41            0.19     0.28     0.22           0.36    0.40
C14         54.33   49.14   51.50          75.54   18.40  -13.08          22.58   324.60            0.33     0.30     0.64            0.19     0.71     0.70           0.89    1.01
C15         65.23   68.73   36.65          86.37   -2.32   23.91          24.02   95.54            0.53     0.58     0.22            0.29     0.07     0.36           0.40    0.46
C16         38.50   40.02   33.61          69.48   -0.27   -0.87           1.03   247.64            0.51     0.56     0.40            0.40     0.39     0.58           0.72    0.80
C17         48.51   44.12   31.70          72.31   17.04    6.86          18.38   21.98            0.30     0.32     0.34            0.21     0.67     0.47           0.76    0.85
C18         50.37   58.98   37.41          81.28  -16.64   14.10          21.81   139.74            0.46     0.46     0.39            0.25     0.38     0.29           0.48    0.54
C19         42.15   43.32   50.68          71.77    1.14  -18.67          18.71   273.45            0.47     0.52     0.68            0.35     0.46     0.95           1.01    1.12
C20          2.51    2.08    0.90          15.92   10.66   10.70          15.11   45.12            0.08     0.07     0.03            0.38     0.41     0.20           0.50    0.59
C21         26.82   21.29    7.63          53.26   27.84   28.98          40.20   46.15            0.60     0.57     0.29            0.63     0.72     0.40           0.90    1.04
C22         39.36   36.77   23.57          67.10   12.71   11.57          17.19   42.32            0.41     0.42     0.40            0.32     0.55     0.52           0.72    0.82
D1           4.19    4.37    2.44          24.87   -0.42    8.65           8.67   92.71            0.12     0.13     0.08            0.42     0.33     0.24           0.52    0.59
D2           4.03    4.25    1.56          24.48   -0.90   16.51          16.53   93.12            0.08     0.09     0.04            0.28     0.22     0.23           0.36    0.42
D3           4.13    4.37    0.87          24.86   -1.23   26.66          26.69   92.64            0.07     0.08     0.02            0.25     0.34     0.27           0.44    0.50
D4           4.11    4.32    0.40          24.70   -0.86   35.06          35.07   91.40            0.06     0.06     0.01            0.19     0.35     0.27           0.41    0.48
D5          17.37   18.19    9.48          49.73   -0.94   16.11          16.14   93.35            0.33     0.36     0.18            0.43     0.29     0.46           0.62    0.69
D6          17.17   18.13    4.95          49.65   -1.68   34.90          34.94   92.75            0.33     0.36     0.11            0.43     0.24     0.41           0.57    0.64
D7          17.04   18.07    2.46          49.58   -2.07   51.03          51.07   92.32            0.33     0.40     0.05            0.48     0.35     0.39           0.63    0.71
D8          17.46   18.90    0.98          50.57   -4.11   69.13          69.25   93.40            0.33     0.36     0.02            0.43     0.23     0.52           0.60    0.71
D9          45.50   47.67   24.95          74.61   -1.30   21.99          22.03   93.38            0.19     0.30     0.24            0.19     0.31     0.37           0.46    0.52
D10         45.38   47.83   14.02          74.72   -2.10   45.64          45.69   92.63            0.25     0.37     0.21            0.23     0.35     0.36           0.48    0.55
D11         44.70   47.43    6.89          74.46   -2.95   68.54          68.60   92.46            0.27     0.37     0.11            0.23     0.28     0.12           0.30    0.39
D12         44.61   47.41    2.37          74.45   -3.17   94.67          94.73   91.92            0.22     0.20     0.03            0.13     0.17     0.15           0.24    0.26
D13         48.09   56.95   54.38          80.15  -17.91   -8.26          19.73   204.76            0.30     0.28     0.32            0.16     0.27     0.25           0.35    0.40
D14         48.93   41.20   49.48          70.32   26.76  -19.82          33.31   323.48            0.29     0.28     0.45            0.19     0.69     0.59           0.82    0.93
D15         63.77   67.70   29.14          85.86   -3.42   34.25          34.42   95.70            0.58     0.63     0.26            0.32     0.07     0.32           0.38    0.45
D16         28.74   29.84   25.23          61.52   -0.14   -1.08           1.21   254.92            0.38     0.47     0.28            0.40     0.48     0.61           0.78    0.87
D17         40.80   34.29   22.54          65.19   25.42   10.23          27.41   21.93            0.23     0.25     0.23            0.20     0.69     0.44           0.75    0.85
D18         43.77   54.38   29.84          78.68  -23.85   20.77          31.63   138.95            0.38     0.42     0.37            0.24     0.37     0.28           0.46    0.53
D19         33.18   33.66   48.36          64.69    2.57  -28.24          28.36   275.19            0.39     0.48     0.48            0.38     0.50     0.81           0.93    1.03
D20         17.77   14.15    5.06          44.44   24.03   25.32          34.91   46.51            0.31     0.30     0.12            0.42     0.63     0.28           0.73    0.81
D21         26.36   25.69   16.73          57.74    6.67    9.65          11.75   55.27            0.36     0.38     0.36            0.36     0.54     0.72           0.84    0.97
D22         43.60   42.42   26.29          71.16    8.11   13.68          15.91   59.33            0.50     0.49     0.52            0.33     0.46     0.54           0.69    0.78
E1           5.44    6.13    3.48          29.72   -5.33    9.25          10.68   119.92            0.14     0.15     0.10            0.38     0.28     0.34           0.48    0.58
E2           4.96    6.08    2.24          29.61  -10.59   18.49          21.30   119.79            0.11     0.14     0.06            0.35     0.25     0.30           0.46    0.52
E3           4.64    6.27    1.42          30.09  -16.78   27.83          32.50   121.10            0.07     0.08     0.04            0.20     0.15     0.18           0.27    0.31
E4           4.13    6.27    0.59          30.07  -23.60   40.63          46.99   120.15            0.07     0.11     0.02            0.26     0.27     0.19           0.35    0.42
E5          24.23   27.66   15.10          59.58  -10.26   16.76          19.65   121.48            0.41     0.48     0.25            0.44     0.19     0.32           0.50    0.58
E6          22.22   27.69    9.42          59.61  -19.38   33.34          38.57   120.17            0.40     0.46     0.15            0.42     0.13     0.42           0.55    0.60
E7          20.19   27.76    5.06          59.67  -29.29   51.59          59.32   119.59            0.39     0.46     0.11            0.42     0.16     0.16           0.42    0.48
E8          17.70   27.58    1.87          59.51  -41.31   73.64          84.43   119.29            0.14     0.18     0.03            0.16     0.13     0.10           0.21    0.23
E9          43.97   47.79   32.83          74.69   -6.05    9.26          11.06   123.15            0.36     0.46     0.19            0.29     0.27     0.41           0.50    0.57
E10         41.47   47.53   25.78          74.53  -12.79   20.37          24.05   122.13            0.30     0.37     0.25            0.23     0.17     0.36           0.41    0.46
E11         39.78   47.58   20.07          74.56  -18.15   31.31          36.18   120.10            0.42     0.45     0.23            0.29     0.21     0.27           0.41    0.45
E12         35.75   47.17   10.28          74.30  -30.01   55.81          63.37   118.26            0.33     0.28     0.16            0.18     0.47     0.26           0.51    0.57
E13         43.18   53.32   53.79          78.06  -22.90  -11.24          25.51   206.13            0.38     0.37     0.48            0.22     0.39     0.36           0.51    0.58
E14         44.30   34.54   47.47          65.39   35.00  -26.00          43.60   323.39            0.25     0.30     0.50            0.23     0.86     0.74           1.02    1.16
E15         62.62   66.74   23.04          85.37   -3.96   44.06          44.24   95.14            0.54     0.59     0.22            0.30     0.06     0.48           0.50    0.56
E16         21.08   22.01   18.72          54.04   -0.66   -1.23           1.57   238.45            0.39     0.47     0.33            0.50     0.56     0.66           0.88    1.00
E17         34.67   26.67   15.47          58.67   33.69   14.26          36.59   22.96            0.22     0.28     0.17            0.26     0.82     0.44           0.85    0.96
E18         37.93   50.04   23.58          76.09  -30.60   27.05          40.84   138.52            0.39     0.42     0.30            0.26     0.44     0.35           0.54    0.61
E19         26.01   26.01   46.21          58.05    3.87  -37.18          37.39   275.93            0.39     0.49     0.47            0.47     0.59     0.94           1.09    1.21
E20         24.83   17.60    1.34          49.00   37.92   61.37          72.15   58.29            0.33     0.34     0.04            0.42     0.62     0.26           0.72    0.79
E21         21.69   18.55    4.63          50.15   18.94   37.51          42.02   63.21            0.35     0.38     0.13            0.45     0.64     0.45           0.80    0.90
E22         34.04   30.45   11.64          62.04   16.99   30.44          34.87   60.83            0.38     0.42     0.28            0.36     0.63     0.61           0.85    0.95
F1           3.45    4.19    3.02          24.27   -8.85    3.06           9.37   160.95            0.10     0.11     0.12            0.35     0.27     0.35           0.47    0.57
F2           2.98    4.42    2.66          25.00  -19.76    7.05          20.98   160.38            0.07     0.10     0.07            0.30     0.30     0.29           0.45    0.51
F3           2.50    4.47    2.26          25.16  -29.42   10.64          31.29   160.11            0.06     0.09     0.05            0.27     0.30     0.27           0.44    0.49
F4           1.63    4.69    1.61          25.83  -51.89   18.26          55.01   160.61            0.04     0.10     0.04            0.29     0.33     0.10           0.36    0.45
F5          11.45   14.48   10.39          44.90  -16.78    4.78          17.45   164.12            0.27     0.33     0.13            0.47     0.26     0.54           0.65    0.76
F6           9.24   14.55    8.61          45.01  -34.22   11.06          35.96   162.09            0.21     0.33     0.13            0.47     0.31     0.47           0.62    0.73
F7           7.47   14.60    7.10          45.08  -50.16   17.01          52.96   161.27            0.15     0.30     0.14            0.41     0.37     0.29           0.54    0.63
F8           5.25   14.27    5.35          44.62  -71.79   24.15          75.74   161.41            0.05     0.13     0.07            0.19     0.23     0.19           0.27    0.36
F9          29.42   33.76   26.14          64.77  -11.54    2.92          11.92   165.86            0.48     0.59     0.35            0.47     0.24     0.67           0.76    0.86
F10         26.00   33.49   23.96          64.56  -24.20    6.45          25.05   165.08            0.40     0.48     0.28            0.39     0.13     0.50           0.57    0.65
F11         23.16   33.36   21.74          64.45  -35.96   10.50          37.47   163.72            0.33     0.40     0.26            0.32     0.22     0.47           0.54    0.61
F12         19.45   34.17   17.88          65.10  -56.35   19.71          59.70   160.72            0.20     0.26     0.30            0.21     0.34     0.36           0.48    0.53
F13         38.73   49.91   53.40          76.01  -27.70  -14.35          31.20   207.38            0.33     0.36     0.56            0.22     0.29     0.46           0.50    0.58
F14         39.83   28.39   45.31          60.24   43.75  -32.32          54.39   323.55            0.30     0.25     0.64            0.23     0.83     0.84           1.05    1.21
F15         61.07   65.09   17.70          84.53   -3.93   53.61          53.75   94.19            0.47     0.52     0.39            0.27     0.06     0.63           0.59    0.69
F16         14.74   15.45   12.99          46.24   -0.95   -0.67           1.37   218.18            0.29     0.33     0.25            0.45     0.52     0.63           0.82    0.93
F17         28.95   19.96    9.60          51.79   42.62   19.26          46.77   24.32            0.22     0.23     0.16            0.26     0.68     0.28           0.70    0.78
F18         32.39   45.59   18.05          73.27  -37.23   33.43          50.04   138.08            0.41     0.46     0.29            0.30     0.50     0.24           0.56    0.63
F19         20.04   19.52   43.90          51.28    6.15  -46.05          46.46   277.60            0.30     0.38     0.45            0.43     0.54     0.92           1.02    1.15
