targets/wolf_faust/transmissive/N040401.it8
IT8.7/1
ORIGINATOR "Wolf Faust"
DESCRIPTOR "Velvia 100F and Astia 100F, Type 3, L* a* b* (light D50, viewing angle 2)"
MANUFACTURER "Wolf Faust - http://www.coloraid.de"
CREATED "May 07, 2004"
PROD_DATE "2004:03"
DIFFUSE_GEOMETRY "opal"
SERIAL "N040401 Batch Average Data"
MATERIAL "Fujichrome Velvia 100F (RVP 100F)"
KEYWORD "MEAN_DE" # Mean Delta E of samples compared to batch average
NUMBER_OF_FIELDS 17
BEGIN_DATA_FORMAT
SAMPLE_ID   XYZ_X   XYZ_Y   XYZ_Z          LAB_L   LAB_A   LAB_B          LAB_C   LAB_H          STDEV_X  STDEV_Y  STDEV_Z          STDEV_L  STDEV_A  STDEV_B        MEAN_DE  STDEV_DE
END_DATA_FORMAT
NUMBER_OF_SETS 288
BEGIN_DATA
A1           2.35    2.04    1.50          15.68    8.42    2.08           8.68   13.87            0.04     0.04     0.03            0.21     0.14     0.12           0.25    0.28
A2           2.94    2.06    1.25          15.82   19.08    5.44          19.83   15.90            0.05     0.04     0.02            0.21     0.09     0.12           0.23    0.26 
A3           3.58    2.06    1.06          15.81   29.73    8.06          30.81   15.17            0.06     0.03     0.02            0.17     0.20     0.16           0.27    0.31
A4           4.60    2.02    0.79          15.62   45.02   12.03          46.60   14.96            0.07     0.03     0.02            0.15     0.30     0.23           0.37    0.41 
A5          10.49    9.12    6.70          36.22   13.60    3.42          14.02   14.10            0.19     0.17     0.14            0.33     0.16     0.22           0.39    0.43
A6          12.56    9.15    5.78          36.27   28.14    7.70          29.18   15.30            0.18     0.15     0.10            0.28     0.21     0.17           0.34    0.39 
A7          14.77    9.12    4.98          36.21   42.51   11.54          44.05   15.19            0.19     0.13     0.09            0.24     0.16     0.22           0.32    0.36
A8          18.13    8.98    3.99          35.94   62.58   16.69          64.77   14.93            0.09     0.06     0.08            0.11     0.07     0.35           0.32    0.37 
A9          30.92   30.05   23.74          61.70    7.32    1.94           7.57   14.85            0.46     0.48     0.40            0.41     0.26     0.23           0.49    0.54
A10         32.95   29.94   22.66          61.60   15.08    3.79          15.55   14.13            0.44     0.45     0.37            0.39     0.24     0.15           0.41    0.48
A11         35.20   30.08   21.66          61.72   22.33    5.94          23.11   14.90            0.45     0.45     0.42            0.39     0.26     0.22           0.45    0.52
A12         38.45   30.15   20.04          61.78   32.74    9.34          34.04   15.92            0.36     0.43     0.43            0.37     0.44     0.30           0.57    0.65 
A13         72.19   75.43   61.55          89.59   -1.12    0.68           1.32   148.22            0.23     0.27     0.24            0.13     0.23     0.06           0.25    0.27
A14         73.18   75.77   61.60          89.75    0.26    0.91           0.95   74.45            0.18     0.22     0.20            0.10     0.15     0.08           0.18    0.20 
A15         73.40   76.26   60.33          89.98   -0.28    2.55           2.57   96.27            0.23     0.28     0.33            0.13     0.15     0.15           0.21    0.24
A16         72.05   75.05   61.32          89.41   -0.66    0.60           0.90   137.42            0.25     0.30     0.25            0.14     0.15     0.09           0.20    0.22
A17         72.68   75.29   59.82          89.53    0.17    2.28           2.29   85.75            0.24     0.28     0.31            0.13     0.15     0.13           0.20    0.24
A18         71.45   75.01   59.65          89.40   -1.84    2.23           2.89   129.43            0.29     0.31     0.32            0.15     0.22     0.11           0.26    0.28 
A19         71.48   74.57   61.09          89.19   -0.90    0.44           1.01   153.23            0.30     0.34     0.30            0.16     0.15     0.09           0.22    0.24
A20          1.72    1.25    0.84          10.92   14.73    3.12          15.06   11.97            0.04     0.04     0.04            0.28     0.24     0.18           0.36    0.41 
A21          5.20    2.85    0.42          19.44   36.16   25.64          44.33   35.34            0.08     0.05     0.01            0.19     0.22     0.17           0.28    0.33
A22         11.50    5.53    0.23          28.20   55.59   44.34          71.11   38.58            0.11     0.06     0.01            0.15     0.15     0.19           0.25    0.28
B1           3.48    3.15    1.87          20.62    7.36    6.54           9.85   41.62            0.05     0.05     0.03            0.20     0.17     0.17           0.28    0.31
B2           4.18    3.21    1.22          20.88   16.68   14.43          22.06   40.87            0.07     0.06     0.03            0.23     0.07     0.21           0.29    0.32
B3           4.70    3.14    0.73          20.59   24.96   21.75          33.11   41.07            0.07     0.05     0.02            0.21     0.12     0.11           0.24    0.26
B4           5.72    3.16    0.16          20.67   36.88   32.72          49.30   41.58            0.10     0.06     0.01            0.23     0.17     0.34           0.39    0.45
B5          13.48   12.20    7.26          41.53   11.52   10.26          15.42   41.69            0.21     0.21     0.13            0.32     0.18     0.24           0.41    0.45
B6          15.60   12.11    4.73          41.39   25.09   21.82          33.25   41.00            0.25     0.21     0.11            0.33     0.15     0.27           0.42    0.45
B7          18.06   12.19    2.99          41.52   38.13   32.99          50.42   40.86            0.23     0.18     0.07            0.29     0.13     0.25           0.36    0.40
B8          21.77   11.85    1.13          40.98   58.84   50.43          77.50   40.60            0.16     0.12     0.03            0.19     0.15     0.12           0.24    0.27
B9          36.85   36.66   27.62          67.02    4.98    4.28           6.57   40.62            0.52     0.55     0.52            0.41     0.22     0.30           0.49    0.56
B10         38.66   36.74   24.63          67.08   10.59    9.58          14.28   42.15            0.58     0.63     0.51            0.48     0.29     0.25           0.53    0.61
B11         40.14   36.61   22.18          66.98   15.65   14.01          21.00   41.84            0.48     0.52     0.40            0.39     0.29     0.20           0.45    0.52
B12         42.52   36.22   18.45          66.69   24.17   21.18          32.13   41.24            0.37     0.47     0.36            0.36     0.45     0.23           0.50    0.62
B13         64.60   69.16   58.60          86.58   -4.66   -1.56           4.92   198.55            0.38     0.40     0.26            0.20     0.17     0.12           0.25    0.28
B14         64.26   63.56   57.50          83.74    6.83   -5.34           8.67   321.96            0.47     0.57     0.36            0.30     0.24     0.18           0.34    0.43
B15         68.11   71.31   50.65          87.64   -1.41    8.72           8.83   99.19            0.36     0.40     0.49            0.19     0.16     0.26           0.33    0.36
B16         58.64   60.83   49.79          82.29   -0.04    0.47           0.50   91.59            0.50     0.55     0.49            0.29     0.16     0.14           0.32    0.36
B17         62.74   62.72   49.36          83.29    5.27    2.69           5.92   27.04            0.41     0.50     0.47            0.26     0.23     0.17           0.34    0.39
B18         63.44   68.60   51.04          86.31   -6.12    5.99           8.56   135.62            0.45     0.45     0.48            0.23     0.17     0.21           0.32    0.35
B19         60.22   61.78   57.22          82.80    1.54   -6.68           6.86   282.95            0.51     0.57     0.37            0.31     0.16     0.22           0.37    0.41
B20          2.90    2.17    0.68          16.36   16.07   15.37          22.24   43.72            0.07     0.06     0.03            0.31     0.22     0.15           0.35    0.41
B21         10.98    5.34    0.24          27.67   54.15   43.11          69.21   38.53            0.11     0.06     0.01            0.15     0.16     0.18           0.24    0.29
B22         32.76   28.40   15.53          60.25   20.24   16.85          26.34   39.78            0.32     0.34     0.22            0.30     0.26     0.17           0.39    0.43
C1           6.83    6.71    3.77          31.14    3.64    9.80          10.46   69.59            0.11     0.12     0.08            0.27     0.19     0.25           0.37    0.41
C2           7.17    6.62    2.36          30.92    8.06   19.71          21.29   67.77            0.11     0.11     0.05            0.25     0.15     0.23           0.34    0.37
C3           7.63    6.63    1.31          30.94   12.28   30.65          33.02   68.16            0.12     0.10     0.02            0.24     0.13     0.21           0.30    0.35
C4           8.18    6.55    0.41          30.76   18.13   45.29          48.78   68.18            0.14     0.12     0.01            0.29     0.14     0.42           0.45    0.53
C5          25.58   24.75   12.89          56.83    7.35   17.87          19.33   67.63            0.31     0.32     0.19            0.32     0.23     0.21           0.40    0.44
C6          27.21   24.56    7.06          56.64   14.84   37.12          39.98   68.21            0.34     0.36     0.10            0.35     0.25     0.28           0.45    0.51
C7          29.00   24.55    3.57          56.63   21.94   55.00          59.21   68.25            0.36     0.36     0.07            0.35     0.19     0.31           0.46    0.50
C8          31.98   24.44    0.93          56.53   33.49   80.24          86.95   67.34            0.32     0.34     0.02            0.33     0.32     0.33           0.48    0.57
C9          43.22   43.67   30.85          72.00    3.31    7.66           8.35   66.60            0.54     0.60     0.50            0.40     0.24     0.22           0.45    0.52
C10         43.87   43.36   25.94          71.80    6.12   15.38          16.56   68.29            0.56     0.65     0.44            0.44     0.28     0.18           0.48    0.55
C11         44.95   43.25   21.46          71.72    9.58   23.59          25.47   67.90            0.52     0.60     0.41            0.40     0.30     0.22           0.46    0.55
C12         46.70   42.99   14.45          71.55   15.32   39.06          41.96   68.59            0.39     0.53     0.28            0.36     0.49     0.26           0.57    0.66
C13         58.34   65.13   58.11          84.55  -10.51   -4.57          11.46   203.48            0.42     0.43     0.26            0.22     0.21     0.14           0.28    0.33
C14         57.55   52.94   55.44          77.84   16.49  -13.37          21.23   320.96            0.47     0.58     0.43            0.35     0.35     0.25           0.45    0.55
C15         66.33   70.28   41.01          87.13   -3.17   19.40          19.65   99.27            0.28     0.34     0.43            0.16     0.19     0.32           0.35    0.41
C16         45.41   46.94   38.94          74.15    0.45   -0.27           0.54   297.88            0.50     0.55     0.51            0.35     0.15     0.19           0.37    0.42
C17         53.66   50.37   37.65          76.30   13.44    5.17          14.40   21.06            0.41     0.51     0.51            0.31     0.33     0.23           0.44    0.51
C18         55.66   63.70   42.10          83.81  -13.89   12.28          18.54   138.54            0.44     0.43     0.44            0.23     0.21     0.28           0.37    0.41
C19         48.82   49.26   55.01          75.61    3.62  -16.76          17.14   282.19            0.45     0.51     0.31            0.32     0.19     0.29           0.41    0.47
C20          2.25    2.05    1.08          15.72    6.20    7.55           9.77   50.58            0.04     0.04     0.03            0.23     0.21     0.15           0.30    0.35
C21         26.36   20.77    6.91          52.70   28.41   30.93          42.00   47.43            0.28     0.26     0.10            0.29     0.19     0.19           0.36    0.39
C22         40.13   37.37   22.47          67.55   13.15   14.43          19.53   47.66            0.39     0.44     0.33            0.33     0.27     0.17           0.41    0.46
D1           4.46    4.70    2.64          25.87   -1.05    8.72           8.78   96.84            0.07     0.08     0.04            0.24     0.17     0.20           0.31    0.36
D2           4.32    4.67    1.71          25.77   -2.54   17.11          17.30   98.42            0.06     0.08     0.03            0.23     0.18     0.23           0.33    0.37
D3           4.39    4.75    1.01          26.00   -2.54   26.35          26.48   95.51            0.08     0.10     0.02            0.29     0.16     0.25           0.35    0.41
D4           4.15    4.46    0.41          25.12   -2.00   35.50          35.56   93.22            0.06     0.08     0.01            0.25     0.24     0.32           0.38    0.48
D5          18.69   19.51    9.99          51.28   -0.60   17.05          17.06   92.01            0.26     0.28     0.16            0.33     0.20     0.24           0.41    0.45
D6          18.31   19.29    5.49          51.02   -1.50   34.52          34.56   92.48            0.25     0.28     0.09            0.32     0.15     0.27           0.40    0.45
D7          18.16   19.51    2.78          51.28   -3.42   51.41          51.52   93.80            0.27     0.30     0.05            0.35     0.19     0.32           0.46    0.51
D8          17.99   19.35    1.06          51.09   -3.49   68.91          68.99   92.90            0.27     0.29     0.02            0.34     0.14     0.36           0.45    0.51
D9          48.34   50.61   26.32          76.44   -1.25   22.74          22.77   93.14            0.55     0.65     0.43            0.40     0.25     0.21           0.45    0.51
D10         47.83   50.41   15.13          76.32   -2.11   45.55          45.60   92.65            0.52     0.63     0.26            0.39     0.26     0.23           0.46    0.52
D11         47.42   50.32    7.61          76.27   -3.03   68.72          68.78   92.52            0.47     0.55     0.11            0.33     0.16     0.30           0.42    0.48
D12         47.25   50.25    3.19          76.22   -3.32   91.40          91.46   92.08            0.41     0.42     0.05            0.26     0.10     0.26           0.33    0.38
D13         52.16   60.92   57.49          82.33  -16.45   -7.75          18.18   205.24            0.41     0.40     0.25            0.22     0.23     0.15           0.31    0.35
D14         51.84   44.09   53.37          72.29   25.99  -20.73          33.25   321.42            0.34     0.45     0.28            0.30     0.41     0.26           0.46    0.57
D15         64.76   69.24   32.25          86.62   -4.49   30.72          31.04   98.31            0.28     0.34     0.40            0.17     0.19     0.42           0.42    0.49
D16         33.74   34.97   28.85          65.73    0.06    0.02           0.26   198.75            0.42     0.46     0.40            0.35     0.17     0.22           0.40    0.45
D17         45.73   39.91   27.04          69.40   21.80    9.37          23.73   23.26            0.35     0.44     0.42            0.31     0.38     0.28           0.49    0.56
D18         48.08   58.57   33.47          81.05  -21.84   19.29          29.14   138.54            0.41     0.42     0.39            0.23     0.24     0.31           0.40    0.46
D19         38.40   38.15   52.53          68.13    5.23  -26.99          27.49   280.97            0.39     0.44     0.27            0.32     0.20     0.33           0.43    0.50
D20         16.36   13.18    4.99          43.03   22.36   23.25          32.26   46.12            0.21     0.18     0.07            0.27     0.16     0.20           0.32    0.37
D21         26.17   24.86   15.69          56.94    9.33   10.76          14.24   49.08            0.33     0.34     0.21            0.34     0.19     0.19           0.38    0.43
D22         43.54   41.66   24.91          70.63   10.19   15.21          18.31   56.19            0.42     0.48     0.36            0.33     0.26     0.19           0.41    0.46
E1           5.74    6.54    3.79          30.72   -6.16    8.93          10.85   124.58            0.10     0.12     0.07            0.29     0.23     0.23           0.38    0.44
E2           5.35    6.65    2.46          30.99  -11.85   19.00          22.39   121.96            0.09     0.12     0.05            0.29     0.25     0.26           0.40    0.46
E3           4.91    6.67    1.50          31.04  -17.42   28.56          33.45   121.38            0.08     0.12     0.03            0.27     0.24     0.21           0.37    0.42
E4           4.33    6.55    0.62          30.76  -23.87   41.40          47.79   119.96            0.07     0.12     0.01            0.27     0.31     0.35           0.45    0.54
E5          26.39   29.84   16.31          61.51   -9.50   17.14          19.59   118.99            0.38     0.43     0.27            0.37     0.17     0.26           0.43    0.49
E6          23.65   29.37   10.06          61.11  -19.36   33.78          38.94   119.81            0.36     0.43     0.16            0.38     0.12     0.27           0.42    0.48
E7          21.44   29.35    5.67          61.09  -29.34   50.97          58.81   119.93            0.31     0.41     0.07            0.36     0.17     0.37           0.49    0.54
E8          18.75   29.14    2.18          60.90  -41.82   73.04          84.17   119.79            0.16     0.21     0.02            0.19     0.11     0.24           0.28    0.32
E9          46.41   50.20   34.00          76.19   -5.52   10.12          11.53   118.60            0.61     0.68     0.58            0.42     0.19     0.23           0.45    0.51
E10         44.25   50.24   26.67          76.22  -11.82   21.74          24.74   118.53            0.51     0.59     0.41            0.36     0.13     0.20           0.38    0.43
E11         42.01   49.89   20.80          76.00  -17.52   32.28          36.73   118.50            0.49     0.57     0.32            0.35     0.15     0.21           0.39    0.43
E12         37.40   49.47   11.03          75.74  -30.80   55.91          63.83   118.85            0.37     0.38     0.14            0.24     0.26     0.21           0.38    0.41
E13         46.92   57.13   56.89          80.25  -21.60  -10.72          24.12   206.40            0.42     0.42     0.25            0.23     0.26     0.17           0.34    0.39
E14         46.81   36.67   51.20          67.03   35.10  -27.43          44.55   321.99            0.30     0.39     0.29            0.29     0.42     0.27           0.48    0.58
E15         63.51   68.23   25.40          86.12   -5.13   41.03          41.35   97.13            0.29     0.37     0.36            0.18     0.19     0.43           0.45    0.51
E16         24.72   25.56   20.92          57.61    0.32    0.35           0.53   45.22            0.35     0.38     0.32            0.37     0.19     0.21           0.42    0.46
E17         39.00   31.26   18.78          62.72   30.43   13.62          33.34   24.11            0.28     0.34     0.31            0.28     0.37     0.25           0.45    0.53
E18         41.81   54.00   26.55          78.46  -28.71   25.82          38.61   138.04            0.42     0.44     0.37            0.25     0.25     0.36           0.45    0.51
E19         29.99   29.06   49.95          60.83    7.57  -36.70          37.48   281.66            0.39     0.44     0.29            0.38     0.23     0.39           0.51    0.60
E20         24.27   17.11    1.67          48.40   38.10   56.56          68.20   56.04            0.27     0.23     0.02            0.29     0.15     0.26           0.36    0.42
E21         19.82   17.23    4.41          48.54   16.90   35.94          39.71   64.81            0.24     0.23     0.05            0.29     0.11     0.29           0.36    0.43
E22         33.19   28.99   10.63          60.77   19.51   31.37          36.94   58.12            0.35     0.37     0.15            0.33     0.23     0.21           0.40    0.45
F1           3.80    4.70    3.40          25.87  -10.37    3.09          10.82   163.41            0.06     0.09     0.05            0.27     0.23     0.24           0.36    0.43
F2           3.20    4.78    2.99          26.11  -20.76    6.45          21.74   162.75            0.06     0.09     0.06            0.26     0.22     0.18           0.34    0.38
F3           2.67    4.76    2.56          26.03  -29.97    9.63          31.48   162.19            0.05     0.09     0.05            0.28     0.28     0.26           0.42    0.47
F4           1.61    4.67    1.71          25.76  -52.22   17.02          54.92   161.95            0.03     0.09     0.04            0.26     0.30     0.21           0.37    0.45
F5          12.16   15.28   11.02          46.01  -16.52    4.68          17.17   164.20            0.19     0.24     0.20            0.32     0.22     0.27           0.42    0.47
F6           9.76   15.19    9.15          45.89  -33.72   10.63          35.36   162.51            0.15     0.23     0.16            0.32     0.24     0.23           0.41    0.46
F7           8.05   15.37    7.67          46.13  -49.33   16.54          52.03   161.46            0.13     0.24     0.15            0.32     0.27     0.30           0.44    0.51
F8           5.86   15.41    5.99          46.19  -71.44   23.78          75.29   161.59            0.07     0.17     0.09            0.22     0.21     0.33           0.41    0.45
F9          31.42   35.72   27.24          66.30  -10.70    3.67          11.31   161.06            0.46     0.52     0.43            0.40     0.15     0.21           0.42    0.47
F10         27.73   35.38   24.62          66.04  -23.59    7.81          24.85   161.68            0.38     0.46     0.39            0.35     0.20     0.23           0.42    0.47
F11         24.70   35.04   22.46          65.78  -34.95   11.40          36.76   161.93            0.33     0.44     0.36            0.34     0.17     0.25           0.43    0.46
F12         19.37   34.89   18.09          65.66  -59.14   20.20          62.50   161.15            0.18     0.24     0.26            0.19     0.18     0.37           0.40    0.46
F13         42.09   53.45   56.25          78.14  -26.48  -13.70          29.81   207.37            0.31     0.33     0.22            0.20     0.21     0.14           0.29    0.32
F14         42.34   30.41   48.92          62.01   43.82  -33.52          55.17   322.58            0.27     0.32     0.29            0.28     0.40     0.25           0.46    0.54
F15         62.57   67.28   20.25          85.65   -5.25   50.03          50.31   95.99            0.25     0.34     0.26            0.17     0.19     0.35           0.39    0.44
F16         17.43   18.08   15.02          49.59   -0.02   -0.25           0.29   244.68            0.26     0.29     0.25            0.35     0.12     0.18           0.37    0.41
F17         33.27   24.16   12.71          56.25   39.27   17.35          42.93   23.84            0.22     0.26     0.22            0.25     0.34     0.21           0.40    0.47
F18         36.06   49.51   21.16          75.77  -35.33   31.15          47.11   138.60            0.38     0.41     0.27            0.26     0.25     0.30           0.41    0.46
F19         23.00   21.64   47.39          53.64    9.91  -46.16          47.21   282.12            0.28     0.32     0.28            0.35     0.27     0.36           0.47    0.57
