targets/wolf_faust/transmissive/N040601.it8
IT8.7/1
ORIGINATOR "Wolf Faust"
DESCRIPTOR "Velvia 100F and Astia 100F, Type 3, L* a* b* (light D50, viewing angle 2)"
MANUFACTURER "Wolf Faust - http://www.coloraid.de"
CREATED "June 10, 2004"
PROD_DATE "2004:06"
DIFFUSE_GEOMETRY "opal"
SERIAL "N040601 Batch Average Data"
MATERIAL "Fujichrome Velvia 100F (RVP 100F)"
KEYWORD "MEAN_DE" # Mean Delta E of samples compared to batch average
NUMBER_OF_FIELDS 17
BEGIN_DATA_FORMAT
SAMPLE_ID   XYZ_X   XYZ_Y   XYZ_Z          LAB_L   LAB_A   LAB_B          LAB_C   LAB_H          STDEV_X  STDEV_Y  STDEV_Z          STDEV_L  STDEV_A  STDEV_B        MEAN_DE  STDEV_DE
END_DATA_FORMAT
NUMBER_OF_SETS 288
BEGIN_DATA
A1           1.94    1.61    1.18          13.32    9.70    2.05           9.91   11.96            0.04     0.03     0.03            0.21     0.10     0.12           0.23    0.26
A2           2.49    1.70    1.04          13.84   19.09    4.94          19.72   14.51            0.05     0.03     0.03            0.20     0.09     0.13           0.23    0.26 
A3           2.83    1.60    0.86          13.24   28.25    6.77          29.05   13.48            0.06     0.03     0.02            0.20     0.19     0.11           0.26    0.29
A4           3.74    1.66    0.66          13.60   41.65   10.99          43.07   14.78            0.07     0.03     0.01            0.18     0.27     0.14           0.30    0.35 
A5           8.87    7.58    5.68          33.09   14.07    2.68          14.33   10.78            0.17     0.16     0.12            0.34     0.11     0.11           0.32    0.37
A6          10.55    7.56    4.85          33.04   27.73    6.81          28.56   13.80            0.19     0.15     0.11            0.32     0.14     0.16           0.33    0.38 
A7          12.45    7.59    4.13          33.11   41.01   10.97          42.45   14.98            0.22     0.14     0.09            0.31     0.20     0.10           0.32    0.38
A8          16.79    8.21    3.23          34.42   61.89   19.03          64.75   17.10            0.10     0.06     0.06            0.13     0.05     0.28           0.28    0.31 
A9          27.47   26.45   21.13          58.46    8.05    1.38           8.17    9.70            0.44     0.46     0.39            0.44     0.16     0.22           0.45    0.52
A10         29.85   26.89   20.24          58.87   15.49    3.91          15.98   14.17            0.44     0.44     0.36            0.41     0.12     0.20           0.41    0.47
A11         31.87   26.66   19.21          58.66   23.91    5.70          24.58   13.40            0.45     0.43     0.34            0.40     0.15     0.21           0.42    0.48
A12         35.46   26.87   17.73          58.85   35.59    9.26          36.77   14.58            0.33     0.38     0.36            0.36     0.42     0.26           0.52    0.61 
A13         68.03   72.31   59.47          88.12   -3.68    0.20           3.68   176.85            0.47     0.39     0.38            0.19     0.24     0.10           0.30    0.32
A14         68.38   69.36   58.66          86.68    3.29   -1.46           3.60   336.18            0.49     0.63     0.41            0.31     0.29     0.17           0.41    0.46 
A15         71.68   74.74   56.90          89.27   -0.82    4.82           4.89   99.64            0.33     0.32     0.65            0.15     0.09     0.42           0.43    0.46
A16         69.86   72.89   59.29          88.40   -0.91    0.86           1.26   136.65            0.44     0.44     0.40            0.21     0.09     0.12           0.24    0.25
A17         67.73   68.96   55.36          86.48    2.73    1.62           3.18   30.61            0.53     0.66     0.65            0.33     0.24     0.18           0.41    0.44
A18         67.61   72.11   55.98          88.02   -4.16    3.62           5.51   138.97            0.56     0.45     0.64            0.22     0.30     0.32           0.45    0.49 
A19         64.65   67.26   57.93          85.63   -0.45   -2.52           2.56   259.66            0.65     0.70     0.41            0.35     0.11     0.25           0.39    0.45
A20          5.57    2.66    1.73          18.64   43.99    4.55          44.23    5.90            0.10     0.05     0.04            0.22     0.27     0.15           0.30    0.38 
A21         24.71   17.03   13.08          48.30   40.44    2.62          40.52    3.70            0.41     0.34     0.33            0.43     0.14     0.23           0.45    0.50
A22         49.95   46.14   31.88          73.64   15.19    8.89          17.60   30.35            0.57     0.71     0.72            0.46     0.44     0.35           0.65    0.73
B1           2.92    2.57    1.56          18.22    8.29    5.72          10.08   34.59            0.05     0.05     0.03            0.23     0.08     0.14           0.24    0.28
B2           3.42    2.60    0.99          18.36   16.19   13.44          21.04   39.70            0.07     0.06     0.02            0.26     0.13     0.13           0.28    0.32
B3           3.96    2.60    0.59          18.34   24.43   20.52          31.91   40.03            0.08     0.06     0.01            0.26     0.10     0.23           0.31    0.36
B4           4.58    2.53    0.14          18.06   34.22   28.46          44.50   39.75            0.10     0.06     0.00            0.26     0.22     0.41           0.45    0.54
B5          11.47   10.11    6.00          38.03   13.04    9.70          16.26   36.65            0.21     0.20     0.13            0.36     0.12     0.22           0.39    0.44
B6          13.44   10.20    3.97          38.19   25.66   20.70          32.97   38.90            0.22     0.19     0.08            0.33     0.11     0.16           0.32    0.38
B7          15.16   10.01    2.40          37.86   37.67   31.38          49.03   39.79            0.24     0.18     0.05            0.32     0.09     0.20           0.34    0.39
B8          20.26   10.77    0.89          39.18   59.40   50.88          78.21   40.59            0.10     0.08     0.01            0.14     0.12     0.13           0.21    0.23
B9          32.91   32.50   24.51          63.75    5.67    4.07           6.98   35.68            0.54     0.58     0.46            0.48     0.19     0.16           0.47    0.54
B10         34.32   31.98   21.60          63.32   12.42    8.82          15.24   35.39            0.47     0.50     0.38            0.41     0.18     0.19           0.43    0.49
B11         35.86   31.79   19.49          63.17   18.32   12.88          22.39   35.11            0.46     0.49     0.34            0.41     0.23     0.14           0.43    0.49
B12         39.22   32.38   15.96          63.66   27.12   21.67          34.72   38.64            0.37     0.46     0.33            0.37     0.45     0.19           0.54    0.61
B13         61.29   66.05   56.01          85.02   -5.54   -1.59           5.76   195.98            0.68     0.67     0.53            0.34     0.15     0.14           0.37    0.40
B14         60.89   59.57   54.63          81.60    8.25   -6.03          10.22   323.84            0.63     0.76     0.57            0.41     0.32     0.16           0.50    0.55
B15         65.39   68.49   47.55          86.25   -1.44    9.86           9.97   98.32            0.63     0.67     0.73            0.34     0.08     0.31           0.42    0.46
B16         54.31   56.19   46.17          79.72    0.32    0.24           0.43   34.36            0.78     0.82     0.74            0.47     0.10     0.17           0.46    0.51
B17         59.09   58.44   45.85          80.98    6.67    2.80           7.24   22.76            0.71     0.82     0.81            0.45     0.27     0.23           0.53    0.58
B18         59.99   65.37   47.82          84.67   -7.11    6.84           9.86   136.14            0.73     0.70     0.76            0.36     0.20     0.29           0.46    0.50
B19         56.14   57.35   54.32          80.38    2.09   -7.82           8.09   284.93            0.73     0.81     0.55            0.45     0.16     0.29           0.50    0.56
B20          4.21    2.52    0.90          18.01   29.41   14.28          32.69   25.90            0.09     0.05     0.02            0.25     0.16     0.13           0.27    0.32
B21         14.93    9.85    3.65          37.57   37.61   21.64          43.39   29.91            0.25     0.18     0.08            0.34     0.11     0.13           0.33    0.37
B22         31.43   26.17   15.63          58.20   24.27   13.08          27.57   28.31            0.48     0.48     0.36            0.45     0.22     0.23           0.48    0.55
C1           5.61    5.43    3.16          27.92    4.43    8.30           9.41   61.93            0.10     0.10     0.07            0.27     0.14     0.13           0.28    0.33
C2           5.94    5.45    1.97          27.97    7.95   18.20          19.86   66.40            0.12     0.11     0.04            0.31     0.17     0.19           0.33    0.40
C3           6.40    5.46    1.02          28.02   12.71   29.63          32.24   66.78            0.14     0.13     0.03            0.36     0.13     0.26           0.38    0.46
C4           6.95    5.46    0.36          27.99   18.46   41.49          45.41   66.01            0.16     0.13     0.01            0.36     0.14     0.53           0.57    0.65
C5          22.18   21.21   10.91          53.18    8.17   17.40          19.22   64.83            0.39     0.40     0.23            0.43     0.16     0.21           0.44    0.51
C6          23.98   21.23    6.13          53.20   16.16   35.24          38.77   65.37            0.35     0.35     0.12            0.39     0.17     0.21           0.39    0.47
C7          25.99   21.21    2.94          53.18   24.79   53.48          58.94   65.13            0.35     0.34     0.05            0.37     0.18     0.28           0.42    0.50
C8          28.58   21.31    0.80          53.28   34.74   76.72          84.22   65.64            0.35     0.33     0.01            0.36     0.19     0.41           0.48    0.57
C9          39.16   39.39   27.50          69.03    3.76    7.94           8.79   64.67            0.60     0.65     0.51            0.47     0.18     0.18           0.46    0.53
C10         40.19   39.36   23.08          69.01    7.07   15.78          17.29   65.87            0.54     0.60     0.39            0.43     0.19     0.20           0.44    0.51
C11         41.24   39.12   18.96          68.84   11.04   23.79          26.22   65.11            0.59     0.65     0.39            0.47     0.23     0.15           0.47    0.54
C12         43.75   39.33   13.37          68.99   17.88   37.50          41.54   64.52            0.43     0.57     0.25            0.41     0.49     0.11           0.55    0.65
C13         54.56   61.72   55.52          82.76  -12.14   -4.96          13.12   202.23            0.64     0.62     0.48            0.33     0.23     0.13           0.39    0.42
C14         54.55   49.51   52.59          75.77   17.98  -13.89          22.72   322.31            0.56     0.69     0.56            0.42     0.41     0.17           0.55    0.62
C15         63.65   67.49   37.75          85.75   -3.23   21.34          21.58   98.62            0.58     0.63     0.69            0.32     0.08     0.42           0.48    0.53
C16         40.98   42.63   35.29          71.30   -0.38   -0.15           0.44   200.05            0.63     0.69     0.62            0.47     0.11     0.19           0.46    0.51
C17         50.57   46.92   34.22          74.14   14.70    6.27          15.98   23.11            0.62     0.75     0.72            0.48     0.43     0.27           0.64    0.70
C18         51.81   60.25   38.72          81.97  -15.82   13.51          20.81   139.50            0.69     0.65     0.69            0.35     0.29     0.34           0.51    0.57
C19         44.48   44.95   52.10          72.86    3.34  -18.37          18.67   280.30            0.66     0.74     0.49            0.49     0.21     0.37           0.57    0.65
C20         10.71    7.71    1.02          33.37   27.51   38.82          47.58   54.68            0.21     0.17     0.03            0.36     0.11     0.28           0.38    0.47
C21         19.58   17.99   10.24          49.48   11.63   13.16          17.56   48.53            0.35     0.35     0.22            0.42     0.11     0.24           0.45    0.50
C22         25.42   21.02    9.91          52.97   23.30   20.23          30.85   40.97            0.40     0.39     0.21            0.42     0.20     0.17           0.43    0.50
D1           3.69    3.82    2.21          23.06    0.12    7.50           7.50   89.05            0.07     0.08     0.05            0.26     0.15     0.13           0.28    0.33
D2           3.68    3.88    1.39          23.27   -0.85   16.42          16.44   92.94            0.08     0.09     0.03            0.31     0.19     0.25           0.37    0.44
D3           3.69    3.88    0.78          23.26   -0.81   25.43          25.44   91.83            0.07     0.09     0.02            0.29     0.16     0.23           0.34    0.40
D4           3.61    3.84    0.37          23.12   -1.31   32.86          32.88   92.28            0.08     0.10     0.01            0.34     0.22     0.45           0.51    0.60
D5          16.13   16.75    8.73          47.95   -0.16   15.67          15.67   90.59            0.28     0.30     0.17            0.38     0.16     0.20           0.40    0.46
D6          15.90   16.75    4.71          47.94   -1.40   33.23          33.26   92.42            0.27     0.30     0.07            0.38     0.11     0.31           0.43    0.51
D7          15.82   16.68    2.31          47.86   -1.55   49.41          49.43   91.80            0.26     0.30     0.04            0.39     0.19     0.32           0.46    0.54
D8          15.68   16.77    0.94          47.96   -2.82   65.27          65.33   92.47            0.29     0.33     0.01            0.42     0.18     0.52           0.60    0.69
D9          44.96   46.69   24.06          73.99   -0.15   22.54          22.54   90.37            0.61     0.69     0.44            0.44     0.18     0.17           0.45    0.51
D10         44.51   46.59   13.59          73.92   -1.18   45.43          45.44   91.49            0.59     0.67     0.22            0.43     0.19     0.23           0.46    0.53
D11         44.22   46.44    6.82          73.83   -1.59   67.75          67.77   91.35            0.53     0.59     0.09            0.38     0.12     0.32           0.46    0.51
D12         44.25   47.06    2.90          74.22   -3.24   90.07          90.13   92.06            0.50     0.51     0.03            0.33     0.10     0.35           0.43    0.49
D13         49.00   57.87   54.94          80.67  -17.67   -7.97          19.38   204.28            0.58     0.57     0.45            0.32     0.22     0.14           0.38    0.41
D14         48.94   40.98   50.43          70.16   27.46  -21.16          34.67   322.37            0.52     0.63     0.54            0.44     0.52     0.19           0.63    0.71
D15         62.17   66.47   29.85          85.23   -4.39   32.03          32.33   97.81            0.58     0.63     0.57            0.32     0.09     0.46           0.51    0.56
D16         30.35   31.45   26.18          62.89    0.10   -0.39           0.42   281.76            0.58     0.63     0.53            0.52     0.12     0.15           0.50    0.56
D17         43.07   37.01   24.69          67.28   23.23    9.83          25.22   22.94            0.50     0.61     0.55            0.46     0.47     0.26           0.64    0.71
D18         45.11   55.69   31.05          79.44  -23.23   20.16          30.76   139.06            0.66     0.64     0.62            0.36     0.34     0.37           0.57    0.62
D19         34.93   34.49   49.64          65.34    5.80  -28.58          29.16   281.46            0.64     0.70     0.49            0.55     0.22     0.45           0.61    0.75
D20          2.55    2.53    0.95          18.07    2.14   13.60          13.77   81.03            0.05     0.05     0.02            0.24     0.16     0.22           0.30    0.37
D21         28.59   26.07    1.46          58.11   13.99   75.63          76.91   79.52            0.48     0.48     0.02            0.46     0.15     0.55           0.64    0.73
D22         38.72   41.42   51.93          70.47   -3.83  -22.30          22.63   260.25            0.62     0.72     0.44            0.50     0.23     0.42           0.60    0.69
E1           4.86    5.42    3.14          27.89   -4.52    8.39           9.53   118.33            0.09     0.11     0.07            0.31     0.20     0.15           0.34    0.40
E2           4.44    5.42    2.07          27.91  -10.06   17.13          19.86   120.41            0.08     0.11     0.04            0.30     0.24     0.21           0.37    0.43
E3           4.11    5.44    1.23          27.94  -14.80   26.59          30.43   119.09            0.08     0.12     0.02            0.31     0.23     0.24           0.38    0.45
E4           3.68    5.48    0.55          28.05  -21.57   38.05          43.74   119.55            0.09     0.15     0.01            0.39     0.37     0.48           0.59    0.72
E5          22.75   25.93   14.47          57.97   -9.90   15.59          18.47   122.41            0.38     0.44     0.28            0.42     0.15     0.25           0.45    0.51
E6          21.10   26.37    9.02          58.39  -19.33   32.64          37.93   120.63            0.35     0.44     0.16            0.41     0.18     0.21           0.43    0.50
E7          19.22   26.48    5.05          58.49  -29.01   49.61          57.47   120.32            0.29     0.39     0.07            0.37     0.13     0.29           0.42    0.48
E8          17.29   27.05    2.00          59.02  -41.42   71.50          82.63   120.09            0.19     0.27     0.02            0.25     0.10     0.30           0.36    0.40
E9          43.14   46.80   31.48          74.06   -5.78   10.22          11.74   119.48            0.70     0.76     0.59            0.49     0.10     0.17           0.48    0.52
E10         40.94   46.75   24.46          74.03  -12.25   21.86          25.06   119.27            0.62     0.68     0.43            0.44     0.10     0.15           0.42    0.47
E11         38.98   46.71   19.36          74.00  -18.24   31.82          36.68   119.82            0.57     0.63     0.34            0.41     0.13     0.18           0.43    0.46
E12         35.04   47.02   10.45          74.20  -31.99   55.08          63.69   120.15            0.55     0.56     0.18            0.36     0.31     0.13           0.44    0.49
E13         43.61   53.97   54.38          78.44  -23.27  -11.21          25.83   205.72            0.53     0.54     0.42            0.32     0.21     0.16           0.38    0.41
E14         44.29   34.16   48.35          65.09   36.26  -27.55          45.54   322.77            0.44     0.51     0.50            0.40     0.48     0.19           0.59    0.65
E15         61.32   65.80   23.96          84.89   -4.92   41.54          41.83   96.75            0.54     0.62     0.48            0.31     0.11     0.36           0.45    0.49
E16         21.50   22.44   19.24          54.49   -0.67   -1.54           1.69   246.52            0.41     0.45     0.38            0.47     0.16     0.15           0.47    0.52
E17         36.85   29.03   17.44          60.81   31.79   13.31          34.46   22.72            0.40     0.46     0.41            0.40     0.44     0.27           0.60    0.66
E18         38.73   51.02   25.01          76.69  -30.62   25.47          39.83   140.24            0.57     0.57     0.51            0.34     0.35     0.36           0.54    0.61
E19         26.82   26.02   47.25          58.05    7.21  -38.40          39.08   280.63            0.47     0.53     0.43            0.50     0.27     0.40           0.60    0.69
E20          6.12    7.17    1.17          32.18   -8.23   34.66          35.63   103.36            0.12     0.15     0.03            0.34     0.17     0.30           0.42    0.48
E21         22.42   26.76    5.80          58.75  -14.74   46.32          48.61   107.65            0.39     0.46     0.08            0.43     0.15     0.40           0.53    0.61
E22          8.15   17.45   12.69          48.82  -60.00    4.61          60.17   175.60            0.16     0.32     0.28            0.40     0.31     0.18           0.48    0.53
F1           3.12    3.80    2.83          23.00   -8.77    2.31           9.07   165.25            0.06     0.08     0.07            0.28     0.17     0.17           0.31    0.37
F2           2.55    3.81    2.42          23.04  -19.28    5.63          20.08   163.71            0.05     0.09     0.06            0.29     0.26     0.19           0.37    0.43
F3           2.11    3.76    2.11          22.87  -27.74    8.13          28.90   163.67            0.04     0.08     0.04            0.29     0.28     0.18           0.38    0.44
F4           1.34    3.83    1.46          23.10  -48.47   15.29          50.82   162.49            0.03     0.09     0.03            0.30     0.41     0.21           0.46    0.55
F5          10.65   13.41    9.58          43.38  -16.03    4.80          16.73   163.33            0.18     0.24     0.20            0.35     0.21     0.19           0.40    0.45
F6           8.52   13.27    7.88          43.16  -32.33   10.58          34.02   161.88            0.15     0.25     0.15            0.37     0.31     0.18           0.45    0.52
F7           6.93   13.46    6.65          43.45  -48.36   16.10          50.97   161.58            0.12     0.25     0.13            0.37     0.36     0.18           0.48    0.55
F8           5.22   13.84    5.26          44.01  -69.49   23.57          73.37   161.26            0.08     0.20     0.09            0.29     0.29     0.16           0.40    0.44
F9          27.92   32.16   25.00          63.47  -11.78    2.71          12.09   167.06            0.49     0.57     0.50            0.47     0.16     0.15           0.45    0.52
F10         25.11   32.44   22.80          63.71  -24.27    7.17          25.31   163.54            0.42     0.52     0.39            0.43     0.13     0.12           0.40    0.47
F11         22.66   32.55   20.91          63.80  -35.42   11.03          37.10   162.71            0.37     0.50     0.39            0.41     0.12     0.15           0.40    0.45
F12         18.48   33.62   17.31          64.66  -59.42   20.24          62.78   161.19            0.19     0.26     0.27            0.21     0.12     0.29           0.33    0.38
F13         39.51   50.81   53.84          76.56  -27.61  -13.87          30.90   206.67            0.41     0.43     0.39            0.26     0.18     0.15           0.32    0.35
F14         40.01   28.24   46.08          60.10   44.92  -33.48          56.02   323.30            0.36     0.40     0.47            0.36     0.42     0.18           0.51    0.58
F15         60.41   64.85   18.72          84.41   -4.96   51.14          51.38   95.54            0.53     0.61     0.39            0.31     0.13     0.35           0.43    0.48
F16         15.15   15.68   13.28          46.54    0.19   -0.94           0.97   281.51            0.32     0.33     0.30            0.44     0.13     0.23           0.47    0.51
F17         31.39   22.37   11.39          54.42   40.44   18.06          44.28   24.06            0.32     0.35     0.30            0.37     0.41     0.31           0.58    0.63
F18         33.72   47.05   19.61          74.22  -36.62   31.68          48.42   139.13            0.52     0.55     0.43            0.35     0.32     0.32           0.50    0.57
F19         20.71   19.20   44.70          50.92   11.01  -47.66          48.91   283.01            0.35     0.39     0.39            0.46     0.31     0.35           0.55    0.66
