targets/wolf_faust/transmissive/N040602.it8
IT8.7/1
ORIGINATOR "Wolf Faust"
DESCRIPTOR "Velvia 100F and Astia 100F, Type 3, L* a* b* (light D50, viewing angle 2)"
MANUFACTURER "Wolf Faust - http://www.coloraid.de"
CREATED "November 14, 2004"
PROD_DATE "2004:06"
DIFFUSE_GEOMETRY "opal"
SERIAL "N040602 Batch Average Data"
MATERIAL "Fujichrome Velvia 100F (RVP 100F)"
KEYWORD "MEAN_DE" # Mean Delta E of samples compared to batch average
NUMBER_OF_FIELDS 17
BEGIN_DATA_FORMAT
SAMPLE_ID   XYZ_X   XYZ_Y   XYZ_Z          LAB_L   LAB_A   LAB_B          LAB_C   LAB_H          STDEV_X  STDEV_Y  STDEV_Z          STDEV_L  STDEV_A  STDEV_B        MEAN_DE  STDEV_DE
END_DATA_FORMAT
NUMBER_OF_SETS 288
BEGIN_DATA
A1           1.89    1.59    1.15          13.19    8.90    2.19           9.16   13.84            0.05     0.04     0.04            0.26     0.18     0.20           0.33    0.37
A2           2.34    1.59    0.96          13.19   18.96    5.04          19.62   14.88            0.05     0.04     0.02            0.22     0.18     0.17           0.29    0.33 
A3           2.77    1.58    0.80          13.10   27.67    7.53          28.68   15.22            0.07     0.04     0.02            0.24     0.24     0.17           0.33    0.38
A4           3.59    1.59    0.60          13.16   41.25   11.30          42.77   15.32            0.08     0.03     0.02            0.21     0.35     0.12           0.34    0.43 
A5           8.49    7.30    5.25          32.48   13.48    3.76          14.00   15.60            0.20     0.18     0.15            0.40     0.27     0.30           0.52    0.57
A6          10.25    7.36    4.49          32.60   27.33    8.00          28.48   16.32            0.23     0.17     0.13            0.38     0.25     0.24           0.45    0.52 
A7          12.44    7.52    3.93          32.96   41.58   11.93          43.26   16.01            0.26     0.17     0.12            0.36     0.28     0.20           0.44    0.50
A8          16.65    8.12    3.07          34.23   61.92   19.87          65.03   17.79            0.13     0.08     0.10            0.16     0.07     0.43           0.37    0.46 
A9          26.60   25.57   19.97          57.62    8.15    2.30           8.48   15.81            0.50     0.50     0.49            0.48     0.31     0.34           0.61    0.66
A10         29.24   26.34   19.34          58.36   15.39    4.90          16.15   17.67            0.57     0.56     0.48            0.53     0.29     0.25           0.57    0.65
A11         31.32   26.26   18.21          58.28   23.51    7.23          24.60   17.09            0.51     0.49     0.47            0.46     0.29     0.35           0.57    0.64
A12         34.79   26.19   16.69          58.21   36.07   10.57          37.58   16.32            0.39     0.42     0.45            0.39     0.43     0.42           0.61    0.72 
A13         68.18   72.48   58.89          88.20   -3.69    0.93           3.81   165.76            0.52     0.44     0.42            0.21     0.26     0.13           0.34    0.36
A14         68.32   69.33   58.02          86.67    3.23   -0.83           3.34   345.61            0.54     0.67     0.47            0.33     0.28     0.17           0.40    0.46 
A15         71.68   74.76   56.30          89.28   -0.86    5.46           5.53   98.93            0.34     0.33     0.66            0.15     0.14     0.43           0.43    0.48
A16         70.01   73.06   58.75          88.48   -0.93    1.54           1.81   121.11            0.42     0.41     0.39            0.19     0.13     0.12           0.24    0.26
A17         67.72   68.98   54.83          86.49    2.67    2.19           3.45   39.46            0.56     0.66     0.66            0.33     0.22     0.18           0.38    0.43
A18         67.72   72.20   55.43          88.06   -4.11    4.26           5.93   133.96            0.53     0.43     0.64            0.21     0.30     0.33           0.44    0.49 
A19         64.84   67.45   57.37          85.73   -0.44   -1.78           1.84   256.17            0.57     0.60     0.41            0.30     0.16     0.21           0.35    0.40
A20          5.63    2.68    1.71          18.72   44.26    4.93          44.53    6.35            0.10     0.05     0.05            0.21     0.26     0.23           0.34    0.41 
A21         24.77   17.05   12.63          48.32   40.60    3.92          40.79    5.52            0.38     0.32     0.32            0.40     0.21     0.28           0.46    0.53
A22         49.67   45.85   31.26          73.45   15.25    9.52          17.97   31.98            0.51     0.62     0.62            0.40     0.42     0.33           0.59    0.67
B1           2.84    2.53    1.47          18.05    7.55    6.51           9.98   40.76            0.06     0.06     0.04            0.28     0.20     0.19           0.36    0.39
B2           3.33    2.51    0.94          17.95   16.41   13.57          21.29   39.58            0.08     0.06     0.03            0.28     0.19     0.22           0.36    0.40
B3           3.84    2.53    0.56          18.06   23.87   20.54          31.49   40.70            0.09     0.06     0.02            0.28     0.18     0.25           0.36    0.41
B4           4.54    2.50    0.13          17.92   34.34   28.49          44.62   39.68            0.12     0.07     0.00            0.30     0.27     0.47           0.50    0.62
B5          11.06    9.80    5.62          37.48   12.43   10.55          16.30   40.33            0.25     0.24     0.15            0.43     0.29     0.31           0.54    0.61
B6          12.99    9.85    3.69          37.57   25.36   21.41          33.19   40.17            0.28     0.23     0.11            0.41     0.26     0.24           0.47    0.54
B7          14.86    9.76    2.27          37.40   37.90   31.72          49.42   39.93            0.33     0.24     0.08            0.43     0.26     0.24           0.50    0.56
B8          20.10   10.64    0.84          38.97   59.51   51.36          78.61   40.80            0.17     0.13     0.03            0.22     0.15     0.17           0.27    0.32
B9          31.93   31.55   23.27          62.97    5.53    5.00           7.46   42.13            0.65     0.66     0.60            0.55     0.32     0.32           0.64    0.71
B10         33.78   31.47   20.61          62.90   12.39   10.09          15.98   39.14            0.60     0.61     0.54            0.51     0.28     0.31           0.57    0.66
B11         35.14   31.19   18.46          62.67   18.08   14.23          23.01   38.22            0.59     0.61     0.52            0.51     0.35     0.33           0.61    0.70
B12         38.66   31.81   15.22          63.19   27.37   22.70          35.56   39.67            0.44     0.52     0.43            0.43     0.51     0.40           0.66    0.78
B13         60.85   65.61   55.10          84.80   -5.59   -1.02           5.68   190.36            0.77     0.75     0.61            0.38     0.24     0.14           0.43    0.48
B14         60.15   58.66   53.67          81.10    8.67   -5.86          10.47   325.93            0.72     0.85     0.66            0.47     0.35     0.19           0.52    0.61
B15         64.97   68.07   46.29          86.04   -1.50   10.99          11.09   97.79            0.70     0.73     0.88            0.36     0.16     0.44           0.53    0.59
B16         53.61   55.35   44.91          79.24    0.60    0.93           1.12   56.96            0.90     0.93     0.87            0.53     0.21     0.21           0.53    0.61
B17         58.41   57.64   44.58          80.54    6.96    3.57           7.82   27.11            0.77     0.88     0.90            0.49     0.30     0.29           0.56    0.65
B18         59.97   65.34   46.91          84.66   -7.08    7.88          10.60   131.96            0.87     0.88     0.87            0.45     0.26     0.32           0.53    0.61
B19         55.92   56.99   53.65          80.17    2.41   -7.45           7.83   287.94            0.76     0.80     0.56            0.45     0.19     0.25           0.46    0.55
B20          4.22    2.57    0.89          18.23   28.64   14.82          32.24   27.35            0.10     0.06     0.03            0.28     0.23     0.20           0.36    0.42
B21         14.99    9.84    3.50          37.56   37.95   22.59          44.17   30.76            0.30     0.22     0.11            0.39     0.20     0.21           0.43    0.49
B22         31.14   25.90   14.99          57.94   24.31   14.22          28.16   30.34            0.53     0.50     0.40            0.47     0.25     0.29           0.52    0.61
C1           5.54    5.44    3.04          27.96    3.44    9.26           9.88   69.58            0.12     0.12     0.08            0.33     0.24     0.23           0.42    0.47
C2           5.78    5.30    1.84          27.57    7.81   18.80          20.36   67.44            0.13     0.13     0.05            0.35     0.26     0.22           0.44    0.49
C3           6.16    5.26    0.97          27.46   12.56   29.44          32.01   66.89            0.13     0.12     0.03            0.33     0.19     0.28           0.42    0.48
C4           6.51    5.13    0.34          27.10   17.79   40.36          44.11   66.21            0.16     0.14     0.01            0.39     0.21     0.54           0.57    0.70
C5          21.65   20.78   10.37          52.71    7.73   18.29          19.86   67.08            0.44     0.43     0.26            0.47     0.25     0.31           0.57    0.62
C6          23.46   20.78    5.76          52.71   15.98   36.14          39.52   66.15            0.44     0.42     0.16            0.47     0.27     0.30           0.55    0.62
C7          25.53   20.80    2.79          52.73   24.80   53.87          59.30   65.28            0.42     0.40     0.07            0.44     0.26     0.37           0.56    0.63
C8          28.22   20.95    0.77          52.89   34.99   76.73          84.33   65.48            0.39     0.36     0.02            0.39     0.24     0.43           0.53    0.63
C9          37.99   38.20   26.04          68.17    3.74    8.97           9.72   67.32            0.68     0.71     0.62            0.52     0.31     0.32           0.62    0.68
C10         39.15   38.23   21.88          68.19    7.34   16.67          18.21   66.22            0.67     0.70     0.55            0.52     0.28     0.31           0.60    0.67
C11         40.16   38.00   18.13          68.02   11.24   24.19          26.68   65.09            0.64     0.69     0.45            0.51     0.33     0.23           0.57    0.65
C12         43.13   38.62   12.66          68.47   18.28   38.59          42.70   64.66            0.46     0.59     0.32            0.43     0.54     0.35           0.69    0.77
C13         54.12   61.27   54.60          82.52  -12.22   -4.41          12.99   199.86            0.74     0.70     0.56            0.37     0.33     0.17           0.47    0.53
C14         53.68   48.51   51.55          75.14   18.46  -13.82          23.06   323.19            0.66     0.77     0.67            0.48     0.43     0.21           0.60    0.68
C15         63.37   67.20   36.74          85.60   -3.24   22.47          22.71   98.20            0.68     0.73     0.81            0.37     0.17     0.52           0.57    0.66
C16         40.31   41.82   34.13          70.74   -0.04    0.55           0.61   89.21            0.75     0.76     0.74            0.53     0.26     0.25           0.57    0.64
C17         49.79   46.03   33.01          73.56   15.08    7.07          16.66   25.09            0.62     0.72     0.76            0.47     0.40     0.38           0.64    0.72
C18         51.75   60.16   37.80          81.92  -15.75   14.66          21.52   137.06            0.77     0.72     0.74            0.39     0.39     0.37           0.57    0.66
C19         44.21   44.55   51.40          72.59    3.67  -18.05          18.43   281.49            0.67     0.69     0.50            0.46     0.24     0.32           0.53    0.61
C20         10.61    7.69    0.99          33.33   26.97   39.35          47.71   55.58            0.20     0.16     0.02            0.34     0.21     0.33           0.45    0.51
C21         19.71   17.94    9.82          49.42   12.50   14.42          19.09   49.07            0.38     0.37     0.24            0.45     0.28     0.27           0.53    0.59
C22         25.28   20.89    9.50          52.82   23.33   21.36          31.63   42.47            0.41     0.39     0.23            0.43     0.26     0.24           0.49    0.55
D1           3.62    3.80    2.10          22.98   -0.68    8.36           8.39   94.64            0.07     0.08     0.07            0.28     0.23     0.27           0.41    0.45
D2           3.54    3.74    1.31          22.78   -1.02   16.63          16.66   93.50            0.08     0.09     0.04            0.31     0.25     0.24           0.42    0.46
D3           3.51    3.66    0.66          22.52   -0.39   26.45          26.46   90.83            0.07     0.08     0.02            0.29     0.24     0.29           0.41    0.48
D4           3.42    3.63    0.36          22.42   -1.39   31.94          31.97   92.48            0.08     0.10     0.01            0.34     0.22     0.44           0.49    0.60
D5          15.71   16.45    8.31          47.55   -0.83   16.54          16.57   92.87            0.33     0.34     0.22            0.44     0.28     0.31           0.56    0.61
D6          15.51   16.19    4.47          47.22   -0.59   33.33          33.33   91.00            0.32     0.34     0.12            0.45     0.26     0.38           0.59    0.64
D7          15.48   16.37    2.20          47.45   -1.77   49.70          49.73   92.04            0.34     0.37     0.06            0.48     0.25     0.40           0.60    0.67
D8          15.24   16.20    0.91          47.23   -2.22   64.56          64.60   91.97            0.30     0.34     0.02            0.44     0.24     0.53           0.64    0.73
D9          43.72   45.40   22.54          73.15   -0.16   23.96          23.96   90.37            0.74     0.82     0.56            0.54     0.31     0.28           0.61    0.68
D10         43.62   45.37   12.73          73.13   -0.38   46.42          46.42   90.47            0.67     0.74     0.31            0.48     0.24     0.36           0.59    0.65
D11         43.53   45.69    6.54          73.34   -1.53   68.11          68.13   91.29            0.65     0.72     0.15            0.47     0.20     0.42           0.59    0.66
D12         43.55   46.30    2.80          73.74   -3.19   89.95          90.01   92.03            0.65     0.67     0.05            0.43     0.15     0.46           0.57    0.65
D13         48.50   57.41   54.12          80.41  -17.92   -7.54          19.44   202.82            0.66     0.62     0.50            0.35     0.35     0.15           0.47    0.52
D14         48.27   40.24   49.54          69.63   27.90  -21.07          34.96   322.94            0.53     0.61     0.56            0.43     0.44     0.21           0.58    0.65
D15         62.18   66.44   29.39          85.22   -4.31   32.76          33.05   97.50            0.64     0.70     0.71            0.36     0.17     0.57           0.58    0.69
D16         29.59   30.65   25.47          62.21    0.13   -0.32           0.48   253.67            0.62     0.64     0.61            0.54     0.28     0.29           0.61    0.67
D17         42.41   36.25   23.96          66.70   23.76   10.16          25.84   23.15            0.52     0.59     0.61            0.45     0.45     0.38           0.66    0.74
D18         44.92   55.51   30.58          79.33  -23.30   20.71          31.17   138.37            0.66     0.63     0.63            0.36     0.39     0.42           0.58    0.68
D19         34.53   34.14   49.02          65.07    5.62  -28.34          28.90   281.22            0.55     0.58     0.44            0.46     0.28     0.37           0.57    0.66
D20          2.49    2.51    0.92          17.95    1.33   13.92          13.99   84.53            0.06     0.07     0.03            0.33     0.25     0.17           0.38    0.44
D21         28.30   25.63    1.34          57.68   14.71   76.39          77.80   79.10            0.45     0.44     0.02            0.42     0.20     0.48           0.57    0.67
D22         38.50   41.20   51.31          70.31   -3.85  -21.89          22.23   260.02            0.60     0.66     0.41            0.46     0.26     0.38           0.56    0.65
E1           4.74    5.32    3.09          27.64   -4.90    8.35           9.68   120.38            0.10     0.12     0.09            0.32     0.28     0.22           0.44    0.48
E2           4.27    5.24    1.93          27.41  -10.18   17.64          20.37   119.99            0.08     0.11     0.05            0.29     0.32     0.22           0.43    0.49
E3           3.92    5.21    1.13          27.31  -14.70   26.89          30.65   118.65            0.09     0.13     0.03            0.37     0.36     0.27           0.50    0.58
E4           3.41    5.07    0.52          26.94  -20.96   36.67          42.24   119.76            0.08     0.13     0.01            0.38     0.37     0.47           0.57    0.71
E5          22.23   25.19   13.70          57.26   -9.18   16.40          18.80   119.23            0.47     0.53     0.35            0.51     0.26     0.26           0.58    0.63
E6          20.73   25.83    8.63          57.87  -18.88   33.13          38.13   119.68            0.42     0.51     0.23            0.49     0.28     0.31           0.59    0.64
E7          18.89   25.93    4.76          57.96  -28.41   50.26          57.74   119.48            0.39     0.51     0.12            0.49     0.26     0.38           0.61    0.67
E8          17.28   26.94    1.97          58.92  -41.02   71.54          82.47   119.83            0.22     0.31     0.03            0.29     0.12     0.30           0.39    0.44
E9          41.81   45.44   29.61          73.18   -5.96   11.65          13.09   117.08            0.80     0.82     0.69            0.54     0.30     0.32           0.63    0.69
E10         39.91   45.57   23.32          73.26  -12.14   22.67          25.72   118.17            0.71     0.76     0.55            0.50     0.28     0.34           0.59    0.66
E11         38.25   45.86   18.35          73.45  -18.22   33.07          37.76   118.84            0.74     0.81     0.47            0.53     0.25     0.27           0.58    0.64
E12         34.67   46.57    9.93          73.91  -32.00   56.28          64.74   119.62            0.49     0.51     0.20            0.33     0.33     0.32           0.52    0.56
E13         43.77   54.01   53.68          78.46  -22.92  -10.42          25.17   204.45            0.59     0.57     0.48            0.33     0.34     0.13           0.43    0.49
E14         43.75   33.65   47.51          64.68   36.44  -27.27          45.51   323.18            0.47     0.51     0.52            0.41     0.43     0.16           0.54    0.61
E15         61.09   65.53   23.01          84.75   -4.84   43.05          43.32   96.42            0.60     0.66     0.59            0.34     0.17     0.56           0.59    0.68
E16         21.24   22.06   18.16          54.08   -0.10    0.10           0.35   205.02            0.47     0.48     0.44            0.50     0.27     0.27           0.57    0.63
E17         36.29   28.47   16.38          60.31   32.06   14.90          35.35   24.93            0.40     0.44     0.42            0.39     0.42     0.40           0.62    0.70
E18         38.99   51.15   24.11          76.77  -30.14   27.24          40.62   137.89            0.57     0.56     0.51            0.34     0.39     0.42           0.57    0.66
E19         26.81   25.89   46.65          57.93    7.68  -37.90          38.67   281.45            0.46     0.48     0.40            0.46     0.32     0.37           0.56    0.67
E20          6.16    7.28    1.25          32.43   -8.92   33.97          35.12   104.71            0.11     0.14     0.02            0.31     0.30     0.32           0.46    0.54
E21         22.12   26.40    5.61          58.41  -14.68   46.68          48.93   107.46            0.43     0.49     0.13            0.46     0.22     0.37           0.56    0.63
E22          8.00   17.19   12.23          48.50  -59.98    5.37          60.22   174.89            0.14     0.27     0.30            0.34     0.33     0.42           0.56    0.63
F1           3.04    3.75    2.72          22.84   -9.50    2.85           9.92   163.28            0.06     0.09     0.08            0.30     0.27     0.20           0.40    0.45
F2           2.43    3.68    2.27          22.58  -19.70    6.14          20.64   162.69            0.06     0.09     0.07            0.33     0.33     0.23           0.47    0.52
F3           1.96    3.55    1.91          22.11  -27.75    8.74          29.09   162.52            0.05     0.09     0.06            0.33     0.38     0.29           0.50    0.57
F4           1.26    3.63    1.31          22.40  -47.89   15.94          50.48   161.59            0.03     0.10     0.04            0.34     0.46     0.23           0.52    0.62
F5          10.13   12.76    8.97          42.39  -15.80    5.22          16.64   161.72            0.23     0.29     0.25            0.45     0.33     0.31           0.58    0.63
F6           8.16   12.80    7.56          42.45  -32.41   10.64          34.12   161.83            0.18     0.29     0.22            0.44     0.39     0.37           0.63    0.70
F7           6.66   12.99    6.28          42.75  -48.11   16.54          50.87   161.03            0.15     0.29     0.19            0.44     0.41     0.41           0.66    0.73
F8           5.11   13.55    4.98          43.58  -69.05   24.27          73.19   160.63            0.10     0.24     0.15            0.35     0.34     0.40           0.57    0.63
F9          27.00   31.03   22.98          62.53  -11.39    4.80          12.36   157.16            0.56     0.61     0.56            0.52     0.29     0.30           0.62    0.66
F10         24.39   31.47   21.42          62.90  -23.87    8.46          25.33   160.49            0.48     0.57     0.50            0.47     0.29     0.34           0.59    0.65
F11         22.13   31.84   19.65          63.21  -35.31   12.60          37.49   160.36            0.41     0.52     0.44            0.43     0.28     0.37           0.58    0.64
F12         18.22   33.30   16.51          64.40  -59.66   21.65          63.47   160.06            0.21     0.29     0.37            0.23     0.20     0.54           0.52    0.62
F13         39.28   50.58   53.15          76.42  -27.73  -13.37          30.78   205.74            0.52     0.53     0.48            0.32     0.32     0.12           0.42    0.47
F14         39.49   27.73   45.30          59.64   45.26  -33.33          56.21   323.63            0.38     0.37     0.48            0.34     0.32     0.15           0.44    0.49
F15         60.26   64.64   18.16          84.30   -4.85   52.19          52.42   95.31            0.52     0.60     0.46            0.31     0.18     0.53           0.56    0.64
F16         14.55   15.06   12.65          45.72    0.15   -0.61           0.69   270.70            0.31     0.31     0.31            0.42     0.30     0.30           0.54    0.59
F17         30.86   21.82   10.75          53.83   41.00   19.02          45.20   24.88            0.30     0.31     0.31            0.33     0.33     0.45           0.56    0.64
F18         33.53   46.85   19.03          74.09  -36.71   32.69          49.16   138.32            0.48     0.51     0.41            0.33     0.34     0.43           0.57    0.64
F19         20.33   18.89   44.08          50.55   10.71  -47.52          48.71   282.70            0.32     0.34     0.36            0.40     0.28     0.28           0.48    0.56
