targets/wolf_faust/transmissive/N050526.it8
IT8.7/1
ORIGINATOR "Wolf Faust"
DESCRIPTOR "Velvia 100, 100F and Astia 100F, Type 3, L* a* b* (light D50, viewing angle 2)"
MANUFACTURER "Wolf Faust - http://www.coloraid.de"
CREATED "November 04, 2005"
PROD_DATE "2005:05"
DIFFUSE_GEOMETRY "opal"
SERIAL "N050526 Batch Average Data"
MATERIAL "Fujichrome Velvia 100F (RVP 100F)"
KEYWORD "MEAN_DE" # Mean Delta E of samples compared to batch average
NUMBER_OF_FIELDS 18
BEGIN_DATA_FORMAT
SAMPLE_ID  XYZ_X   XYZ_Y   XYZ_Z          LAB_L   LAB_A   LAB_B          LAB_C   LAB_H          D_RED  D_GREEN  D_BLUE  D_VIS          STDEV_X STDEV_Y STDEV_Z        MEAN_DE  STDEV_DE
END_DATA_FORMAT
NUMBER_OF_SETS 288
BEGIN_DATA
A1          2.09    1.80    1.37          14.39    8.52    1.36           8.63    9.08           1.50    1.93    1.96    1.72            0.06    0.05    0.04           0.37     0.41
A2          2.64    1.82    1.10          14.51   19.15    5.14          19.83   15.02           1.31    2.11    2.05    1.67            0.05    0.04    0.03           0.35     0.37 
A3          3.19    1.81    0.93          14.46   29.15    7.66          30.14   14.72           1.16    2.40    2.08    1.63            0.07    0.04    0.03           0.29     0.33
A4          4.08    1.81    0.67          14.46   42.92   12.31          44.65   16.00           0.97    3.51    2.10    1.58            0.08    0.04    0.02           0.36     0.41 
A5          9.44    8.11    6.01          34.21   14.02    3.04          14.35   12.24           0.85    1.23    1.24    1.06            0.21    0.19    0.13           0.53     0.59
A6         11.35    8.11    5.13          34.21   28.58    7.38          29.51   14.48           0.69    1.37    1.31    1.03            0.25    0.21    0.16           0.52     0.57 
A7         13.98    8.41    4.45          34.83   43.54   12.07          45.18   15.49           0.53    1.56    1.35    0.98            0.27    0.19    0.16           0.48     0.53
A8         17.22    8.48    3.55          34.96   61.93   17.76          64.43   16.00           0.37    2.03    1.41    0.93            0.13    0.09    0.10           0.40     0.46 
A9         28.89   27.92   21.81          59.81    7.81    2.36           8.16   16.87           0.44    0.60    0.63    0.54            0.60    0.66    0.55           0.72     0.81
A10        31.06   27.95   20.78          59.84   15.86    4.46          16.48   15.72           0.37    0.64    0.65    0.53            0.57    0.62    0.50           0.73     0.83
A11        33.29   28.04   19.78          59.92   23.48    6.68          24.42   15.87           0.30    0.68    0.67    0.52            0.55    0.59    0.47           0.69     0.80
A12        36.66   28.43   19.02          60.27   33.46    8.89          34.62   14.88           0.21    0.72    0.68    0.50            0.46    0.55    0.49           0.76     0.85 
A13        67.88   71.89   57.70          87.92   -3.12    1.65           3.53  151.92           0.16    0.14    0.16    0.15            0.48    0.40    0.24           0.33     0.36
A14        70.17   71.18   57.66          87.57    3.33    1.10           3.52   18.60           0.11    0.16    0.16    0.14            0.39    0.56    0.25           0.45     0.50 
A15        72.54   74.79   57.51          89.29    0.90    4.22           4.32   77.98           0.11    0.13    0.17    0.12            0.20    0.24    0.31           0.18     0.20
A16        67.07   69.33   56.97          86.67    0.48    0.25           0.62  107.58           0.15    0.16    0.17    0.16            0.59    0.66    0.28           0.43     0.47
A17        69.66   70.50   57.08          87.24    3.64    1.12           3.82   17.42           0.12    0.16    0.17    0.15            0.40    0.57    0.26           0.48     0.52
A18        69.22   72.62   56.25          88.27   -1.72    3.75           4.13  114.65           0.14    0.14    0.18    0.14            0.41    0.37    0.38           0.24     0.26 
A19        64.72   66.23   56.25          85.11    1.94   -1.68           2.58  319.79           0.16    0.18    0.17    0.18            0.54    0.64    0.24           0.53     0.58
A20         6.61    3.15    2.07          20.63   46.71    4.66          46.94    5.69           0.79    2.66    1.61    1.36            0.13    0.07    0.06           0.38     0.42 
A21        26.54   18.55   14.30          50.15   40.10    2.55          40.19    3.64           0.32    1.01    0.80    0.67            0.41    0.37    0.42           0.60     0.68
A22        51.97   48.93   34.16          75.40   12.93    8.55          15.51   33.49           0.17    0.36    0.42    0.29            0.72    0.89    0.80           0.74     0.84
B1          3.05    2.77    1.67          19.09    6.94    6.00           9.17   40.84           1.35    1.69    1.90    1.53            0.08    0.07    0.04           0.38     0.43
B2          3.70    2.83    1.01          19.34   16.36   14.78          22.05   42.10           1.19    1.79    2.19    1.49            0.08    0.07    0.03           0.36     0.40
B3          4.17    2.70    0.59          18.81   25.50   21.21          33.17   39.75           1.08    1.98    2.48    1.48            0.10    0.07    0.02           0.35     0.39
B4          5.22    2.88    0.14          19.56   35.85   31.08          47.45   40.92           0.93    2.19    3.60    1.41            0.13    0.08    0.00           0.54     0.63
B5         12.26   10.83    6.24          39.28   13.14   10.75          16.98   39.30           0.74    1.08    1.25    0.94            0.30    0.28    0.15           0.60     0.65
B6         14.40   10.92    4.22          39.45   26.25   21.34          33.83   39.11           0.59    1.18    1.46    0.90            0.30    0.26    0.11           0.60     0.65
B7         16.88   11.12    2.57          39.78   39.23   33.26          51.43   40.29           0.47    1.31    1.74    0.87            0.31    0.24    0.08           0.53     0.58
B8         20.77   11.19    1.00          39.89   58.80   50.42          77.46   40.61           0.31    1.62    2.26    0.82            0.17    0.14    0.03           0.33     0.36
B9         34.49   34.11   25.60          65.05    5.58    4.36           7.09   38.06           0.38    0.50    0.55    0.46            0.70    0.75    0.61           0.73     0.81
B10        36.29   34.15   22.51          65.08   11.52   10.10          15.33   41.24           0.32    0.53    0.62    0.45            0.64    0.71    0.53           0.73     0.80
B11        38.17   34.44   20.29          65.31   16.65   14.89          22.34   41.82           0.26    0.54    0.68    0.44            0.62    0.69    0.50           0.70     0.78
B12        40.46   34.08   17.55          65.02   25.10   20.32          32.30   39.01           0.20    0.59    0.75    0.43            0.54    0.68    0.45           0.83     0.92
B13        59.37   63.26   55.16          83.58   -3.85   -3.19           5.01  219.54           0.24    0.19    0.18    0.20            0.67    0.69    0.28           0.48     0.53
B14        61.18   59.64   54.38          81.64    8.77   -5.69          10.46  327.07           0.16    0.25    0.18    0.22            0.64    0.79    0.35           0.65     0.72
B15        63.44   65.20   45.40          84.59    1.32    9.55           9.64   82.12           0.15    0.19    0.28    0.18            0.63    0.69    0.68           0.41     0.45
B16        53.81   55.71   45.56          79.45    0.23    0.49           0.57   64.22           0.24    0.26    0.27    0.25            0.77    0.82    0.64           0.49     0.52
B17        59.03   58.08   44.88          80.78    7.39    3.61           8.23   26.05           0.16    0.26    0.28    0.23            0.69    0.82    0.70           0.56     0.60
B18        57.64   62.16   46.03          83.00   -5.53    6.06           8.20  132.41           0.23    0.19    0.28    0.21            0.67    0.68    0.62           0.41     0.44
B19        55.77   57.33   53.91          80.36    1.23   -7.39           7.50  279.39           0.24    0.24    0.19    0.24            0.64    0.73    0.31           0.61     0.67
B20         5.05    3.06    1.12          20.27   30.69   14.76          34.06   25.67           0.97    2.03    2.05    1.42            0.10    0.07    0.03           0.34     0.37
B21        17.18   11.35    4.25          40.17   39.24   22.46          45.21   29.79           0.47    1.30    1.43    0.86            0.30    0.25    0.12           0.50     0.54
B22        33.43   28.16   16.73          60.03   23.52   13.61          27.17   30.07           0.29    0.68    0.76    0.51            0.57    0.64    0.48           0.76     0.87
C1          5.96    5.86    3.35          29.07    3.45    8.96           9.61   68.93           1.10    1.30    1.58    1.22            0.13    0.14    0.07           0.47     0.52
C2          6.24    5.72    2.04          28.70    8.08   18.82          20.48   66.76           1.03    1.34    1.88    1.21            0.15    0.15    0.05           0.50     0.55
C3          6.82    5.83    1.06          28.96   13.00   30.63          33.27   67.00           0.96    1.37    2.34    1.19            0.17    0.16    0.03           0.54     0.62
C4          7.32    5.81    0.37          28.91   18.10   42.82          46.49   67.09           0.92    1.40    3.38    1.17            0.21    0.19    0.01           0.76     0.86
C5         23.28   22.38   11.40          54.43    7.75   18.03          19.64   66.74           0.50    0.71    0.98    0.63            0.53    0.57    0.28           0.78     0.86
C6         25.50   22.71    6.50          54.76   15.92   36.26          39.61   66.30           0.41    0.74    1.31    0.61            0.50    0.54    0.18           0.73     0.82
C7         27.33   22.55    3.15          54.60   24.12   54.36          59.47   66.07           0.34    0.79    1.80    0.59            0.48    0.50    0.09           0.71     0.81
C8         29.86   22.38    0.79          54.42   34.74   78.90          86.22   66.24           0.28    0.85    3.19    0.58            0.48    0.49    0.02           0.80     0.90
C9         40.44   40.69   28.11          69.95    3.76    8.52           9.32   66.15           0.32    0.41    0.51    0.38            0.78    0.85    0.68           0.70     0.78
C10        41.72   40.96   23.99          70.14    6.86   16.04          17.45   66.84           0.28    0.42    0.60    0.37            0.71    0.80    0.55           0.69     0.77
C11        43.27   41.23   19.80          70.33   10.68   24.57          26.79   66.52           0.23    0.44    0.71    0.36            0.73    0.83    0.53           0.71     0.80
C12        45.05   41.23   14.63          70.33   15.85   36.50          39.80   66.53           0.18    0.46    0.88    0.35            0.58    0.76    0.39           0.77     0.87
C13        53.24   59.44   54.55          81.53  -10.21   -6.07          11.88  210.68           0.33    0.19    0.18    0.24            0.69    0.71    0.30           0.52     0.57
C14        54.80   49.72   52.28          75.90   18.05  -13.33          22.43  323.56           0.17    0.36    0.19    0.29            0.67    0.86    0.37           0.86     0.98
C15        61.62   64.23   34.76          84.08   -0.71   22.65          22.66   91.79           0.15    0.20    0.43    0.18            0.62    0.69    0.71           0.53     0.58
C16        40.97   42.31   34.88          71.08    0.54    0.05           0.63  221.27           0.35    0.38    0.40    0.37            0.76    0.83    0.72           0.66     0.71
C17        50.18   46.22   33.36          73.69   15.60    6.76          17.01   23.41           0.17    0.40    0.42    0.32            0.66    0.80    0.73           0.72     0.79
C18        49.88   57.46   36.11          80.44  -14.31   14.44          20.34  134.74           0.33    0.21    0.41    0.25            0.63    0.63    0.61           0.50     0.54
C19        44.62   45.39   51.59          73.14    2.49  -17.31          17.49  278.16           0.36    0.35    0.20    0.35            0.67    0.79    0.30           0.82     0.90
C20        12.03    8.80    1.23          35.60   27.47   39.72          48.29   55.33           0.66    1.30    2.26    0.98            0.21    0.18    0.03           0.50     0.55
C21        21.47   19.86   11.15          51.67   11.38   14.04          18.07   50.98           0.52    0.78    0.97    0.68            0.44    0.48    0.29           0.72     0.80
C22        27.49   22.98   10.93          55.05   22.82   20.57          30.73   42.03           0.36    0.77    0.99    0.60            0.50    0.53    0.29           0.71     0.79
D1          3.97    4.17    2.34          24.21   -0.68    8.35           8.38   94.64           1.30    1.42    1.77    1.38            0.11    0.12    0.07           0.47     0.52
D2          3.85    4.08    1.48          23.94   -1.20   16.50          16.55   94.15           1.31    1.42    2.07    1.38            0.11    0.12    0.05           0.49     0.56
D3          3.69    3.94    0.79          23.47   -1.69   25.64          25.70   93.76           1.34    1.41    2.56    1.39            0.10    0.12    0.03           0.55     0.61
D4          3.70    3.94    0.38          23.47   -1.46   33.25          33.29   92.51           1.35    1.40    3.35    1.39            0.12    0.14    0.01           0.76     0.85
D5         17.08   17.89    9.27          49.36   -0.94   16.21          16.24   93.30           0.68    0.76    1.09    0.74            0.40    0.47    0.23           0.70     0.77
D6         16.87   17.71    5.05          49.14   -1.13   33.48          33.50   91.93           0.67    0.77    1.47    0.74            0.41    0.47    0.13           0.76     0.84
D7         16.67   17.73    2.47          49.16   -2.35   50.25          50.31   92.67           0.69    0.75    2.03    0.73            0.40    0.47    0.07           0.78     0.89
D8         16.82   17.89    0.94          49.35   -2.33   67.61          67.65   91.98           0.71    0.74    3.11    0.73            0.45    0.51    0.02           0.95     1.06
D9         46.35   48.17   24.54          74.93   -0.27   23.29          23.29   90.67           0.26    0.33    0.60    0.31            0.76    0.83    0.57           0.60     0.66
D10        46.20   48.47   14.20          75.12   -1.53   45.86          45.89   91.91           0.24    0.32    0.93    0.30            0.68    0.77    0.30           0.54     0.59
D11        46.10   48.65    7.24          75.23   -2.28   68.42          68.46   91.91           0.24    0.32    1.40    0.29            0.63    0.69    0.14           0.52     0.56
D12        45.69   48.71    2.84          75.27   -3.59   92.28          92.35   92.23           0.27    0.31    2.28    0.29            0.58    0.57    0.06           0.48     0.53
D13        47.89   55.83   53.95          79.52  -15.75   -8.89          18.09  209.44           0.43    0.20    0.19    0.27            0.62    0.65    0.28           0.51     0.55
D14        49.41   41.65   50.25          70.63   26.72  -20.15          33.47  322.97           0.19    0.48    0.20    0.36            0.63    0.79    0.38           0.92     1.06
D15        60.15   63.21   26.41          83.55   -1.86   34.83          34.88   93.07           0.15    0.21    0.58    0.19            0.62    0.71    0.62           0.56     0.63
D16        30.92   31.84   26.23          63.21    0.83    0.08           0.92  197.39           0.46    0.51    0.54    0.50            0.69    0.78    0.64           0.78     0.85
D17        42.70   36.43   24.13          66.85   24.01   10.10          26.05   22.81           0.19    0.55    0.58    0.41            0.55    0.68    0.60           0.76     0.85
D18        43.29   53.06   27.99          77.91  -21.93   22.43          31.38  134.36           0.42    0.22    0.55    0.29            0.61    0.62    0.51           0.52     0.58
D19        35.55   35.67   49.31          66.27    3.92  -26.61          26.91  278.36           0.48    0.45    0.21    0.46            0.57    0.71    0.28           0.89     1.00
D20         2.81    2.85    1.16          19.43    1.06   12.80          12.85   85.25           1.43    1.60    2.17    1.53            0.07    0.07    0.03           0.42     0.47
D21        30.75   28.18    1.51          60.05   13.79   78.39          79.59   80.02           0.36    0.62    2.66    0.51            0.56    0.63    0.04           0.82     0.95
D22        40.74   43.80   51.26          72.09   -4.53  -18.76          19.30  256.40           0.45    0.34    0.20    0.38            0.65    0.77    0.31           0.78     0.85
E1          5.08    5.77    3.50          28.81   -5.68    7.53           9.44  127.00           1.24    1.24    1.57    1.25            0.12    0.14    0.08           0.50     0.54
E2          4.78    5.91    2.19          29.17  -11.05   18.21          21.31  121.24           1.30    1.19    1.89    1.24            0.12    0.17    0.06           0.61     0.68
E3          4.26    5.78    1.26          28.84  -16.56   27.65          32.23  120.90           1.42    1.15    2.34    1.25            0.13    0.19    0.04           0.72     0.80
E4          3.86    5.82    0.58          28.94  -22.64   38.96          45.06  120.16           1.59    1.10    3.23    1.26            0.14    0.22    0.02           0.98     1.07
E5         24.16   27.38   14.72          59.32   -9.43   17.27          19.68  118.63           0.59    0.54    0.86    0.57            0.57    0.67    0.33           0.77     0.84
E6         22.17   27.52    9.26          59.45  -18.93   33.64          38.60  119.37           0.67    0.50    1.16    0.57            0.50    0.64    0.23           0.73     0.80
E7         20.00   27.48    5.12          59.41  -29.11   50.85          58.60  119.79           0.79    0.47    1.60    0.58            0.41    0.55    0.12           0.62     0.70
E8         17.42   27.20    1.72          59.16  -41.31   74.59          85.27  118.98           1.06    0.42    2.79    0.59            0.22    0.26    0.02           0.36     0.40
E9         44.51   48.09   32.30          74.88   -5.32   10.40          11.68  117.11           0.33    0.31    0.45    0.32            0.78    0.83    0.66           0.60     0.66
E10        42.31   48.17   25.27          74.93  -11.99   21.97          25.03  118.62           0.37    0.29    0.59    0.32            0.68    0.74    0.54           0.56     0.61
E11        40.32   48.03   19.78          74.84  -17.67   32.40          36.91  118.62           0.41    0.28    0.74    0.32            0.69    0.74    0.44           0.55     0.61
E12        37.64   48.30   13.01          75.01  -26.88   48.88          55.78  118.81           0.48    0.25    1.01    0.33            0.60    0.63    0.31           0.55     0.59
E13        42.64   52.09   53.28          77.33  -21.37  -11.94          24.48  209.19           0.54    0.21    0.20    0.31            0.56    0.62    0.33           0.47     0.51
E14        44.74   34.82   48.18          65.61   35.32  -26.45          44.13  323.17           0.20    0.60    0.21    0.43            0.53    0.67    0.34           0.89     1.06
E15        59.14   62.36   20.03          83.10   -2.35   46.12          46.18   92.92           0.15    0.21    0.75    0.19            0.58    0.69    0.48           0.53     0.60
E16        22.45   23.12   19.06          55.19    0.72    0.05           0.84  137.45           0.60    0.65    0.69    0.64            0.52    0.61    0.49           0.75     0.85
E17        36.24   28.17   16.64          60.04   33.05   13.83          35.83   22.71           0.21    0.73    0.76    0.50            0.44    0.52    0.44           0.73     0.82
E18        36.89   48.37   21.12          75.06  -29.54   30.02          42.11  134.54           0.53    0.24    0.71    0.33            0.56    0.59    0.46           0.55     0.61
E19        27.34   26.97   46.82          58.95    5.41  -36.35          36.75  278.45           0.64    0.57    0.23    0.59            0.51    0.64    0.29           0.95     1.12
E20         6.81    8.05    1.39          34.09   -9.23   35.15          36.35  104.71           1.13    1.05    2.32    1.09            0.15    0.19    0.03           0.56     0.67
E21        24.38   28.99    6.41          60.77  -14.76   47.04          49.30  107.42           0.59    0.50    1.41    0.54            0.53    0.67    0.15           0.72     0.82
E22         8.91   18.67   13.82          50.29  -59.74    4.07          59.88  176.10           1.89    0.52    0.91    0.81            0.24    0.42    0.36           0.68     0.74
F1          3.39    4.23    3.16          24.42  -10.41    2.29          10.66  167.59           1.48    1.35    1.60    1.40            0.08    0.10    0.07           0.53     0.57
F2          2.78    4.21    2.65          24.35  -20.56    6.02          21.42  163.68           1.69    1.28    1.74    1.42            0.08    0.12    0.07           0.66     0.71
F3          2.38    4.26    2.23          24.52  -29.09    9.90          30.73  161.21           1.89    1.23    1.88    1.43            0.08    0.14    0.06           0.73     0.80
F4          1.46    4.13    1.61          24.09  -49.21   15.34          51.54  162.69           2.77    1.14    2.18    1.48            0.05    0.15    0.05           0.71     0.81
F5         10.97   13.88    9.96          44.05  -16.54    4.71          17.20  164.11           1.02    0.80    1.04    0.88            0.29    0.38    0.25           0.72     0.77
F6          8.91   13.86    8.36          44.03  -32.69   10.27          34.26  162.56           1.28    0.74    1.16    0.90            0.22    0.37    0.21           0.73     0.80
F7          7.27   14.13    7.14          44.41  -49.21   15.72          51.66  162.28           1.63    0.67    1.29    0.91            0.24    0.44    0.21           0.87     0.96
F8          5.73   14.59    5.69          45.06  -68.05   23.27          71.92  161.12           2.28    0.59    1.48    0.92            0.16    0.32    0.16           0.61     0.66
F9         29.32   33.65   25.70          64.68  -11.55    3.55          12.09  162.89           0.56    0.44    0.56    0.49            0.65    0.75    0.60           0.74     0.79
F10        26.42   33.85   23.16          64.84  -23.70    8.44          25.17  160.40           0.69    0.40    0.63    0.49            0.53    0.66    0.53           0.66     0.71
F11        23.56   33.69   21.21          64.71  -35.34   12.01          37.32  161.23           0.84    0.37    0.68    0.51            0.42    0.56    0.45           0.57     0.61
F12        18.95   33.67   17.90          64.70  -57.13   18.96          60.20  161.64           1.22    0.31    0.80    0.53            0.24    0.30    0.38           0.57     0.65
F13        38.31   48.89   52.69          75.38  -26.33  -14.66          30.14  209.11           0.65    0.23    0.20    0.35            0.43    0.49    0.26           0.40     0.44
F14        40.60   29.03   46.02          60.81   43.67  -32.19          54.25  323.60           0.22    0.74    0.22    0.50            0.41    0.50    0.30           0.73     0.89
F15        58.23   61.33   15.22          82.56   -2.17   56.09          56.13   92.22           0.14    0.22    0.92    0.20            0.48    0.59    0.33           0.46     0.51
F16        15.90   16.33   13.65          47.40    0.89   -0.47           1.09  303.00           0.74    0.81    0.85    0.79            0.36    0.41    0.37           0.65     0.73
F17        30.93   21.73   11.20          53.74   41.68   17.45          45.18   22.72           0.24    0.93    0.94    0.59            0.33    0.37    0.31           0.65     0.73
