targets/wolf_faust/transmissive/N050525.it8
IT8.7/1
ORIGINATOR "Wolf Faust"
DESCRIPTOR "Velvia 100, 100F and Astia 100F, Type 3, L* a* b* (light D50, viewing angle 2)"
MANUFACTURER "Wolf Faust - http://www.coloraid.de"
CREATED "July 17, 2005"
PROD_DATE "2005:05"
DIFFUSE_GEOMETRY "opal"
SERIAL "N050525 Batch Average Data"
MATERIAL "Fujichrome Velvia 100F (RVP 100F)"
KEYWORD "MEAN_DE" # Mean Delta E of samples compared to batch average
NUMBER_OF_FIELDS 18
BEGIN_DATA_FORMAT
SAMPLE_ID  XYZ_X   XYZ_Y   XYZ_Z          LAB_L   LAB_A   LAB_B          LAB_C   LAB_H          D_RED  D_GREEN  D_BLUE  D_VIS          STDEV_X STDEV_Y STDEV_Z        MEAN_DE  STDEV_DE
END_DATA_FORMAT
NUMBER_OF_SETS 288
BEGIN_DATA
A1          2.08    1.78    1.36          14.27    8.75    1.26           8.85    8.15           1.50    1.94    1.96    1.72            0.03    0.03    0.03           0.33     0.36
A2          2.61    1.80    1.10          14.38   19.14    4.95          19.77   14.51           1.31    2.11    2.05    1.68            0.04    0.03    0.02           0.27     0.30 
A3          3.15    1.79    0.93          14.36   29.02    7.46          29.96   14.41           1.16    2.39    2.08    1.64            0.05    0.03    0.01           0.31     0.35
A4          3.96    1.76    0.68          14.20   42.35   11.63          43.92   15.35           0.98    3.36    2.09    1.59            0.04    0.02    0.01           0.22     0.26 
A5          9.42    8.08    5.94          34.14   14.13    3.28          14.50   13.05           0.85    1.23    1.25    1.06            0.12    0.12    0.09           0.41     0.45
A6         11.35    8.18    5.21          34.35   28.03    7.18          28.93   14.37           0.69    1.36    1.30    1.03            0.15    0.12    0.09           0.34     0.40 
A7         13.79    8.32    4.40          34.64   43.22   12.03          44.86   15.55           0.54    1.57    1.36    0.98            0.15    0.10    0.07           0.36     0.41
A8         17.25    8.51    3.64          35.02   61.83   17.28          64.20   15.61           0.37    2.03    1.39    0.93            0.11    0.07    0.06           0.26     0.30 
A9         28.50   27.59   21.73          59.51    7.56    2.02           7.84   14.95           0.45    0.60    0.63    0.55            0.38    0.43    0.39           0.59     0.66
A10        30.73   27.67   20.80          59.59   15.75    3.98          16.25   14.18           0.37    0.64    0.65    0.54            0.36    0.38    0.35           0.50     0.56
A11        33.05   27.86   19.69          59.76   23.38    6.57          24.29   15.69           0.30    0.68    0.67    0.52            0.38    0.39    0.37           0.49     0.56
A12        36.40   28.18   18.79          60.05   33.59    8.99          34.77   14.99           0.22    0.73    0.69    0.50            0.35    0.39    0.43           0.58     0.69 
A13        67.40   71.48   57.62          87.72   -3.30    1.39           3.59  157.13           0.17    0.14    0.16    0.15            0.40    0.37    0.30           0.24     0.27
A14        69.78   70.72   57.53          87.35    3.45    0.84           3.56   13.96           0.12    0.16    0.16    0.15            0.36    0.52    0.30           0.39     0.44 
A15        72.09   74.29   57.22          89.06    0.98    4.11           4.23   76.69           0.11    0.13    0.17    0.13            0.24    0.30    0.32           0.19     0.21
A16        67.77   70.29   57.17          87.14   -0.01    0.85           0.87   89.89           0.15    0.15    0.16    0.15            0.49    0.55    0.31           0.34     0.37
A17        69.17   69.94   56.90          86.97    3.77    0.84           3.87   12.75           0.12    0.17    0.17    0.15            0.39    0.56    0.33           0.43     0.48
A18        68.50   72.00   56.08          87.97   -2.00    3.43           3.97  120.25           0.15    0.14    0.18    0.14            0.46    0.45    0.43           0.25     0.28 
A19        63.65   65.17   55.95          84.57    1.87   -2.31           2.98  309.15           0.17    0.19    0.17    0.19            0.53    0.64    0.34           0.47     0.54
A20         6.47    3.09    2.07          20.42   46.21    4.24          46.40    5.24           0.80    2.63    1.61    1.37            0.11    0.06    0.05           0.41     0.47 
A21        26.39   18.33   14.24          49.89   40.60    2.26          40.66    3.18           0.32    1.02    0.80    0.67            0.40    0.36    0.38           0.55     0.62
A22        51.61   48.55   34.40          75.17   13.01    7.78          15.16   30.88           0.17    0.37    0.41    0.30            0.69    0.84    0.82           0.77     0.86
B1          3.04    2.75    1.67          19.00    7.14    5.81           9.21   39.15           1.35    1.70    1.90    1.54            0.03    0.03    0.02           0.26     0.29
B2          3.67    2.81    1.07          19.25   16.25   13.84          21.34   40.43           1.19    1.80    2.15    1.49            0.04    0.03    0.01           0.28     0.31
B3          4.25    2.80    0.62          19.22   24.86   21.40          32.80   40.72           1.08    1.94    2.45    1.47            0.06    0.04    0.01           0.32     0.37
B4          5.16    2.86    0.16          19.46   35.55   30.56          46.88   40.68           0.94    2.19    3.31    1.42            0.07    0.04    0.00           0.30     0.37
B5         12.10   10.73    6.32          39.12   12.73   10.08          16.24   38.38           0.75    1.08    1.24    0.94            0.16    0.17    0.10           0.45     0.50
B6         14.17   10.82    4.32          39.27   25.63   20.50          32.82   38.66           0.60    1.18    1.45    0.91            0.18    0.16    0.08           0.36     0.41
B7         16.68   11.03    2.62          39.63   38.80   32.56          50.65   40.01           0.48    1.31    1.72    0.87            0.17    0.14    0.04           0.36     0.39
B8         20.69   11.14    1.01          39.82   58.74   50.11          77.21   40.47           0.31    1.63    2.24    0.82            0.09    0.08    0.02           0.20     0.22
B9         34.16   33.86   25.11          64.85    5.32    4.87           7.22   42.46           0.39    0.50    0.56    0.46            0.45    0.51    0.42           0.57     0.62
B10        36.07   33.94   22.40          64.91   11.53   10.01          15.27   40.96           0.32    0.53    0.62    0.45            0.45    0.51    0.40           0.57     0.64
B11        37.63   33.65   20.37          64.68   17.64   13.65          22.30   37.73           0.27    0.56    0.67    0.45            0.42    0.46    0.34           0.50     0.57
B12        40.33   34.07   17.29          65.01   24.73   20.90          32.38   40.21           0.20    0.59    0.76    0.43            0.33    0.42    0.31           0.52     0.60
B13        58.75   62.52   54.99          83.19   -3.67   -3.67           5.19  224.99           0.24    0.19    0.18    0.21            0.56    0.62    0.38           0.38     0.43
B14        60.45   58.89   54.23          81.23    8.82   -6.24          10.81  324.76           0.16    0.26    0.18    0.22            0.55    0.67    0.35           0.53     0.63
B15        62.72   64.48   45.32          84.21    1.27    8.99           9.09   81.95           0.15    0.20    0.28    0.19            0.59    0.68    0.55           0.43     0.47
B16        53.37   55.16   45.45          79.13    0.47    0.08           0.58  150.27           0.24    0.26    0.27    0.26            0.70    0.77    0.69           0.54     0.59
B17        58.17   57.16   44.68          80.27    7.53    2.98           8.10   21.54           0.16    0.27    0.28    0.23            0.65    0.77    0.75           0.58     0.65
B18        56.96   61.39   45.83          82.59   -5.41    5.58           7.77  134.10           0.24    0.20    0.28    0.22            0.74    0.78    0.73           0.49     0.53
B19        55.07   56.48   53.76          79.89    1.53   -8.06           8.20  280.68           0.25    0.25    0.19    0.25            0.68    0.79    0.39           0.59     0.67
B20         4.88    2.97    1.12          19.94   30.03   14.28          33.26   25.44           0.99    2.03    2.05    1.43            0.09    0.06    0.03           0.41     0.46
B21        16.97   11.23    4.14          39.97   38.96   22.76          45.12   30.30           0.47    1.30    1.44    0.87            0.27    0.21    0.10           0.42     0.45
B22        33.35   28.03   16.74          59.91   23.77   13.36          27.27   29.35           0.29    0.68    0.76    0.52            0.53    0.58    0.47           0.71     0.80
C1          5.93    5.81    3.35          28.92    3.77    8.70           9.48   66.55           1.10    1.31    1.57    1.22            0.05    0.06    0.05           0.29     0.34
C2          6.22    5.68    2.04          28.58    8.36   18.61          20.40   65.81           1.03    1.35    1.88    1.22            0.07    0.07    0.03           0.36     0.40
C3          6.69    5.74    1.12          28.75   12.57   29.48          32.05   66.90           0.98    1.37    2.29    1.20            0.09    0.09    0.01           0.39     0.44
C4          7.36    5.80    0.39          28.89   18.64   42.50          46.41   66.31           0.91    1.41    3.17    1.17            0.11    0.10    0.01           0.40     0.47
C5         23.29   22.44   11.52          54.48    7.58   17.77          19.32   66.91           0.50    0.70    0.97    0.63            0.30    0.35    0.18           0.54     0.59
C6         25.35   22.65    6.49          54.71   15.53   36.23          39.42   66.80           0.41    0.74    1.31    0.61            0.29    0.33    0.10           0.53     0.58
C7         27.10   22.35    3.21          54.39   24.10   53.62          58.79   65.79           0.35    0.79    1.79    0.60            0.28    0.30    0.05           0.50     0.56
C8         29.80   22.45    0.82          54.50   34.17   78.59          85.70   66.50           0.28    0.85    3.04    0.58            0.28    0.30    0.01           0.50     0.54
C9         40.14   40.44   27.89          69.78    3.60    8.59           9.32   67.22           0.32    0.42    0.52    0.39            0.49    0.57    0.45           0.55     0.61
C10        41.31   40.39   24.04          69.74    7.33   15.25          16.93   64.32           0.28    0.43    0.60    0.38            0.49    0.57    0.38           0.51     0.58
C11        42.66   40.60   19.88          69.90   10.75   23.66          25.99   65.57           0.24    0.45    0.70    0.37            0.44    0.52    0.30           0.49     0.57
C12        44.50   40.62   14.60          69.91   16.10   35.84          39.29   65.82           0.18    0.47    0.88    0.36            0.38    0.50    0.23           0.55     0.62
C13        52.62   58.75   54.43          81.15  -10.18   -6.59          12.13  212.90           0.34    0.20    0.19    0.24            0.53    0.59    0.35           0.39     0.44
C14        54.27   49.25   52.21          75.60   17.99  -13.76          22.65  322.60           0.18    0.37    0.19    0.30            0.47    0.61    0.32           0.60     0.73
C15        60.92   63.53   34.74          83.72   -0.79   22.04          22.06   92.07           0.15    0.20    0.43    0.19            0.56    0.67    0.53           0.46     0.51
C16        40.96   42.36   35.14          71.12    0.34   -0.26           0.57  232.80           0.35    0.38    0.40    0.37            0.65    0.73    0.63           0.61     0.68
C17        49.78   45.87   33.41          73.46   15.50    6.30          16.74   22.11           0.18    0.40    0.42    0.32            0.58    0.71    0.70           0.72     0.81
C18        49.52   57.04   36.27          80.20  -14.25   13.80          19.83  135.93           0.33    0.21    0.40    0.25            0.65    0.68    0.62           0.51     0.57
C19        44.42   45.23   51.63          73.04    2.38  -17.54          17.70  277.71           0.36    0.35    0.20    0.35            0.68    0.80    0.36           0.72     0.86
C20        12.01    8.78    1.24          35.56   27.43   39.58          48.16   55.28           0.66    1.30    2.25    0.98            0.18    0.15    0.03           0.51     0.55
C21        21.40   19.75   11.06          51.55   11.57   14.10          18.24   50.62           0.52    0.78    0.98    0.68            0.43    0.47    0.28           0.63     0.70
C22        27.06   22.48   10.84          54.53   23.31   19.94          30.68   40.55           0.36    0.79    0.99    0.61            0.45    0.48    0.31           0.63     0.69
D1          3.88    4.09    2.34          23.95   -0.91    7.93           7.99   96.51           1.32    1.43    1.77    1.39            0.04    0.05    0.03           0.28     0.32
D2          3.78    4.01    1.48          23.72   -1.37   16.16          16.22   94.83           1.32    1.43    2.07    1.39            0.05    0.06    0.02           0.40     0.44
D3          3.88    4.16    0.86          24.18   -1.91   25.67          25.74   94.25           1.32    1.39    2.49    1.37            0.08    0.08    0.02           0.39     0.46
D4          3.70    4.00    0.41          23.68   -2.39   33.12          33.21   94.12           1.37    1.38    3.14    1.38            0.05    0.07    0.01           0.43     0.50
D5         17.03   17.91    9.39          49.38   -1.30   15.82          15.87   94.69           0.69    0.76    1.08    0.74            0.25    0.31    0.16           0.52     0.57
D6         17.02   17.86    5.09          49.32   -1.07   33.60          33.61   91.82           0.67    0.76    1.47    0.73            0.27    0.32    0.07           0.63     0.72
D7         16.86   17.89    2.50          49.35   -2.10   50.35          50.40   92.39           0.68    0.75    2.02    0.73            0.32    0.36    0.05           0.62     0.69
D8         16.78   17.84    0.96          49.30   -2.35   67.23          67.27   92.00           0.72    0.74    2.98    0.73            0.25    0.31    0.01           0.61     0.68
D9         46.14   48.05   24.64          74.86   -0.54   22.98          22.99   91.34           0.26    0.33    0.60    0.31            0.48    0.57    0.37           0.49     0.56
D10        45.74   47.83   14.18          74.71   -1.06   45.22          45.24   91.34           0.25    0.33    0.93    0.31            0.51    0.61    0.22           0.48     0.55
D11        45.51   48.02    7.28          74.84   -2.27   67.60          67.64   91.92           0.25    0.32    1.40    0.30            0.49    0.56    0.09           0.45     0.51
D12        45.23   48.43    2.98          75.10   -4.17   90.98          91.08   92.62           0.28    0.31    2.22    0.29            0.38    0.42    0.04           0.33     0.37
D13        47.27   55.24   53.88          79.18  -16.02   -9.40          18.58  210.40           0.44    0.21    0.19    0.28            0.47    0.52    0.30           0.37     0.42
D14        49.04   41.32   50.19          70.40   26.71  -20.49          33.67  322.50           0.19    0.48    0.20    0.37            0.48    0.60    0.34           0.67     0.80
D15        59.51   62.63   26.25          83.24   -2.07   34.59          34.66   93.42           0.15    0.21    0.59    0.19            0.49    0.59    0.40           0.42     0.46
D16        30.42   31.51   26.04          62.93    0.16   -0.07           0.44  192.54           0.48    0.51    0.54    0.50            0.53    0.60    0.48           0.62     0.69
D17        42.43   36.24   23.91          66.70   23.84   10.24          25.95   23.24           0.20    0.55    0.58    0.41            0.45    0.56    0.50           0.70     0.79
D18        42.60   52.44   27.79          77.54  -22.40   22.13          31.49  135.35           0.43    0.22    0.55    0.29            0.60    0.65    0.52           0.52     0.58
D19        34.85   35.06   49.20          65.79    3.58  -27.31          27.54  277.45           0.50    0.46    0.21    0.47            0.54    0.67    0.31           0.78     0.93
D20         2.80    2.86    1.21          19.49    0.75   12.20          12.23   86.45           1.43    1.60    2.14    1.53            0.06    0.06    0.03           0.45     0.50
D21        30.66   28.07    1.52          59.95   13.92   78.12          79.36   79.90           0.36    0.62    2.61    0.51            0.52    0.57    0.04           0.68     0.80
D22        40.14   43.11   51.18          71.63   -4.38  -19.48          19.97  257.30           0.46    0.34    0.20    0.38            0.71    0.87    0.38           0.84     0.95
E1          5.17    5.89    3.34          29.12   -6.01    9.16          10.96  123.24           1.24    1.23    1.60    1.24            0.07    0.10    0.05           0.41     0.48
E2          4.70    5.83    2.20          28.98  -11.24   17.82          21.07  122.22           1.31    1.19    1.89    1.25            0.07    0.10    0.03           0.40     0.45
E3          4.27    5.75    1.27          28.77  -16.06   27.45          31.80  120.33           1.41    1.16    2.32    1.26            0.07    0.11    0.03           0.44     0.52
E4          3.86    5.78    0.59          28.85  -22.27   38.53          44.50  120.02           1.59    1.10    3.08    1.26            0.07    0.12    0.01           0.56     0.68
E5         24.18   27.44   14.88          59.38   -9.61   16.97          19.51  119.53           0.59    0.54    0.86    0.57            0.33    0.42    0.24           0.53     0.61
E6         22.00   27.38    9.35          59.32  -19.13   33.08          38.21  120.04           0.68    0.51    1.15    0.57            0.33    0.45    0.13           0.53     0.64
E7         19.94   27.45    5.21          59.39  -29.25   50.35          58.23  120.15           0.79    0.47    1.59    0.58            0.30    0.44    0.07           0.55     0.65
E8         17.43   27.33    1.81          59.28  -41.76   73.80          84.80  119.50           1.06    0.42    2.68    0.59            0.13    0.18    0.02           0.26     0.29
E9         44.12   47.71   31.90          74.64   -5.39   10.59          11.88  117.01           0.33    0.31    0.46    0.32            0.61    0.70    0.53           0.54     0.63
E10        41.73   47.51   25.28          74.52  -11.95   21.25          24.38  119.36           0.37    0.30    0.59    0.33            0.56    0.66    0.45           0.49     0.56
E11        39.96   47.70   19.60          74.63  -17.89   32.41          37.02  118.90           0.41    0.28    0.75    0.33            0.59    0.71    0.41           0.54     0.59
E12        37.22   47.95   13.11          74.79  -27.29   48.22          55.41  119.51           0.49    0.25    1.01    0.33            0.41    0.48    0.20           0.37     0.42
E13        42.18   51.62   53.25          77.05  -21.54  -12.39          24.85  209.91           0.55    0.22    0.20    0.32            0.45    0.51    0.30           0.38     0.44
E14        44.48   34.58   48.15          65.42   35.38  -26.75          44.35  322.92           0.21    0.61    0.21    0.44            0.37    0.47    0.30           0.64     0.77
E15        58.45   61.70   20.04          82.75   -2.50   45.49          45.56   93.15           0.15    0.22    0.75    0.20            0.46    0.57    0.32           0.41     0.47
E16        22.06   22.80   19.22          54.87    0.36   -0.87           0.98  291.42           0.61    0.66    0.69    0.64            0.41    0.48    0.40           0.65     0.71
E17        36.20   28.19   16.86          60.06   32.84   13.35          35.45   22.13           0.22    0.73    0.75    0.50            0.39    0.46    0.36           0.64     0.73
E18        36.33   47.84   21.17          74.72  -29.93   29.33          41.90  135.58           0.54    0.24    0.71    0.34            0.46    0.53    0.43           0.49     0.55
E19        27.02   26.71   46.84          58.70    5.21  -36.80          37.17  278.04           0.65    0.58    0.23    0.60            0.48    0.62    0.31           0.93     1.07
E20         6.80    8.03    1.38          34.04   -9.12   35.13          36.30  104.56           1.13    1.06    2.31    1.09            0.16    0.20    0.04           0.59     0.67
E21        24.19   28.80    6.51          60.60  -14.83   46.27          48.59  107.76           0.60    0.50    1.40    0.54            0.54    0.66    0.13           0.74     0.85
E22         8.75   18.38   13.75          49.95  -59.59    3.65          59.70  176.49           1.90    0.53    0.91    0.82            0.17    0.34    0.24           0.73     0.80
F1          3.35    4.19    3.19          24.29  -10.56    1.85          10.72  170.04           1.50    1.35    1.60    1.40            0.06    0.08    0.05           0.46     0.52
F2          2.72    4.13    2.67          24.10  -20.68    5.42          21.38  165.31           1.71    1.29    1.73    1.43            0.05    0.08    0.05           0.52     0.58
F3          2.25    4.04    2.28          23.80  -28.59    8.15          29.73  164.09           1.93    1.26    1.85    1.45            0.06    0.10    0.04           0.54     0.62
F4          1.50    4.25    1.65          24.46  -49.68   15.52          52.05  162.65           2.80    1.13    2.16    1.46            0.03    0.09    0.03           0.44     0.58
F5         11.06   14.03   10.09          44.28  -16.84    4.66          17.48  164.54           1.02    0.80    1.03    0.88            0.18    0.26    0.17           0.53     0.60
F6          9.08   14.27    8.57          44.61  -33.76   10.51          35.36  162.71           1.28    0.72    1.15    0.89            0.17    0.30    0.15           0.63     0.72
F7          7.23   14.12    7.13          44.40  -49.58   15.72          52.01  162.41           1.65    0.67    1.29    0.91            0.16    0.29    0.11           0.69     0.80
F8          5.68   14.48    5.82          44.91  -68.00   22.38          71.59  161.78           2.30    0.59    1.46    0.92            0.10    0.24    0.11           0.53     0.62
F9         29.07   33.35   25.30          64.44  -11.48    3.84          12.11  161.52           0.56    0.45    0.57    0.49            0.53    0.64    0.49           0.63     0.73
F10        26.11   33.41   23.21          64.49  -23.47    7.75          24.72  161.72           0.69    0.41    0.63    0.50            0.46    0.62    0.47           0.59     0.70
F11        23.39   33.43   21.23          64.50  -35.16   11.61          37.03  161.73           0.84    0.37    0.68    0.51            0.38    0.54    0.42           0.50     0.59
F12        18.89   33.58   18.03          64.62  -57.12   18.56          60.06  162.00           1.22    0.31    0.80    0.53            0.20    0.28    0.32           0.47     0.54
F13        37.81   48.35   52.62          75.04  -26.46  -15.17          30.50  209.83           0.66    0.23    0.20    0.35            0.39    0.47    0.28           0.36     0.41
F14        40.32   28.75   45.99          60.56   43.90  -32.59          54.68  323.41           0.22    0.75    0.22    0.51            0.34    0.41    0.27           0.61     0.74
F15        57.47   60.59   14.99          82.15   -2.30   55.96          56.01   92.35           0.15    0.23    0.93    0.20            0.47    0.60    0.24           0.44     0.49
F16        15.53   15.99   13.45          46.96    0.62   -0.69           0.99  313.35           0.75    0.82    0.86    0.80            0.28    0.32    0.27           0.55     0.61
F17        30.63   21.45   10.95          53.44   41.88   17.71          45.47   22.92           0.24    0.94    0.95    0.60            0.26    0.30    0.22           0.52     0.60
