targets/wolf_faust/transmissive/N060527.it8
IT8.7/1
ORIGINATOR "Wolf Faust"
DESCRIPTOR "Velvia 100, 100F and Astia 100F, Type 3, L* a* b* (light D50, viewing angle 2)"
MANUFACTURER "Wolf Faust - http://www.coloraid.de"
CREATED "March 09, 2007"
PROD_DATE "2006:05"
DIFFUSE_GEOMETRY "opal"
SERIAL "N060527 Batch Average Data"
MATERIAL "Fujichrome Velvia 100F (RVP 100F)"
KEYWORD "MEAN_DE" # Mean Delta E of samples compared to batch average
NUMBER_OF_FIELDS 18
BEGIN_DATA_FORMAT
SAMPLE_ID  XYZ_X   XYZ_Y   XYZ_Z          LAB_L   LAB_A   LAB_B          LAB_C   LAB_H          D_RED  D_GREEN  D_BLUE  D_VIS          STDEV_X STDEV_Y STDEV_Z        MEAN_DE  STDEV_DE
END_DATA_FORMAT
NUMBER_OF_SETS 288
BEGIN_DATA
A1          1.79    1.56    1.16          12.96    7.46    1.72           7.66   12.92           1.57    1.99    2.06    1.78            0.05    0.04    0.04           0.40     0.45
A2          2.27    1.58    1.00          13.12   17.86    4.30          18.37   13.53           1.38    2.17    2.10    1.73            0.06    0.05    0.04           0.37     0.41 
A3          2.72    1.54    0.79          12.84   27.84    7.24          28.76   14.58           1.23    2.49    2.17    1.70            0.08    0.05    0.03           0.42     0.48
A4          3.84    1.70    0.64          13.82   42.22   11.83          43.85   15.65           0.99    3.66    2.12    1.60            0.10    0.04    0.02           0.45     0.51 
A5          8.72    7.53    5.77          32.99   13.28    2.07          13.44    8.85           0.89    1.26    1.27    1.10            0.22    0.19    0.18           0.56     0.62
A6         10.81    7.67    4.95          33.29   28.60    6.68          29.37   13.14           0.71    1.41    1.32    1.05            0.24    0.18    0.16           0.53     0.60 
A7         12.90    7.67    4.25          33.27   43.36   10.52          44.62   13.64           0.56    1.63    1.37    1.02            0.29    0.19    0.15           0.56     0.61
A8         16.72    8.11    3.35          34.21   62.39   17.84          64.90   15.96           0.38    2.12    1.43    0.95            0.14    0.09    0.12           0.51     0.58 
A9         27.17   26.08   22.02          58.11    8.32   -0.97           8.39  353.31           0.47    0.63    0.62    0.58            0.59    0.58    0.65           0.68     0.75
A10        29.55   26.55   20.95          58.55   15.75    1.92          15.87    6.92           0.39    0.66    0.64    0.56            0.59    0.57    0.63           0.67     0.74
A11        31.58   26.25   19.51          58.27   24.48    4.39          24.88   10.17           0.32    0.71    0.67    0.55            0.58    0.54    0.61           0.66     0.73
A12        35.69   26.82   17.82          58.80   36.56    8.99          37.65   13.81           0.21    0.78    0.71    0.52            0.44    0.49    0.62           0.79     0.92 
A13        68.20   72.29   59.43          88.11   -3.26    0.23           3.27  176.01           0.16    0.13    0.15    0.14            0.49    0.40    0.40           0.33     0.37
A14        69.50   70.26   59.05          87.12    3.80   -1.09           3.96  344.10           0.12    0.16    0.15    0.15            0.43    0.60    0.42           0.46     0.50 
A15        72.32   74.87   57.66          89.33    0.28    4.14           4.15   86.15           0.11    0.13    0.17    0.12            0.22    0.23    0.54           0.34     0.40
A16        69.43   71.90   59.20          87.92    0.22    0.13           0.30   98.39           0.14    0.14    0.15    0.14            0.42    0.46    0.40           0.27     0.30
A17        68.52   69.25   56.54          86.63    3.82    0.63           3.88    9.38           0.12    0.17    0.17    0.16            0.44    0.58    0.56           0.39     0.43
A18        68.71   72.56   56.18          88.24   -2.69    3.78           4.64  125.50           0.15    0.13    0.18    0.14            0.41    0.35    0.59           0.39     0.44 
A19        65.34   67.11   58.10          85.56    1.42   -2.82           3.16  296.66           0.16    0.18    0.16    0.17            0.53    0.61    0.41           0.39     0.43
A20         5.66    2.65    1.73          18.59   45.26    4.52          45.48    5.71           0.85    2.85    1.69    1.43            0.13    0.06    0.05           0.46     0.50 
A21        25.31   17.39   14.19          48.75   41.04    0.42          41.05  120.59           0.34    1.05    0.80    0.70            0.43    0.35    0.47           0.66     0.72
A22        50.73   46.52   32.93          73.88   16.23    7.73          17.98   25.42           0.16    0.40    0.43    0.31            0.57    0.70    0.91           0.79     0.88
B1          2.67    2.48    1.49          17.85    5.44    5.88           8.01   47.19           1.42    1.73    1.97    1.59            0.06    0.06    0.05           0.42     0.45
B2          3.16    2.40    0.92          17.47   15.77   13.10          20.50   39.71           1.26    1.88    2.23    1.56            0.09    0.07    0.04           0.42     0.46
B3          3.77    2.45    0.51          17.67   24.59   20.81          32.21   40.24           1.12    2.02    2.57    1.52            0.10    0.07    0.02           0.42     0.48
B4          4.59    2.51    0.13          17.96   34.80   28.59          45.04   39.40           0.99    2.28    3.54    1.47            0.15    0.09    0.01           0.61     0.78
B5         11.32   10.07    6.08          37.96   12.19    9.19          15.27   37.02           0.78    1.11    1.27    0.97            0.27    0.26    0.20           0.57     0.64
B6         13.10    9.92    3.86          37.70   25.56   20.53          32.78   38.77           0.63    1.23    1.51    0.94            0.31    0.27    0.15           0.59     0.64
B7         15.77   10.37    2.41          38.49   38.57   32.36          50.35   40.00           0.50    1.35    1.77    0.90            0.37    0.28    0.10           0.59     0.64
B8         20.11   10.58    0.81          38.86   60.06   51.85          79.34   40.81           0.32    1.71    2.38    0.84            0.16    0.12    0.03           0.32     0.35
B9         32.45   32.06   25.56          63.39    5.57    1.56           5.80   15.56           0.41    0.53    0.55    0.49            0.67    0.68    0.76           0.69     0.76
B10        34.52   32.28   22.38          63.57   12.04    7.75          14.32   32.73           0.34    0.55    0.62    0.47            0.67    0.67    0.72           0.73     0.79
B11        36.35   32.50   19.94          63.75   17.45   12.93          21.72   36.53           0.28    0.58    0.68    0.46            0.65    0.67    0.64           0.69     0.76
B12        39.68   32.61   15.98          63.84   27.77   21.97          35.41   38.35           0.19    0.63    0.80    0.44            0.51    0.61    0.57           0.84     0.94
B13        61.04   65.95   57.01          84.97   -5.90   -2.72           6.50  204.70           0.23    0.16    0.17    0.19            0.76    0.73    0.53           0.43     0.48
B14        61.80   59.65   55.77          81.64   10.22   -7.16          12.47  324.97           0.15    0.25    0.17    0.22            0.63    0.82    0.56           0.66     0.72
B15        66.58   69.19   47.16          86.60   -0.29   10.93          10.93   91.51           0.13    0.16    0.27    0.16            0.54    0.59    0.92           0.61     0.68
B16        53.87   55.76   47.04          79.47    0.26   -1.21           1.25  282.12           0.24    0.26    0.26    0.25            0.80    0.84    0.90           0.52     0.57
B17        59.74   58.34   46.29          80.93    8.47    2.18           8.75   14.39           0.15    0.26    0.27    0.23            0.63    0.77    0.92           0.60     0.66
B18        59.59   65.23   47.81          84.60   -7.73    6.73          10.25  139.01           0.23    0.17    0.26    0.19            0.70    0.64    0.88           0.60     0.66
B19        55.87   57.35   55.43          80.38    1.42   -8.99           9.11  278.94           0.24    0.24    0.17    0.25            0.70    0.77    0.50           0.52     0.57
B20         4.13    2.46    0.84          17.76   29.37   14.93          32.95   26.95           1.06    2.15    2.21    1.51            0.09    0.05    0.03           0.38     0.42
B21        15.64   10.25    3.73          38.28   38.72   22.37          44.72   30.02           0.50    1.36    1.50    0.91            0.32    0.23    0.12           0.54     0.59
B22        31.78   26.62   16.42          58.62   23.72   11.91          26.55   26.65           0.31    0.71    0.77    0.54            0.53    0.53    0.53           0.69     0.74
C1          5.29    5.27    3.14          27.48    2.52    7.67           8.08   71.85           1.15    1.35    1.61    1.27            0.13    0.14    0.11           0.46     0.51
C2          5.70    5.31    1.95          27.59    6.87   17.79          19.07   68.90           1.08    1.37    1.91    1.25            0.13    0.14    0.07           0.48     0.53
C3          6.24    5.34    0.97          27.67   12.54   29.84          32.37   67.21           1.00    1.40    2.40    1.23            0.15    0.14    0.03           0.46     0.53
C4          6.80    5.37    0.35          27.76   17.92   41.26          44.98   66.52           0.95    1.44    3.37    1.21            0.20    0.17    0.01           0.66     0.80
C5         22.21   21.32   11.37          53.29    7.81   16.18          17.97   64.22           0.52    0.73    0.98    0.65            0.48    0.49    0.37           0.65     0.71
C6         24.00   21.33    6.20          53.30   15.80   35.10          38.49   65.77           0.43    0.77    1.34    0.63            0.47    0.46    0.19           0.64     0.70
C7         26.16   21.39    2.91          53.37   24.67   54.03          59.40   65.46           0.36    0.82    1.86    0.62            0.49    0.49    0.10           0.69     0.74
C8         28.92   21.55    0.76          53.54   34.95   77.99          85.46   65.86           0.29    0.87    3.20    0.59            0.43    0.42    0.02           0.67     0.75
C9         38.80   38.98   28.51          68.73    3.88    5.78           6.96   56.04           0.34    0.43    0.51    0.40            0.78    0.81    0.86           0.69     0.79
C10        39.77   38.86   24.16          68.65    7.34   13.15          15.06   60.83           0.30    0.45    0.60    0.40            0.75    0.77    0.78           0.74     0.82
C11        41.06   38.83   19.91          68.63   11.40   21.41          24.25   61.96           0.25    0.47    0.70    0.39            0.69    0.75    0.66           0.73     0.80
C12        43.81   39.03   12.31          68.77   19.00   40.09          44.37   64.65           0.17    0.50    0.98    0.37            0.51    0.68    0.42           0.79     0.89
C13        55.18   62.20   56.46          83.02  -11.71   -5.51          12.94  205.18           0.32    0.17    0.17    0.22            0.74    0.70    0.52           0.46     0.52
C14        55.33   49.65   53.62          75.85   19.58  -14.87          24.59  322.79           0.16    0.37    0.18    0.29            0.62    0.81    0.58           0.79     0.87
C15        64.68   68.15   36.35          86.08   -2.33   23.84          23.95   95.59           0.13    0.17    0.41    0.16            0.53    0.58    0.99           0.86     0.97
C16        41.11   42.47   36.40          71.19    0.47   -1.90           1.96  284.52           0.35    0.38    0.38    0.37            0.75    0.79    0.91           0.64     0.70
C17        50.86   46.50   34.82          73.87   16.61    4.94          17.34   16.53           0.17    0.40    0.40    0.31            0.62    0.74    0.95           0.75     0.85
C18        52.04   60.50   37.80          82.11  -15.81   14.99          21.79  136.55           0.32    0.18    0.39    0.23            0.67    0.62    0.91           0.78     0.86
C19        44.51   45.15   52.95          72.99    2.85  -19.07          19.28  278.49           0.36    0.35    0.19    0.35            0.72    0.79    0.51           0.65     0.72
C20        11.11    8.02    0.99          34.03   27.66   40.47          49.02   55.64           0.69    1.35    2.41    1.02            0.21    0.16    0.02           0.46     0.51
C21        20.14   18.62   10.93          50.23   11.19   12.26          16.60   47.59           0.55    0.81    0.98    0.71            0.44    0.43    0.35           0.66     0.73
C22        25.74   21.38   10.52          53.36   22.98   18.94          29.78   39.50           0.39    0.81    1.00    0.63            0.49    0.47    0.34           0.66     0.72
D1          3.46    3.74    2.17          22.80   -2.36    7.42           7.79  107.67           1.38    1.46    1.81    1.43            0.08    0.10    0.08           0.48     0.52
D2          3.33    3.63    1.35          22.41   -2.74   15.49          15.74  100.02           1.38    1.46    2.13    1.44            0.09    0.10    0.04           0.46     0.51
D3          3.37    3.67    0.73          22.56   -2.69   25.10          25.24   96.11           1.38    1.44    2.62    1.42            0.10    0.11    0.02           0.48     0.55
D4          3.32    3.66    0.37          22.51   -3.37   31.81          31.99   96.04           1.42    1.41    3.32    1.42            0.10    0.12    0.01           0.64     0.77
D5         16.03   16.86    9.20          48.07   -1.27   14.23          14.29   95.11           0.71    0.79    1.09    0.77            0.40    0.42    0.28           0.62     0.69
D6         15.68   16.78    4.79          47.98   -2.88   32.85          32.98   95.01           0.71    0.78    1.51    0.76            0.37    0.41    0.14           0.67     0.73
D7         15.67   16.73    2.17          47.91   -2.63   50.74          50.81   92.97           0.71    0.77    2.14    0.76            0.37    0.42    0.06           0.75     0.81
D8         15.53   16.81    0.91          48.01   -3.86   65.85          65.96   93.36           0.76    0.76    3.12    0.75            0.37    0.41    0.02           0.82     0.91
D9         44.76   46.68   24.97          73.98   -0.70   20.88          20.89   91.92           0.28    0.34    0.60    0.32            0.81    0.86    0.76           0.70     0.77
D10        44.63   46.82   13.89          74.07   -1.48   44.88          44.90   91.89           0.26    0.34    0.95    0.31            0.73    0.82    0.44           0.64     0.68
D11        44.41   47.04    6.71          74.21   -2.72   68.91          68.96   92.26           0.26    0.33    1.46    0.31            0.67    0.74    0.17           0.62     0.66
D12        43.94   47.11    2.08          74.26   -4.27   96.95          97.04   92.52           0.30    0.33    2.67    0.30            0.56    0.53    0.04           0.52     0.56
D13        49.71   58.45   55.82          80.99  -17.14   -8.35          19.07  205.96           0.42    0.18    0.18    0.25            0.69    0.66    0.51           0.47     0.52
D14        49.85   41.45   51.46          70.49   28.51  -21.75          35.86  322.66           0.18    0.49    0.19    0.36            0.56    0.71    0.57           0.79     0.88
D15        63.20   67.17   27.85          85.59   -3.56   35.92          36.09   95.67           0.13    0.18    0.56    0.16            0.48    0.56    0.81           0.85     0.96
D16        30.44   31.46   27.64          62.89    0.40   -2.87           2.90  278.19           0.48    0.51    0.51    0.51            0.66    0.69    0.79           0.68     0.76
D17        43.14   36.46   25.24          66.87   25.21    8.14          26.49   17.88           0.19    0.55    0.56    0.41            0.53    0.61    0.80           0.84     0.92
D18        45.21   55.81   29.38          79.50  -23.22   22.92          32.62  135.38           0.41    0.20    0.53    0.27            0.66    0.62    0.79           0.82     0.90
D19        34.58   34.68   50.27          65.50    3.95  -29.03          29.30  277.74           0.50    0.46    0.20    0.48            0.58    0.65    0.46           0.68     0.77
D20         2.35    2.42    0.93          17.55    0.37   13.07          13.08   88.39           1.51    1.67    2.31    1.60            0.05    0.06    0.03           0.37     0.41
D21        29.04   26.31    1.26          58.32   14.77   78.49          79.87   79.34           0.38    0.66    2.84    0.54            0.55    0.57    0.03           0.80     0.87
D22        38.16   41.66   52.57          70.63   -6.32  -22.73          23.59  254.46           0.51    0.35    0.19    0.40            0.67    0.76    0.44           0.68     0.78
E1          4.57    5.28    3.19          27.52   -6.63    7.40           9.94  131.87           1.30    1.28    1.62    1.29            0.09    0.12    0.10           0.48     0.51
E2          4.20    5.33    2.02          27.65  -12.23   17.18          21.09  125.44           1.37    1.23    1.94    1.29            0.10    0.14    0.06           0.47     0.53
E3          3.80    5.19    1.11          27.28  -16.43   27.02          31.62  121.31           1.47    1.20    2.43    1.30            0.10    0.14    0.03           0.54     0.60
E4          3.50    5.45    0.56          27.96  -24.02   37.69          44.69  122.51           1.66    1.12    3.26    1.29            0.12    0.19    0.02           0.75     0.88
E5         22.67   26.01   14.98          58.04  -10.55   14.42          17.87  126.19           0.63    0.56    0.85    0.59            0.50    0.56    0.42           0.66     0.69
E6         20.75   26.35    9.22          58.36  -20.91   31.89          38.13  123.25           0.71    0.52    1.16    0.59            0.40    0.50    0.22           0.59     0.63
E7         18.77   26.39    4.95          58.40  -30.92   50.02          58.80  121.72           0.83    0.48    1.63    0.60            0.40    0.56    0.14           0.71     0.75
E8         17.10   27.14    1.71          59.11  -42.83   74.56          85.98  119.87           1.09    0.42    2.82    0.59            0.21    0.25    0.02           0.35     0.40
E9         42.82   46.48   32.40          73.86   -5.85    8.48          10.30  124.67           0.35    0.32    0.45    0.34            0.77    0.80    0.81           0.62     0.70
E10        40.86   46.79   25.65          74.05  -12.61   19.80          23.48  122.50           0.39    0.30    0.59    0.33            0.72    0.76    0.69           0.65     0.71
E11        38.23   46.23   19.85          73.69  -19.30   30.27          35.90  122.53           0.44    0.29    0.74    0.34            0.68    0.75    0.56           0.65     0.70
E12        34.13   46.49   10.08          73.86  -33.66   55.69          65.07  121.15           0.57    0.25    1.20    0.35            0.49    0.51    0.25           0.56     0.62
E13        44.71   54.81   55.14          78.93  -22.19  -11.17          24.85  206.73           0.52    0.19    0.18    0.29            0.61    0.60    0.47           0.44     0.49
E14        44.95   34.41   49.19          65.28   37.33  -28.18          46.77  322.95           0.20    0.62    0.20    0.44            0.47    0.57    0.49           0.74     0.82
E15        61.98   66.11   21.08          85.05   -4.05   47.34          47.51   94.89           0.13    0.18    0.73    0.17            0.41    0.51    0.60           0.79     0.87
E16        21.58   22.41   20.07          54.45   -0.11   -3.36           3.37  268.35           0.63    0.66    0.67    0.65            0.49    0.52    0.61           0.68     0.75
E17        36.35   27.96   17.31          59.85   34.27   11.94          36.30   19.20           0.21    0.74    0.74    0.50            0.41    0.47    0.57           0.78     0.87
E18        39.04   51.19   22.24          76.79  -30.07   30.82          43.06  134.30           0.51    0.22    0.69    0.31            0.51    0.51    0.58           0.74     0.81
E19        26.20   25.80   47.46          57.85    5.52  -39.00          39.39  278.05           0.67    0.59    0.22    0.62            0.45    0.51    0.42           0.68     0.76
E20         6.18    7.46    1.15          32.83  -10.39   36.13          37.59  106.04           1.19    1.08    2.49    1.13            0.13    0.16    0.03           0.51     0.57
E21        22.83   27.38    6.20          59.32  -15.32   45.47          47.99  108.62           0.62    0.52    1.44    0.56            0.48    0.58    0.16           0.71     0.75
E22         7.89   17.19   13.46          48.50  -60.90    1.93          60.93  178.19           2.03    0.55    0.93    0.85            0.18    0.34    0.38           0.63     0.69
F1          2.95    3.78    2.89          22.94  -11.43    1.70          11.56  171.53           1.56    1.39    1.65    1.45            0.07    0.09    0.07           0.48     0.53
F2          2.37    3.67    2.39          22.56  -20.86    5.03          21.46  166.44           1.78    1.34    1.79    1.48            0.07    0.10    0.07           0.55     0.61
F3          1.94    3.61    1.97          22.35  -29.23    8.58          30.46  163.64           2.01    1.30    1.94    1.51            0.06    0.10    0.06           0.55     0.61
F4          1.33    3.83    1.41          23.09  -48.51   15.91          51.06  161.84           2.85    1.17    2.28    1.51            0.04    0.12    0.05           0.59     0.67
F5         10.46   13.40   10.19          43.35  -17.37    2.76          17.59  170.98           1.05    0.82    1.03    0.90            0.23    0.29    0.28           0.55     0.59
F6          8.33   13.34    8.25          43.26  -34.43    9.36          35.68  164.78           1.33    0.75    1.17    0.92            0.20    0.31    0.23           0.57     0.62
F7          6.60   13.39    6.95          43.34  -51.27   14.63          53.32  164.08           1.74    0.69    1.31    0.94            0.17    0.33    0.18           0.70     0.76
F8          5.02   13.08    5.56          42.87  -67.06   20.13          70.01  163.29           2.37    0.64    1.49    0.97            0.12    0.29    0.16           0.65     0.70
F9         27.86   32.26   25.78          63.55  -12.37    1.46          12.46  173.29           0.59    0.46    0.56    0.51            0.59    0.65    0.68           0.64     0.70
F10        24.65   32.04   23.38          63.37  -24.79    5.49          25.39  167.52           0.73    0.42    0.62    0.52            0.51    0.60    0.61           0.63     0.68
F11        22.02   32.08   21.26          63.41  -36.69    9.65          37.94  165.26           0.89    0.38    0.68    0.53            0.44    0.57    0.57           0.63     0.67
F12        17.77   32.60   17.74          63.83  -59.56   17.85          62.18  163.32           1.29    0.31    0.81    0.54            0.24    0.32    0.47           0.71     0.79
F13        40.59   51.66   54.48          77.08  -26.45  -13.68          29.78  207.34           0.62    0.20    0.19    0.32            0.53    0.54    0.42           0.40     0.46
F14        40.67   28.58   46.87          60.41   45.62  -33.88          56.83  323.40           0.21    0.76    0.21    0.51            0.39    0.46    0.44           0.69     0.77
F15        60.95   64.94   15.84          84.45   -3.86   57.84          57.97   93.82           0.13    0.19    0.91    0.17            0.36    0.47    0.39           0.62     0.66
F16        14.96   15.59   13.99          46.43   -0.44   -3.06           3.10  261.76           0.78    0.83    0.84    0.81            0.35    0.35    0.39           0.64     0.70
F17        30.75   21.31   11.28          53.29   42.94   16.46          45.99   20.96           0.24    0.96    0.94    0.60            0.30    0.32    0.35           0.66     0.73
