targets/wolf_faust/transmissive/N060528.it8
IT8.7/1
ORIGINATOR "Wolf Faust"
DESCRIPTOR "Velvia 100, 100F and Astia 100F, Type 3, L* a* b* (light D50, viewing angle 2)"
MANUFACTURER "Wolf Faust - http://www.coloraid.de"
CREATED "August 28, 2006"
PROD_DATE "2006:05"
DIFFUSE_GEOMETRY "opal"
SERIAL "N060528 Batch Average Data"
MATERIAL "Fujichrome Velvia 100F (RVP 100F)"
KEYWORD "MEAN_DE" # Mean Delta E of samples compared to batch average
NUMBER_OF_FIELDS 18
BEGIN_DATA_FORMAT
SAMPLE_ID  XYZ_X   XYZ_Y   XYZ_Z          LAB_L   LAB_A   LAB_B          LAB_C   LAB_H          D_RED  D_GREEN  D_BLUE  D_VIS          STDEV_X STDEV_Y STDEV_Z        MEAN_DE  STDEV_DE
END_DATA_FORMAT
NUMBER_OF_SETS 288
BEGIN_DATA
A1          1.79    1.57    1.23          13.02    7.36    0.79           7.41    6.13           1.57    1.99    2.02    1.78            0.04    0.04    0.04           0.37     0.40
A2          2.27    1.58    1.00          13.10   17.88    4.25          18.38   13.38           1.38    2.17    2.10    1.73            0.05    0.03    0.03           0.29     0.33 
A3          2.85    1.63    0.82          13.38   27.92    7.72          28.96   15.46           1.21    2.44    2.15    1.68            0.06    0.04    0.02           0.33     0.36
A4          3.93    1.74    0.68          14.05   42.51   11.43          44.02   15.05           0.98    3.57    2.09    1.59            0.08    0.03    0.01           0.42     0.46 
A5          8.80    7.62    5.98          33.17   13.19    1.37          13.26    5.94           0.89    1.26    1.24    1.09            0.15    0.14    0.14           0.41     0.45
A6         10.62    7.61    5.03          33.16   27.75    6.06          28.40   12.32           0.72    1.40    1.32    1.06            0.18    0.14    0.13           0.47     0.52 
A7         12.90    7.69    4.26          33.32   43.16   10.57          44.43   13.75           0.57    1.63    1.37    1.02            0.21    0.13    0.10           0.47     0.53
A8         16.64    8.09    3.33          34.18   62.11   17.93          64.65   16.10           0.38    2.11    1.43    0.95            0.11    0.07    0.10           0.40     0.48 
A9         27.48   26.58   21.94          58.59    7.53   -0.00           7.54  143.94           0.47    0.62    0.62    0.57            0.45    0.49    0.49           0.57     0.63
A10        29.63   26.63   20.91          58.62   15.75    2.11          15.90    7.61           0.39    0.66    0.64    0.55            0.47    0.47    0.46           0.56     0.61
A11        31.99   26.80   19.77          58.79   23.76    4.75          24.23   11.29           0.32    0.70    0.67    0.54            0.44    0.44    0.43           0.53     0.58
A12        35.78   26.92   18.29          58.90   36.47    8.10          37.36   12.52           0.21    0.77    0.70    0.52            0.32    0.36    0.43           0.60     0.65 
A13        68.42   72.34   59.41          88.13   -2.87    0.28           2.88  174.26           0.16    0.13    0.15    0.14            0.34    0.27    0.24           0.22     0.25
A14        69.86   70.77   59.12          87.37    3.50   -0.73           3.58  348.29           0.12    0.16    0.15    0.15            0.34    0.47    0.25           0.34     0.40 
A15        72.37   74.83   57.93          89.31    0.45    3.83           3.85   83.22           0.11    0.13    0.16    0.12            0.18    0.19    0.39           0.24     0.27
A16        69.45   71.99   59.17          87.96    0.07    0.24           0.27  102.60           0.14    0.14    0.15    0.14            0.31    0.34    0.24           0.20     0.22
A17        68.47   69.12   56.71          86.56    3.99    0.34           4.00    4.97           0.12    0.17    0.17    0.16            0.38    0.51    0.39           0.33     0.38
A18        68.66   72.41   56.38          88.16   -2.49    3.45           4.25  125.81           0.15    0.14    0.18    0.14            0.37    0.30    0.47           0.32     0.36 
A19        65.84   67.63   58.19          85.82    1.41   -2.46           2.84  299.83           0.16    0.17    0.15    0.17            0.55    0.63    0.35           0.35     0.42
A20         5.66    2.66    1.74          18.61   45.14    4.41          45.35    5.58           0.85    2.82    1.69    1.43            0.10    0.05    0.04           0.38     0.41 
A21        25.23   17.36   14.16          48.71   40.88    0.45          40.88   72.62           0.34    1.05    0.80    0.70            0.39    0.32    0.39           0.54     0.58
A22        50.90   46.73   33.43          74.01   16.09    7.23          17.64   24.17           0.16    0.40    0.42    0.31            0.59    0.74    0.82           0.72     0.81
B1          2.60    2.37    1.47          17.30    6.40    5.15           8.22   38.82           1.42    1.76    1.97    1.60            0.05    0.05    0.03           0.35     0.41
B2          3.26    2.50    0.95          17.93   15.37   13.33          20.34   40.93           1.25    1.85    2.22    1.54            0.07    0.06    0.03           0.38     0.41
B3          3.88    2.54    0.53          18.10   24.30   21.20          32.25   41.10           1.11    1.99    2.55    1.51            0.09    0.07    0.02           0.40     0.44
B4          4.74    2.60    0.13          18.35   35.13   29.18          45.67   39.72           0.97    2.26    3.50    1.46            0.11    0.07    0.00           0.51     0.57
B5         11.44   10.24    6.29          38.27   11.76    8.77          14.67   36.69           0.78    1.10    1.25    0.96            0.21    0.21    0.15           0.55     0.60
B6         13.37   10.25    4.04          38.28   24.82   20.43          32.15   39.46           0.63    1.21    1.49    0.93            0.24    0.20    0.10           0.50     0.55
B7         15.86   10.46    2.40          38.65   38.40   32.70          50.44   40.42           0.50    1.34    1.77    0.89            0.24    0.18    0.06           0.52     0.56
B8         20.08   10.61    0.82          38.91   59.72   51.62          78.93   40.84           0.32    1.70    2.37    0.84            0.12    0.10    0.02           0.27     0.30
B9         32.85   32.63   25.51          63.86    4.99    2.45           5.57   26.11           0.41    0.52    0.55    0.48            0.48    0.53    0.53           0.54     0.59
B10        34.79   32.61   22.77          63.84   11.79    7.46          13.95   32.32           0.34    0.55    0.61    0.47            0.49    0.52    0.47           0.53     0.58
B11        36.53   32.73   20.14          63.94   17.20   12.84          21.46   36.75           0.28    0.57    0.68    0.46            0.45    0.49    0.43           0.55     0.61
B12        39.79   32.77   16.42          63.97   27.54   21.13          34.71   37.49           0.19    0.62    0.78    0.44            0.36    0.45    0.41           0.64     0.69
B13        61.27   66.11   57.10          85.05   -5.73   -2.66           6.32  204.91           0.23    0.16    0.17    0.19            0.60    0.58    0.37           0.33     0.39
B14        62.15   60.14   55.94          81.91    9.85   -6.87          12.01  325.11           0.15    0.25    0.17    0.21            0.52    0.69    0.39           0.55     0.63
B15        66.71   69.29   47.27          86.65   -0.21   10.88          10.89   91.12           0.13    0.16    0.27    0.16            0.49    0.55    0.78           0.52     0.56
B16        54.08   56.08   47.11          79.66    0.01   -0.98           0.99  271.17           0.24    0.25    0.26    0.25            0.69    0.74    0.72           0.45     0.49
B17        59.99   58.71   46.35          81.13    8.17    2.45           8.54   16.67           0.15    0.26    0.27    0.22            0.55    0.69    0.76           0.52     0.58
B18        59.69   65.24   47.85          84.61   -7.52    6.69          10.07  138.40           0.23    0.17    0.26    0.19            0.64    0.60    0.77           0.51     0.56
B19        56.22   57.83   55.54          80.64    1.13   -8.64           8.71  277.41           0.24    0.24    0.17    0.24            0.75    0.85    0.49           0.49     0.61
B20         4.36    2.62    0.87          18.43   29.71   15.59          33.55   27.68           1.03    2.12    2.19    1.48            0.11    0.07    0.03           0.43     0.47
B21        15.84   10.46    3.89          38.66   38.24   22.01          44.12   29.93           0.50    1.34    1.48    0.90            0.28    0.21    0.11           0.45     0.48
B22        32.05   26.86   16.78          58.84   23.74   11.44          26.35   25.73           0.31    0.70    0.76    0.53            0.57    0.57    0.50           0.63     0.70
C1          5.32    5.31    3.24          27.59    2.46    7.20           7.61   71.13           1.16    1.34    1.59    1.27            0.10    0.11    0.08           0.44     0.49
C2          5.74    5.34    1.92          27.69    6.93   18.24          19.52   69.21           1.08    1.37    1.92    1.24            0.11    0.11    0.05           0.44     0.49
C3          6.30    5.39    0.98          27.81   12.56   29.98          32.50   67.27           1.00    1.40    2.39    1.22            0.11    0.11    0.02           0.45     0.50
C4          6.89    5.44    0.35          27.96   17.98   41.56          45.28   66.60           0.95    1.43    3.36    1.20            0.15    0.12    0.01           0.52     0.60
C5         22.56   21.69   11.42          53.70    7.66   16.73          18.40   65.42           0.52    0.72    0.97    0.65            0.38    0.43    0.30           0.59     0.65
C6         24.32   21.67    6.24          53.67   15.62   35.55          38.83   66.29           0.43    0.76    1.34    0.63            0.39    0.40    0.14           0.64     0.69
C7         26.27   21.64    2.90          53.64   23.95   54.56          59.58   66.30           0.36    0.81    1.86    0.61            0.41    0.42    0.08           0.69     0.75
C8         29.10   21.75    0.76          53.76   34.70   78.27          85.62   66.09           0.29    0.87    3.19    0.59            0.36    0.38    0.02           0.61     0.70
C9         39.10   39.24   28.45          68.92    4.03    6.19           7.39   56.85           0.33    0.43    0.51    0.40            0.53    0.58    0.55           0.53     0.58
C10        39.94   39.07   24.20          68.80    7.20   13.34          15.16   61.65           0.30    0.45    0.59    0.39            0.53    0.59    0.49           0.55     0.61
C11        41.46   39.42   19.99          69.05   10.76   21.98          24.48   63.92           0.25    0.46    0.70    0.38            0.60    0.66    0.48           0.61     0.68
C12        43.92   39.25   12.31          68.93   18.63   40.37          44.47   65.24           0.17    0.49    0.98    0.37            0.39    0.54    0.27           0.66     0.72
C13        55.12   62.11   56.40          82.97  -11.63   -5.53          12.88  205.43           0.32    0.17    0.17    0.22            0.59    0.57    0.35           0.36     0.42
C14        55.45   49.84   53.71          75.97   19.37  -14.75          24.35  322.69           0.16    0.36    0.18    0.29            0.53    0.72    0.40           0.70     0.81
C15        64.73   68.19   36.21          86.10   -2.29   24.07          24.18   95.44           0.13    0.17    0.41    0.16            0.52    0.59    0.82           0.68     0.76
C16        40.96   42.45   36.25          71.18    0.09   -1.72           1.73  273.09           0.36    0.38    0.38    0.37            0.69    0.73    0.73           0.56     0.61
C17        50.74   46.43   34.51          73.82   16.49    5.31          17.33   17.81           0.17    0.40    0.41    0.31            0.53    0.67    0.77           0.68     0.76
C18        51.76   60.17   37.50          81.93  -15.77   15.09          21.82  136.28           0.32    0.18    0.39    0.23            0.77    0.74    0.90           0.71     0.79
C19        44.30   45.08   52.87          72.94    2.43  -19.07          19.22  277.24           0.37    0.35    0.19    0.36            0.69    0.80    0.44           0.65     0.76
C20        11.50    8.37    1.02          34.74   27.44   41.29          49.58   56.40           0.68    1.33    2.40    1.00            0.23    0.18    0.03           0.52     0.56
C21        20.35   18.86   10.80          50.51   11.00   13.15          17.15   50.10           0.55    0.80    0.99    0.70            0.41    0.43    0.29           0.57     0.63
C22        25.93   21.58   10.42          53.57   22.84   19.62          30.11   40.66           0.38    0.81    1.01    0.62            0.52    0.51    0.35           0.67     0.75
D1          3.48    3.77    2.22          22.89   -2.39    7.08           7.48  108.63           1.38    1.46    1.80    1.43            0.07    0.08    0.05           0.40     0.45
D2          3.40    3.67    1.29          22.55   -2.18   16.40          16.55   97.58           1.37    1.46    2.16    1.43            0.07    0.08    0.03           0.40     0.47
D3          3.39    3.70    0.73          22.64   -2.76   25.23          25.38   96.25           1.38    1.43    2.62    1.42            0.06    0.08    0.02           0.39     0.47
D4          3.34    3.69    0.37          22.60   -3.43   31.94          32.13   96.12           1.42    1.41    3.31    1.42            0.07    0.09    0.01           0.45     0.56
D5         16.23   17.09    9.14          48.37   -1.41   14.95          15.02   95.39           0.71    0.78    1.09    0.76            0.28    0.33    0.20           0.56     0.62
D6         16.04   16.98    4.82          48.23   -1.91   33.13          33.19   93.31           0.70    0.78    1.50    0.76            0.29    0.33    0.12           0.63     0.69
D7         15.94   17.04    2.20          48.30   -2.76   51.17          51.25   93.09           0.71    0.77    2.13    0.75            0.30    0.36    0.06           0.69     0.77
D8         15.63   16.86    0.91          48.08   -3.56   66.04          66.13   93.09           0.75    0.76    3.11    0.75            0.31    0.36    0.01           0.70     0.80
D9         45.11   46.92   24.86          74.14   -0.38   21.34          21.35   91.01           0.27    0.34    0.60    0.32            0.58    0.64    0.52           0.55     0.63
D10        44.78   46.99   14.09          74.18   -1.52   44.54          44.56   91.95           0.26    0.34    0.94    0.31            0.49    0.58    0.28           0.54     0.60
D11        44.73   47.35    6.84          74.41   -2.64   68.70          68.75   92.20           0.26    0.33    1.45    0.31            0.48    0.56    0.12           0.58     0.65
D12        43.95   46.99    2.06          74.18   -3.91   97.04          97.12   92.31           0.30    0.33    2.67    0.31            0.39    0.37    0.02           0.35     0.40
D13        49.72   58.37   55.73          80.94  -16.93   -8.33          18.87  206.19           0.42    0.18    0.18    0.26            0.60    0.57    0.33           0.41     0.47
D14        50.00   41.70   51.56          70.66   28.15  -21.57          35.46  322.54           0.18    0.48    0.19    0.36            0.47    0.63    0.37           0.73     0.84
D15        63.15   67.09   27.58          85.55   -3.48   36.29          36.46   95.49           0.13    0.18    0.57    0.16            0.47    0.57    0.67           0.70     0.78
D16        30.29   31.43   27.23          62.86   -0.03   -2.23           2.24  269.15           0.48    0.51    0.52    0.51            0.57    0.61    0.62           0.61     0.66
D17        43.09   36.51   24.97          66.91   24.92    8.68          26.39   19.20           0.19    0.55    0.56    0.40            0.49    0.59    0.68           0.74     0.84
D18        45.11   55.62   29.07          79.40  -23.04   23.23          32.72  134.77           0.41    0.20    0.53    0.27            0.60    0.57    0.65           0.64     0.72
D19        34.52   34.74   50.22          65.54    3.53  -28.89          29.11  276.96           0.51    0.46    0.20    0.48            0.63    0.74    0.42           0.76     0.88
D20         2.43    2.50    0.94          17.92    0.33   13.47          13.48   88.58           1.49    1.65    2.30    1.59            0.05    0.06    0.03           0.35     0.41
D21        29.24   26.66    1.34          58.66   14.11   78.08          79.35   79.75           0.38    0.65    2.77    0.53            0.51    0.54    0.02           0.70     0.82
D22        38.60   42.14   52.57          70.97   -6.37  -22.15          23.05  253.94           0.50    0.34    0.19    0.40            0.66    0.78    0.36           0.71     0.81
E1          4.72    5.38    3.29          27.80   -5.95    7.20           9.35  129.59           1.28    1.27    1.60    1.28            0.09    0.11    0.08           0.44     0.49
E2          4.33    5.42    2.04          27.91  -11.61   17.42          20.93  123.69           1.35    1.22    1.93    1.28            0.08    0.11    0.04           0.43     0.47
E3          3.99    5.43    1.13          27.92  -16.34   27.83          32.28  120.42           1.45    1.18    2.42    1.28            0.08    0.12    0.03           0.45     0.51
E4          3.49    5.45    0.56          27.99  -24.29   37.71          44.86  122.79           1.67    1.11    3.23    1.29            0.07    0.12    0.01           0.53     0.59
E5         22.81   26.05   14.96          58.08  -10.08   14.55          17.70  124.72           0.62    0.56    0.85    0.59            0.35    0.44    0.35           0.58     0.65
E6         20.97   26.41    9.27          58.42  -20.11   31.80          37.63  122.30           0.70    0.52    1.16    0.59            0.34    0.45    0.20           0.61     0.67
E7         18.93   26.56    5.06          58.56  -30.82   49.68          58.47  121.82           0.83    0.48    1.61    0.59            0.29    0.42    0.10           0.58     0.65
E8         17.15   27.07    1.70          59.04  -42.28   74.57          85.73  119.55           1.08    0.42    2.81    0.59            0.16    0.19    0.02           0.28     0.33
E9         43.06   46.85   32.34          74.09   -6.16    8.98          10.89  124.46           0.35    0.32    0.45    0.33            0.54    0.59    0.61           0.53     0.61
E10        40.82   46.69   25.82          73.99  -12.46   19.38          23.04  122.74           0.39    0.30    0.58    0.34            0.55    0.61    0.52           0.51     0.59
E11        38.59   46.56   19.87          73.90  -19.05   30.59          36.04  121.92           0.43    0.29    0.74    0.34            0.47    0.55    0.42           0.52     0.60
E12        34.37   46.61   10.43          73.94  -33.18   54.72          63.99  121.23           0.56    0.25    1.17    0.35            0.32    0.34    0.22           0.43     0.52
E13        44.88   54.83   55.05          78.94  -21.74  -11.06          24.39  206.97           0.51    0.19    0.18    0.29            0.55    0.54    0.30           0.43     0.48
E14        45.14   34.73   49.34          65.53   36.78  -27.91          46.17  322.81           0.20    0.61    0.20    0.43            0.46    0.58    0.37           0.76     0.88
E15        61.95   66.02   20.97          85.00   -3.93   47.47          47.63   94.74           0.13    0.18    0.73    0.17            0.44    0.56    0.54           0.66     0.76
E16        21.73   22.62   19.83          54.67   -0.37   -2.47           2.51  261.31           0.62    0.66    0.67    0.65            0.44    0.48    0.50           0.58     0.63
E17        36.44   28.16   17.22          60.03   33.74   12.47          35.97   20.27           0.21    0.73    0.74    0.50            0.39    0.45    0.47           0.68     0.77
E18        39.18   51.15   22.06          76.77  -29.55   31.11          42.91  133.53           0.50    0.22    0.69    0.31            0.52    0.53    0.54           0.62     0.70
E19        26.44   26.12   47.54          58.15    5.22  -38.58          38.94  277.70           0.67    0.58    0.22    0.61            0.50    0.59    0.38           0.79     0.91
E20         6.18    7.49    1.20          32.88  -10.66   35.53          37.10  106.69           1.19    1.07    2.44    1.13            0.13    0.17    0.03           0.55     0.63
E21        22.70   27.39    6.07          59.33  -15.99   46.07          48.77  109.14           0.63    0.52    1.45    0.56            0.39    0.51    0.15           0.66     0.73
E22         7.84   17.13   13.24          48.42  -61.03    2.39          61.08  177.76           2.04    0.55    0.93    0.85            0.14    0.28    0.31           0.57     0.65
F1          3.02    3.84    2.98          23.14  -11.13    1.40          11.22  172.80           1.55    1.39    1.64    1.45            0.06    0.08    0.08           0.41     0.45
F2          2.37    3.69    2.46          22.62  -21.09    4.59          21.59  167.72           1.78    1.34    1.77    1.48            0.05    0.08    0.06           0.42     0.49
F3          1.94    3.62    2.01          22.39  -29.49    8.23          30.62  164.41           2.02    1.29    1.93    1.50            0.04    0.08    0.05           0.44     0.50
F4          1.41    4.03    1.59          23.75  -49.10   14.97          51.33  163.05           2.81    1.15    2.19    1.49            0.03    0.09    0.04           0.49     0.56
F5         10.38   13.24    9.97          43.11  -16.93    3.07          17.21  169.73           1.05    0.82    1.04    0.91            0.20    0.27    0.22           0.50     0.57
F6          8.40   13.50    8.23          43.50  -34.79    9.86          36.16  164.19           1.33    0.74    1.17    0.92            0.17    0.29    0.20           0.54     0.63
F7          6.63   13.36    6.91          43.29  -50.73   14.75          52.83  163.79           1.72    0.69    1.31    0.94            0.13    0.26    0.17           0.57     0.67
F8          5.06   13.15    5.61          42.99  -67.11   20.11          70.06  163.32           2.37    0.63    1.48    0.97            0.09    0.22    0.14           0.56     0.63
F9         27.81   32.15   25.88          63.46  -12.19    1.13          12.24  174.69           0.59    0.46    0.56    0.51            0.46    0.52    0.56           0.51     0.58
F10        24.63   32.18   23.38          63.49  -25.37    5.69          26.00  167.36           0.74    0.41    0.62    0.52            0.36    0.45    0.50           0.53     0.59
F11        22.15   32.17   21.71          63.48  -36.36    8.89          37.44  166.27           0.89    0.38    0.67    0.53            0.35    0.47    0.46           0.55     0.63
F12        18.10   32.87   17.71          64.05  -58.76   18.29          61.54  162.72           1.27    0.31    0.81    0.54            0.19    0.24    0.38           0.53     0.66
F13        40.68   51.60   54.42          77.04  -26.03  -13.67          29.40  207.71           0.61    0.20    0.19    0.32            0.48    0.49    0.32           0.39     0.43
F14        40.81   28.83   47.03          60.63   45.10  -33.70          56.31  323.23           0.21    0.75    0.21    0.50            0.39    0.47    0.37           0.69     0.78
F15        60.83   64.74   15.75          84.35   -3.71   57.87          57.99   93.67           0.13    0.19    0.91    0.17            0.36    0.48    0.39           0.60     0.70
F16        15.09   15.77   13.91          46.67   -0.67   -2.43           2.54  254.56           0.78    0.82    0.84    0.81            0.28    0.31    0.35           0.58     0.63
F17        30.72   21.38   11.19          53.36   42.54   16.85          45.76   21.61           0.24    0.95    0.94    0.60            0.31    0.34    0.32           0.63     0.70
