targets/wolf_faust/transmissive/N080301.it8
IT8.7/1
ORIGINATOR "Wolf Faust"
DESCRIPTOR "Velvia 100, 100F and Astia 100F, Type 3, L* a* b* (light D50, viewing angle 2)"
MANUFACTURER "Wolf Faust - http://www.coloraid.de"
CREATED "March 25, 2008"
PROD_DATE "2008:03"
DIFFUSE_GEOMETRY "opal"
SERIAL "N080301 Batch Average Data"
MATERIAL "Fujichrome Velvia 100 (RVP 100)"
KEYWORD "MEAN_DE" # Mean Delta E of samples compared to batch average
NUMBER_OF_FIELDS 18
BEGIN_DATA_FORMAT
SAMPLE_ID  XYZ_X   XYZ_Y   XYZ_Z          LAB_L   LAB_A   LAB_B          LAB_C   LAB_H          D_RED  D_GREEN  D_BLUE  D_VIS          STDEV_X STDEV_Y STDEV_Z        MEAN_DE  STDEV_DE
END_DATA_FORMAT
NUMBER_OF_SETS 288
BEGIN_DATA
A1          2.07    1.79    1.30          14.34    8.25    2.17           8.53   14.69           1.50    1.92    1.99    1.72            0.07    0.06    0.05           0.48     0.52
A2          2.58    1.79    1.09          14.34   18.72    5.07          19.39   15.16           1.32    2.10    2.05    1.68            0.09    0.06    0.04           0.46     0.49 
A3          3.08    1.77    0.90          14.22   28.37    7.70          29.39   15.18           1.18    2.38    2.10    1.65            0.10    0.06    0.04           0.50     0.54
A4          4.36    1.90    0.66          14.97   44.59   13.37          46.55   16.70           0.93    3.53    2.09    1.55            0.13    0.06    0.02           0.55     0.60 
A5          9.57    8.21    6.03          34.42   14.16    3.32          14.55   13.21           0.84    1.23    1.24    1.06            0.27    0.23    0.20           0.53     0.57
A6         11.56    8.25    5.19          34.50   28.84    7.52          29.81   14.61           0.68    1.37    1.30    1.02            0.27    0.21    0.19           0.53     0.57 
A7         13.86    8.32    4.45          34.64   43.61   11.78          45.17   15.12           0.54    1.57    1.35    0.98            0.31    0.20    0.18           0.54     0.59
A8         17.40    8.43    3.48          34.86   63.29   18.10          65.83   15.96           0.36    2.10    1.41    0.93            0.17    0.11    0.14           0.58     0.66 
A9         28.98   27.73   22.17          59.64    8.87    1.37           8.98    8.76           0.44    0.61    0.62    0.55            0.65    0.65    0.70           0.72     0.79
A10        31.07   27.79   21.24          59.69   16.51    3.30          16.84   11.29           0.36    0.64    0.64    0.53            0.66    0.63    0.68           0.69     0.76
A11        33.59   28.22   20.24          60.08   23.85    6.01          24.59   14.13           0.29    0.67    0.66    0.52            0.66    0.64    0.67           0.71     0.78
A12        36.60   27.73   18.37          59.64   35.98    9.22          37.15   14.36           0.20    0.75    0.70    0.51            0.61    0.64    0.74           0.96     1.08 
A13        69.58   74.00   60.77          88.92   -3.78    0.30           3.80  175.54           0.15    0.12    0.14    0.13            0.46    0.37    0.42           0.32     0.35
A14        70.92   72.40   60.62          88.16    2.38   -0.88           2.54  339.90           0.11    0.15    0.14    0.14            0.45    0.62    0.45           0.45     0.50 
A15        73.64   76.74   59.63          90.20   -0.73    3.63           3.71  101.45           0.10    0.11    0.15    0.11            0.25    0.26    0.60           0.40     0.45
A16        70.93   73.69   60.61          88.77   -0.26    0.20           0.34  142.63           0.13    0.13    0.14    0.13            0.44    0.51    0.45           0.27     0.29
A17        69.66   71.17   56.87          87.57    2.22    1.91           2.93   40.70           0.11    0.15    0.17    0.15            0.56    0.71    0.80           0.46     0.53
A18        70.55   74.65   57.57          89.23   -3.03    4.06           5.07  126.92           0.13    0.12    0.17    0.13            0.35    0.30    0.70           0.49     0.55 
A19        67.08   69.68   59.56          86.84   -0.23   -2.10           2.11  263.56           0.15    0.15    0.14    0.16            0.50    0.58    0.42           0.33     0.39
A20         6.25    2.95    1.87          19.85   46.34    5.18          46.63    6.38           0.81    2.71    1.65    1.39            0.15    0.07    0.07           0.50     0.56 
A21        26.62   18.58   14.90          50.18   40.28    1.09          40.30    1.55           0.32    1.01    0.78    0.67            0.43    0.36    0.52           0.69     0.77
A22        52.00   48.07   33.88          74.87   15.30    8.04          17.29   27.69           0.15    0.38    0.42    0.30            0.61    0.78    0.96           0.84     0.94
B1          3.14    2.81    1.61          19.27    7.58    6.95          10.29   42.48           1.33    1.69    1.92    1.52            0.09    0.08    0.05           0.49     0.54
B2          3.64    2.79    1.01          19.19   16.07   14.59          21.71   42.24           1.20    1.79    2.18    1.50            0.11    0.08    0.03           0.46     0.52
B3          4.39    2.88    0.62          19.54   25.38   22.04          33.61   40.96           1.06    1.93    2.45    1.45            0.13    0.09    0.02           0.49     0.57
B4          5.17    2.86    0.13          19.49   35.62   31.13          47.30   41.15           0.94    2.18    3.56    1.42            0.17    0.10    0.00           0.68     0.81
B5         12.32   10.89    6.48          39.40   13.06    9.88          16.38   37.09           0.74    1.08    1.23    0.94            0.32    0.29    0.21           0.61     0.65
B6         14.32   10.87    4.18          39.36   26.18   21.45          33.84   39.33           0.60    1.18    1.46    0.91            0.34    0.29    0.16           0.59     0.63
B7         16.94   11.17    2.54          39.87   39.23   33.67          51.70   40.64           0.47    1.30    1.74    0.86            0.34    0.27    0.10           0.52     0.57
B8         20.86   11.06    0.86          39.69   60.13   52.36          79.73   41.05           0.30    1.66    2.34    0.82            0.17    0.14    0.03           0.34     0.38
B9         34.28   33.73   26.00          64.74    6.18    3.13           6.93   26.78           0.38    0.51    0.55    0.46            0.82    0.82    0.81           0.74     0.81
B10        36.22   33.91   23.07          64.89   12.10    8.71          14.91   35.73           0.31    0.53    0.61    0.45            0.77    0.77    0.74           0.75     0.81
B11        37.89   33.99   20.44          64.95   17.31   13.98          22.26   38.91           0.26    0.55    0.67    0.44            0.76    0.78    0.70           0.78     0.85
B12        40.82   33.92   16.54          64.89   26.77   22.44          34.93   39.98           0.18    0.60    0.78    0.43            0.57    0.71    0.61           0.97     1.06
B13        62.80   68.31   58.14          86.16   -6.93   -1.83           7.17  194.75           0.22    0.15    0.16    0.17            0.77    0.69    0.55           0.43     0.48
B14        61.87   59.81   56.21          81.73    9.99   -7.46          12.47  323.21           0.14    0.25    0.17    0.22            0.70    0.94    0.65           0.72     0.82
B15        67.79   71.27   47.20          87.61   -2.03   12.63          12.79   99.17           0.13    0.15    0.27    0.14            0.57    0.63    1.04           0.69     0.78
B16        55.05   56.87   47.30          80.11    0.53   -0.43           0.75  281.05           0.23    0.25    0.26    0.25            0.89    0.94    1.02           0.60     0.65
B17        59.54   58.25   45.86          80.87    8.20    2.61           8.61   17.53           0.15    0.26    0.27    0.23            0.71    0.87    1.07           0.73     0.81
B18        61.19   67.44   48.61          85.73   -8.82    7.75          11.74  138.76           0.22    0.15    0.25    0.18            0.75    0.66    0.98           0.65     0.75
B19        56.76   58.11   56.14          80.80    1.78   -9.00           9.18  281.18           0.23    0.24    0.17    0.24            0.78    0.88    0.54           0.56     0.64
B20         4.83    2.91    0.99          19.67   30.48   15.69          34.28   27.25           0.99    2.05    2.11    1.44            0.11    0.07    0.04           0.42     0.47
B21        16.74   11.09    4.09          39.73   38.71   22.66          44.86   30.34           0.48    1.31    1.45    0.87            0.31    0.23    0.15           0.49     0.54
B22        33.56   28.14   16.99          60.01   24.07   12.97          27.35   28.31           0.28    0.68    0.75    0.51            0.52    0.53    0.56           0.72     0.79
C1          6.11    6.01    3.37          29.44    3.44    9.50          10.11   70.08           1.09    1.29    1.57    1.21            0.16    0.16    0.10           0.56     0.61
C2          6.41    5.87    2.02          29.07    8.27   19.63          21.30   67.16           1.02    1.33    1.88    1.20            0.15    0.15    0.06           0.50     0.55
C3          6.73    5.74    1.06          28.74   13.03   30.24          32.92   66.69           0.97    1.37    2.32    1.19            0.18    0.16    0.03           0.56     0.62
C4          7.48    5.85    0.34          29.04   19.09   43.57          47.57   66.33           0.91    1.41    3.37    1.17            0.23    0.18    0.01           0.71     0.85
C5         23.59   22.67   11.70          54.73    7.85   17.67          19.34   66.03           0.49    0.70    0.96    0.63            0.52    0.52    0.36           0.68     0.74
C6         25.55   22.68    6.51          54.74   16.26   36.20          39.69   65.81           0.40    0.74    1.31    0.61            0.47    0.47    0.22           0.64     0.72
C7         27.77   22.79    3.05          54.85   24.80   55.55          60.83   65.94           0.33    0.78    1.83    0.59            0.49    0.49    0.10           0.61     0.67
C8         30.19   22.58    0.74          54.64   35.04   80.15          87.48   66.38           0.27    0.85    3.22    0.57            0.48    0.46    0.02           0.65     0.76
C9         40.73   40.71   28.78          69.96    4.61    7.44           8.76   58.18           0.31    0.42    0.50    0.38            0.87    0.90    0.84           0.75     0.82
C10        41.75   40.74   24.64          69.99    7.60   14.59          16.45   62.49           0.27    0.43    0.59    0.38            0.84    0.89    0.75           0.75     0.82
C11        42.95   40.98   20.09          70.16   10.49   23.68          25.90   66.10           0.23    0.44    0.70    0.37            0.75    0.83    0.64           0.78     0.84
C12        44.90   40.38   12.71          69.74   18.00   40.63          44.45   66.11           0.16    0.48    0.97    0.36            0.56    0.77    0.44           0.94     1.02
C13        55.91   63.73   57.50          83.82  -13.35   -5.20          14.33  201.27           0.32    0.16    0.16    0.21            0.75    0.67    0.50           0.49     0.55
C14        55.02   49.29   53.92          75.63   19.78  -15.58          25.18  321.77           0.16    0.37    0.17    0.30            0.64    0.84    0.64           0.81     0.87
C15        65.84   70.08   36.99          87.04   -3.82   24.59          24.89   98.85           0.13    0.15    0.41    0.15            0.54    0.61    0.94           0.76     0.89
C16        42.18   43.53   36.60          71.91    0.61   -0.95           1.17  307.17           0.34    0.37    0.38    0.36            0.80    0.84    0.94           0.72     0.78
C17        50.57   46.28   34.50          73.73   16.45    5.16          17.25   17.38           0.17    0.40    0.41    0.32            0.63    0.77    0.96           0.88     0.97
C18        52.78   62.06   38.60          82.95  -17.48   15.35          23.27  138.74           0.32    0.16    0.38    0.22            0.77    0.69    0.92           0.78     0.87
C19        45.10   45.45   53.58          73.18    3.72  -19.41          19.77  280.82           0.35    0.35    0.18    0.35            0.72    0.82    0.52           0.69     0.77
C20        12.15    8.80    1.13          35.60   28.28   41.08          49.87   55.45           0.65    1.31    2.30    0.98            0.23    0.18    0.03           0.48     0.54
C21        21.51   19.77   11.16          51.57   11.98   13.85          18.32   49.13           0.51    0.79    0.97    0.68            0.47    0.45    0.35           0.67     0.73
C22        27.53   22.93   11.01          54.99   23.23   20.22          30.79   41.03           0.35    0.78    0.98    0.60            0.51    0.49    0.38           0.63     0.68
D1          4.14    4.33    2.49          24.74   -0.59    7.99           8.02   94.27           1.28    1.41    1.73    1.36            0.12    0.13    0.08           0.53     0.58
D2          3.90    4.11    1.47          24.02   -0.95   16.84          16.87   93.25           1.30    1.42    2.07    1.38            0.10    0.11    0.05           0.50     0.55
D3          3.85    4.17    0.85          24.23   -2.57   25.78          25.91   95.70           1.32    1.38    2.50    1.37            0.12    0.13    0.03           0.56     0.63
D4          3.87    4.12    0.37          24.06   -1.45   34.59          34.62   92.39           1.34    1.38    3.34    1.37            0.14    0.15    0.01           0.76     0.87
D5         17.27   17.97    9.48          49.45   -0.31   15.65          15.65   91.13           0.67    0.77    1.07    0.74            0.41    0.43    0.26           0.66     0.72
D6         17.20   17.84    5.03          49.30   -0.02   33.86          33.86   90.04           0.65    0.77    1.48    0.73            0.43    0.46    0.15           0.61     0.68
D7         16.87   17.75    2.38          49.19   -1.35   51.08          51.10   91.51           0.67    0.75    2.05    0.73            0.38    0.43    0.07           0.69     0.76
D8         17.00   18.04    0.90          49.54   -2.13   68.71          68.75   91.77           0.71    0.74    3.14    0.72            0.45    0.48    0.02           0.84     0.96
D9         46.56   48.46   25.35          75.11   -0.48   22.15          22.15   91.25           0.25    0.32    0.59    0.31            0.87    0.93    0.71           0.69     0.75
D10        46.56   48.79   14.45          75.32   -1.34   45.56          45.58   91.69           0.23    0.32    0.93    0.30            0.79    0.88    0.40           0.65     0.70
D11        46.14   48.57    7.08          75.18   -1.95   69.01          69.04   91.62           0.24    0.32    1.42    0.29            0.70    0.80    0.20           0.60     0.65
D12        45.67   48.54    1.83          75.16   -3.19  101.01         101.06   91.81           0.29    0.32    2.83    0.29            0.50    0.43    0.02           0.45     0.51
D13        49.97   59.63   56.91          81.63  -19.22   -8.37          20.96  203.53           0.43    0.17    0.17    0.25            0.70    0.64    0.47           0.53     0.60
D14        49.02   40.31   51.53          69.69   29.71  -23.21          37.70  322.00           0.18    0.50    0.18    0.37            0.53    0.68    0.56           0.82     0.89
D15        64.14   68.81   28.29          86.41   -4.94   36.60          36.93   97.70           0.13    0.16    0.56    0.15            0.45    0.53    0.74           0.72     0.86
D16        31.66   32.50   27.42          63.75    1.17   -1.02           1.60  320.61           0.45    0.50    0.52    0.49            0.69    0.71    0.74           0.70     0.77
D17        42.76   36.07   24.82          66.57   25.37    8.39          26.72   18.28           0.19    0.56    0.56    0.41            0.55    0.65    0.77           0.89     0.97
D18        45.73   57.24   30.14          80.31  -25.22   23.11          34.20  137.51           0.41    0.18    0.52    0.26            0.67    0.61    0.79           0.81     0.92
D19        35.32   34.71   51.01          65.52    6.40  -29.83          30.50  282.10           0.48    0.47    0.19    0.47            0.59    0.65    0.53           0.69     0.76
D20         2.75    2.74    1.00          18.99    1.96   14.35          14.48   82.21           1.43    1.63    2.25    1.54            0.08    0.08    0.03           0.43     0.48
D21        30.51   27.76    1.42          59.67   14.53   78.84          80.17   79.56           0.35    0.63    2.71    0.51            0.49    0.53    0.03           0.67     0.74
D22        41.12   43.74   53.44          72.05   -3.17  -21.22          21.46  261.48           0.44    0.34    0.18    0.38            0.71    0.81    0.54           0.70     0.78
E1          5.19    5.93    3.46          29.24   -6.29    8.56          10.63  126.32           1.24    1.23    1.58    1.24            0.12    0.14    0.09           0.55     0.61
E2          4.78    5.92    2.17          29.21  -11.18   18.51          21.63  121.14           1.30    1.19    1.90    1.24            0.14    0.17    0.07           0.58     0.65
E3          4.45    5.90    1.24          29.16  -15.31   28.53          32.38  118.22           1.38    1.15    2.34    1.24            0.12    0.17    0.04           0.60     0.68
E4          4.04    6.04    0.56          29.49  -22.48   40.38          46.22  119.11           1.56    1.08    3.25    1.24            0.15    0.21    0.01           0.82     0.95
E5         24.38   27.43   15.09          59.36   -8.70   16.42          18.58  117.91           0.58    0.54    0.85    0.57            0.54    0.58    0.38           0.61     0.67
E6         22.21   27.54    9.54          59.47  -18.80   32.70          37.72  119.90           0.66    0.50    1.14    0.57            0.47    0.57    0.29           0.63     0.70
E7         20.05   27.67    5.11          59.59  -29.61   51.20          59.15  120.05           0.79    0.46    1.61    0.57            0.41    0.55    0.15           0.59     0.67
E8         18.35   28.36    1.54          60.21  -40.91   78.35          88.39  117.57           1.03    0.41    2.95    0.57            0.23    0.28    0.02           0.35     0.41
E9         44.68   48.28   32.89          75.00   -5.32    9.72          11.09  118.74           0.32    0.31    0.45    0.32            0.89    0.92    0.85           0.69     0.76
E10        42.31   48.15   25.86          74.91  -11.95   20.92          24.09  119.75           0.36    0.29    0.58    0.32            0.85    0.91    0.73           0.69     0.77
E11        40.57   48.36   20.44          75.05  -17.81   31.38          36.08  119.58           0.40    0.27    0.73    0.32            0.82    0.88    0.57           0.65     0.72
E12        35.81   48.41    9.84          75.08  -33.21   58.62          67.37  119.53           0.54    0.23    1.22    0.33            0.55    0.56    0.26           0.56     0.60
E13        44.58   55.69   56.32          79.44  -24.76  -11.54          27.32  204.99           0.54    0.18    0.17    0.29            0.63    0.60    0.51           0.49     0.55
E14        44.01   33.12   49.16          64.26   39.02  -29.91          49.17  322.53           0.20    0.65    0.20    0.45            0.45    0.53    0.60           0.70     0.78
E15        62.81   67.56   21.53          85.79   -5.31   47.72          48.01   96.35           0.13    0.17    0.72    0.16            0.41    0.51    0.56           0.66     0.78
E16        23.08   23.73   19.94          55.81    0.90   -0.75           1.22  322.75           0.58    0.64    0.67    0.63            0.53    0.53    0.58           0.63     0.71
E17        36.35   28.00   17.15          59.88   34.11   12.38          36.29   19.94           0.21    0.74    0.74    0.50            0.43    0.48    0.57           0.81     0.89
E18        39.29   52.44   22.97          77.54  -32.53   30.70          44.73  136.66           0.52    0.20    0.67    0.30            0.54    0.53    0.56           0.70     0.77
E19        27.24   26.04   48.32          58.07    8.81  -39.61          40.58  282.54           0.63    0.60    0.21    0.61            0.49    0.53    0.50           0.64     0.70
E20         6.98    8.25    1.33          34.51   -9.33   36.59          37.76  104.30           1.12    1.04    2.35    1.08            0.14    0.17    0.03           0.52     0.58
E21        24.31   28.85    6.34          60.64  -14.51   47.12          49.31  107.12           0.59    0.50    1.42    0.54            0.45    0.54    0.18           0.59     0.65
E22         8.54   18.10   13.91          49.61  -59.92    2.67          59.98  177.45           1.91    0.54    0.91    0.82            0.20    0.36    0.41           0.61     0.69
F1          3.41    4.24    3.16          24.46  -10.30    2.39          10.58  166.95           1.48    1.35    1.60    1.40            0.10    0.13    0.10           0.52     0.57
F2          2.76    4.10    2.58          23.98  -19.35    5.96          20.25  162.87           1.68    1.30    1.74    1.43            0.09    0.13    0.08           0.57     0.64
F3          2.30    4.10    2.23          24.00  -28.52    8.93          29.88  162.61           1.91    1.25    1.86    1.45            0.08    0.12    0.07           0.60     0.68
F4          1.44    4.08    1.51          23.92  -48.97   16.09          51.54  161.81           2.80    1.14    2.22    1.48            0.05    0.13    0.05           0.66     0.77
F5         11.24   14.10   10.29          44.37  -16.02    4.19          16.56  165.35           1.00    0.80    1.02    0.88            0.30    0.35    0.29           0.59     0.67
F6          9.05   14.12    8.58          44.40  -33.14   10.09          34.64  163.07           1.27    0.73    1.15    0.90            0.24    0.36    0.25           0.64     0.72
F7          7.31   14.07    7.01          44.33  -48.48   16.10          51.09  161.63           1.60    0.67    1.30    0.91            0.22    0.39    0.21           0.70     0.78
F8          5.21   13.97    5.44          44.19  -70.38   22.99          74.04  161.91           2.44    0.60    1.51    0.94            0.12    0.30    0.17           0.58     0.67
F9         29.60   33.83   26.22          64.82  -11.11    2.90          11.49  165.41           0.55    0.44    0.55    0.48            0.71    0.76    0.74           0.72     0.78
F10        26.29   33.61   23.84          64.64  -23.42    6.83          24.40  163.74           0.68    0.40    0.61    0.50            0.64    0.74    0.69           0.71     0.76
F11        23.70   33.91   21.85          64.89  -35.50   11.04          37.18  162.72           0.83    0.36    0.67    0.51            0.56    0.70    0.62           0.66     0.71
F12        18.53   34.42   17.67          65.29  -61.88   20.52          65.19  161.65           1.28    0.29    0.82    0.52            0.24    0.31    0.42           0.62     0.72
F13        39.87   52.08   55.69          77.33  -29.81  -14.51          33.15  205.96           0.66    0.19    0.18    0.32            0.55    0.53    0.46           0.44     0.51
F14        39.75   27.34   46.76          59.29   47.61  -35.69          59.50  323.14           0.22    0.80    0.21    0.52            0.44    0.47    0.60           0.61     0.69
F15        61.71   66.29   16.44          85.14   -5.07   57.59          57.82   95.04           0.13    0.18    0.88    0.16            0.37    0.48    0.39           0.54     0.61
F16        16.15   16.69   14.27          47.86    0.31   -1.31           1.37  285.39           0.73    0.80    0.83    0.78            0.38    0.39    0.43           0.64     0.70
F17        31.02   21.62   11.48          53.62   42.51   16.41          45.57   21.10           0.23    0.94    0.93    0.60            0.32    0.34    0.37           0.69     0.76
