targets/wolf_faust/transmissive/N090322.it8
IT8.7/1
ORIGINATOR "Wolf Faust"
DESCRIPTOR "Velvia 100, 100F, Astia 100F, Provia 400X and Sensia 100 (Emul. 687 or higher), Type 3, L* a* b* (light D50, viewing angle 2)"
MANUFACTURER "Wolf Faust - http://www.coloraid.de"
CREATED "March 23, 2009"
PROD_DATE "2008:03"
DIFFUSE_GEOMETRY "opal"
SERIAL "N090322 Batch Average Data"
MATERIAL "Fujichrome Velvia 100 (RVP 100)"
KEYWORD "MEAN_DE" # Mean Delta E of samples compared to batch average
NUMBER_OF_FIELDS 18
BEGIN_DATA_FORMAT
SAMPLE_ID  XYZ_X   XYZ_Y   XYZ_Z          LAB_L   LAB_A   LAB_B          LAB_C   LAB_H          D_RED  D_GREEN  D_BLUE  D_VIS          STDEV_X STDEV_Y STDEV_Z        MEAN_DE  STDEV_DE
END_DATA_FORMAT
NUMBER_OF_SETS 288
BEGIN_DATA
A1          2.04    1.76    1.28          14.18    8.20    2.11           8.47   14.44           1.50    1.93    2.00    1.73            0.06    0.06    0.04           0.40     0.44
A2          2.50    1.75    1.09          14.10   18.31    4.66          18.90   14.27           1.33    2.11    2.05    1.69            0.08    0.06    0.04           0.40     0.46 
A3          2.98    1.71    0.90          13.88   28.01    7.19          28.92   14.39           1.19    2.39    2.10    1.66            0.09    0.05    0.03           0.38     0.46
A4          4.30    1.87    0.66          14.80   44.48   13.06          46.36   16.36           0.94    3.61    2.09    1.56            0.12    0.05    0.03           0.48     0.57 
A5          9.46    8.19    6.06          34.36   13.49    3.10          13.84   12.96           0.85    1.22    1.24    1.06            0.26    0.23    0.20           0.51     0.56
A6         11.42    8.11    5.05          34.20   29.15    7.73          30.16   14.86           0.68    1.38    1.31    1.03            0.30    0.22    0.17           0.50     0.56 
A7         13.85    8.33    4.37          34.66   43.45   12.25          45.15   15.74           0.53    1.57    1.36    0.98            0.31    0.21    0.17           0.47     0.55
A8         17.48    8.49    3.47          34.98   63.21   18.35          65.82   16.19           0.36    2.08    1.41    0.93            0.16    0.10    0.15           0.54     0.67 
A9         28.64   27.63   21.84          59.55    7.95    1.87           8.18   13.26           0.44    0.60    0.63    0.55            0.62    0.61    0.60           0.54     0.62
A10        30.99   27.85   20.82          59.75   15.99    4.24          16.54   14.84           0.36    0.64    0.65    0.53            0.60    0.56    0.57           0.52     0.61
A11        33.06   27.74   19.75          59.65   23.86    6.26          24.67   14.71           0.30    0.68    0.67    0.52            0.51    0.48    0.51           0.49     0.58
A12        36.58   27.86   17.88          59.76   35.42   10.51          36.95   16.51           0.20    0.75    0.72    0.50            0.43    0.50    0.59           0.76     0.90 
A13        69.28   73.56   59.78          88.71   -3.53    0.92           3.65  165.34           0.15    0.12    0.15    0.14            0.37    0.27    0.26           0.27     0.30
A14        70.38   71.75   59.63          87.85    2.57   -0.42           2.60  350.89           0.11    0.15    0.15    0.14            0.40    0.54    0.32           0.37     0.41 
A15        73.18   76.22   58.67          89.96   -0.65    4.20           4.25   98.83           0.10    0.12    0.16    0.12            0.17    0.15    0.44           0.31     0.36
A16        70.51   73.24   59.61          88.56   -0.23    0.83           0.87  105.58           0.13    0.13    0.15    0.14            0.33    0.37    0.31           0.18     0.20
A17        68.83   70.11   55.83          87.05    2.68    2.09           3.40   38.01           0.12    0.16    0.18    0.15            0.45    0.58    0.62           0.37     0.43
A18        69.80   73.91   56.53          88.88   -3.14    4.52           5.50  124.79           0.14    0.12    0.18    0.13            0.34    0.26    0.57           0.41     0.47 
A19        66.14   68.71   58.37          86.36   -0.26   -1.72           1.74  261.33           0.16    0.16    0.16    0.16            0.43    0.47    0.28           0.25     0.29
A20         6.11    2.88    1.75          19.56   46.08    5.98          46.47    7.39           0.82    2.74    1.69    1.40            0.12    0.06    0.06           0.40     0.46 
A21        26.24   18.26   14.13          49.81   40.34    2.41          40.41    3.42           0.32    1.02    0.80    0.68            0.36    0.30    0.41           0.52     0.61
A22        51.67   47.83   33.13          74.71   15.10    8.87          17.52   30.41           0.16    0.38    0.43    0.30            0.53    0.67    0.79           0.66     0.78
B1          3.03    2.75    1.61          19.02    6.89    6.51           9.48   43.40           1.35    1.69    1.92    1.54            0.08    0.08    0.05           0.42     0.47
B2          3.53    2.73    1.01          18.92   15.51   14.17          21.01   42.41           1.21    1.79    2.18    1.51            0.10    0.08    0.03           0.40     0.44
B3          4.22    2.74    0.60          18.98   25.35   21.34          33.14   40.09           1.07    1.96    2.46    1.47            0.11    0.08    0.02           0.42     0.48
B4          4.95    2.72    0.13          18.90   35.38   30.15          46.48   40.43           0.95    2.22    3.55    1.44            0.16    0.09    0.00           0.70     0.81
B5         12.22   10.89    6.19          39.39   12.38   11.18          16.68   42.08           0.74    1.07    1.26    0.94            0.30    0.28    0.21           0.52     0.58
B6         14.33   10.92    4.09          39.45   25.85   22.15          34.04   40.58           0.59    1.18    1.48    0.90            0.33    0.29    0.15           0.52     0.58
B7         16.81   11.16    2.53          39.85   38.57   33.74          51.25   41.18           0.47    1.29    1.75    0.87            0.34    0.26    0.10           0.46     0.53
B8         20.87   11.07    0.84          39.70   60.12   52.69          79.94   41.23           0.30    1.66    2.36    0.82            0.17    0.14    0.03           0.31     0.37
B9         34.39   33.97   25.51          64.93    5.71    4.32           7.16   37.06           0.38    0.50    0.56    0.46            0.72    0.72    0.67           0.54     0.63
B10        36.02   33.76   22.29          64.77   11.92    9.99          15.55   39.96           0.31    0.53    0.63    0.45            0.63    0.62    0.58           0.50     0.58
B11        37.57   33.58   19.98          64.63   17.64   14.36          22.75   39.15           0.26    0.56    0.68    0.45            0.58    0.58    0.53           0.54     0.61
B12        40.45   33.53   16.25          64.59   26.94   22.61          35.17   40.01           0.18    0.61    0.79    0.43            0.47    0.60    0.53           0.76     0.90
B13        61.85   67.46   57.24          85.73   -7.31   -1.64           7.49  192.67           0.23    0.15    0.17    0.18            0.65    0.55    0.40           0.37     0.43
B14        61.41   59.31   55.43          81.46   10.10   -7.12          12.36  324.83           0.14    0.26    0.17    0.22            0.61    0.81    0.52           0.62     0.72
B15        67.60   71.11   46.48          87.54   -2.11   13.35          13.51   98.98           0.13    0.15    0.28    0.14            0.44    0.47    0.81           0.53     0.62
B16        54.27   56.22   46.38          79.74    0.13    0.02           0.20  136.29           0.23    0.25    0.27    0.25            0.79    0.83    0.76           0.45     0.50
B17        59.14   57.86   44.92          80.66    8.19    3.36           8.85   22.29           0.15    0.27    0.28    0.23            0.58    0.71    0.78           0.51     0.58
B18        60.50   66.88   47.93          85.44   -9.21    8.04          12.22  138.90           0.22    0.15    0.26    0.18            0.60    0.51    0.78           0.55     0.63
B19        56.06   57.66   55.38          80.55    1.17   -8.64           8.72  277.68           0.24    0.24    0.17    0.24            0.67    0.76    0.42           0.52     0.57
B20         4.71    2.84    0.90          19.38   30.32   16.58          34.56   28.66           1.00    2.06    2.17    1.45            0.09    0.06    0.02           0.35     0.39
B21        16.68   11.08    3.98          39.71   38.45   23.27          44.95   31.18           0.48    1.30    1.47    0.87            0.28    0.21    0.13           0.41     0.46
B22        33.49   28.28   16.82          60.14   23.25   13.60          26.94   30.31           0.28    0.67    0.76    0.51            0.45    0.45    0.43           0.51     0.58
C1          5.99    5.86    3.26          29.05    3.81    9.56          10.29   68.27           1.09    1.30    1.59    1.22            0.15    0.15    0.10           0.44     0.48
C2          6.36    5.88    2.06          29.11    7.62   19.38          20.82   68.54           1.02    1.32    1.88    1.20            0.16    0.16    0.07           0.45     0.51
C3          6.70    5.76    1.08          28.80   12.43   30.14          32.60   67.59           0.97    1.36    2.32    1.19            0.17    0.16    0.04           0.50     0.57
C4          7.45    5.81    0.35          28.93   19.32   43.32          47.44   65.96           0.90    1.41    3.36    1.17            0.23    0.20    0.01           0.74     0.87
C5         23.56   22.60   11.62          54.66    8.03   17.78          19.51   65.70           0.49    0.70    0.97    0.63            0.50    0.50    0.35           0.52     0.59
C6         25.75   22.97    6.46          55.04   15.76   36.95          40.17   66.90           0.40    0.73    1.32    0.60            0.46    0.45    0.20           0.50     0.55
C7         27.96   23.05    3.11          55.12   24.39   55.61          60.72   66.32           0.33    0.77    1.82    0.58            0.43    0.43    0.10           0.50     0.57
C8         30.38   22.74    0.76          54.80   35.02   80.21          87.52   66.41           0.27    0.84    3.22    0.57            0.49    0.48    0.02           0.64     0.75
C9         40.62   40.77   28.48          70.01    4.08    8.02           9.00   62.98           0.31    0.41    0.51    0.38            0.78    0.80    0.76           0.57     0.65
C10        41.23   40.29   23.89          69.67    7.40   15.41          17.10   64.35           0.27    0.43    0.60    0.38            0.74    0.75    0.65           0.55     0.64
C11        42.70   40.65   19.80          69.93   10.71   23.88          26.17   65.84           0.23    0.44    0.71    0.37            0.64    0.68    0.51           0.52     0.60
C12        44.65   40.18   12.30          69.60   17.88   41.53          45.22   66.72           0.17    0.48    0.99    0.36            0.48    0.66    0.33           0.72     0.82
C13        55.18   63.03   56.65          83.46  -13.58   -4.95          14.46  200.03           0.33    0.16    0.17    0.22            0.72    0.61    0.43           0.47     0.55
C14        54.66   48.97   53.12          75.43   19.71  -15.05          24.80  322.64           0.16    0.37    0.18    0.30            0.58    0.75    0.51           0.67     0.78
C15        65.63   69.89   36.31          86.94   -3.88   25.37          25.67   98.71           0.13    0.15    0.42    0.15            0.49    0.54    0.82           0.64     0.75
C16        41.62   43.09   35.71          71.62    0.20   -0.21           0.32  282.33           0.34    0.37    0.39    0.37            0.72    0.74    0.69           0.49     0.55
C17        50.32   46.12   33.76          73.62   16.25    6.05          17.34   20.39           0.17    0.40    0.42    0.32            0.51    0.62    0.71           0.58     0.66
C18        52.32   61.63   38.04          82.71  -17.67   15.71          23.64  138.38           0.32    0.17    0.39    0.22            0.61    0.53    0.77           0.65     0.74
C19        44.70   45.26   52.85          73.06    3.09  -18.85          19.10  279.30           0.35    0.35    0.19    0.35            0.66    0.72    0.43           0.55     0.64
C20        11.82    8.66    1.08          35.31   27.24   41.28          49.46   56.59           0.66    1.30    2.34    0.99            0.19    0.15    0.02           0.37     0.43
C21        21.44   19.74   10.96          51.53   11.79   14.40          18.61   50.68           0.51    0.78    0.98    0.68            0.41    0.39    0.31           0.49     0.56
C22        27.25   22.74   10.70          54.80   22.92   20.86          30.99   42.31           0.36    0.78    1.00    0.60            0.40    0.38    0.30           0.50     0.57
D1          3.94    4.13    2.33          24.10   -0.57    8.23           8.26   93.97           1.30    1.43    1.77    1.38            0.10    0.11    0.07           0.47     0.51
D2          3.84    4.11    1.49          24.03   -1.80   16.56          16.66   96.21           1.31    1.41    2.07    1.38            0.12    0.13    0.05           0.53     0.60
D3          3.80    4.16    0.82          24.20   -3.15   26.37          26.56   96.81           1.33    1.38    2.54    1.37            0.10    0.12    0.02           0.59     0.65
D4          3.80    4.10    0.37          24.00   -2.26   34.30          34.38   93.76           1.35    1.37    3.32    1.37            0.12    0.15    0.01           0.77     0.90
D5         17.10   17.86    9.12          49.32   -0.64   16.65          16.66   92.19           0.67    0.77    1.10    0.74            0.39    0.42    0.29           0.54     0.61
D6         16.95   17.81    4.85          49.26   -1.25   34.79          34.82   92.06           0.66    0.76    1.51    0.74            0.40    0.43    0.16           0.59     0.65
D7         16.85   17.74    2.32          49.18   -1.41   51.53          51.55   91.57           0.67    0.75    2.08    0.73            0.38    0.41    0.06           0.63     0.72
D8         16.88   18.09    0.91          49.60   -3.06   68.56          68.63   92.56           0.71    0.73    3.13    0.72            0.42    0.46    0.02           0.79     0.90
D9         46.44   48.26   24.84          74.99   -0.26   22.84          22.85   90.66           0.25    0.33    0.60    0.31            0.80    0.84    0.65           0.56     0.63
D10        45.98   48.21   14.03          74.95   -1.42   46.02          46.04   91.77           0.24    0.32    0.94    0.30            0.71    0.78    0.36           0.47     0.54
D11        45.78   48.24    7.00          74.97   -2.09   69.00          69.03   91.73           0.24    0.32    1.43    0.30            0.64    0.72    0.18           0.49     0.54
D12        45.43   48.37    1.84          75.05   -3.40  100.66         100.72   91.93           0.29    0.32    2.81    0.29            0.51    0.43    0.03           0.43     0.50
D13        49.23   58.90   56.06          81.24  -19.51   -8.16          21.15  202.70           0.43    0.17    0.18    0.25            0.66    0.57    0.39           0.47     0.56
D14        48.73   40.10   50.74          69.54   29.57  -22.59          37.21  322.62           0.18    0.51    0.19    0.38            0.52    0.65    0.49           0.70     0.80
D15        63.76   68.39   27.62          86.20   -4.92   37.36          37.68   97.50           0.13    0.16    0.57    0.16            0.78    0.85    0.74           0.70     0.81
D16        31.12   32.11   26.86          63.43    0.56   -0.61           0.84  313.99           0.46    0.50    0.53    0.49            0.61    0.61    0.62           0.54     0.60
D17        42.40   35.75   24.10          66.33   25.34    9.25          26.98   20.04           0.19    0.56    0.58    0.41            0.39    0.47    0.56           0.60     0.70
D18        44.90   56.47   29.25          79.88  -25.71   23.76          35.01  137.26           0.42    0.18    0.53    0.26            0.51    0.46    0.61           0.63     0.73
D19        34.59   34.20   50.04          65.12    5.62  -29.43          29.96  280.81           0.49    0.47    0.20    0.48            0.50    0.55    0.39           0.51     0.60
D20         2.65    2.68    1.03          18.73    1.12   13.44          13.49   85.25           1.44    1.63    2.23    1.56            0.06    0.06    0.02           0.42     0.46
D21        30.49   27.91    1.48          59.80   13.91   78.37          79.59   79.94           0.36    0.62    2.67    0.51            0.46    0.49    0.03           0.58     0.67
D22        40.50   43.31   52.51          71.77   -3.86  -20.70          21.06  259.44           0.45    0.34    0.19    0.38            0.62    0.72    0.40           0.59     0.69
E1          5.14    5.96    3.44          29.32   -7.21    8.78          11.36  129.37           1.24    1.22    1.58    1.24            0.15    0.16    0.12           0.51     0.56
E2          4.74    5.96    2.21          29.32  -12.20   18.30          21.99  123.69           1.31    1.18    1.89    1.24            0.14    0.17    0.08           0.58     0.63
E3          4.37    5.92    1.31          29.20  -16.54   27.68          32.25  120.86           1.39    1.14    2.31    1.24            0.14    0.19    0.04           0.68     0.76
E4          3.86    5.84    0.55          28.99  -22.88   39.58          45.72  120.03           1.59    1.09    3.24    1.26            0.14    0.21    0.02           0.83     0.97
E5         24.47   27.63   15.08          59.55   -9.10   16.78          19.09  118.47           0.58    0.54    0.85    0.56            0.52    0.57    0.42           0.56     0.62
E6         22.29   27.76    9.36          59.67  -19.30   33.67          38.81  119.83           0.66    0.50    1.16    0.57            0.48    0.57    0.29           0.58     0.63
E7         20.07   27.82    5.10          59.73  -30.11   51.50          59.66  120.31           0.79    0.46    1.61    0.57            0.40    0.54    0.15           0.56     0.61
E8         18.23   28.27    1.55          60.13  -41.19   78.10          88.29  117.81           1.04    0.41    2.93    0.57            0.22    0.25    0.02           0.34     0.38
E9         44.79   48.45   32.68          75.11   -5.49   10.21          11.60  118.25           0.32    0.30    0.45    0.32            0.84    0.86    0.78           0.55     0.63
E10        42.26   48.04   25.55          74.85  -11.78   21.34          24.38  118.91           0.36    0.29    0.59    0.32            0.79    0.81    0.63           0.56     0.62
E11        40.23   48.11   19.88          74.89  -18.16   32.27          37.03  119.37           0.40    0.27    0.74    0.32            0.69    0.74    0.47           0.49     0.56
E12        35.58   48.05    9.53          74.85  -32.97   59.25          67.81  119.10           0.54    0.23    1.24    0.33            0.50    0.47    0.21           0.48     0.56
E13        44.26   55.28   55.47          79.20  -24.66  -11.05          27.02  204.15           0.54    0.18    0.18    0.29            0.59    0.52    0.39           0.45     0.53
E14        43.73   32.91   48.39          64.09   38.94  -29.32          48.75  323.02           0.20    0.65    0.20    0.45            0.46    0.53    0.48           0.62     0.71
E15        62.64   67.36   21.18          85.69   -5.27   48.22          48.51   96.24           0.13    0.17    0.73    0.16            0.39    0.47    0.51           0.57     0.69
E16        22.60   23.19   19.36          55.26    1.08   -0.47           1.19  337.42           0.58    0.65    0.69    0.64            0.49    0.49    0.49           0.53     0.60
E17        36.03   27.66   16.85          59.58   34.35   12.55          36.57   20.07           0.21    0.74    0.75    0.51            0.35    0.40    0.46           0.62     0.72
E18        38.92   51.99   22.37          77.27  -32.54   31.38          45.21  136.04           0.52    0.20    0.69    0.30            0.46    0.43    0.44           0.52     0.60
E19        26.72   25.53   47.32          57.59    8.80  -39.28          40.25  282.62           0.63    0.61    0.22    0.62            0.39    0.43    0.37           0.50     0.58
E20         6.91    8.27    1.33          34.54  -10.18   36.60          37.99  105.55           1.13    1.03    2.36    1.08            0.14    0.16    0.03           0.53     0.58
E21        23.98   28.65    6.24          60.47  -15.17   47.28          49.66  107.78           0.59    0.50    1.44    0.54            0.41    0.49    0.16           0.51     0.54
E22         8.26   17.79   13.25          49.23  -60.81    3.79          60.93  176.44           1.93    0.54    0.94    0.83            0.20    0.35    0.35           0.53     0.57
F1          3.49    4.33    3.12          24.71  -10.06    3.09          10.53  162.90           1.46    1.34    1.61    1.39            0.11    0.13    0.10           0.54     0.59
F2          2.71    4.09    2.51          23.96  -20.25    6.47          21.26  162.29           1.69    1.30    1.77    1.43            0.09    0.13    0.08           0.59     0.66
F3          2.25    4.11    2.18          24.04  -29.66    9.48          31.14  162.27           1.93    1.24    1.88    1.45            0.09    0.14    0.07           0.69     0.76
F4          1.43    4.11    1.46          24.04  -49.73   16.95          52.54  161.18           2.82    1.13    2.26    1.48            0.05    0.15    0.05           0.72     0.87
F5         11.06   13.95   10.09          44.16  -16.42    4.46          17.02  164.79           1.01    0.80    1.03    0.88            0.29    0.35    0.30           0.52     0.60
F6          8.79   13.85    8.26          44.02  -33.71   10.62          35.35  162.51           1.28    0.73    1.17    0.91            0.22    0.34    0.23           0.55     0.62
F7          7.28   14.22    6.91          44.55  -49.72   16.92          52.52  161.21           1.61    0.67    1.31    0.91            0.21    0.37    0.22           0.59     0.66
F8          5.23   14.15    5.35          44.44  -71.30   23.90          75.19  161.47           2.45    0.59    1.53    0.94            0.13    0.29    0.16           0.55     0.64
F9         29.14   33.32   25.38          64.41  -11.10    3.64          11.68  161.84           0.55    0.45    0.57    0.49            0.62    0.66    0.63           0.55     0.62
F10        26.01   33.41   23.18          64.49  -23.89    7.80          25.14  161.91           0.68    0.40    0.63    0.50            0.56    0.64    0.55           0.52     0.58
F11        23.40   33.56   21.46          64.61  -35.59   11.33          37.35  162.34           0.83    0.37    0.68    0.51            0.47    0.57    0.50           0.51     0.57
F12        18.11   33.92   17.26          64.90  -62.37   20.76          65.74  161.59           1.30    0.29    0.83    0.53            0.24    0.28    0.39           0.62     0.71
F13        39.28   51.48   54.84          76.97  -30.07  -14.24          33.27  205.34           0.66    0.19    0.19    0.33            0.50    0.46    0.36           0.42     0.50
F14        39.55   27.27   45.98          59.22   47.26  -34.89          58.75  323.57           0.22    0.80    0.22    0.53            0.39    0.42    0.47           0.50     0.61
F15        61.54   66.09   16.12          85.04   -5.04   58.18          58.40   94.95           0.13    0.18    0.90    0.17            0.31    0.39    0.34           0.46     0.54
F16        15.69   16.39   13.71          47.48   -0.65   -0.50           0.87  214.59           0.75    0.80    0.86    0.79            0.32    0.33    0.37           0.52     0.59
F17        30.97   21.64   11.23          53.64   42.26   17.19          45.63   22.13           0.23    0.94    0.94    0.60            0.26    0.27    0.30           0.51     0.61
