targets/wolf_faust/transmissive/N100606.it8
IT8.7/1
ORIGINATOR "Wolf Faust"
DESCRIPTOR "Velvia 100, 100F, Astia 100F, Provia 400X and Sensia 100 (Emul. 687 or higher), Type 3, L* a* b* (light D50, viewing angle 2)"
MANUFACTURER "Wolf Faust - http://www.coloraid.de"
CREATED "June 07, 2010"
PROD_DATE "2009:05"
DIFFUSE_GEOMETRY "opal"
SERIAL "N100606 Batch Average Data"
MATERIAL "Fujichrome Velvia 100 (RVP 100)"
KEYWORD "MEAN_DE" # Mean Delta E of samples compared to batch average
NUMBER_OF_FIELDS 18
BEGIN_DATA_FORMAT
SAMPLE_ID  XYZ_X   XYZ_Y   XYZ_Z          LAB_L   LAB_A   LAB_B          LAB_C   LAB_H          D_RED  D_GREEN  D_BLUE  D_VIS          STDEV_X STDEV_Y STDEV_Z        MEAN_DE  STDEV_DE
END_DATA_FORMAT
NUMBER_OF_SETS 288
BEGIN_DATA
A1          2.13    1.77    1.30          14.26    9.94    2.00          10.14   11.37           1.47    1.95    1.99    1.72            0.05    0.03    0.02           0.39     0.44
A2          2.80    1.90    1.12          14.96   20.22    5.72          21.02   15.79           1.27    2.10    2.04    1.65            0.05    0.03    0.03           0.32     0.35 
A3          3.35    1.89    0.97          14.91   30.00    7.76          30.99   14.50           1.13    2.38    2.06    1.61            0.07    0.04    0.02           0.38     0.41
A4          4.43    1.94    0.71          15.16   44.72   12.79          46.52   15.95           0.93    3.62    2.06    1.54            0.09    0.04    0.02           0.43     0.47 
A5         10.05    8.64    6.35          35.28   14.27    3.36          14.66   13.26           0.82    1.20    1.22    1.04            0.15    0.13    0.13           0.38     0.43
A6         11.93    8.56    5.43          35.12   28.79    7.39          29.73   14.40           0.66    1.34    1.28    1.01            0.14    0.10    0.09           0.36     0.39 
A7         14.47    8.78    4.69          35.55   43.51   12.00          45.13   15.42           0.52    1.53    1.33    0.96            0.18    0.11    0.07           0.32     0.38
A8         17.68    8.59    3.68          35.19   63.43   17.37          65.76   15.31           0.36    2.07    1.38    0.92            0.09    0.06    0.07           0.26     0.35 
A9         29.99   29.02   22.55          60.80    7.74    2.63           8.18   18.75           0.42    0.58    0.61    0.53            0.36    0.39    0.33           0.47     0.53
A10        32.02   28.88   21.64          60.67   15.74    4.19          16.29   14.90           0.35    0.62    0.63    0.52            0.36    0.37    0.33           0.44     0.50
A11        34.35   29.07   20.63          60.84   23.22    6.50          24.11   15.63           0.28    0.65    0.65    0.50            0.34    0.34    0.31           0.45     0.51
A12        37.74   29.14   19.05          60.90   34.29    9.91          35.70   16.11           0.19    0.72    0.69    0.49            0.24    0.28    0.32           0.43     0.51 
A13        70.36   74.42   60.18          89.12   -2.95    1.22           3.19  157.57           0.14    0.12    0.14    0.13            0.17    0.17    0.22           0.16     0.18
A14        71.04   72.44   59.90          88.18    2.55   -0.12           2.56  267.39           0.11    0.15    0.14    0.14            0.11    0.14    0.20           0.19     0.24 
A15        73.84   76.81   59.52          90.23   -0.46    3.80           3.82   96.89           0.10    0.11    0.15    0.11            0.13    0.15    0.15           0.12     0.13
A16        71.00   73.48   59.87          88.68    0.32    0.77           0.84   66.51           0.12    0.13    0.15    0.13            0.17    0.21    0.18           0.18     0.21
A17        69.60   70.96   56.17          87.46    2.54    2.46           3.54   44.02           0.11    0.16    0.18    0.15            0.18    0.22    0.18           0.15     0.17
A18        72.09   75.55   58.58          89.65   -1.59    3.74           4.07  113.02           0.12    0.12    0.16    0.12            0.13    0.14    0.16           0.13     0.14 
A19        66.76   69.15   58.63          86.58    0.20   -1.61           1.63  277.17           0.15    0.16    0.15    0.16            0.27    0.30    0.23           0.27     0.31
A20         6.31    2.94    1.87          19.80   47.15    5.17          47.44    6.26           0.80    2.79    1.65    1.38            0.11    0.05    0.04           0.44     0.49 
A21        27.10   18.96   14.93          50.65   40.24    1.78          40.28    2.54           0.31    0.99    0.78    0.66            0.25    0.22    0.25           0.35     0.39
A22        53.08   49.55   34.49          75.79   14.15    8.72          16.62   31.64           0.15    0.36    0.41    0.29            0.31    0.40    0.41           0.39     0.43
B1          3.29    2.95    1.74          19.86    7.61    6.63          10.09   41.07           1.30    1.66    1.89    1.50            0.08    0.07    0.04           0.37     0.41
B2          3.96    2.96    1.14          19.90   17.81   13.98          22.64   38.12           1.15    1.79    2.11    1.47            0.08    0.05    0.02           0.32     0.36
B3          4.59    3.03    0.66          20.16   25.37   22.36          33.82   41.39           1.04    1.89    2.44    1.43            0.09    0.06    0.01           0.39     0.43
B4          5.33    2.91    0.14          19.70   36.61   31.31          48.18   40.53           0.92    2.20    3.50    1.41            0.11    0.06    0.00           0.48     0.55
B5         12.81   11.39    6.48          40.22   12.82   11.30          17.09   41.39           0.72    1.05    1.24    0.92            0.22    0.20    0.15           0.43     0.47
B6         14.99   11.47    4.37          40.36   25.92   22.09          34.05   40.44           0.58    1.15    1.45    0.88            0.23    0.18    0.11           0.42     0.46
B7         17.25   11.53    2.70          40.46   38.35   33.37          50.84   41.03           0.46    1.27    1.72    0.85            0.19    0.14    0.06           0.30     0.34
B8         21.44   11.48    0.91          40.38   59.91   52.71          79.79   41.34           0.29    1.62    2.33    0.81            0.10    0.07    0.02           0.23     0.26
B9         35.61   35.26   26.27          65.95    5.47    4.73           7.24   40.89           0.36    0.48    0.54    0.45            0.46    0.50    0.40           0.53     0.59
B10        37.10   34.75   23.25          65.55   12.14    9.50          15.42   38.05           0.30    0.52    0.61    0.44            0.44    0.47    0.41           0.48     0.55
B11        38.92   35.13   20.99          65.85   16.73   14.39          22.07   40.71           0.25    0.53    0.66    0.43            0.42    0.47    0.35           0.52     0.59
B12        41.90   35.23   17.37          65.93   25.57   22.29          33.92   41.08           0.17    0.57    0.76    0.41            0.31    0.40    0.31           0.49     0.58
B13        62.96   68.43   57.56          86.22   -6.82   -1.12           6.92  189.33           0.22    0.14    0.16    0.17            0.37    0.33    0.21           0.26     0.30
B14        62.44   60.34   55.86          82.02   10.08   -6.60          12.04  326.80           0.14    0.25    0.17    0.21            0.34    0.45    0.19           0.40     0.52
B15        68.63   72.04   47.35          87.99   -1.80   13.09          13.21   97.81           0.12    0.14    0.27    0.14            0.24    0.25    0.39           0.28     0.33
B16        55.44   57.22   47.39          80.30    0.67   -0.20           0.72  344.79           0.22    0.25    0.26    0.24            0.39    0.42    0.38           0.31     0.34
B17        60.15   58.77   46.04          81.17    8.39    2.89           8.88   19.00           0.14    0.26    0.27    0.22            0.38    0.48    0.46           0.34     0.41
B18        61.48   67.68   48.50          85.85   -8.63    8.07          11.82  136.95           0.21    0.15    0.26    0.17            0.36    0.31    0.38           0.28     0.34
B19        56.76   58.12   55.42          80.80    1.79   -8.24           8.44  282.20           0.23    0.24    0.17    0.24            0.47    0.53    0.25           0.44     0.54
B20         4.91    2.95    1.03          19.86   30.73   15.50          34.41   26.76           0.98    2.05    2.10    1.43            0.10    0.06    0.03           0.38     0.42
B21        17.30   11.41    4.27          40.26   39.51   22.48          45.45   29.64           0.46    1.30    1.43    0.86            0.26    0.20    0.10           0.34     0.38
B22        34.32   28.98   17.40          60.76   23.47   13.31          26.98   29.56           0.27    0.66    0.74    0.50            0.32    0.34    0.29           0.42     0.46
C1          6.43    6.31    3.55          30.17    3.79    9.51          10.24   68.32           1.06    1.27    1.55    1.19            0.11    0.10    0.06           0.38     0.42
C2          6.90    6.34    2.19          30.25    8.23   20.06          21.69   67.69           0.98    1.29    1.85    1.17            0.09    0.09    0.04           0.38     0.41
C3          7.24    6.19    1.14          29.89   13.12   31.11          33.76   67.14           0.93    1.33    2.30    1.16            0.13    0.11    0.02           0.42     0.45
C4          8.02    6.33    0.39          30.22   19.01   44.72          48.59   66.97           0.87    1.36    3.30    1.14            0.17    0.13    0.01           0.52     0.62
C5         24.70   23.70   12.17          55.79    8.13   18.10          19.85   65.81           0.47    0.68    0.95    0.61            0.38    0.39    0.24           0.54     0.60
C6         26.27   23.53    6.66          55.61   15.48   37.03          40.13   67.31           0.39    0.72    1.31    0.59            0.46    0.44    0.17           0.51     0.55
C7         28.32   23.53    3.21          55.61   23.72   55.70          60.54   66.94           0.33    0.76    1.81    0.58            0.38    0.38    0.07           0.48     0.54
C8         31.19   23.64    0.82          55.73   34.05   80.61          87.51   67.10           0.26    0.82    3.17    0.56            0.28    0.29    0.01           0.46     0.53
C9         41.73   42.09   29.28          70.93    3.49    8.31           9.01   67.22           0.30    0.40    0.50    0.37            0.52    0.57    0.47           0.51     0.58
C10        42.85   42.02   24.81          70.88    7.06   15.81          17.31   65.95           0.26    0.41    0.59    0.36            0.58    0.65    0.49           0.51     0.61
C11        44.03   42.01   20.70          70.88   10.56   23.67          25.91   65.96           0.22    0.43    0.69    0.36            0.49    0.57    0.37           0.47     0.56
C12        46.25   42.15   13.32          70.97   16.49   41.06          44.25   68.12           0.16    0.45    0.94    0.34            0.38    0.53    0.26           0.54     0.66
C13        56.50   64.12   56.90          84.03  -12.76   -4.23          13.44  198.32           0.31    0.15    0.17    0.21            0.42    0.36    0.21           0.34     0.38
C14        55.86   50.28   53.62          76.24   19.23  -14.19          23.90  323.57           0.15    0.36    0.18    0.29            0.41    0.57    0.22           0.58     0.76
C15        66.68   70.85   37.30          87.41   -3.59   24.81          25.07   98.24           0.12    0.15    0.40    0.14            0.27    0.27    0.45           0.34     0.43
C16        43.00   44.26   36.91          72.40    0.95   -0.53           1.11  329.86           0.32    0.36    0.38    0.35            0.49    0.53    0.47           0.45     0.52
C17        51.23   46.99   34.81          74.18   16.25    5.49          17.15   18.67           0.16    0.39    0.40    0.31            0.39    0.49    0.45           0.43     0.51
C18        53.44   62.48   38.84          83.17  -16.73   15.40          22.74  137.38           0.31    0.16    0.38    0.21            0.43    0.37    0.43           0.39     0.47
C19        45.57   45.96   52.82          73.52    3.63  -18.02          18.39  281.36           0.34    0.34    0.19    0.35            0.44    0.49    0.27           0.55     0.68
C20        12.60    9.15    1.15          36.27   28.38   42.05          50.73   55.98           0.63    1.28    2.32    0.96            0.19    0.15    0.02           0.44     0.50
C21        22.31   20.58   11.40          52.49   11.73   14.69          18.80   51.39           0.50    0.76    0.97    0.66            0.29    0.32    0.23           0.52     0.56
C22        28.31   23.82   11.23          55.91   22.37   21.11          30.76   43.34           0.34    0.75    0.98    0.58            0.35    0.36    0.21           0.47     0.52
D1          4.21    4.44    2.43          25.07   -0.92    9.04           9.10   95.84           1.27    1.39    1.75    1.35            0.11    0.11    0.06           0.41     0.47
D2          4.05    4.34    1.43          24.76   -1.90   18.58          18.68   95.83           1.28    1.38    2.11    1.35            0.10    0.10    0.04           0.45     0.50
D3          4.10    4.47    0.87          25.16   -2.96   27.10          27.27   96.24           1.29    1.35    2.52    1.34            0.10    0.11    0.02           0.51     0.55
D4          4.07    4.43    0.42          25.05   -2.79   35.34          35.45   94.52           1.32    1.33    3.27    1.34            0.11    0.10    0.01           0.55     0.64
D5         18.18   19.01    9.80          50.70   -0.82   16.69          16.71   92.80           0.65    0.74    1.06    0.71            0.33    0.33    0.20           0.58     0.64
D6         17.98   19.00    5.20          50.68   -1.80   35.38          35.43   92.91           0.64    0.73    1.47    0.71            0.33    0.35    0.12           0.53     0.59
D7         17.83   18.96    2.47          50.63   -2.36   52.81          52.87   92.56           0.65    0.72    2.05    0.70            0.31    0.35    0.04           0.57     0.68
D8         17.59   18.83    0.98          50.48   -2.99   69.06          69.12   92.48           0.69    0.71    3.08    0.70            0.31    0.32    0.01           0.61     0.71
D9         47.89   49.83   26.10          75.96   -0.42   22.28          22.29   91.08           0.24    0.31    0.58    0.29            0.59    0.65    0.47           0.45     0.53
D10        47.47   49.68   14.68          75.87   -1.17   45.91          45.93   91.47           0.22    0.31    0.92    0.29            0.58    0.66    0.24           0.45     0.52
D11        46.95   49.54    7.30          75.79   -2.26   69.15          69.19   91.87           0.23    0.31    1.41    0.29            0.55    0.63    0.13           0.42     0.49
D12        45.88   48.68    1.87          75.25   -2.97  100.71         100.75   91.69           0.28    0.32    2.81    0.29            0.35    0.29    0.02           0.30     0.35
D13        50.05   59.59   56.14          81.62  -18.92   -7.59          20.39  201.86           0.42    0.17    0.18    0.25            0.48    0.43    0.30           0.40     0.45
D14        50.23   41.90   51.34          70.80   28.16  -21.08          35.18  323.18           0.17    0.48    0.19    0.36            0.39    0.53    0.29           0.67     0.87
D15        65.12   69.71   29.14          86.86   -4.67   35.98          36.28   97.39           0.12    0.15    0.54    0.15            0.28    0.30    0.40           0.33     0.42
D16        32.22   33.38   28.09          64.47    0.12   -0.90           0.97  277.93           0.45    0.48    0.51    0.48            0.50    0.54    0.49           0.56     0.64
D17        43.88   37.40   25.56          67.58   24.33    8.78          25.87   19.84           0.18    0.54    0.55    0.40            0.43    0.51    0.50           0.53     0.64
D18        45.87   57.22   30.53          80.31  -24.79   22.47          33.47  137.81           0.41    0.18    0.51    0.26            0.49    0.44    0.45           0.46     0.58
D19        35.33   35.16   50.16          65.87    4.89  -28.26          28.68  279.81           0.48    0.46    0.20    0.47            0.53    0.59    0.30           0.66     0.79
D20         2.90    2.93    1.10          19.75    1.47   14.25          14.33   84.14           1.40    1.59    2.21    1.52            0.06    0.06    0.02           0.44     0.50
D21        31.70   28.89    1.50          60.68   14.56   79.60          80.92   79.63           0.34    0.61    2.67    0.50            0.39    0.43    0.03           0.59     0.66
D22        41.68   44.46   52.66          72.53   -3.56  -19.55          19.87  259.65           0.43    0.33    0.19    0.37            0.55    0.62    0.27           0.60     0.71
E1          5.43    6.20    3.58          29.92   -6.30    8.90          10.91  125.30           1.21    1.21    1.56    1.22            0.13    0.14    0.09           0.51     0.56
E2          5.17    6.39    2.28          30.37  -11.40   19.51          22.60  120.30           1.26    1.15    1.88    1.21            0.12    0.15    0.06           0.55     0.60
E3          4.60    6.26    1.38          30.06  -17.15   28.22          33.02  121.29           1.37    1.12    2.28    1.22            0.11    0.15    0.04           0.53     0.59
E4          4.05    6.19    0.60          29.89  -24.02   40.12          46.76  120.91           1.57    1.06    3.18    1.23            0.11    0.15    0.01           0.63     0.73
E5         25.32   28.77   15.79          60.57   -9.88   16.79          19.48  120.47           0.57    0.52    0.83    0.55            0.51    0.56    0.35           0.60     0.70
E6         23.24   28.85    9.76          60.64  -19.21   33.98          39.03  119.47           0.64    0.48    1.13    0.55            0.56    0.65    0.26           0.60     0.69
E7         21.04   28.75    5.34          60.56  -28.96   51.71          59.27  119.25           0.75    0.45    1.58    0.56            0.37    0.49    0.12           0.53     0.64
E8         17.62   27.90    1.64          59.80  -42.99   76.47          87.72  119.34           1.07    0.41    2.86    0.58            0.15    0.17    0.01           0.25     0.30
E9         46.20   49.91   33.63          76.01   -5.36   10.36          11.66  117.38           0.31    0.29    0.44    0.30            0.63    0.66    0.51           0.41     0.50
E10        43.69   49.47   26.56          75.74  -11.43   21.12          24.02  118.43           0.34    0.28    0.57    0.31            0.62    0.65    0.44           0.41     0.49
E11        41.56   49.34   20.82          75.66  -17.40   31.66          36.13  118.79           0.38    0.26    0.72    0.31            0.61    0.65    0.38           0.44     0.53
E12        36.12   48.55    9.94          75.17  -32.55   58.44          66.89  119.11           0.53    0.23    1.21    0.33            0.38    0.36    0.18           0.45     0.51
E13        44.76   55.69   55.49          79.44  -24.22  -10.67          26.46  203.77           0.53    0.18    0.18    0.28            0.44    0.40    0.31           0.40     0.46
E14        45.28   34.81   48.98          65.60   36.93  -27.40          45.98  323.43           0.19    0.61    0.20    0.43            0.41    0.51    0.37           0.70     0.87
E15        63.77   68.50   22.28          86.26   -5.12   47.04          47.32   96.22           0.12    0.16    0.70    0.15            0.29    0.32    0.33           0.33     0.43
E16        23.79   24.79   20.54          56.86   -0.48   -0.18           0.59  206.69           0.57    0.62    0.66    0.61            0.43    0.45    0.36           0.57     0.65
E17        37.59   29.47   17.89          61.19   32.53   12.96          35.02   21.72           0.20    0.70    0.72    0.48            0.32    0.38    0.35           0.49     0.61
E18        39.57   52.51   23.33          77.59  -31.83   30.10          43.81  136.60           0.51    0.20    0.66    0.30            0.46    0.44    0.39           0.49     0.59
E19        27.45   26.73   47.52          58.72    6.82  -37.56          38.17  280.29           0.62    0.58    0.22    0.60            0.46    0.51    0.34           0.69     0.81
E20         7.10    8.49    1.39          34.99  -10.22   36.64          38.04  105.59           1.11    1.02    2.34    1.07            0.15    0.18    0.03           0.53     0.64
E21        25.37   30.09    6.59          61.73  -14.65   47.87          50.07  107.01           0.57    0.48    1.40    0.52            0.40    0.47    0.14           0.60     0.66
E22         8.66   18.58   14.05          50.19  -61.37    3.29          61.46  176.93           1.92    0.52    0.91    0.81            0.18    0.33    0.31           0.48     0.54
F1          3.67    4.58    3.29          25.51  -10.66    3.24          11.14  163.07           1.44    1.31    1.59    1.36            0.08    0.11    0.08           0.51     0.56
F2          2.88    4.41    2.72          24.99  -21.61    6.53          22.58  163.19           1.68    1.26    1.73    1.40            0.08    0.12    0.07           0.54     0.59
F3          2.37    4.36    2.36          24.83  -30.74    9.21          32.09  163.31           1.92    1.21    1.84    1.42            0.08    0.12    0.07           0.58     0.65
F4          1.56    4.50    1.59          25.25  -51.45   17.55          54.36  161.17           2.81    1.09    2.22    1.44            0.04    0.13    0.04           0.52     0.65
F5         11.86   15.04   10.86          45.69  -17.25    4.64          17.86  164.95           0.98    0.77    1.00    0.85            0.28    0.33    0.28           0.56     0.65
F6          9.49   14.97    8.90          45.59  -34.64   10.99          36.34  162.39           1.25    0.70    1.14    0.87            0.20    0.30    0.21           0.58     0.66
F7          7.57   14.77    7.25          45.31  -50.22   16.81          52.96  161.49           1.59    0.65    1.29    0.89            0.20    0.36    0.19           0.60     0.69
F8          5.46   14.73    5.65          45.26  -72.12   23.83          75.95  161.72           2.44    0.57    1.50    0.92            0.10    0.23    0.15           0.35     0.44
F9         30.46   34.76   26.63          65.56  -11.01    3.44          11.54  162.67           0.53    0.43    0.55    0.47            0.57    0.63    0.51           0.57     0.67
F10        27.10   34.59   24.32          65.43  -23.46    7.31          24.57  162.70           0.66    0.39    0.60    0.49            0.50    0.64    0.53           0.60     0.66
F11        24.22   34.58   22.53          65.42  -35.47   10.64          37.03  163.31           0.81    0.35    0.65    0.50            0.43    0.54    0.45           0.51     0.60
F12        17.81   33.57   17.79          64.62  -62.72   19.08          65.56  163.08           1.32    0.29    0.81    0.53            0.20    0.24    0.32           0.51     0.61
F13        40.25   52.23   54.87          77.42  -28.96  -13.50          31.95  205.00           0.63    0.19    0.19    0.32            0.37    0.35    0.26           0.36     0.43
F14        40.76   28.61   46.51          60.44   45.78  -33.42          56.68  323.87           0.21    0.76    0.21    0.51            0.35    0.41    0.33           0.66     0.79
F15        62.56   67.14   17.00          85.57   -4.95   57.02          57.23   94.97           0.12    0.17    0.86    0.16            0.26    0.31    0.27           0.32     0.41
F16        16.71   17.36   14.48          48.71   -0.16   -0.40           0.54  234.27           0.72    0.78    0.83    0.76            0.30    0.35    0.36           0.59     0.65
F17        32.03   22.71   12.03          54.77   41.23   16.76          44.51   22.12           0.22    0.90    0.91    0.58            0.27    0.31    0.26           0.49     0.59
