targets/wolf_faust/transmissive/N110601.it8
IT8.7/1
ORIGINATOR "Wolf Faust"
DESCRIPTOR "Velvia 100, 100F, Astia 100F, Provia 400X and Sensia 100 (Emul. 687 or higher), Type 3, L* a* b* (light D50, viewing angle 2)"
MANUFACTURER "Wolf Faust - http://www.coloraid.de"
CREATED "July 21, 2011"
PROD_DATE "2008:12"
DIFFUSE_GEOMETRY "opal"
SERIAL "N110601 Batch Average Data"
MATERIAL "Fujichrome Velvia 100 (RVP 100)"
KEYWORD "MEAN_DE" # Mean Delta E of samples compared to batch average
NUMBER_OF_FIELDS 18
BEGIN_DATA_FORMAT
SAMPLE_ID  XYZ_X   XYZ_Y   XYZ_Z          LAB_L   LAB_A   LAB_B          LAB_C   LAB_H          D_RED  D_GREEN  D_BLUE  D_VIS          STDEV_X STDEV_Y STDEV_Z        MEAN_DE  STDEV_DE
END_DATA_FORMAT
NUMBER_OF_SETS 288
BEGIN_DATA
A1          2.11    1.77    1.32          14.23    9.60    1.78           9.77   10.51           1.48    1.95    1.98    1.72            0.05    0.04    0.05           0.36     0.44
A2          2.64    1.83    1.08          14.55   19.03    5.58          19.83   16.32           1.30    2.10    2.07    1.67            0.06    0.05    0.04           0.36     0.44 
A3          3.36    1.89    0.94          14.91   30.01    8.29          31.14   15.44           1.13    2.38    2.08    1.61            0.05    0.03    0.03           0.32     0.38
A4          4.37    1.92    0.72          15.05   44.45   12.29          46.12   15.45           0.93    3.52    2.05    1.55            0.05    0.02    0.02           0.27     0.32 
A5          9.92    8.52    6.11          35.04   14.26    3.99          14.81   15.63           0.82    1.21    1.24    1.04            0.15    0.15    0.15           0.39     0.45
A6         11.99    8.60    5.30          35.21   28.86    8.19          29.99   15.84           0.66    1.34    1.29    1.00            0.15    0.12    0.09           0.35     0.40 
A7         14.25    8.59    4.36          35.18   43.77   13.21          45.72   16.80           0.52    1.55    1.37    0.97            0.18    0.13    0.11           0.34     0.41
A8         17.64    8.57    3.55          35.15   63.39   18.11          65.93   15.95           0.36    2.07    1.40    0.92            0.12    0.08    0.08           0.27     0.33 
A9         29.88   28.81   22.42          60.62    8.10    2.57           8.50   17.62           0.42    0.59    0.62    0.53            0.39    0.39    0.31           0.39     0.45
A10        31.57   28.49   20.97          60.33   15.60    4.92          16.36   17.49           0.36    0.63    0.65    0.52            0.40    0.40    0.31           0.39     0.44
A11        33.94   28.71   20.01          60.52   23.18    7.21          24.27   17.29           0.29    0.66    0.67    0.51            0.33    0.34    0.29           0.33     0.40
A12        37.29   28.61   18.56          60.43   34.85   10.16          36.30   16.26           0.20    0.73    0.70    0.49            0.31    0.35    0.31           0.39     0.52 
A13        69.95   74.01   59.63          88.93   -2.99    1.43           3.32  154.37           0.14    0.12    0.15    0.13            0.14    0.13    0.07           0.10     0.12
A14        70.76   72.17   59.42          88.05    2.51    0.14           2.51    3.18           0.11    0.15    0.15    0.14            0.11    0.15    0.10           0.16     0.18 
A15        73.63   76.62   59.04          90.15   -0.50    4.13           4.16   96.96           0.10    0.11    0.16    0.11            0.09    0.08    0.10           0.10     0.12
A16        70.82   73.36   59.32          88.62    0.18    1.21           1.23   81.26           0.12    0.13    0.15    0.13            0.13    0.14    0.20           0.12     0.14
A17        69.72   71.16   56.34          87.56    2.38    2.45           3.42   45.82           0.11    0.15    0.18    0.14            0.17    0.17    0.20           0.14     0.17
A18        71.46   75.05   57.91          89.41   -1.89    4.02           4.45  115.22           0.12    0.12    0.16    0.12            0.08    0.05    0.17           0.13     0.17 
A19        66.48   68.93   58.06          86.47    0.04   -1.21           1.21  271.70           0.15    0.16    0.16    0.16            0.20    0.21    0.25           0.14     0.16
A20         6.30    2.94    1.78          19.79   47.09    6.04          47.47    7.31           0.80    2.78    1.68    1.38            0.07    0.03    0.03           0.24     0.29 
A21        26.86   18.72   14.37          50.35   40.54    2.72          40.63    3.84           0.31    1.00    0.80    0.67            0.17    0.19    0.16           0.31     0.39
A22        52.64   49.10   33.76          75.52   14.18    9.31          16.97   33.29           0.15    0.36    0.42    0.29            0.20    0.21    0.22           0.21     0.24
B1          3.26    2.94    1.69          19.79    7.34    6.98          10.12   43.56           1.31    1.66    1.90    1.51            0.08    0.08    0.06           0.44     0.52
B2          3.80    2.89    1.06          19.60   16.74   14.52          22.16   40.95           1.17    1.78    2.16    1.48            0.09    0.08    0.03           0.37     0.42
B3          4.57    2.99    0.66          20.01   25.68   22.13          33.90   40.75           1.04    1.91    2.43    1.44            0.05    0.05    0.02           0.40     0.45
B4          5.60    3.04    0.15          20.21   37.54   32.00          49.33   40.44           0.89    2.20    3.40    1.39            0.07    0.05    0.01           0.33     0.38
B5         12.79   11.29    6.42          40.07   13.34   11.27          17.47   40.19           0.71    1.06    1.24    0.92            0.24    0.24    0.19           0.42     0.52
B6         14.87   11.40    4.29          40.25   25.70   22.36          34.06   41.02           0.58    1.15    1.46    0.89            0.19    0.18    0.11           0.45     0.51
B7         17.21   11.42    2.57          40.28   38.93   34.12          51.76   41.23           0.46    1.28    1.74    0.86            0.21    0.19    0.09           0.36     0.44
B8         21.30   11.36    0.90          40.18   60.11   52.51          79.82   41.14           0.29    1.63    2.33    0.81            0.12    0.11    0.03           0.25     0.30
B9         35.27   34.90   25.62          65.67    5.55    5.39           7.74   44.13           0.36    0.49    0.56    0.45            0.37    0.38    0.35           0.36     0.41
B10        37.04   34.85   23.08          65.63   11.61    9.96          15.29   40.63           0.30    0.51    0.61    0.44            0.40    0.46    0.35           0.39     0.49
B11        38.62   34.76   20.40          65.56   17.00   15.11          22.75   41.62           0.25    0.54    0.67    0.43            0.34    0.39    0.33           0.37     0.46
B12        41.51   34.80   16.87          65.59   25.85   22.86          34.51   41.49           0.18    0.58    0.78    0.42            0.31    0.38    0.32           0.45     0.57
B13        62.91   68.37   57.26          86.19   -6.84   -0.86           6.89  187.19           0.22    0.15    0.17    0.17            0.31    0.27    0.13           0.21     0.26
B14        62.22   60.11   55.54          81.90   10.10   -6.49          12.00  327.27           0.14    0.25    0.17    0.21            0.22    0.32    0.23           0.28     0.33
B15        68.44   71.92   46.67          87.93   -1.96   13.79          13.93   98.08           0.12    0.14    0.28    0.14            0.13    0.15    0.22           0.17     0.22
B16        55.06   56.89   46.68          80.12    0.52    0.32           0.62   33.24           0.22    0.25    0.26    0.25            0.27    0.26    0.22           0.20     0.23
B17        59.91   58.59   45.36          81.06    8.29    3.52           9.01   23.02           0.14    0.26    0.28    0.22            0.17    0.21    0.22           0.17     0.20
B18        61.24   67.49   47.87          85.75   -8.80    8.64          12.33  135.53           0.22    0.15    0.26    0.18            0.15    0.09    0.16           0.20     0.23
B19        56.45   57.84   55.01          80.65    1.69   -8.07           8.25  281.80           0.23    0.24    0.18    0.24            0.21    0.19    0.26           0.19     0.22
B20         4.88    2.93    0.93          19.76   30.85   16.88          35.17   28.69           0.98    2.05    2.16    1.43            0.07    0.04    0.03           0.34     0.39
B21        17.03   11.27    4.04          40.02   39.06   23.44          45.56   30.96           0.47    1.30    1.46    0.87            0.16    0.12    0.11           0.39     0.47
B22        33.98   28.64   16.97          60.46   23.62   13.78          27.35   30.27           0.27    0.67    0.76    0.51            0.26    0.30    0.19           0.39     0.45
C1          6.24    6.14    3.37          29.76    3.47   10.00          10.59   70.89           1.07    1.28    1.58    1.20            0.13    0.12    0.10           0.47     0.54
C2          6.69    6.13    2.06          29.73    8.28   20.44          22.05   67.95           1.00    1.31    1.89    1.18            0.15    0.14    0.07           0.38     0.45
C3          7.12    6.12    1.13          29.72   12.73   30.95          33.47   67.64           0.94    1.34    2.30    1.17            0.13    0.12    0.03           0.44     0.50
C4          7.96    6.26    0.39          30.05   19.22   44.37          48.35   66.58           0.87    1.37    3.24    1.14            0.12    0.12    0.01           0.44     0.56
C5         24.40   23.28   11.61          55.36    8.66   19.03          20.91   65.53           0.47    0.69    0.97    0.61            0.31    0.31    0.29           0.45     0.52
C6         25.96   23.01    6.26          55.08   16.47   37.89          41.32   66.51           0.39    0.73    1.34    0.60            0.23    0.26    0.14           0.33     0.41
C7         28.28   23.44    3.11          55.52   23.92   56.23          61.11   66.96           0.32    0.76    1.83    0.58            0.25    0.28    0.07           0.36     0.41
C8         30.78   23.17    0.81          55.24   34.64   79.97          87.15   66.58           0.27    0.83    3.13    0.56            0.30    0.30    0.01           0.47     0.55
C9         41.25   41.41   28.73          70.46    4.08    8.38           9.32   64.02           0.30    0.41    0.51    0.38            0.26    0.29    0.34           0.34     0.41
C10        42.32   41.46   24.58          70.49    7.17   15.57          17.14   65.28           0.26    0.42    0.59    0.37            0.32    0.36    0.32           0.35     0.42
C11        43.60   41.59   20.02          70.58   10.56   24.55          26.72   66.73           0.22    0.43    0.70    0.36            0.24    0.31    0.27           0.35     0.42
C12        45.80   41.60   13.08          70.59   16.87   41.06          44.39   67.67           0.16    0.46    0.95    0.35            0.21    0.29    0.20           0.35     0.46
C13        56.17   63.85   56.51          83.89  -12.95   -4.07          13.58  197.43           0.31    0.16    0.17    0.21            0.28    0.21    0.18           0.23     0.29
C14        55.71   50.19   53.27          76.19   19.08  -13.91          23.61  323.91           0.15    0.36    0.18    0.29            0.13    0.22    0.14           0.32     0.40
C15        66.48   70.70   36.55          87.34   -3.72   25.72          25.99   98.22           0.12    0.15    0.41    0.14            0.04    0.02    0.26           0.25     0.36
C16        42.27   43.75   35.80          72.06    0.28    0.43           0.56   60.38           0.33    0.36    0.39    0.36            0.31    0.31    0.35           0.30     0.36
C17        51.03   46.86   34.09          74.10   16.09    6.38          17.31   21.63           0.16    0.39    0.42    0.31            0.19    0.24    0.26           0.28     0.33
C18        52.89   62.01   38.00          82.92  -17.07   16.10          23.46  136.67           0.31    0.17    0.39    0.22            0.16    0.12    0.25           0.28     0.35
C19        45.05   45.60   52.34          73.29    3.12  -17.89          18.16  279.90           0.34    0.34    0.19    0.35            0.30    0.28    0.29           0.32     0.38
C20        12.35    8.90    1.12          35.80   28.73   41.55          50.52   55.34           0.64    1.30    2.32    0.98            0.13    0.12    0.03           0.32     0.39
C21        22.11   20.40   11.12          52.29   11.70   15.20          19.19   52.41           0.50    0.77    0.98    0.67            0.25    0.25    0.22           0.39     0.45
C22        27.89   23.38   10.77          55.46   22.65   21.76          31.41   43.85           0.35    0.76    1.00    0.59            0.25    0.28    0.16           0.38     0.45
D1          4.04    4.31    2.37          24.66   -1.53    8.84           8.98   99.85           1.29    1.40    1.77    1.36            0.09    0.11    0.08           0.42     0.49
D2          4.04    4.37    1.56          24.84   -2.42   17.20          17.37   98.02           1.29    1.38    2.06    1.35            0.08    0.10    0.05           0.45     0.54
D3          3.82    4.15    0.84          24.17   -2.64   25.84          25.98   95.84           1.32    1.38    2.52    1.37            0.09    0.11    0.03           0.52     0.64
D4          3.95    4.27    0.41          24.53   -2.36   34.49          34.58   93.90           1.33    1.35    3.21    1.35            0.05    0.10    0.01           0.66     0.86
D5         17.65   18.54    9.45          50.15   -1.21   16.92          16.96   94.08           0.66    0.75    1.08    0.73            0.24    0.29    0.20           0.43     0.50
D6         17.58   18.45    4.98          50.04   -1.14   35.42          35.44   91.85           0.64    0.74    1.49    0.72            0.27    0.29    0.13           0.47     0.54
D7         17.39   18.41    2.47          49.99   -1.93   51.70          51.74   92.13           0.66    0.73    2.04    0.72            0.26    0.26    0.05           0.49     0.56
D8         17.49   18.72    0.97          50.35   -2.97   68.88          68.95   92.47           0.69    0.71    3.05    0.71            0.21    0.32    0.02           0.58     0.73
D9         47.22   49.10   25.33          75.51   -0.33   22.87          22.87   90.84           0.25    0.32    0.59    0.30            0.29    0.33    0.32           0.36     0.42
D10        46.92   49.03   14.29          75.47   -0.98   46.23          46.24   91.22           0.23    0.32    0.93    0.29            0.19    0.26    0.20           0.37     0.44
D11        46.75   49.30    7.11          75.64   -2.18   69.65          69.68   91.79           0.23    0.31    1.42    0.29            0.35    0.40    0.10           0.28     0.32
D12        45.95   48.83    1.90          75.35   -3.18  100.57         100.62   91.81           0.28    0.31    2.78    0.29            0.16    0.10    0.01           0.28     0.33
D13        50.09   59.57   55.72          81.60  -18.75   -7.18          20.08  200.97           0.42    0.17    0.18    0.25            0.27    0.22    0.19           0.23     0.29
D14        49.75   41.33   50.79          70.41   28.56  -21.14          35.53  323.49           0.17    0.49    0.19    0.36            0.16    0.26    0.22           0.40     0.50
D15        64.78   69.43   28.02          86.72   -4.82   37.57          37.88   97.31           0.12    0.16    0.56    0.15            0.09    0.11    0.34           0.41     0.48
D16        31.86   32.90   27.12          64.08    0.51    0.05           0.58  161.85           0.45    0.49    0.53    0.48            0.28    0.32    0.34           0.46     0.52
D17        43.31   36.77   24.69          67.10   24.70    9.51          26.47   21.05           0.18    0.55    0.57    0.40            0.23    0.28    0.30           0.39     0.46
D18        45.61   56.96   29.40          80.16  -24.88   24.00          34.57  136.03           0.41    0.18    0.53    0.26            0.21    0.16    0.32           0.37     0.46
D19        35.11   34.86   49.48          65.64    5.16  -27.89          28.36  280.47           0.48    0.46    0.21    0.47            0.25    0.26    0.17           0.38     0.43
D20         2.85    2.89    1.10          19.61    1.04   14.00          14.05   85.76           1.41    1.59    2.21    1.52            0.04    0.06    0.03           0.47     0.59
D21        31.22   28.41    1.52          60.25   14.65   78.71          80.06   79.46           0.34    0.62    2.65    0.50            0.26    0.28    0.02           0.43     0.49
D22        41.20   44.20   52.03          72.36   -4.29  -19.15          19.62  257.37           0.44    0.33    0.20    0.37            0.28    0.28    0.15           0.32     0.36
E1          5.36    6.11    3.44          29.69   -6.16    9.43          11.27  123.14           1.21    1.21    1.59    1.22            0.11    0.15    0.12           0.49     0.60
E2          4.92    6.22    2.28          29.95  -12.57   18.74          22.57  123.86           1.29    1.16    1.88    1.22            0.11    0.15    0.07           0.49     0.57
E3          4.36    6.08    1.32          29.62  -18.46   28.28          33.77  123.13           1.41    1.12    2.32    1.24            0.11    0.16    0.04           0.60     0.74
E4          3.85    5.98    0.61          29.35  -24.62   39.18          46.28  122.15           1.60    1.07    3.13    1.25            0.12    0.19    0.02           0.80     0.98
E5         24.88   28.28   15.41          60.14   -9.86   16.95          19.61  120.17           0.57    0.52    0.84    0.55            0.32    0.37    0.27           0.43     0.49
E6         23.14   28.66    9.35          60.48  -18.94   35.09          39.87  118.36           0.64    0.49    1.16    0.55            0.20    0.28    0.18           0.42     0.47
E7         20.71   28.33    5.19          60.18  -28.96   51.82          59.37  119.20           0.76    0.45    1.60    0.56            0.20    0.30    0.10           0.44     0.49
E8         17.54   27.79    1.64          59.70  -42.99   76.32          87.59  119.39           1.07    0.41    2.84    0.58            0.16    0.16    0.01           0.31     0.42
E9         45.59   49.19   32.78          75.57   -5.18   10.87          12.04  115.49           0.31    0.30    0.45    0.31            0.35    0.35    0.37           0.33     0.39
E10        43.10   48.96   25.69          75.43  -11.79   22.09          25.04  118.09           0.35    0.28    0.59    0.31            0.30    0.28    0.30           0.32     0.38
E11        41.06   48.87   20.11          75.37  -17.66   32.62          37.09  118.44           0.39    0.27    0.74    0.32            0.29    0.30    0.28           0.36     0.43
E12        36.17   48.51    9.81          75.15  -32.28   58.81          67.09  118.77           0.52    0.23    1.22    0.33            0.24    0.23    0.11           0.31     0.37
E13        44.75   55.64   55.06          79.41  -24.12  -10.27          26.21  203.06           0.52    0.18    0.18    0.28            0.31    0.25    0.15           0.29     0.37
E14        44.75   34.19   48.37          65.11   37.48  -27.52          46.50  323.71           0.19    0.62    0.21    0.44            0.18    0.26    0.16           0.46     0.57
E15        63.47   68.20   21.60          86.10   -5.16   48.11          48.38   96.12           0.12    0.16    0.72    0.15            0.10    0.15    0.25           0.33     0.46
E16        23.23   23.99   19.67          56.07    0.46    0.27           0.62  107.28           0.57    0.63    0.68    0.62            0.34    0.34    0.39           0.46     0.53
E17        36.97   28.74   17.27          60.55   33.29   13.25          35.83   21.71           0.20    0.72    0.74    0.49            0.25    0.31    0.27           0.46     0.55
E18        39.46   52.32   22.70          77.47  -31.69   31.08          44.39  135.56           0.51    0.20    0.68    0.30            0.20    0.15    0.27           0.41     0.48
E19        27.03   26.21   46.72          58.23    7.28  -37.47          38.17  280.99           0.63    0.59    0.23    0.61            0.24    0.25    0.19           0.36     0.42
E20         7.02    8.27    1.35          34.54   -9.05   36.33          37.44  103.99           1.11    1.04    2.34    1.08            0.10    0.12    0.04           0.57     0.65
E21        24.78   29.48    6.34          61.20  -14.88   48.10          50.35  107.18           0.58    0.49    1.43    0.53            0.26    0.29    0.13           0.37     0.42
E22         8.45   18.32   13.46          49.89  -61.88    4.32          62.03  176.00           1.94    0.53    0.93    0.82            0.12    0.23    0.24           0.45     0.52
F1          3.38    4.29    3.12          24.59  -11.36    2.85          11.72  165.91           1.48    1.34    1.62    1.40            0.08    0.11    0.10           0.47     0.57
F2          2.82    4.35    2.66          24.81  -21.89    6.73          22.90  162.90           1.69    1.26    1.74    1.41            0.07    0.11    0.10           0.56     0.65
F3          2.32    4.33    2.27          24.73  -31.13    9.85          32.65  162.44           1.93    1.21    1.87    1.43            0.06    0.12    0.08           0.64     0.76
F4          1.52    4.39    1.56          24.93  -51.17   17.31          54.02  161.31           2.83    1.10    2.23    1.45            0.05    0.14    0.05           0.60     0.76
F5         11.46   14.61   10.19          45.09  -17.46    5.73          18.38  161.85           0.99    0.78    1.03    0.86            0.21    0.25    0.23           0.47     0.55
F6          9.17   14.48    8.49          44.91  -34.32   11.30          36.14  161.78           1.26    0.71    1.16    0.89            0.18    0.27    0.22           0.52     0.59
F7          7.24   14.35    7.05          44.73  -50.88   16.64          53.53  161.89           1.63    0.66    1.30    0.91            0.15    0.27    0.16           0.50     0.58
F8          5.36   14.55    5.47          45.01  -72.11   24.26          76.08  161.40           2.46    0.58    1.52    0.92            0.10    0.22    0.12           0.47     0.56
F9         30.03   34.29   25.86          65.19  -11.01    4.13          11.76  159.46           0.53    0.43    0.56    0.48            0.41    0.44    0.44           0.44     0.51
F10        26.74   34.27   23.80          65.18  -23.85    7.82          25.10  161.85           0.67    0.39    0.61    0.49            0.26    0.32    0.31           0.44     0.50
F11        23.78   34.01   21.65          64.97  -35.44   11.56          37.27  161.94           0.82    0.36    0.68    0.50            0.16    0.24    0.23           0.36     0.40
F12        17.67   33.38   17.33          64.46  -62.83   19.85          65.89  162.47           1.33    0.29    0.83    0.54            0.18    0.22    0.23           0.42     0.48
F13        39.92   51.90   54.34          77.22  -29.16  -13.27          32.03  204.47           0.64    0.19    0.19    0.32            0.28    0.24    0.14           0.28     0.35
F14        40.26   28.08   45.88          59.96   46.30  -33.49          57.14  324.11           0.21    0.77    0.22    0.51            0.21    0.28    0.19           0.51     0.61
F15        62.19   66.74   16.01          85.37   -4.93   59.00          59.21   94.78           0.12    0.17    0.90    0.16            0.11    0.16    0.22           0.35     0.42
F16        16.00   16.62   13.47          47.78   -0.15    0.68           0.73  103.68           0.73    0.80    0.87    0.78            0.35    0.35    0.34           0.48     0.56
F17        31.47   22.12   11.19          54.16   41.85   18.22          45.65   23.52           0.23    0.92    0.95    0.59            0.23    0.27    0.26           0.58     0.69
