targets/wolf_faust/transmissive/N110201.it8
IT8.7/1
ORIGINATOR "Wolf Faust"
DESCRIPTOR "Velvia 100, 100F, Astia 100F, Provia 400X and Sensia 100 (Emul. 687 or higher), Type 3, L* a* b* (light D50, viewing angle 2)"
MANUFACTURER "Wolf Faust - http://www.coloraid.de"
CREATED "January 31, 2011"
PROD_DATE "2008:12"
DIFFUSE_GEOMETRY "opal"
SERIAL "N110201 Batch Average Data"
MATERIAL "Fujichrome Velvia 100 (RVP 100)"
KEYWORD "MEAN_DE" # Mean Delta E of samples compared to batch average
NUMBER_OF_FIELDS 18
BEGIN_DATA_FORMAT
SAMPLE_ID  XYZ_X   XYZ_Y   XYZ_Z          LAB_L   LAB_A   LAB_B          LAB_C   LAB_H          D_RED  D_GREEN  D_BLUE  D_VIS          STDEV_X STDEV_Y STDEV_Z        MEAN_DE  STDEV_DE
END_DATA_FORMAT
NUMBER_OF_SETS 288
BEGIN_DATA
A1          2.05    1.70    1.27          13.85    9.72    1.78           9.88   10.38           1.49    1.97    2.00    1.74            0.04    0.03    0.03           0.37     0.46
A2          2.56    1.76    1.04          14.15   19.11    5.45          19.87   15.91           1.32    2.12    2.08    1.69            0.04    0.04    0.03           0.35     0.39 
A3          3.20    1.80    0.89          14.40   29.64    8.17          30.75   15.42           1.15    2.41    2.11    1.63            0.07    0.04    0.03           0.36     0.40
A4          4.24    1.86    0.69          14.75   43.96   12.40          45.68   15.76           0.95    3.52    2.08    1.56            0.04    0.02    0.03           0.39     0.48 
A5          9.53    8.15    5.87          34.30   14.32    3.88          14.84   15.14           0.84    1.23    1.26    1.06            0.19    0.19    0.16           0.42     0.48
A6         11.46    8.18    4.99          34.35   28.80    8.32          29.98   16.11           0.68    1.37    1.32    1.03            0.17    0.14    0.10           0.41     0.48 
A7         13.66    8.19    4.06          34.37   43.55   13.54          45.61   17.27           0.54    1.58    1.40    0.99            0.17    0.12    0.07           0.31     0.37
A8         17.40    8.41    3.32          34.83   63.45   19.12          66.27   16.77           0.36    2.10    1.44    0.93            0.12    0.07    0.08           0.34     0.41 
A9         28.62   27.51   21.13          59.44    8.34    3.07           8.89   20.25           0.44    0.61    0.64    0.55            0.34    0.36    0.31           0.47     0.55
A10        30.32   27.22   19.76          59.18   15.95    5.41          16.85   18.75           0.37    0.65    0.68    0.54            0.36    0.38    0.31           0.51     0.60
A11        32.81   27.55   18.88          59.48   23.73    7.82          24.99   18.24           0.30    0.68    0.69    0.53            0.36    0.36    0.34           0.43     0.51
A12        36.43   27.56   17.38          59.48   36.08   11.16          37.77   17.18           0.20    0.76    0.73    0.51            0.28    0.32    0.34           0.57     0.67 
A13        69.50   73.69   59.31          88.77   -3.30    1.50           3.63  155.56           0.15    0.12    0.15    0.14            0.17    0.15    0.09           0.13     0.15
A14        70.02   71.09   58.87          87.53    3.17   -0.21           3.18  356.26           0.11    0.16    0.15    0.15            0.22    0.29    0.12           0.22     0.26 
A15        73.45   76.45   58.34          90.07   -0.55    4.70           4.73   96.68           0.10    0.12    0.16    0.12            0.16    0.17    0.18           0.15     0.18
A16        70.32   72.72   58.90          88.31    0.43    1.11           1.20   68.87           0.12    0.14    0.15    0.14            0.21    0.25    0.12           0.17     0.19
A17        69.06   70.29   55.39          87.14    2.79    2.71           3.89   44.16           0.11    0.16    0.18    0.15            0.34    0.43    0.31           0.31     0.35
A18        71.21   74.87   57.23          89.33   -2.07    4.57           5.02  114.38           0.12    0.12    0.17    0.13            0.22    0.21    0.26           0.19     0.23 
A19        65.60   67.93   57.58          85.97    0.22   -1.58           1.60  277.81           0.16    0.17    0.16    0.17            0.36    0.41    0.13           0.27     0.33
A20         6.06    2.82    1.68          19.33   46.52    6.34          46.95    7.76           0.82    2.81    1.70    1.40            0.13    0.07    0.06           0.45     0.52 
A21        26.01   17.97   13.42          49.46   40.92    3.71          41.09    5.18           0.32    1.03    0.83    0.68            0.33    0.30    0.31           0.52     0.61
A22        51.43   47.53   31.87          74.53   15.29   10.43          18.51   34.31           0.15    0.38    0.45    0.30            0.39    0.51    0.41           0.49     0.59
B1          3.16    2.84    1.65          19.38    7.54    6.74          10.12   41.80           1.32    1.68    1.91    1.52            0.06    0.06    0.05           0.44     0.52
B2          3.67    2.78    1.03          19.13   16.78   14.24          22.00   40.32           1.18    1.81    2.18    1.50            0.06    0.05    0.03           0.34     0.39
B3          4.39    2.87    0.63          19.51   25.48   21.68          33.45   40.39           1.05    1.93    2.45    1.45            0.10    0.07    0.02           0.41     0.49
B4          5.30    2.86    0.14          19.49   37.13   30.89          48.30   39.76           0.91    2.24    3.41    1.41            0.08    0.05    0.00           0.38     0.45
B5         12.19   10.69    6.05          39.06   13.66   11.22          17.68   39.40           0.73    1.09    1.27    0.94            0.20    0.21    0.13           0.46     0.55
B6         14.35   10.95    4.11          39.50   25.78   22.12          33.97   40.63           0.59    1.17    1.48    0.90            0.26    0.24    0.12           0.46     0.52
B7         16.56   10.91    2.43          39.42   39.03   33.77          51.61   40.87           0.47    1.31    1.77    0.88            0.26    0.21    0.08           0.39     0.46
B8         20.97   11.09    0.85          39.73   60.47   52.52          80.10   40.98           0.30    1.66    2.36    0.82            0.09    0.08    0.02           0.21     0.27
B9         33.91   33.45   24.33          64.52    5.86    5.72           8.20   44.28           0.38    0.51    0.58    0.47            0.48    0.48    0.45           0.46     0.54
B10        35.70   33.43   21.82          64.51   12.01   10.44          15.92   40.99           0.31    0.54    0.64    0.46            0.41    0.45    0.39           0.48     0.57
B11        37.54   33.61   19.31          64.65   17.48   15.81          23.57   42.13           0.26    0.56    0.70    0.45            0.49    0.53    0.43           0.52     0.59
B12        40.51   33.49   15.77          64.56   27.27   23.69          36.12   40.98           0.18    0.61    0.81    0.43            0.32    0.39    0.33           0.59     0.71
B13        61.84   67.37   56.51          85.69   -7.13   -0.96           7.20  187.66           0.23    0.15    0.17    0.18            0.34    0.31    0.20           0.25     0.28
B14        61.16   58.67   54.67          81.11   11.02   -6.92          13.01  327.88           0.14    0.26    0.18    0.22            0.28    0.40    0.22           0.36     0.45
B15        67.60   71.01   44.96          87.49   -1.91   15.09          15.21   97.20           0.12    0.15    0.30    0.14            0.33    0.35    0.48           0.38     0.43
B16        53.49   55.23   45.01          79.17    0.60    0.68           0.94   47.94           0.23    0.26    0.28    0.26            0.60    0.64    0.50           0.40     0.47
B17        58.62   56.98   43.50          80.17    9.04    4.25           9.99   25.21           0.14    0.28    0.30    0.23            0.47    0.59    0.49           0.44     0.53
B18        59.90   66.35   46.15          85.18   -9.46    9.67          13.53  134.38           0.23    0.16    0.28    0.18            0.49    0.42    0.48           0.34     0.44
B19        55.21   56.44   54.28          79.86    2.00   -8.66           8.89  283.01           0.24    0.25    0.18    0.25            0.52    0.57    0.22           0.41     0.51
B20         4.74    2.84    0.92          19.40   30.51   16.43          34.65   28.30           0.99    2.07    2.16    1.44            0.12    0.09    0.05           0.39     0.45
B21        16.47   10.85    3.83          39.32   39.01   23.48          45.53   31.05           0.48    1.32    1.49    0.88            0.25    0.21    0.10           0.54     0.62
B22        32.75   27.37   15.85          59.31   24.23   14.46          28.22   30.83           0.29    0.69    0.79    0.53            0.41    0.47    0.33           0.60     0.72
C1          6.09    5.98    3.33          29.36    3.57    9.65          10.29   69.74           1.08    1.29    1.59    1.21            0.13    0.15    0.11           0.52     0.59
C2          6.47    5.91    1.99          29.18    8.44   20.10          21.81   67.23           1.01    1.33    1.90    1.20            0.14    0.15    0.07           0.54     0.60
C3          6.93    5.95    1.11          29.27   12.72   30.51          33.05   67.37           0.95    1.35    2.31    1.18            0.17    0.17    0.03           0.59     0.68
C4          7.58    5.92    0.38          29.22   19.31   43.19          47.31   65.91           0.89    1.40    3.26    1.16            0.14    0.11    0.00           0.64     0.75
C5         23.66   22.50   11.20          54.55    8.89   18.87          20.86   64.78           0.48    0.71    0.99    0.63            0.34    0.36    0.20           0.54     0.62
C6         25.21   22.24    6.04          54.28   16.78   37.50          41.09   65.90           0.40    0.75    1.36    0.61            0.34    0.36    0.11           0.44     0.54
C7         27.48   22.62    3.01          54.68   24.38   55.55          60.67   66.31           0.33    0.78    1.85    0.59            0.36    0.37    0.08           0.45     0.56
C8         30.06   22.45    0.79          54.50   35.14   79.09          86.54   66.05           0.27    0.85    3.16    0.58            0.34    0.36    0.02           0.48     0.65
C9         40.08   40.16   27.53          69.58    4.26    8.85           9.83   64.29           0.31    0.42    0.53    0.39            0.62    0.65    0.57           0.49     0.55
C10        41.17   40.23   23.45          69.63    7.42   16.15          17.78   65.31           0.27    0.43    0.61    0.38            0.59    0.64    0.49           0.48     0.54
C11        42.30   40.13   18.96          69.56   11.15   25.02          27.39   65.98           0.23    0.45    0.73    0.37            0.43    0.50    0.33           0.48     0.58
C12        44.80   40.17   12.33          69.59   18.33   41.45          45.33   66.14           0.16    0.48    0.99    0.36            0.35    0.47    0.28           0.62     0.72
C13        54.87   62.67   55.74          83.27  -13.54   -4.33          14.21  197.74           0.33    0.16    0.18    0.22            0.38    0.33    0.19           0.27     0.33
C14        54.51   48.56   52.30          75.18   20.41  -14.60          25.09  324.44           0.16    0.38    0.19    0.30            0.38    0.51    0.31           0.48     0.61
C15        65.63   69.78   34.94          86.89   -3.67   27.21          27.46   97.68           0.12    0.15    0.44    0.15            0.29    0.32    0.48           0.40     0.49
C16        40.91   42.30   34.41          71.08    0.38    0.71           0.86   59.29           0.34    0.38    0.41    0.37            0.60    0.64    0.57           0.47     0.56
C17        49.89   45.45   32.35          73.18   17.00    7.39          18.54   23.49           0.16    0.41    0.44    0.32            0.49    0.61    0.55           0.52     0.64
C18        51.66   61.00   36.37          82.38  -17.95   17.41          25.01  135.87           0.32    0.17    0.41    0.22            0.50    0.40    0.47           0.44     0.56
C19        43.73   44.13   51.57          72.31    3.48  -18.72          19.04  280.54           0.36    0.36    0.20    0.36            0.53    0.60    0.23           0.49     0.66
C20        11.93    8.57    1.08          35.15   28.69   41.01          50.05   55.02           0.65    1.32    2.34    0.99            0.25    0.22    0.04           0.55     0.66
C21        21.34   19.60   10.60          51.38   12.00   15.28          19.43   51.85           0.51    0.79    1.00    0.68            0.40    0.43    0.25           0.66     0.77
C22        26.84   22.33   10.14          54.37   23.13   21.90          31.85   43.43           0.36    0.79    1.03    0.61            0.42    0.43    0.31           0.60     0.72
D1          3.94    4.17    2.29          24.21   -1.19    8.81           8.91   97.72           1.30    1.42    1.79    1.38            0.10    0.12    0.08           0.58     0.67
D2          3.93    4.22    1.51          24.38   -2.07   16.91          17.04   96.96           1.30    1.39    2.07    1.37            0.09    0.11    0.05           0.57     0.66
D3          3.70    3.99    0.81          23.65   -2.21   25.47          25.58   94.95           1.33    1.40    2.54    1.39            0.10    0.12    0.03           0.73     0.86
D4          3.75    4.03    0.40          23.76   -1.96   33.42          33.49   93.36           1.35    1.38    3.21    1.38            0.10    0.12    0.01           0.79     0.89
D5         16.91   17.68    9.01          49.10   -0.75   16.64          16.66   92.59           0.68    0.77    1.10    0.75            0.28    0.30    0.20           0.57     0.65
D6         17.01   17.78    4.85          49.23   -0.72   34.72          34.73   91.18           0.66    0.76    1.51    0.74            0.29    0.34    0.14           0.51     0.62
D7         16.86   17.78    2.40          49.22   -1.52   50.92          50.95   91.71           0.67    0.75    2.05    0.73            0.30    0.34    0.06           0.63     0.72
D8         16.71   17.78    0.94          49.22   -2.37   67.42          67.46   92.01           0.71    0.74    3.05    0.73            0.30    0.31    0.01           0.68     0.80
D9         45.87   47.58   24.19          74.56   -0.03   23.28          23.29   90.06           0.26    0.33    0.61    0.31            0.49    0.52    0.44           0.52     0.62
D10        45.92   47.87   13.87          74.74   -0.65   46.08          46.08   90.80           0.23    0.33    0.95    0.30            0.53    0.61    0.27           0.51     0.57
D11        45.65   48.01    6.95          74.83   -1.81   68.96          68.98   91.50           0.24    0.32    1.44    0.30            0.45    0.49    0.14           0.42     0.47
D12        45.31   48.33    1.89          75.03   -3.66  100.18         100.24   92.09           0.29    0.32    2.78    0.29            0.36    0.30    0.02           0.33     0.40
D13        48.88   58.49   55.11          81.01  -19.48   -7.55          20.89  201.19           0.43    0.17    0.18    0.26            0.38    0.33    0.20           0.27     0.35
D14        48.71   39.98   49.91          69.46   29.88  -21.79          36.99  323.90           0.18    0.51    0.20    0.38            0.36    0.46    0.30           0.46     0.62
D15        64.10   68.64   26.90          86.33   -4.67   38.79          39.07   96.87           0.12    0.16    0.59    0.15            0.28    0.31    0.46           0.48     0.59
D16        30.55   31.52   25.72          62.95    0.57    0.52           0.81   43.53           0.46    0.51    0.55    0.50            0.55    0.59    0.48           0.49     0.59
D17        42.28   35.50   23.19          66.13   25.83   10.61          27.93   22.32           0.18    0.57    0.60    0.41            0.46    0.55    0.52           0.58     0.74
D18        44.57   56.05   28.22          79.64  -25.67   25.05          35.87  135.70           0.42    0.19    0.55    0.27            0.52    0.43    0.53           0.58     0.72
D19        34.05   33.63   48.79          64.67    5.72  -28.78          29.34  281.24           0.49    0.48    0.21    0.49            0.57    0.61    0.26           0.57     0.78
D20         2.75    2.78    1.06          19.12    1.33   13.72          13.79   84.48           1.42    1.61    2.22    1.54            0.08    0.10    0.04           0.64     0.74
D21        30.13   27.27    1.47          59.22   15.07   77.50          78.95   79.00           0.35    0.64    2.66    0.52            0.49    0.52    0.03           0.57     0.75
D22        40.22   43.07   51.43          71.60   -4.02  -19.80          20.20  258.52           0.45    0.34    0.20    0.38            0.48    0.54    0.27           0.50     0.57
E1          5.22    5.93    3.38          29.24   -5.91    9.05          10.82  123.08           1.22    1.23    1.59    1.23            0.13    0.16    0.11           0.59     0.71
E2          4.79    6.03    2.24          29.48  -12.17   18.29          21.98  123.62           1.30    1.17    1.89    1.23            0.12    0.17    0.08           0.70     0.82
E3          4.22    5.85    1.28          29.02  -17.82   27.71          32.95  122.73           1.42    1.14    2.33    1.25            0.11    0.18    0.04           0.79     0.92
E4          3.66    5.66    0.58          28.53  -23.86   38.17          45.01  122.00           1.62    1.10    3.15    1.27            0.10    0.17    0.01           0.88     1.00
E5         23.96   27.21   14.79          59.16   -9.63   16.82          19.39  119.79           0.59    0.54    0.86    0.57            0.38    0.42    0.30           0.58     0.65
E6         22.25   27.55    8.99          59.48  -18.67   34.62          39.33  118.33           0.66    0.50    1.18    0.57            0.35    0.40    0.18           0.49     0.56
E7         20.01   27.39    5.05          59.33  -28.68   51.08          58.58  119.31           0.78    0.47    1.62    0.58            0.29    0.36    0.10           0.53     0.60
E8         17.50   27.76    1.64          59.67  -43.06   76.30          87.61  119.44           1.07    0.41    2.85    0.58            0.16    0.16    0.02           0.30     0.39
E9         44.20   47.72   31.47          74.65   -5.22   11.26          12.41  114.86           0.32    0.31    0.47    0.32            0.54    0.55    0.47           0.43     0.51
E10        42.03   47.84   24.73          74.72  -11.95   22.58          25.55  117.88           0.36    0.29    0.61    0.32            0.56    0.62    0.41           0.41     0.51
E11        39.99   47.69   19.45          74.63  -17.77   32.71          37.23  118.51           0.40    0.28    0.75    0.33            0.61    0.65    0.38           0.53     0.60
E12        35.34   47.76    9.49          74.68  -33.03   59.08          67.69  119.21           0.54    0.23    1.24    0.33            0.30    0.26    0.13           0.35     0.42
E13        43.60   54.58   54.41          78.80  -24.84  -10.63          27.02  203.16           0.54    0.19    0.19    0.29            0.42    0.38    0.22           0.31     0.40
E14        43.84   33.04   47.53          64.19   38.82  -28.14          47.95  324.06           0.19    0.65    0.21    0.45            0.35    0.43    0.30           0.49     0.66
E15        62.77   67.37   20.60          85.69   -4.99   49.40          49.65   95.77           0.12    0.17    0.74    0.16            0.25    0.29    0.33           0.43     0.54
E16        22.55   23.30   18.96          55.38    0.40    0.57           0.77   53.67           0.59    0.65    0.70    0.63            0.47    0.52    0.54           0.64     0.73
E17        36.15   27.75   16.21          59.66   34.40   14.21          37.22   22.44           0.21    0.74    0.77    0.51            0.37    0.43    0.38           0.62     0.76
E18        38.46   51.45   21.69          76.95  -32.61   32.16          45.80  135.40           0.52    0.21    0.71    0.31            0.41    0.36    0.39           0.53     0.64
E19        26.20   25.23   46.06          57.29    7.91  -38.31          39.11  281.66           0.64    0.61    0.23    0.62            0.44    0.50    0.28           0.63     0.84
E20         6.82    8.02    1.32          34.02   -8.88   35.82          36.91  103.92           1.12    1.05    2.36    1.09            0.21    0.28    0.05           0.83     0.94
E21        23.91   28.39    6.10          60.24  -14.50   47.51          49.67  106.98           0.59    0.50    1.45    0.55            0.46    0.54    0.18           0.62     0.72
E22         8.11   17.65   12.86          49.06  -61.36    4.55          61.53  175.76           1.95    0.54    0.96    0.84            0.20    0.34    0.41           0.66     0.75
F1          3.28    4.14    3.05          24.13  -10.92    2.54          11.22  166.89           1.49    1.36    1.63    1.41            0.07    0.11    0.10           0.64     0.73
F2          2.73    4.18    2.57          24.24  -21.08    6.47          22.05  162.91           1.69    1.29    1.76    1.43            0.05    0.11    0.08           0.74     0.87
F3          2.24    4.15    2.21          24.15  -30.47    9.38          31.89  162.89           1.94    1.23    1.88    1.44            0.06    0.13    0.08           0.84     1.00
F4          1.42    4.08    1.46          23.94  -49.56   16.75          52.32  161.33           2.81    1.14    2.26    1.48            0.04    0.11    0.04           0.57     0.71
F5         11.00   13.94    9.76          44.15  -16.79    5.55          17.68  161.72           1.01    0.80    1.05    0.88            0.17    0.21    0.20           0.49     0.57
F6          8.86   13.96    8.25          44.18  -33.80   10.94          35.53  162.06           1.27    0.73    1.18    0.90            0.16    0.28    0.21           0.58     0.68
F7          6.97   13.74    6.75          43.85  -49.73   16.39          52.36  161.76           1.63    0.68    1.32    0.93            0.14    0.20    0.15           0.66     0.78
F8          5.21   14.13    5.30          44.42  -71.43   24.08          75.38  161.37           2.46    0.59    1.54    0.94            0.10    0.23    0.13           0.51     0.58
F9         29.14   33.20   25.01          64.32  -10.68    4.15          11.46  158.79           0.54    0.45    0.58    0.49            0.44    0.47    0.48           0.54     0.63
F10        25.82   33.18   22.83          64.30  -23.86    8.14          25.22  161.16           0.68    0.41    0.64    0.50            0.43    0.55    0.38           0.55     0.64
F11        23.14   33.13   21.00          64.27  -35.28   11.66          37.16  161.72           0.83    0.37    0.69    0.52            0.43    0.56    0.46           0.53     0.60
F12        17.44   33.11   16.80          64.25  -63.12   20.71          66.43  161.83           1.34    0.30    0.85    0.54            0.24    0.30    0.32           0.53     0.63
F13        39.21   51.25   53.93          76.83  -29.70  -13.51          32.63  204.46           0.66    0.20    0.19    0.33            0.30    0.27    0.22           0.28     0.33
F14        39.58   27.30   45.12          59.25   47.25  -33.80          58.09  324.42           0.21    0.80    0.23    0.52            0.33    0.38    0.34           0.48     0.65
F15        61.69   66.09   15.54          85.04   -4.70   59.58          59.77   94.51           0.12    0.18    0.92    0.17            0.21    0.25    0.25           0.36     0.46
F16        15.78   16.36   13.14          47.45   -0.01    1.00           1.05   90.74           0.73    0.81    0.88    0.79            0.33    0.38    0.39           0.64     0.73
F17        30.98   21.55   10.61          53.54   42.70   18.94          46.71   23.92           0.23    0.94    0.97    0.60            0.31    0.35    0.26           0.54     0.68
