targets/wolf_faust/transmissive/N111125.it8
IT8.7/1
ORIGINATOR "Wolf Faust"
DESCRIPTOR "Velvia 100, 100F, Astia 100F, Provia 400X and Sensia 100 (Emul. 687 or higher), Type 3, L* a* b* (light D50, viewing angle 2)"
MANUFACTURER "Wolf Faust - http://www.coloraid.de"
CREATED "November 24, 2011"
PROD_DATE "2011:11"
DIFFUSE_GEOMETRY "opal"
SERIAL "N111125 Batch Average Data"
MATERIAL "Fujichrome Velvia 100 (RVP 100)"
KEYWORD "MEAN_DE" # Mean Delta E of samples compared to batch average
NUMBER_OF_FIELDS 18
BEGIN_DATA_FORMAT
SAMPLE_ID  XYZ_X   XYZ_Y   XYZ_Z          LAB_L   LAB_A   LAB_B          LAB_C   LAB_H          D_RED  D_GREEN  D_BLUE  D_VIS          STDEV_X STDEV_Y STDEV_Z        MEAN_DE  STDEV_DE
END_DATA_FORMAT
NUMBER_OF_SETS 288
BEGIN_DATA
A1          2.02    1.78    1.35          14.31    7.27    1.50           7.42   11.65           1.52    1.92    1.98    1.73            0.04    0.03    0.03           0.21     0.25
A2          2.51    1.74    1.07          14.05   18.69    4.85          19.31   14.54           1.33    2.13    2.07    1.69            0.05    0.03    0.02           0.25     0.28 
A3          2.96    1.71    0.97          13.88   27.83    6.11          28.49   12.38           1.20    2.39    2.07    1.66            0.06    0.03    0.02           0.27     0.32
A4          3.93    1.77    0.71          14.22   41.82   11.05          43.25   14.80           0.99    3.33    2.08    1.59            0.08    0.03    0.01           0.31     0.43 
A5          9.64    8.56    6.22          35.13   11.65    3.70          12.22   17.61           0.85    1.19    1.24    1.04            0.16    0.12    0.12           0.39     0.45
A6         11.48    8.42    5.34          34.83   26.85    7.36          27.84   15.34           0.69    1.34    1.30    1.02            0.18    0.12    0.09           0.33     0.38 
A7         13.75    8.47    4.63          34.93   41.67   11.28          43.17   15.15           0.55    1.53    1.34    0.98            0.17    0.10    0.07           0.29     0.34
A8         17.51    8.57    3.55          35.14   62.71   18.10          65.27   16.10           0.36    2.05    1.41    0.93            0.07    0.04    0.05           0.25     0.32 
A9         29.05   28.93   22.64          60.71    4.53    2.32           5.09   27.14           0.45    0.57    0.62    0.53            0.26    0.23    0.22           0.32     0.36
A10        31.14   28.76   21.37          60.57   12.99    4.53          13.76   19.22           0.38    0.61    0.64    0.52            0.29    0.26    0.23           0.35     0.39
A11        33.60   28.89   20.31          60.68   21.32    6.88          22.41   17.87           0.30    0.65    0.66    0.51            0.29    0.23    0.24           0.41     0.45
A12        37.32   28.77   18.55          60.58   34.30   10.43          35.85   16.91           0.20    0.72    0.70    0.49            0.19    0.19    0.23           0.38     0.44 
A13        71.41   75.84   61.75          89.78   -3.58    0.81           3.67  167.29           0.14    0.11    0.13    0.12            0.23    0.23    0.19           0.19     0.21
A14        72.52   74.32   61.56          89.07    1.80   -0.23           1.82  352.71           0.10    0.13    0.13    0.13            0.16    0.18    0.17           0.15     0.18 
A15        74.86   78.07   60.92          90.81   -0.86    3.41           3.51  104.12           0.10    0.11    0.14    0.11            0.13    0.14    0.20           0.16     0.18
A16        71.87   74.74   61.35          89.27   -0.41    0.32           0.53  143.10           0.12    0.12    0.13    0.13            0.22    0.22    0.17           0.16     0.18
A17        71.52   73.18   59.43          88.54    2.01    0.96           2.24   25.48           0.11    0.14    0.15    0.13            0.09    0.10    0.19           0.17     0.21
A18        71.57   75.93   59.70          89.83   -3.45    2.92           4.52  139.80           0.13    0.11    0.15    0.12            0.19    0.19    0.24           0.20     0.23 
A19        68.29   71.00   60.48          87.48   -0.38   -1.90           1.94  258.69           0.15    0.15    0.14    0.15            0.23    0.23    0.28           0.19     0.23
A20         6.23    2.94    1.84          19.82   46.28    5.42          46.60    6.68           0.81    2.73    1.67    1.39            0.10    0.04    0.02           0.27     0.34 
A21        26.62   18.85   14.74          50.51   38.86    2.04          38.91    3.01           0.32    0.99    0.79    0.67            0.21    0.16    0.20           0.28     0.33
A22        52.51   49.01   33.70          75.46   14.10    9.29          16.89   33.38           0.15    0.37    0.43    0.29            0.14    0.15    0.22           0.23     0.28
B1          3.23    2.99    1.76          20.02    5.93    6.67           8.93   48.33           1.33    1.64    1.89    1.50            0.05    0.04    0.02           0.29     0.34
B2          3.69    2.90    1.11          19.64   14.79   13.89          20.29   43.19           1.20    1.76    2.15    1.49            0.07    0.05    0.02           0.27     0.32
B3          4.28    2.90    0.61          19.65   23.42   22.40          32.41   43.72           1.08    1.88    2.50    1.45            0.07    0.05    0.01           0.32     0.39
B4          4.84    2.72    0.19          18.87   34.08   28.88          44.67   40.28           0.97    2.18    3.21    1.44            0.09    0.05    0.00           0.42     0.50
B5         12.38   11.35    6.58          40.16   10.20   10.74          14.81   46.49           0.75    1.04    1.23    0.92            0.17    0.14    0.10           0.33     0.37
B6         14.38   11.39    4.50          40.23   22.78   21.12          31.06   42.83           0.61    1.13    1.44    0.89            0.17    0.13    0.07           0.30     0.33
B7         16.65   11.21    2.64          39.94   37.31   32.99          49.80   41.48           0.48    1.28    1.73    0.87            0.17    0.13    0.05           0.31     0.35
B8         21.32   11.42    0.89          40.28   59.74   52.81          79.74   41.48           0.30    1.62    2.34    0.81            0.08    0.06    0.01           0.16     0.19
B9         34.64   34.89   25.68          65.66    3.47    5.26           6.31   56.53           0.38    0.48    0.56    0.45            0.29    0.26    0.27           0.29     0.34
B10        36.80   35.26   23.00          65.95    9.45   10.65          14.24   48.43           0.32    0.50    0.62    0.44            0.28    0.24    0.22           0.28     0.33
B11        38.38   35.10   20.81          65.83   15.10   14.73          21.10   44.28           0.27    0.53    0.67    0.43            0.22    0.19    0.23           0.36     0.40
B12        41.68   35.16   16.71          65.88   25.13   23.73          34.56   43.35           0.18    0.57    0.79    0.41            0.15    0.17    0.19           0.26     0.33
B13        64.64   70.58   59.94          87.28   -7.57   -1.71           7.77  192.76           0.21    0.13    0.15    0.16            0.34    0.28    0.30           0.22     0.27
B14        64.58   62.94   58.45          83.41    8.95   -6.88          11.29  322.46           0.13    0.23    0.15    0.20            0.21    0.23    0.27           0.18     0.21
B15        70.32   74.02   49.66          88.93   -2.24   12.07          12.28  100.53           0.11    0.13    0.25    0.13            0.21    0.20    0.31           0.20     0.25
B16        56.73   59.13   49.02          81.36   -0.70   -0.25           0.77  201.10           0.22    0.23    0.24    0.23            0.36    0.31    0.37           0.25     0.29
B17        62.02   61.08   48.03          82.42    7.39    2.71           7.87   20.12           0.13    0.24    0.25    0.21            0.26    0.27    0.44           0.26     0.31
B18        63.06   69.70   50.63          86.85   -9.32    7.38          11.89  141.61           0.21    0.13    0.24    0.16            0.25    0.22    0.33           0.26     0.30
B19        58.91   60.86   57.94          82.30    0.55   -8.28           8.30  273.82           0.22    0.21    0.15    0.22            0.22    0.20    0.24           0.18     0.20
B20         4.68    2.92    1.03          19.71   28.54   15.19          32.33   28.03           1.01    2.01    2.11    1.44            0.07    0.04    0.01           0.32     0.39
B21        16.71   11.33    4.30          40.12   36.84   22.07          42.94   30.93           0.49    1.27    1.43    0.87            0.14    0.10    0.05           0.24     0.28
B22        33.70   29.03   17.41          60.81   21.13   13.38          25.01   32.35           0.29    0.65    0.75    0.50            0.19    0.17    0.16           0.27     0.30
C1          6.34    6.47    3.57          30.57    1.11   10.07          10.13   83.72           1.08    1.24    1.56    1.18            0.09    0.08    0.05           0.28     0.32
C2          6.58    6.37    2.23          30.34    4.56   19.90          20.42   77.09           1.03    1.26    1.86    1.17            0.10    0.08    0.04           0.28     0.32
C3          7.17    6.44    1.25          30.50    9.82   30.69          32.22   72.25           0.96    1.29    2.26    1.15            0.10    0.09    0.02           0.28     0.32
C4          7.42    6.17    0.50          29.84   15.09   42.02          44.64   70.25           0.93    1.34    3.05    1.16            0.09    0.07    0.01           0.29     0.33
C5         24.15   23.92   11.91          56.00    4.84   19.23          19.83   75.87           0.50    0.66    0.96    0.61            0.17    0.15    0.17           0.33     0.39
C6         25.86   23.97    6.88          56.06   11.84   36.88          38.74   72.21           0.42    0.69    1.30    0.59            0.18    0.13    0.09           0.26     0.31
C7         27.90   23.76    3.24          55.85   21.02   55.89          59.71   69.39           0.34    0.74    1.81    0.58            0.15    0.11    0.03           0.25     0.30
C8         30.94   24.05    0.99          56.13   31.37   78.64          84.66   68.25           0.28    0.79    2.95    0.55            0.16    0.15    0.00           0.29     0.33
C9         40.81   41.75   28.91          70.70    1.70    8.49           8.66   78.67           0.32    0.39    0.51    0.37            0.29    0.25    0.24           0.27     0.30
C10        42.07   41.96   24.51          70.84    4.90   16.29          17.01   73.25           0.28    0.41    0.60    0.37            0.25    0.21    0.20           0.26     0.30
C11        43.48   42.05   20.00          70.91    8.82   25.15          26.65   70.67           0.23    0.42    0.71    0.36            0.23    0.19    0.17           0.26     0.29
C12        45.97   41.92   12.84          70.82   16.39   42.10          45.18   68.73           0.16    0.45    0.97    0.34            0.12    0.14    0.14           0.21     0.27
C13        58.13   66.24   59.21          85.12  -13.47   -4.70          14.27  199.24           0.30    0.14    0.15    0.19            0.33    0.27    0.19           0.25     0.30
C14        57.99   52.84   56.21          77.78   17.84  -14.28          22.85  321.32           0.15    0.33    0.16    0.27            0.21    0.26    0.23           0.26     0.29
C15        68.18   72.68   38.81          88.29   -4.10   24.29          24.63   99.58           0.11    0.14    0.38    0.13            0.22    0.23    0.32           0.22     0.27
C16        43.94   45.96   37.68          73.52   -1.08    0.33           1.13  163.32           0.32    0.34    0.37    0.34            0.29    0.25    0.29           0.28     0.31
C17        52.97   49.16   35.85          75.55   14.88    6.37          16.19   23.18           0.15    0.37    0.39    0.29            0.18    0.19    0.29           0.26     0.31
C18        54.98   64.49   40.16          84.22  -17.38   15.48          23.28  138.32           0.30    0.15    0.36    0.20            0.22    0.19    0.19           0.21     0.25
C19        47.77   48.84   55.41          75.35    1.88  -17.64          17.74  276.09           0.33    0.31    0.17    0.32            0.21    0.21    0.21           0.17     0.18
C20        12.08    9.08    1.18          36.13   25.46   41.35          48.56   58.38           0.66    1.26    2.32    0.97            0.12    0.09    0.01           0.27     0.30
C21        21.66   20.45   11.46          52.34    9.38   14.25          17.06   56.63           0.52    0.76    0.97    0.67            0.16    0.12    0.13           0.29     0.34
C22        27.78   23.90   11.05          55.98   19.95   21.78          29.54   47.51           0.36    0.74    0.99    0.59            0.16    0.14    0.13           0.30     0.34
D1          4.06    4.47    2.57          25.17   -3.46    8.09           8.80  113.14           1.31    1.37    1.73    1.35            0.06    0.06    0.05           0.28     0.32
D2          4.07    4.44    1.51          25.08   -2.96   18.08          18.32   99.30           1.29    1.37    2.09    1.35            0.06    0.05    0.02           0.23     0.26
D3          4.18    4.57    0.86          25.46   -3.06   27.74          27.91   96.29           1.29    1.34    2.54    1.33            0.07    0.07    0.01           0.26     0.32
D4          4.07    4.58    0.52          25.49   -4.72   34.06          34.39   97.89           1.33    1.31    3.04    1.33            0.07    0.07    0.01           0.31     0.36
D5         17.67   18.97    9.64          50.65   -3.28   17.16          17.47  100.81           0.68    0.73    1.08    0.72            0.16    0.14    0.11           0.30     0.34
D6         17.41   18.84    5.29          50.50   -4.05   34.62          34.85   96.68           0.67    0.72    1.46    0.71            0.16    0.14    0.06           0.32     0.35
D7         17.32   18.95    2.54          50.63   -5.05   52.24          52.48   95.52           0.68    0.71    2.04    0.71            0.16    0.16    0.02           0.32     0.35
D8         16.92   18.56    1.12          50.17   -5.30   66.42          66.63   94.56           0.72    0.71    2.91    0.71            0.15    0.16    0.01           0.29     0.34
D9         46.66   49.17   25.21          75.56   -2.10   23.16          23.26   95.17           0.26    0.31    0.60    0.30            0.34    0.32    0.25           0.24     0.29
D10        46.42   49.12   14.53          75.53   -2.65   45.71          45.78   93.32           0.24    0.31    0.93    0.30            0.19    0.17    0.13           0.23     0.27
D11        46.31   49.43    7.13          75.72   -3.76   69.70          69.80   93.08           0.24    0.31    1.43    0.29            0.23    0.20    0.08           0.20     0.23
D12        44.82   48.26    2.11          74.99   -4.87   97.99          98.11   92.84           0.30    0.31    2.66    0.29            0.18    0.17    0.01           0.19     0.22
D13        51.80   61.84   58.51          82.83  -19.52   -7.95          21.08  202.15           0.41    0.15    0.16    0.23            0.33    0.27    0.21           0.21     0.27
D14        52.48   44.54   54.05          72.59   26.38  -20.95          33.69  321.54           0.16    0.44    0.17    0.33            0.20    0.22    0.24           0.16     0.20
D15        66.49   71.44   30.00          87.70   -5.23   36.05          36.43   98.25           0.11    0.14    0.53    0.14            0.18    0.18    0.21           0.16     0.21
D16        32.63   34.72   28.24          65.53   -2.98    0.67           3.06  167.51           0.46    0.46    0.51    0.46            0.28    0.23    0.25           0.30     0.37
D17        45.41   39.37   25.85          69.02   22.56   10.75          24.99   25.48           0.17    0.50    0.55    0.37            0.17    0.17    0.24           0.23     0.29
D18        47.14   59.07   31.34          81.33  -25.64   22.98          34.43  138.13           0.40    0.17    0.50    0.24            0.23    0.21    0.23           0.23     0.29
D19        37.56   38.30   52.95          68.24    2.05  -27.26          27.34  274.30           0.47    0.41    0.18    0.43            0.20    0.22    0.20           0.23     0.27
D20         2.86    3.04    1.13          20.20   -1.26   14.59          14.65   94.95           1.43    1.55    2.21    1.51            0.03    0.03    0.01           0.26     0.29
D21        30.58   28.66    1.51          60.48   11.31   79.22          80.02   81.87           0.37    0.60    2.69    0.50            0.19    0.18    0.01           0.25     0.30
D22        40.57   44.59   54.70          72.62   -7.33  -21.58          22.80  251.23           0.48    0.32    0.17    0.37            0.22    0.24    0.18           0.20     0.23
E1          5.48    6.37    3.76          30.32   -7.39    8.46          11.23  131.17           1.22    1.19    1.54    1.21            0.06    0.06    0.05           0.27     0.32
E2          5.11    6.43    2.33          30.48  -12.58   19.23          22.98  123.20           1.28    1.14    1.87    1.20            0.08    0.08    0.03           0.30     0.34
E3          4.58    6.53    1.36          30.72  -20.30   29.62          35.91  124.42           1.42    1.08    2.33    1.21            0.07    0.08    0.02           0.28     0.33
E4          4.14    6.33    0.72          30.24  -24.23   38.47          45.47  122.21           1.55    1.06    2.98    1.22            0.06    0.07    0.01           0.28     0.32
E5         24.69   28.78   15.68          60.58  -12.58   17.07          21.21  126.39           0.60    0.51    0.84    0.55            0.20    0.20    0.16           0.27     0.32
E6         22.60   28.68    9.61          60.50  -21.45   34.23          40.40  122.07           0.67    0.48    1.15    0.55            0.18    0.17    0.09           0.24     0.28
E7         20.54   28.79    5.38          60.59  -31.54   51.56          60.44  121.45           0.79    0.44    1.58    0.56            0.13    0.12    0.04           0.21     0.25
E8         17.64   27.94    1.75          59.83  -43.02   75.36          86.77  119.72           1.06    0.41    2.78    0.58            0.08    0.09    0.01           0.17     0.20
E9         44.78   49.04   32.83          75.48   -7.09   10.63          12.78  123.68           0.33    0.29    0.45    0.31            0.24    0.20    0.23           0.25     0.29
E10        42.33   48.79   25.66          75.32  -13.61   21.95          25.82  121.80           0.37    0.28    0.59    0.32            0.29    0.28    0.21           0.25     0.29
E11        40.21   48.60   20.36          75.20  -19.56   31.81          37.34  121.58           0.41    0.27    0.73    0.32            0.29    0.25    0.17           0.32     0.36
E12        35.45   48.40    9.48          75.08  -34.36   59.80          68.97  119.88           0.55    0.23    1.25    0.33            0.23    0.23    0.10           0.20     0.26
E13        47.04   58.35   57.86          80.93  -24.19  -10.55          26.39  203.55           0.50    0.16    0.16    0.26            0.21    0.20    0.13           0.16     0.20
E14        47.08   36.72   51.52          67.07   35.65  -27.71          45.15  322.14           0.18    0.58    0.18    0.41            0.14    0.17    0.17           0.23     0.27
E15        65.13   70.19   23.32          87.09   -5.64   46.50          46.84   96.91           0.11    0.15    0.68    0.14            0.14    0.14    0.18           0.20     0.23
E16        23.81   25.27   20.87          57.34   -2.44   -0.03           2.45  180.99           0.59    0.60    0.66    0.60            0.17    0.16    0.17           0.30     0.34
E17        38.48   30.44   18.16          62.03   31.79   13.80          34.65   23.46           0.19    0.68    0.72    0.47            0.12    0.12    0.13           0.20     0.23
E18        41.32   54.67   24.42          78.85  -31.88   30.26          43.96  136.50           0.49    0.18    0.64    0.28            0.22    0.19    0.14           0.19     0.24
E19        29.41   29.22   50.24          60.98    4.77  -36.78          37.09  277.39           0.61    0.54    0.20    0.56            0.15    0.15    0.13           0.19     0.22
E20         7.11    8.71    1.42          35.41  -11.93   36.97          38.85  107.89           1.13    1.00    2.34    1.06            0.07    0.09    0.01           0.32     0.36
E21        24.22   29.56    6.52          61.27  -17.59   47.42          50.58  110.36           0.61    0.48    1.42    0.53            0.15    0.14    0.05           0.26     0.30
E22         8.70   18.77   13.84          50.41  -62.02    4.20          62.16  176.13           1.93    0.52    0.92    0.81            0.08    0.14    0.17           0.29     0.35
F1          3.33    4.34    3.23          24.77  -12.86    2.41          13.09  169.40           1.51    1.32    1.60    1.39            0.05    0.05    0.05           0.24     0.27
F2          2.76    4.46    2.77          25.13  -24.25    6.40          25.08  165.21           1.74    1.24    1.73    1.40            0.05    0.07    0.05           0.24     0.28
F3          2.15    4.22    2.36          24.40  -33.34    8.46          34.39  165.76           2.03    1.22    1.85    1.44            0.03    0.05    0.03           0.17     0.20
F4          1.68    4.72    1.67          25.91  -50.95   17.78          53.97  160.76           2.71    1.08    2.19    1.42            0.02    0.06    0.02           0.22     0.28
F5         11.56   14.97   10.71          45.59  -18.96    4.93          19.59  165.42           1.01    0.76    1.01    0.85            0.12    0.12    0.12           0.28     0.33
F6          9.33   14.81    8.56          45.38  -34.98   11.86          36.93  161.27           1.26    0.70    1.16    0.88            0.09    0.11    0.11           0.27     0.32
F7          7.54   15.07    7.37          45.73  -52.24   17.03          54.95  161.94           1.65    0.64    1.28    0.89            0.07    0.10    0.07           0.25     0.28
F8          5.63   14.85    5.67          45.42  -70.78   24.00          74.74  161.27           2.38    0.58    1.50    0.91            0.03    0.06    0.04           0.11     0.14
F9         29.40   34.43   26.11          65.30  -13.88    3.90          14.42  164.33           0.57    0.42    0.56    0.48            0.21    0.20    0.22           0.28     0.31
F10        26.41   34.43   23.83          65.30  -25.72    7.99          26.94  162.74           0.69    0.39    0.62    0.49            0.18    0.18    0.17           0.26     0.30
F11        23.72   34.40   21.81          65.28  -37.07   11.80          38.90  162.35           0.84    0.35    0.68    0.50            0.20    0.21    0.19           0.27     0.31
F12        17.49   33.51   17.22          64.57  -64.29   20.28          67.41  162.49           1.36    0.29    0.84    0.54            0.11    0.13    0.19           0.31     0.38
F13        42.75   55.05   57.29          79.07  -28.52  -13.18          31.42  204.81           0.60    0.17    0.17    0.30            0.17    0.16    0.16           0.18     0.24
F14        42.47   30.35   49.11          61.96   44.41  -33.82          55.82  322.71           0.20    0.72    0.19    0.48            0.14    0.15    0.21           0.22     0.28
F15        63.85   68.74   17.63          86.37   -5.45   56.95          57.21   95.47           0.11    0.16    0.85    0.15            0.15    0.16    0.15           0.21     0.25
F16        16.86   17.86   14.60          49.33   -2.01    0.37           2.05  169.88           0.72    0.76    0.83    0.75            0.14    0.13    0.13           0.27     0.32
F17        32.62   23.31   11.88          55.39   40.65   18.28          44.57   24.21           0.22    0.88    0.92    0.57            0.12    0.11    0.10           0.22     0.26
