targets/wolf_faust/transmissive/N111203.it8
IT8.7/1
ORIGINATOR "Wolf Faust"
DESCRIPTOR "Velvia 100, 100F, Astia 100F, Provia 400X and Sensia 100 (Emul. 687 or higher), Type 3, L* a* b* (light D50, viewing angle 2)"
MANUFACTURER "Wolf Faust - http://www.coloraid.de"
CREATED "December 07, 2011"
PROD_DATE "2011:12"
DIFFUSE_GEOMETRY "opal"
SERIAL "N111203 Batch Average Data"
MATERIAL "Fujichrome Velvia 100 (RVP 100)"
KEYWORD "MEAN_DE" # Mean Delta E of samples compared to batch average
NUMBER_OF_FIELDS 18
BEGIN_DATA_FORMAT
SAMPLE_ID  XYZ_X   XYZ_Y   XYZ_Z          LAB_L   LAB_A   LAB_B          LAB_C   LAB_H          D_RED  D_GREEN  D_BLUE  D_VIS          STDEV_X STDEV_Y STDEV_Z        MEAN_DE  STDEV_DE
END_DATA_FORMAT
NUMBER_OF_SETS 288
BEGIN_DATA
A1          1.69    1.48    1.08          12.50    6.98    2.00           7.26   15.97           1.59    2.00    2.09    1.80            0.07    0.05    0.03           0.47     0.62
A2          2.06    1.39    0.86          11.92   18.44    4.45          18.97   13.55           1.41    2.26    2.16    1.78            0.09    0.06    0.02           0.52     0.69 
A3          2.62    1.46    0.71          12.34   28.15    7.97          29.26   15.79           1.24    2.54    2.21    1.72            0.12    0.06    0.02           0.56     0.73
A4          3.51    1.59    0.58          13.14   40.08   11.70          41.75   16.27           1.04    3.37    2.18    1.64            0.14    0.06    0.02           0.61     0.84 
A5          8.22    7.20    5.32          32.26   11.99    2.99          12.36   14.03           0.91    1.27    1.31    1.12            0.26    0.18    0.11           0.63     0.80
A6         10.15    7.24    4.36          32.35   27.63    8.29          28.85   16.70           0.73    1.43    1.39    1.08            0.31    0.19    0.10           0.54     0.74 
A7         12.39    7.41    3.74          32.71   42.31   12.70          44.17   16.71           0.58    1.64    1.44    1.03            0.30    0.17    0.09           0.49     0.63
A8         16.86    8.16    3.05          34.32   62.72   20.15          65.88   17.81           0.37    2.12    1.48    0.94            0.08    0.05    0.07           0.33     0.40 
A9         26.21   25.66   19.89          57.72    6.15    2.63           6.70   23.27           0.49    0.63    0.68    0.58            0.51    0.39    0.36           0.53     0.70
A10        28.68   25.80   18.77          57.84   15.49    5.23          16.35   18.67           0.39    0.67    0.70    0.57            0.50    0.42    0.37           0.42     0.54
A11        30.86   26.02   17.65          58.05   22.81    8.08          24.20   19.51           0.33    0.71    0.73    0.55            0.49    0.40    0.38           0.46     0.56
A12        35.24   26.41   16.30          58.42   36.70   11.85          38.57   17.89           0.21    0.78    0.76    0.52            0.25    0.26    0.36           0.49     0.62 
A13        70.43   75.21   61.40          89.49   -4.42    0.65           4.47  171.55           0.15    0.11    0.14    0.13            0.40    0.35    0.29           0.25     0.30
A14        70.64   71.67   60.80          87.81    3.29   -1.65           3.68  333.33           0.11    0.15    0.14    0.14            0.36    0.45    0.32           0.27     0.34 
A15        74.38   77.71   59.87          90.65   -1.14    4.16           4.32  105.33           0.10    0.11    0.15    0.11            0.24    0.25    0.30           0.19     0.22
A16        70.68   73.34   60.79          88.61   -0.08   -0.27           0.30  245.09           0.13    0.13    0.14    0.14            0.36    0.40    0.31           0.22     0.26
A17        69.56   70.65   57.46          87.32    3.11    0.86           3.23   15.52           0.11    0.16    0.17    0.15            0.36    0.43    0.34           0.28     0.32
A18        71.26   75.70   59.21          89.72   -3.63    3.23           4.86  138.36           0.13    0.11    0.15    0.12            0.34    0.31    0.32           0.20     0.24 
A19        65.03   67.88   59.54          85.95   -0.96   -3.61           3.74  255.14           0.17    0.16    0.15    0.17            0.47    0.48    0.31           0.28     0.33
A20         5.35    2.46    1.42          17.73   45.34    6.59          45.82    8.27           0.87    2.98    1.77    1.46            0.16    0.07    0.03           0.48     0.66 
A21        24.31   16.87   12.60          48.10   39.58    3.61          39.75    5.21           0.35    1.06    0.86    0.71            0.31    0.22    0.23           0.34     0.42
A22        50.18   46.23   30.77          73.70   15.56   10.70          18.88   34.49           0.16    0.40    0.47    0.31            0.23    0.26    0.35           0.29     0.37
B1          2.55    2.34    1.38          17.17    5.99    5.99           8.47   45.06           1.42    1.76    2.00    1.61            0.10    0.08    0.04           0.55     0.69
B2          3.08    2.37    0.84          17.31   15.06   14.15          20.66   43.21           1.27    1.87    2.29    1.57            0.12    0.08    0.02           0.53     0.68
B3          3.52    2.29    0.50          16.93   23.86   19.82          31.01   39.71           1.15    2.04    2.58    1.55            0.13    0.07    0.01           0.60     0.81
B4          4.23    2.42    0.19          17.57   31.57   26.72          41.36   40.24           1.04    2.19    3.23    1.50            0.17    0.09    0.00           0.78     1.00
B5         10.60    9.55    5.64          37.03   10.94    9.66          14.60   41.50           0.81    1.13    1.31    1.00            0.30    0.22    0.12           0.60     0.76
B6         12.81    9.80    3.63          37.48   24.60   21.60          32.74   41.29           0.64    1.22    1.55    0.95            0.35    0.24    0.08           0.61     0.74
B7         15.31   10.16    2.19          38.13   37.43   33.65          50.33   41.96           0.51    1.34    1.83    0.91            0.35    0.23    0.06           0.51     0.63
B8         20.51   10.79    0.80          39.23   60.42   52.62          80.13   41.05           0.31    1.69    2.39    0.83            0.07    0.06    0.02           0.23     0.27
B9         31.01   31.17   23.27          62.65    3.56    4.46           5.72   51.47           0.43    0.53    0.61    0.50            0.68    0.59    0.48           0.49     0.65
B10        33.17   31.45   20.48          62.88   10.32   10.32          14.60   45.01           0.35    0.56    0.67    0.49            0.47    0.43    0.37           0.41     0.50
B11        34.93   31.41   18.08          62.85   16.53   15.39          22.58   42.95           0.29    0.59    0.74    0.48            0.49    0.44    0.38           0.38     0.49
B12        39.37   32.27   14.82          63.56   28.00   24.35          37.10   41.01           0.19    0.63    0.84    0.45            0.23    0.26    0.31           0.40     0.53
B13        62.33   68.87   59.45          86.44   -9.23   -2.67           9.61  196.11           0.24    0.14    0.15    0.17            0.63    0.51    0.25           0.43     0.55
B14        62.31   59.86   57.56          81.76   10.89   -8.82          14.02  321.00           0.14    0.25    0.15    0.22            0.30    0.36    0.25           0.25     0.31
B15        68.90   72.94   46.33          88.42   -3.07   15.04          15.35  101.52           0.12    0.13    0.28    0.13            0.30    0.30    0.40           0.25     0.32
B16        52.79   55.11   45.49          79.10   -0.90   -0.02           0.91  181.72           0.25    0.26    0.28    0.26            0.51    0.44    0.42           0.33     0.40
B17        59.17   57.64   44.38          80.54    8.78    3.80           9.57   23.40           0.14    0.27    0.29    0.23            0.32    0.35    0.38           0.28     0.32
B18        60.01   67.54   47.06          85.78  -11.81    9.63          15.23  140.80           0.24    0.14    0.28    0.18            0.44    0.37    0.31           0.33     0.39
B19        55.09   56.76   56.91          80.05    0.91  -11.11          11.14  274.69           0.25    0.24    0.16    0.25            0.42    0.37    0.21           0.29     0.35
B20         4.00    2.37    0.74          17.34   29.39   15.86          33.39   28.35           1.07    2.17    2.27    1.52            0.16    0.08    0.02           0.61     0.78
B21        15.10    9.92    3.51          37.70   38.06   22.79          44.36   30.92           0.52    1.37    1.53    0.92            0.34    0.21    0.07           0.47     0.63
B22        30.99   25.96   14.96          58.00   23.53   14.40          27.58   31.47           0.31    0.72    0.82    0.55            0.35    0.30    0.23           0.37     0.42
C1          5.23    5.24    2.91          27.42    2.12    9.24           9.49   77.12           1.15    1.34    1.66    1.27            0.17    0.14    0.07           0.50     0.64
C2          5.50    5.11    1.82          27.05    6.94   18.10          19.39   69.03           1.09    1.38    1.94    1.26            0.18    0.13    0.04           0.54     0.70
C3          6.06    5.30    0.93          27.57   10.96   30.27          32.20   70.11           1.02    1.39    2.44    1.23            0.19    0.14    0.02           0.61     0.78
C4          6.51    5.23    0.44          27.36   16.70   38.93          42.36   66.78           0.97    1.44    3.08    1.22            0.25    0.17    0.01           0.77     1.00
C5         21.15   20.50   10.25          52.39    6.70   18.12          19.33   69.72           0.54    0.74    1.04    0.67            0.47    0.37    0.20           0.55     0.68
C6         23.35   20.82    5.68          52.75   15.29   36.59          39.66   67.32           0.44    0.78    1.39    0.64            0.42    0.34    0.09           0.50     0.60
C7         25.58   21.08    2.71          53.03   23.72   54.97          59.87   66.66           0.37    0.81    1.91    0.62            0.44    0.34    0.06           0.49     0.59
C8         28.13   21.29    0.88          53.26   33.06   75.36          82.29   66.31           0.31    0.86    2.98    0.60            0.41    0.33    0.01           0.50     0.62
C9         37.22   37.78   26.01          67.86    2.59    8.48           8.87   73.03           0.35    0.44    0.56    0.42            0.55    0.47    0.42           0.39     0.50
C10        38.77   38.36   21.73          68.29    5.73   17.14          18.07   71.51           0.30    0.45    0.66    0.40            0.50    0.43    0.38           0.36     0.47
C11        40.28   38.55   18.07          68.42    9.88   25.00          26.89   68.44           0.26    0.46    0.76    0.39            0.42    0.36    0.35           0.38     0.49
C12        43.51   38.65   11.24          68.50   19.29   42.79          46.93   65.73           0.17    0.50    1.04    0.38            0.18    0.21    0.18           0.29     0.38
C13        55.52   64.29   58.75          84.12  -15.58   -5.97          16.68  200.95           0.34    0.15    0.16    0.21            0.51    0.42    0.19           0.39     0.50
C14        55.41   49.26   55.12          75.61   20.82  -16.87          26.79  320.97           0.16    0.37    0.16    0.30            0.23    0.25    0.23           0.24     0.28
C15        66.76   71.55   35.26          87.75   -4.85   28.24          28.66   99.75           0.12    0.14    0.44    0.14            0.33    0.35    0.42           0.30     0.41
C16        39.63   41.49   33.83          70.52   -1.17    0.60           1.32  152.11           0.37    0.38    0.42    0.38            0.66    0.57    0.51           0.46     0.57
C17        49.97   45.48   32.12          73.21   17.09    7.79          18.78   24.49           0.16    0.41    0.45    0.32            0.26    0.28    0.41           0.33     0.41
C18        51.64   62.07   36.29          82.95  -20.49   18.52          27.62  137.89           0.34    0.16    0.42    0.22            0.62    0.55    0.41           0.40     0.52
C19        43.61   44.21   54.27          72.37    2.89  -21.57          21.76  277.64           0.37    0.36    0.17    0.37            0.48    0.41    0.26           0.39     0.47
C20        10.34    7.60    0.93          33.14   25.72   39.92          47.49   57.20           0.72    1.35    2.45    1.05            0.31    0.21    0.02           0.63     0.83
C21        19.02   17.71    9.69          49.14   10.27   14.38          17.68   54.48           0.57    0.83    1.05    0.73            0.43    0.32    0.18           0.55     0.70
C22        24.96   20.97    9.49          52.91   21.60   21.56          30.53   44.95           0.40    0.81    1.07    0.64            0.41    0.33    0.18           0.44     0.52
D1          3.35    3.63    2.05          22.42   -2.48    7.87           8.26  107.51           1.38    1.47    1.84    1.44            0.12    0.10    0.05           0.44     0.58
D2          3.26    3.56    1.22          22.15   -2.78   16.68          16.91   99.47           1.39    1.46    2.20    1.44            0.12    0.11    0.03           0.51     0.65
D3          3.26    3.59    0.68          22.26   -3.29   25.46          25.68   97.36           1.40    1.44    2.67    1.44            0.13    0.12    0.01           0.56     0.76
D4          3.22    3.57    0.45          22.19   -3.73   29.75          29.99   97.16           1.42    1.42    3.07    1.44            0.15    0.13    0.01           0.73     0.97
D5         15.22   16.30    8.08          47.36   -2.90   17.06          17.32   99.66           0.73    0.80    1.17    0.78            0.40    0.34    0.16           0.54     0.70
D6         15.00   16.13    4.40          47.14   -3.24   33.56          33.71   95.51           0.73    0.79    1.56    0.78            0.37    0.31    0.07           0.60     0.74
D7         14.74   16.01    2.13          46.99   -4.20   49.54          49.72   94.85           0.75    0.78    2.14    0.78            0.42    0.38    0.05           0.67     0.82
D8         14.84   16.25    1.02          47.30   -4.91   62.84          63.04   94.48           0.78    0.77    2.93    0.77            0.45    0.38    0.01           0.83     1.07
D9         43.41   45.58   22.47          73.27   -1.59   24.29          24.34   93.73           0.28    0.35    0.66    0.33            0.55    0.48    0.38           0.39     0.48
D10        43.41   45.94   12.67          73.51   -2.59   47.24          47.31   93.14           0.27    0.34    1.01    0.32            0.48    0.44    0.23           0.35     0.44
D11        43.38   46.12    6.35          73.62   -3.19   69.45          69.52   92.63           0.27    0.34    1.50    0.32            0.42    0.39    0.11           0.32     0.38
D12        43.10   46.61    1.97          73.94   -5.38   97.45          97.59   93.16           0.32    0.33    2.71    0.31            0.56    0.44    0.02           0.46     0.66
D13        49.71   60.19   58.04          81.94  -21.23   -9.01          23.06  202.99           0.45    0.16    0.16    0.25            0.56    0.48    0.17           0.43     0.57
D14        49.52   40.48   52.63          69.81   30.53  -24.20          38.96  321.59           0.17    0.50    0.18    0.37            0.19    0.22    0.19           0.22     0.29
D15        65.26   70.35   27.50          87.17   -5.69   39.22          39.63   98.26           0.12    0.15    0.58    0.14            0.28    0.29    0.37           0.33     0.45
D16        29.28   30.61   25.34          62.18   -0.91   -0.14           0.93  192.43           0.49    0.52    0.56    0.52            0.60    0.51    0.46           0.49     0.64
D17        42.32   35.43   23.10          66.08   26.18   10.70          28.28   22.22           0.18    0.57    0.60    0.42            0.25    0.27    0.38           0.34     0.46
D18        44.76   57.24   28.55          80.31  -28.00   25.66          37.98  137.50           0.44    0.17    0.55    0.26            0.59    0.49    0.40           0.46     0.63
D19        33.94   33.66   51.45          64.69    5.22  -31.74          32.17  279.34           0.51    0.48    0.19    0.49            0.43    0.39    0.12           0.50     0.60
D20         2.37    2.43    0.94          17.59    0.57   12.94          12.96   87.52           1.50    1.67    2.29    1.60            0.09    0.08    0.03           0.57     0.66
D21        28.69   26.24    1.31          58.26   13.67   77.77          78.96   80.03           0.39    0.65    2.78    0.54            0.54    0.45    0.02           0.60     0.73
D22        36.06   40.09   53.52          69.53   -8.44  -25.65          27.00  251.78           0.56    0.36    0.18    0.43            0.56    0.54    0.26           0.58     0.69
E1          4.51    5.19    3.00          27.25   -6.29    8.30          10.42  127.17           1.29    1.29    1.66    1.30            0.14    0.13    0.06           0.51     0.61
E2          4.01    5.11    1.82          27.04  -12.35   18.07          21.89  124.36           1.39    1.24    2.01    1.31            0.14    0.14    0.05           0.53     0.66
E3          3.76    5.28    1.12          27.52  -18.10   27.32          32.78  123.52           1.49    1.18    2.43    1.30            0.14    0.16    0.03           0.53     0.68
E4          3.47    5.15    0.63          27.15  -21.04   34.90          40.75  121.09           1.60    1.16    3.01    1.31            0.15    0.18    0.01           0.68     0.85
E5         22.08   25.72   13.49          57.77  -12.08   17.83          21.54  124.11           0.64    0.56    0.91    0.60            0.53    0.47    0.25           0.60     0.72
E6         20.04   25.46    8.36          57.52  -20.76   33.52          39.43  121.77           0.72    0.53    1.22    0.61            0.45    0.42    0.15           0.58     0.71
E7         18.40   25.72    4.57          57.77  -30.09   50.95          59.17  120.57           0.83    0.49    1.68    0.61            0.42    0.43    0.09           0.54     0.66
E8         16.45   26.73    1.69          58.72  -44.75   74.13          86.59  121.12           1.13    0.42    2.80    0.60            0.28    0.29    0.01           0.49     0.62
E9         41.49   45.60   29.98          73.28   -7.37   11.22          13.43  123.28           0.36    0.33    0.50    0.34            0.58    0.47    0.38           0.44     0.58
E10        39.30   45.51   23.27          73.23  -13.90   22.69          26.61  121.49           0.40    0.31    0.64    0.35            0.59    0.49    0.34           0.47     0.63
E11        37.60   45.84   17.97          73.44  -20.22   33.88          39.46  120.83           0.44    0.29    0.80    0.35            0.53    0.46    0.31           0.50     0.62
E12        32.49   45.67    7.90          73.33  -37.10   62.51          72.69  120.69           0.61    0.24    1.38    0.36            0.51    0.47    0.13           0.53     0.64
E13        44.48   56.29   57.34          79.78  -26.52  -12.01          29.11  204.36           0.56    0.17    0.17    0.28            0.51    0.45    0.11           0.46     0.60
E14        44.40   33.23   50.07          64.35   39.78  -30.78          50.30  322.27           0.19    0.65    0.19    0.45            0.15    0.19    0.12           0.25     0.36
E15        63.85   68.94   20.54          86.48   -5.90   50.87          51.21   96.61           0.12    0.16    0.75    0.15            0.20    0.22    0.25           0.30     0.42
E16        20.79   21.92   17.82          53.94   -1.64    0.60           1.76  158.15           0.63    0.67    0.73    0.66            0.47    0.38    0.31           0.55     0.69
E17        35.88   27.38   15.31          59.33   34.93   15.81          38.34   24.34           0.20    0.75    0.80    0.51            0.19    0.20    0.28           0.38     0.49
E18        38.54   52.44   21.43          77.54  -34.90   33.68          48.50  136.02           0.54    0.19    0.72    0.30            0.53    0.46    0.28           0.50     0.61
E19        26.00   25.14   48.72          57.21    7.45  -41.56          42.22  280.16           0.67    0.61    0.21    0.63            0.37    0.34    0.13           0.52     0.62
E20         5.79    7.12    1.15          32.09  -11.47   34.84          36.69  108.23           1.22    1.09    2.47    1.15            0.20    0.19    0.03           0.58     0.71
E21        22.03   26.62    5.61          58.62  -15.98   47.04          49.68  108.77           0.64    0.53    1.50    0.58            0.50    0.48    0.11           0.55     0.68
E22         7.66   16.64   11.95          47.80  -60.10    4.97          60.31  175.28           1.95    0.57    1.00    0.86            0.17    0.28    0.22           0.36     0.43
F1          2.80    3.65    2.70          22.47  -12.10    2.34          12.32  169.05           1.58    1.40    1.69    1.47            0.09    0.10    0.06           0.42     0.50
F2          2.42    3.65    2.22          22.47  -19.50    6.44          20.54  161.72           1.73    1.35    1.84    1.48            0.09    0.11    0.04           0.46     0.56
F3          1.94    3.66    1.93          22.51  -29.94    9.18          31.31  162.95           2.01    1.29    1.96    1.50            0.08    0.12    0.05           0.42     0.52
F4          1.38    3.85    1.37          23.18  -47.46   16.49          50.24  160.84           2.74    1.17    2.29    1.50            0.03    0.09    0.03           0.41     0.52
F5         10.01   13.03    9.09          42.81  -18.50    5.52          19.31  163.38           1.07    0.82    1.09    0.91            0.26    0.26    0.20           0.52     0.65
F6          7.87   12.81    7.61          42.48  -35.16   10.45          36.69  163.44           1.36    0.76    1.22    0.94            0.21    0.25    0.15           0.45     0.55
F7          6.36   12.71    6.12          42.32  -49.42   16.53          52.11  161.51           1.69    0.71    1.38    0.96            0.19    0.29    0.15           0.45     0.54
F8          4.99   13.38    4.80          43.33  -69.41   24.79          73.71  160.34           2.43    0.62    1.60    0.96            0.10    0.23    0.12           0.38     0.45
F9         26.81   31.39   23.80          62.83  -13.45    3.77          13.97  164.32           0.60    0.46    0.61    0.52            0.57    0.50    0.42           0.55     0.70
F10        24.12   31.39   21.19          62.84  -24.76    8.80          26.28  160.43           0.72    0.43    0.68    0.53            0.49    0.46    0.32           0.48     0.61
F11        21.82   31.77   19.46          63.15  -36.50   12.91          38.72  160.52           0.87    0.39    0.74    0.53            0.40    0.41    0.29           0.43     0.58
F12        17.37   33.41   15.11          64.49  -64.56   25.21          69.30  158.67           1.34    0.29    0.92    0.54            0.24    0.29    0.20           0.37     0.46
F13        39.87   52.63   56.56          77.66  -31.21  -14.86          34.56  205.46           0.67    0.18    0.17    0.32            0.67    0.72    0.45           0.46     0.61
F14        39.94   27.23   47.50          59.19   48.61  -36.73          60.93  322.93           0.21    0.80    0.20    0.53            0.17    0.19    0.16           0.32     0.41
F15        62.77   67.60   15.65          85.81   -5.49   60.62          60.87   95.18           0.12    0.17    0.92    0.16            0.27    0.31    0.20           0.26     0.32
F16        14.18   15.02   12.53          45.66   -1.83   -0.41           1.87  193.32           0.80    0.84    0.90    0.83            0.33    0.26    0.21           0.50     0.65
F17        30.47   20.93   10.05          52.87   43.73   19.60          47.93   24.14           0.23    0.97    1.00    0.61            0.14    0.14    0.19           0.37     0.45
