targets/wolf_faust/transmissive/N111122.it8
IT8.7/1
ORIGINATOR "Wolf Faust"
DESCRIPTOR "Velvia 100, 100F, Astia 100F, Provia 400X and Sensia 100 (Emul. 687 or higher), Type 3, L* a* b* (light D50, viewing angle 2)"
MANUFACTURER "Wolf Faust - http://www.coloraid.de"
CREATED "November 22, 2011"
PROD_DATE "2011:11"
DIFFUSE_GEOMETRY "opal"
SERIAL "N111122 Batch Average Data"
MATERIAL "Fujichrome Velvia 100 (RVP 100)"
KEYWORD "MEAN_DE" # Mean Delta E of samples compared to batch average
NUMBER_OF_FIELDS 18
BEGIN_DATA_FORMAT
SAMPLE_ID  XYZ_X   XYZ_Y   XYZ_Z          LAB_L   LAB_A   LAB_B          LAB_C   LAB_H          D_RED  D_GREEN  D_BLUE  D_VIS          STDEV_X STDEV_Y STDEV_Z        MEAN_DE  STDEV_DE
END_DATA_FORMAT
NUMBER_OF_SETS 288
BEGIN_DATA
A1          2.78    2.25    1.52          16.75   12.08    3.60          12.60   16.61           1.34    1.87    1.92    1.61            0.06    0.04    0.02           0.28     0.37
A2          3.23    2.19    1.29          16.48   21.17    5.93          21.99   15.66           1.21    2.04    1.97    1.59            0.07    0.04    0.02           0.30     0.40 
A3          3.81    2.18    1.08          16.39   30.70    8.66          31.90   15.76           1.08    2.30    2.02    1.55            0.06    0.03    0.01           0.27     0.35
A4          4.89    2.18    0.81          16.40   45.35   13.12          47.21   16.13           0.89    3.32    2.02    1.50            0.08    0.04    0.01           0.21     0.28 
A5         10.84    9.31    6.71          36.57   14.72    4.01          15.26   15.24           0.78    1.17    1.20    1.00            0.12    0.09    0.08           0.27     0.33
A6         12.73    9.12    5.60          36.21   29.54    8.46          30.73   15.97           0.63    1.32    1.27    0.98            0.14    0.09    0.07           0.26     0.32 
A7         15.28    9.26    4.94          36.49   44.34   12.28          46.01   15.48           0.49    1.51    1.31    0.94            0.14    0.08    0.05           0.25     0.31
A8         17.83    8.76    3.88          35.52   62.75   16.67          64.92   14.88           0.36    2.02    1.37    0.92            0.03    0.02    0.03           0.12     0.16 
A9         31.14   29.96   23.67          61.62    8.46    1.93           8.68   12.85           0.40    0.57    0.59    0.51            0.27    0.21    0.18           0.26     0.34
A10        33.16   30.08   22.52          61.73   15.27    4.28          15.86   15.67           0.34    0.60    0.61    0.50            0.33    0.25    0.36           0.34     0.46
A11        35.23   29.86   21.27          61.53   23.26    6.41          24.13   15.40           0.27    0.64    0.64    0.49            0.27    0.18    0.37           0.43     0.56
A12        37.99   29.46   19.41          61.18   33.86    9.62          35.20   15.85           0.19    0.71    0.68    0.48            0.25    0.25    0.43           0.46     0.61 
A13        72.14   76.41   62.07          90.05   -3.21    0.96           3.35  163.29           0.13    0.11    0.13    0.12            0.07    0.06    0.06           0.09     0.11
A14        73.13   75.04   61.89          89.41    1.63    0.03           1.64  241.16           0.10    0.13    0.13    0.12            0.13    0.20    0.08           0.17     0.22 
A15        75.20   78.37   61.12          90.95   -0.76    3.44           3.52  102.41           0.10    0.10    0.14    0.11            0.09    0.10    0.09           0.08     0.10
A16        72.72   75.65   61.76          89.70   -0.47    0.65           0.80  125.79           0.11    0.12    0.13    0.12            0.06    0.08    0.02           0.07     0.09
A17        71.80   73.42   59.64          88.65    2.13    0.95           2.33   24.13           0.10    0.14    0.15    0.13            0.25    0.34    0.17           0.21     0.27
A18        72.19   76.41   59.94          90.05   -3.10    3.06           4.36  135.38           0.13    0.11    0.15    0.12            0.07    0.04    0.08           0.11     0.14 
A19        69.94   72.58   60.98          88.25   -0.10   -1.08           1.08  264.39           0.13    0.14    0.14    0.14            0.14    0.17    0.09           0.13     0.17
A20         6.95    3.32    2.02          21.26   47.41    6.20          47.81    7.45           0.77    2.62    1.63    1.34            0.21    0.10    0.06           0.44     0.61 
A21        27.93   19.73   15.37          51.53   39.72    2.21          39.78    3.19           0.30    0.97    0.77    0.65            0.23    0.18    0.15           0.17     0.22
A22        52.93   49.36   34.45          75.67   14.25    8.58          16.64   31.05           0.15    0.36    0.42    0.29            0.28    0.37    0.31           0.30     0.38
B1          4.01    3.51    1.99          21.99    9.55    7.73          12.28   39.00           1.21    1.60    1.82    1.42            0.08    0.05    0.01           0.36     0.46
B2          4.52    3.38    1.29          21.50   18.58   14.68          23.68   38.33           1.09    1.73    2.06    1.41            0.07    0.04    0.01           0.29     0.39
B3          5.04    3.30    0.77          21.19   26.60   22.07          34.57   39.67           1.00    1.87    2.35    1.39            0.08    0.05    0.00           0.33     0.44
B4          6.16    3.41    0.21          21.61   37.69   33.34          50.32   41.50           0.86    2.10    3.22    1.34            0.10    0.05    0.00           0.34     0.44
B5         13.91   12.32    7.08          41.71   13.48   11.32          17.60   40.02           0.68    1.02    1.19    0.88            0.14    0.11    0.07           0.24     0.30
B6         15.89   12.27    4.62          41.64   25.71   22.86          34.40   41.64           0.55    1.11    1.43    0.86            0.14    0.09    0.03           0.22     0.28
B7         18.24   12.09    2.80          41.36   39.80   34.17          52.46   40.64           0.43    1.26    1.70    0.83            0.17    0.10    0.01           0.26     0.34
B8         21.57   11.62    1.02          40.61   59.52   51.31          78.58   40.76           0.29    1.60    2.26    0.81            0.01    0.02    0.01           0.09     0.12
B9         36.86   36.26   27.36          66.72    6.35    4.19           7.61   33.45           0.34    0.47    0.53    0.43            0.15    0.09    0.21           0.27     0.33
B10        38.42   36.16   24.30          66.64   11.72    9.44          15.05   38.84           0.29    0.50    0.59    0.42            0.21    0.16    0.23           0.22     0.28
B11        40.17   36.55   21.84          66.94   15.95   14.59          21.62   42.45           0.24    0.51    0.64    0.41            0.31    0.27    0.31           0.27     0.35
B12        42.30   35.82   17.72          66.38   24.82   22.28          33.36   41.91           0.17    0.56    0.75    0.41            0.19    0.24    0.31           0.37     0.48
B13        66.11   71.53   59.98          87.74   -6.26   -0.96           6.33  188.74           0.19    0.13    0.15    0.15            0.13    0.07    0.08           0.15     0.19
B14        64.88   63.28   58.44          83.59    8.88   -6.57          11.05  323.52           0.13    0.22    0.15    0.19            0.10    0.19    0.09           0.24     0.31
B15        70.77   74.29   50.66          89.06   -1.84   11.16          11.31   99.35           0.11    0.13    0.24    0.13            0.12    0.15    0.19           0.09     0.12
B16        58.31   60.17   49.81          81.93    0.71   -0.19           0.74  345.48           0.20    0.22    0.23    0.22            0.34    0.36    0.22           0.18     0.23
B17        62.59   61.58   48.99          82.69    7.54    2.07           7.82   15.34           0.13    0.23    0.24    0.20            0.20    0.28    0.15           0.20     0.25
B18        64.52   70.62   51.39          87.30   -7.93    7.31          10.79  137.33           0.19    0.13    0.23    0.16            0.15    0.12    0.09           0.09     0.11
B19        60.24   61.71   58.05          82.76    1.75   -7.60           7.80  283.00           0.20    0.21    0.15    0.21            0.19    0.22    0.06           0.20     0.26
B20         5.53    3.35    1.08          21.39   31.60   17.36          36.05   28.78           0.93    1.98    2.09    1.38            0.10    0.06    0.02           0.28     0.36
B21        18.14   12.03    4.52          41.27   39.68   22.81          45.77   29.89           0.44    1.27    1.40    0.84            0.21    0.15    0.05           0.22     0.29
B22        35.20   29.96   17.98          61.62   22.79   13.48          26.48   30.61           0.27    0.64    0.73    0.49            0.26    0.27    0.15           0.23     0.30
C1          7.13    6.86    3.86          31.49    5.15    9.84          11.11   62.37           1.00    1.24    1.51    1.15            0.12    0.08    0.04           0.36     0.46
C2          7.72    6.95    2.42          31.70    9.94   20.58          22.85   64.22           0.93    1.26    1.80    1.13            0.13    0.10    0.02           0.33     0.42
C3          8.09    6.86    1.27          31.48   14.27   32.10          35.13   66.04           0.88    1.30    2.24    1.12            0.10    0.06    0.02           0.28     0.38
C4          8.41    6.63    0.49          30.96   19.37   44.18          48.24   66.33           0.85    1.34    3.08    1.12            0.09    0.04    0.00           0.31     0.41
C5         25.83   24.76   12.60          56.84    8.31   18.70          20.47   66.03           0.45    0.66    0.93    0.59            0.20    0.14    0.10           0.27     0.33
C6         27.51   24.80    7.15          56.88   15.03   37.15          40.07   67.97           0.38    0.69    1.27    0.57            0.15    0.11    0.06           0.22     0.27
C7         29.51   24.98    3.67          57.05   22.08   55.11          59.36   68.17           0.32    0.72    1.72    0.55            0.22    0.18    0.02           0.22     0.28
C8         32.18   24.86    0.99          56.94   32.41   79.97          86.29   67.94           0.26    0.78    2.96    0.54            0.23    0.20    0.01           0.18     0.25
C9         42.60   42.64   30.19          71.31    4.50    7.49           8.74   59.01           0.29    0.39    0.48    0.36            0.22    0.19    0.26           0.21     0.27
C10        43.83   43.08   25.63          71.61    6.82   15.60          17.03   66.38           0.25    0.40    0.57    0.35            0.32    0.29    0.27           0.23     0.29
C11        44.74   42.90   21.53          71.48   10.01   23.04          25.12   66.51           0.22    0.42    0.67    0.35            0.26    0.24    0.31           0.28     0.38
C12        46.19   42.10   13.40          70.94   16.50   40.79          44.00   67.98           0.16    0.45    0.94    0.34            0.15    0.17    0.17           0.23     0.31
C13        59.94   67.51   59.47          85.76  -11.89   -3.87          12.50  198.03           0.28    0.14    0.15    0.18            0.35    0.30    0.31           0.22     0.27
C14        58.49   53.46   56.41          78.14   17.47  -13.86          22.30  321.58           0.14    0.32    0.16    0.26            0.26    0.29    0.26           0.24     0.30
C15        68.60   72.94   39.91          88.42   -3.73   23.05          23.34   99.19           0.11    0.13    0.37    0.13            0.23    0.24    0.29           0.18     0.24
C16        45.72   47.17   38.79          74.30    0.68    0.18           0.71   14.36           0.30    0.33    0.35    0.33            0.26    0.24    0.22           0.16     0.20
C17        53.62   49.82   37.00          75.96   14.77    5.48          15.76   20.34           0.15    0.36    0.38    0.29            0.14    0.16    0.17           0.18     0.22
C18        56.62   65.58   41.17          84.78  -15.70   15.14          21.81  136.05           0.28    0.15    0.35    0.19            0.14    0.14    0.18           0.12     0.15
C19        49.35   49.95   55.65          76.04    3.22  -16.70          17.00  280.92           0.30    0.31    0.17    0.31            0.33    0.32    0.12           0.21     0.30
C20        13.20    9.62    1.26          37.15   28.56   42.05          50.83   55.82           0.61    1.26    2.26    0.94            0.21    0.15    0.01           0.40     0.53
C21        23.85   22.13   12.16          54.16   11.42   15.34          19.12   53.32           0.47    0.73    0.94    0.63            0.24    0.20    0.05           0.27     0.37
C22        29.13   24.73   11.92          56.81   21.64   20.59          29.87   43.58           0.34    0.73    0.95    0.57            0.28    0.25    0.14           0.26     0.32
D1          4.99    5.07    2.78          26.93    1.32    9.46           9.56   82.05           1.18    1.35    1.69    1.29            0.06    0.04    0.02           0.25     0.32
D2          4.99    5.07    1.79          26.93    1.33   18.22          18.27   85.83           1.17    1.34    1.97    1.28            0.06    0.04    0.02           0.25     0.32
D3          4.89    5.11    1.01          27.05   -0.50   28.09          28.09   91.02           1.20    1.31    2.42    1.27            0.04    0.03    0.01           0.29     0.39
D4          4.84    5.00    0.52          26.74    0.22   36.30          36.30   89.65           1.21    1.31    3.05    1.28            0.07    0.06    0.01           0.37     0.46
D5         19.30   20.19   10.34          52.06   -0.86   17.25          17.28   92.86           0.62    0.71    1.04    0.69            0.11    0.06    0.06           0.29     0.37
D6         19.27   20.17    5.59          52.03   -0.89   35.76          35.77   91.43           0.61    0.71    1.43    0.68            0.14    0.11    0.03           0.17     0.23
D7         19.12   20.13    2.68          51.98   -1.43   53.40          53.42   91.53           0.62    0.70    1.99    0.68            0.19    0.16    0.01           0.27     0.37
D8         18.65   19.69    1.12          51.48   -1.71   68.59          68.62   91.43           0.66    0.70    2.91    0.68            0.23    0.20    0.01           0.33     0.43
D9         48.18   50.05   26.35          76.10   -0.21   22.10          22.10   90.54           0.24    0.31    0.57    0.29            0.23    0.19    0.21           0.18     0.24
D10        47.63   49.78   15.12          75.93   -1.01   44.92          44.93   91.29           0.22    0.31    0.90    0.29            0.27    0.26    0.21           0.26     0.34
D11        47.44   50.06    7.59          76.11   -2.29   68.51          68.55   91.91           0.23    0.30    1.38    0.28            0.21    0.19    0.03           0.13     0.16
D12        46.46   49.31    2.11          75.64   -3.03   99.12          99.17   91.75           0.27    0.31    2.65    0.28            0.28    0.25    0.01           0.18     0.25
D13        54.32   63.66   58.78          83.79  -17.16   -6.56          18.37  200.93           0.37    0.15    0.15    0.22            0.08    0.06    0.12           0.11     0.14
D14        52.63   44.67   54.08          72.68   26.40  -20.84          33.63  321.71           0.16    0.44    0.17    0.33            0.04    0.03    0.14           0.12     0.17
D15        66.84   71.63   31.21          87.79   -4.88   34.31          34.66   98.09           0.11    0.14    0.50    0.14            0.19    0.21    0.17           0.11     0.14
D16        34.79   35.75   29.37          66.33    1.09    0.20           1.12  130.82           0.41    0.46    0.49    0.45            0.24    0.20    0.11           0.26     0.32
D17        45.43   39.22   26.91          68.91   23.08    8.73          24.68   20.72           0.17    0.51    0.53    0.38            0.46    0.47    0.28           0.29     0.38
D18        49.68   60.87   32.49          82.31  -22.91   22.91          32.40  135.00           0.36    0.16    0.48    0.23            0.17    0.13    0.11           0.12     0.17
D19        39.70   39.48   53.14          69.10    5.16  -25.98          26.49  281.23           0.42    0.41    0.18    0.42            0.12    0.14    0.15           0.27     0.35
D20         3.65    3.48    1.18          21.86    4.65   16.74          17.37   74.49           1.28    1.54    2.18    1.43            0.08    0.07    0.02           0.27     0.37
D21        32.39   29.78    1.53          61.46   13.69   80.68          81.83   80.37           0.33    0.59    2.68    0.48            0.34    0.31    0.01           0.35     0.46
D22        42.31   46.00   54.90          73.54   -6.03  -20.20          21.08  253.39           0.44    0.31    0.17    0.36            0.39    0.39    0.20           0.39     0.50
E1          6.46    7.09    3.85          32.01   -3.89   10.76          11.45  109.85           1.11    1.16    1.53    1.15            0.05    0.02    0.01           0.32     0.42
E2          5.96    7.12    2.60          32.08   -9.57   19.74          21.93  115.86           1.18    1.12    1.81    1.15            0.05    0.03    0.02           0.23     0.30
E3          5.54    7.22    1.55          32.29  -15.23   30.10          33.73  116.84           1.27    1.07    2.22    1.15            0.05    0.03    0.00           0.26     0.33
E4          4.85    6.94    0.74          31.68  -20.97   40.72          45.81  117.25           1.43    1.04    2.99    1.18            0.06    0.05    0.01           0.27     0.35
E5         26.29   29.56   16.04          61.28   -8.88   17.39          19.52  117.05           0.55    0.51    0.82    0.53            0.17    0.11    0.13           0.27     0.36
E6         24.01   29.38    9.96          61.12  -17.82   34.11          38.49  117.59           0.62    0.48    1.12    0.54            0.22    0.20    0.09           0.26     0.33
E7         21.79   29.54    5.64          61.26  -28.42   51.41          58.75  118.94           0.74    0.44    1.54    0.54            0.20    0.22    0.05           0.27     0.34
E8         18.82   28.94    1.75          60.73  -40.69   76.98          87.07  117.86           1.00    0.40    2.78    0.56            0.07    0.05    0.00           0.14     0.19
E9         46.55   50.11   33.95          76.14   -4.89   10.10          11.22  115.82           0.30    0.29    0.43    0.30            0.35    0.34    0.21           0.20     0.25
E10        44.17   49.91   26.79          76.02  -11.18   21.19          23.96  117.82           0.34    0.28    0.57    0.30            0.21    0.20    0.16           0.16     0.20
E11        41.95   49.67   20.82          75.87  -17.13   32.02          36.31  118.14           0.38    0.26    0.72    0.31            0.10    0.09    0.10           0.21     0.26
E12        37.30   49.98   10.05          76.06  -32.48   59.59          67.87  118.59           0.51    0.22    1.21    0.31            0.16    0.16    0.12           0.23     0.30
E13        48.67   59.59   58.07          81.62  -22.67   -9.59          24.61  202.94           0.47    0.16    0.16    0.25            0.31    0.26    0.18           0.20     0.28
E14        47.70   37.52   51.80          67.67   34.80  -26.99          44.04  322.20           0.18    0.56    0.18    0.40            0.13    0.14    0.19           0.13     0.16
E15        65.47   70.44   24.04          87.21   -5.41   45.37          45.69   96.80           0.11    0.15    0.66    0.14            0.13    0.14    0.07           0.07     0.09
E16        25.51   26.52   21.73          58.52   -0.22    0.29           0.48  123.56           0.54    0.59    0.64    0.58            0.19    0.12    0.07           0.31     0.40
E17        39.08   31.09   18.99          62.58   31.29   12.93          33.85   22.45           0.19    0.67    0.70    0.46            0.11    0.13    0.09           0.16     0.21
E18        43.00   55.97   25.19          79.60  -30.04   30.15          42.56  134.89           0.46    0.18    0.62    0.27            0.26    0.22    0.12           0.24     0.30
E19        30.98   30.47   50.62          62.06    6.01  -35.35          35.86  279.66           0.56    0.52    0.19    0.54            0.20    0.16    0.13           0.29     0.37
E20         8.39    9.73    1.56          37.35   -8.37   38.66          39.56  102.22           1.02    0.98    2.27    1.01            0.10    0.08    0.01           0.24     0.32
E21        26.13   30.84    6.71          62.37  -14.26   48.48          50.53  106.39           0.55    0.47    1.39    0.51            0.24    0.27    0.08           0.21     0.26
E22         9.79   20.34   14.82          52.22  -60.77    4.78          60.96  175.50           1.80    0.49    0.88    0.77            0.07    0.11    0.13           0.19     0.24
F1          4.25    5.08    3.70          26.97   -8.59    3.03           9.11  160.57           1.35    1.28    1.53    1.31            0.04    0.03    0.02           0.23     0.30
F2          3.44    5.01    3.15          26.78  -19.80    6.40          20.81  162.08           1.57    1.22    1.65    1.34            0.03    0.02    0.01           0.24     0.31
F3          2.95    5.10    2.62          27.00  -29.04   10.84          31.00  159.52           1.76    1.16    1.80    1.35            0.03    0.02    0.00           0.20     0.25
F4          1.76    4.92    1.77          26.49  -51.41   17.74          54.38  160.96           2.69    1.06    2.15    1.40            0.01    0.02    0.01           0.08     0.10
F5         13.04   16.00   11.00          46.97  -14.80    6.40          16.12  156.62           0.91    0.75    0.99    0.82            0.13    0.13    0.10           0.19     0.24
F6         10.49   15.75    9.18          46.65  -31.38   11.84          33.54  159.33           1.16    0.69    1.12    0.84            0.10    0.11    0.11           0.19     0.25
F7          8.50   16.08    7.69          47.08  -49.40   18.09          52.61  159.88           1.51    0.62    1.26    0.85            0.08    0.12    0.06           0.20     0.24
F8          5.99   15.48    5.99          46.29  -70.41   23.96          74.38  161.20           2.31    0.56    1.46    0.89            0.03    0.06    0.01           0.10     0.13
F9         31.18   35.69   27.22          66.28  -11.46    3.67          12.03  162.23           0.52    0.42    0.54    0.46            0.31    0.33    0.28           0.28     0.34
F10        27.94   35.35   24.83          66.02  -22.66    7.39          23.84  161.93           0.64    0.38    0.59    0.48            0.20    0.20    0.23           0.24     0.30
F11        24.95   35.27   22.53          65.96  -34.65   11.56          36.53  161.55           0.79    0.35    0.66    0.49            0.17    0.20    0.22           0.21     0.27
F12        18.39   34.58   18.36          65.42  -63.14   19.20          65.99  163.09           1.32    0.28    0.80    0.52            0.05    0.05    0.15           0.22     0.28
F13        44.50   56.44   57.49          79.86  -26.82  -12.01          29.39  204.12           0.56    0.17    0.16    0.28            0.20    0.18    0.20           0.16     0.20
F14        42.75   30.70   49.19          62.25   43.97  -33.40          55.22  322.78           0.20    0.71    0.19    0.48            0.13    0.13    0.24           0.18     0.22
F15        64.29   69.14   18.63          86.57   -5.32   55.07          55.32   95.52           0.11    0.16    0.81    0.15            0.02    0.05    0.10           0.14     0.18
F16        18.30   18.62   15.57          50.24    1.84   -0.51           1.91  344.39           0.67    0.76    0.79    0.73            0.11    0.07    0.05           0.19     0.24
F17        32.88   23.51   12.78          55.60   40.71   16.04          43.75   21.50           0.22    0.88    0.88    0.56            0.08    0.09    0.10           0.20     0.25
