targets/wolf_faust/transmissive/N120606.it8
IT8.7/1
ORIGINATOR "Wolf Faust"
DESCRIPTOR "Velvia 100, 100F, Astia 100F, Provia 400X and Sensia 100 (Emul. 687 or higher), Type 3, L* a* b* (light D50, viewing angle 2)"
MANUFACTURER "Wolf Faust - http://www.coloraid.de"
CREATED "March 12, 2012"
PROD_DATE "2011:12"
DIFFUSE_GEOMETRY "opal"
SERIAL "N120606 Batch Average Data"
MATERIAL "Fujichrome Velvia 100 (RVP 100)"
KEYWORD "MEAN_DE" # Mean Delta E of samples compared to batch average
NUMBER_OF_FIELDS 18
BEGIN_DATA_FORMAT
SAMPLE_ID  XYZ_X   XYZ_Y   XYZ_Z          LAB_L   LAB_A   LAB_B          LAB_C   LAB_H          D_RED  D_GREEN  D_BLUE  D_VIS          STDEV_X STDEV_Y STDEV_Z        MEAN_DE  STDEV_DE
END_DATA_FORMAT
NUMBER_OF_SETS 288
BEGIN_DATA
A1          1.69    1.47    1.05          12.44    7.23    2.37           7.61   18.18           1.59    2.01    2.11    1.81            0.05    0.04    0.03           0.36     0.40
A2          2.02    1.37    0.87          11.77   18.12    4.04          18.56   12.57           1.42    2.26    2.16    1.79            0.05    0.04    0.02           0.37     0.41 
A3          2.56    1.43    0.72          12.16   27.79    7.46          28.77   15.03           1.25    2.53    2.21    1.73            0.06    0.03    0.02           0.37     0.42
A4          3.45    1.56    0.59          12.99   39.79   11.30          41.37   15.85           1.05    3.31    2.18    1.65            0.09    0.04    0.01           0.42     0.49 
A5          8.18    7.14    5.27          32.13   12.22    3.07          12.60   14.10           0.91    1.28    1.32    1.12            0.16    0.11    0.08           0.50     0.58
A6         10.16    7.22    4.35          32.30   27.92    8.28          29.13   16.53           0.73    1.43    1.39    1.08            0.20    0.13    0.08           0.46     0.52 
A7         12.21    7.34    3.75          32.58   41.68   12.39          43.48   16.56           0.59    1.63    1.44    1.04            0.21    0.13    0.09           0.39     0.46
A8         16.77    8.11    3.04          34.22   62.65   20.02          65.77   17.72           0.38    2.13    1.48    0.95            0.09    0.06    0.06           0.29     0.33 
A9         26.03   25.46   19.67          57.52    6.24    2.75           6.83   23.85           0.49    0.64    0.68    0.59            0.35    0.29    0.23           0.43     0.49
A10        28.29   25.51   18.57          57.56   15.15    5.18          16.02   18.89           0.40    0.68    0.71    0.57            0.36    0.31    0.25           0.44     0.49
A11        30.52   25.54   17.44          57.60   23.51    7.76          24.76   18.26           0.33    0.72    0.74    0.56            0.34    0.30    0.26           0.42     0.47
A12        35.07   26.30   16.20          58.32   36.58   11.91          38.47   18.03           0.21    0.79    0.77    0.53            0.21    0.22    0.24           0.44     0.48 
A13        69.74   74.43   60.44          89.12   -4.29    0.97           4.40  167.32           0.15    0.12    0.14    0.13            0.27    0.24    0.21           0.20     0.23
A14        69.98   70.98   59.87          87.48    3.32   -1.31           3.57  338.60           0.11    0.16    0.14    0.15            0.23    0.25    0.19           0.19     0.23 
A15        73.69   76.94   59.04          90.29   -1.03    4.39           4.51  103.16           0.10    0.11    0.16    0.11            0.21    0.22    0.23           0.20     0.23
A16        70.29   73.04   59.98          88.47   -0.29    0.30           0.42  136.26           0.13    0.14    0.14    0.14            0.27    0.27    0.25           0.19     0.22
A17        68.85   69.89   56.68          86.94    3.20    1.02           3.36   17.75           0.12    0.16    0.17    0.15            0.46    0.48    0.41           0.25     0.30
A18        70.33   74.78   58.23          89.29   -3.77    3.48           5.13  137.31           0.14    0.12    0.16    0.13            0.21    0.20    0.18           0.20     0.23 
A19        64.50   67.32   58.71          85.66   -0.92   -3.26           3.39  254.20           0.18    0.17    0.15    0.17            0.26    0.27    0.19           0.22     0.25
A20         5.46    2.50    1.41          17.94   45.75    7.06          46.29    8.77           0.86    2.97    1.78    1.45            0.14    0.06    0.04           0.46     0.52 
A21        24.32   16.84   12.47          48.06   39.76    3.93          39.96    5.64           0.35    1.06    0.87    0.71            0.23    0.19    0.18           0.37     0.41
A22        49.88   45.97   30.60          73.53   15.47   10.67          18.80   34.59           0.16    0.40    0.47    0.32            0.25    0.28    0.27           0.36     0.41
B1          2.63    2.40    1.40          17.45    6.29    6.22           8.85   44.73           1.41    1.75    2.00    1.60            0.07    0.06    0.03           0.36     0.42
B2          2.97    2.30    0.84          17.00   14.55   13.60          19.92   43.07           1.28    1.87    2.29    1.58            0.07    0.05    0.02           0.39     0.45
B3          3.45    2.28    0.51          16.88   22.97   19.41          30.07   40.19           1.17    2.02    2.56    1.56            0.10    0.06    0.02           0.46     0.52
B4          4.04    2.35    0.20          17.23   30.39   25.94          39.96   40.48           1.06    2.17    3.17    1.51            0.12    0.07    0.00           0.63     0.73
B5         10.52    9.47    5.62          36.86   11.03    9.49          14.55   40.73           0.81    1.13    1.31    1.00            0.21    0.16    0.09           0.51     0.60
B6         12.55    9.62    3.61          37.15   24.28   21.13          32.19   41.04           0.65    1.23    1.55    0.96            0.28    0.20    0.07           0.54     0.63
B7         15.11   10.02    2.13          37.88   37.32   33.78          50.34   42.15           0.52    1.34    1.85    0.91            0.27    0.18    0.04           0.42     0.49
B8         20.40   10.71    0.77          39.09   60.51   52.81          80.31   41.11           0.31    1.70    2.41    0.84            0.09    0.06    0.02           0.25     0.27
B9         30.99   31.06   23.16          62.56    3.88    4.50           5.95   49.30           0.43    0.53    0.61    0.50            0.38    0.31    0.26           0.43     0.50
B10        33.12   31.38   20.40          62.82   10.41   10.39          14.70   44.95           0.35    0.56    0.67    0.49            0.35    0.30    0.25           0.36     0.42
B11        34.74   31.27   18.00          62.73   16.42   15.36          22.48   43.08           0.30    0.59    0.74    0.48            0.28    0.25    0.25           0.35     0.39
B12        39.12   32.04   14.45          63.37   28.03   24.95          37.52   41.67           0.19    0.64    0.86    0.45            0.18    0.21    0.22           0.41     0.46
B13        61.77   68.27   58.70          86.14   -9.22   -2.43           9.54  194.76           0.24    0.14    0.16    0.18            0.28    0.21    0.18           0.24     0.28
B14        61.91   59.47   56.86          81.55   10.87   -8.46          13.77  322.09           0.14    0.26    0.16    0.22            0.14    0.14    0.19           0.21     0.24
B15        68.51   72.44   46.02          88.18   -2.89   15.00          15.28  100.89           0.12    0.14    0.29    0.14            0.20    0.18    0.22           0.23     0.25
B16        52.48   54.77   45.21          78.91   -0.86   -0.02           0.90  185.35           0.25    0.26    0.28    0.26            0.23    0.17    0.25           0.34     0.40
B17        58.94   57.40   44.23          80.40    8.81    3.76           9.58   23.10           0.14    0.27    0.29    0.23            0.12    0.12    0.21           0.26     0.30
B18        59.79   67.19   46.90          85.60  -11.55    9.51          14.97  140.53           0.24    0.14    0.28    0.18            0.32    0.26    0.22           0.25     0.29
B19        54.80   56.48   56.29          79.89    0.85  -10.73          10.77  274.55           0.25    0.25    0.17    0.25            0.24    0.20    0.16           0.26     0.28
B20         3.91    2.33    0.75          17.11   29.08   15.42          32.92   27.93           1.08    2.18    2.26    1.53            0.12    0.07    0.03           0.47     0.53
B21        15.09    9.88    3.50          37.63   38.26   22.72          44.49   30.70           0.52    1.37    1.53    0.92            0.22    0.14    0.05           0.40     0.45
B22        30.83   25.84   14.91          57.88   23.43   14.32          27.46   31.44           0.31    0.72    0.82    0.55            0.23    0.20    0.16           0.36     0.42
C1          5.09    5.13    2.83          27.10    1.78    9.31           9.48   79.20           1.17    1.35    1.67    1.28            0.12    0.10    0.06           0.39     0.44
C2          5.48    5.19    1.74          27.28    5.67   19.40          20.21   73.71           1.10    1.36    1.99    1.26            0.14    0.12    0.04           0.48     0.55
C3          5.58    4.81    0.93          26.19   11.60   27.92          30.24   67.44           1.05    1.44    2.41    1.27            0.15    0.12    0.02           0.46     0.55
C4          6.36    5.15    0.44          27.16   16.01   38.47          41.67   67.41           0.98    1.44    3.06    1.23            0.16    0.12    0.01           0.62     0.73
C5         20.83   20.27   10.19          52.14    6.33   17.89          18.98   70.50           0.55    0.74    1.04    0.68            0.33    0.28    0.16           0.43     0.53
C6         23.27   20.70    5.64          52.62   15.56   36.53          39.71   66.93           0.44    0.78    1.40    0.65            0.36    0.30    0.09           0.44     0.53
C7         25.22   20.77    2.71          52.70   23.65   54.43          59.35   66.52           0.37    0.82    1.91    0.63            0.34    0.29    0.05           0.42     0.47
C8         27.71   20.92    0.88          52.86   33.17   74.65          81.69   66.04           0.31    0.87    2.95    0.61            0.25    0.21    0.01           0.42     0.47
C9         37.12   37.79   25.80          67.87    2.22    8.86           9.14   75.93           0.35    0.44    0.56    0.42            0.31    0.26    0.26           0.35     0.40
C10        38.17   37.92   21.59          67.96    5.20   16.85          17.64   72.84           0.31    0.45    0.66    0.41            0.31    0.26    0.26           0.36     0.41
C11        39.89   38.18   18.10          68.15    9.83   24.48          26.38   68.12           0.26    0.47    0.76    0.40            0.30    0.28    0.25           0.34     0.39
C12        43.39   38.60   10.99          68.46   19.09   43.49          47.50   66.30           0.17    0.50    1.05    0.38            0.14    0.17    0.13           0.31     0.35
C13        54.95   63.67   58.01          83.79  -15.61   -5.77          16.64  200.28           0.35    0.15    0.16    0.21            0.36    0.28    0.22           0.31     0.37
C14        55.08   49.00   54.49          75.45   20.69  -16.49          26.46  321.45           0.16    0.38    0.17    0.30            0.12    0.10    0.20           0.19     0.23
C15        66.37   71.04   35.38          87.50   -4.66   27.65          28.04   99.58           0.12    0.14    0.43    0.14            0.17    0.17    0.19           0.24     0.27
C16        39.39   41.25   33.92          70.35   -1.18    0.17           1.21  174.40           0.37    0.39    0.42    0.39            0.30    0.24    0.24           0.40     0.46
C17        49.83   45.33   32.27          73.11   17.16    7.37          18.68   23.25           0.16    0.41    0.44    0.32            0.14    0.15    0.22           0.32     0.38
C18        51.40   61.73   36.53          82.77  -20.32   17.86          27.06  138.68           0.34    0.16    0.41    0.22            0.36    0.28    0.26           0.35     0.41
C19        43.31   44.00   53.66          72.23    2.64  -21.16          21.33  277.11           0.38    0.36    0.18    0.37            0.32    0.26    0.14           0.38     0.42
C20        10.34    7.58    0.93          33.09   25.98   39.78          47.52   56.86           0.72    1.36    2.45    1.05            0.24    0.16    0.02           0.53     0.61
C21        18.89   17.72    9.66          49.16    9.53   14.51          17.36   56.71           0.58    0.82    1.05    0.73            0.26    0.20    0.12           0.43     0.51
C22        25.02   20.97    9.45          52.91   21.87   21.69          30.80   44.77           0.39    0.81    1.07    0.64            0.21    0.17    0.08           0.31     0.37
D1          3.25    3.55    1.99          22.11   -2.84    7.90           8.40  109.74           1.40    1.48    1.86    1.45            0.08    0.08    0.04           0.38     0.42
D2          3.19    3.49    1.21          21.89   -2.83   16.32          16.57   99.83           1.40    1.47    2.20    1.45            0.09    0.09    0.03           0.41     0.47
D3          3.13    3.48    0.69          21.88   -3.82   24.76          25.06   98.77           1.42    1.45    2.66    1.45            0.09    0.09    0.01           0.49     0.55
D4          3.12    3.47    0.45          21.82   -3.70   29.09          29.32   97.25           1.44    1.44    3.05    1.45            0.09    0.09    0.01           0.58     0.65
D5         15.23   16.20    8.18          47.23   -2.31   16.47          16.64   97.96           0.73    0.80    1.16    0.79            0.27    0.23    0.13           0.54     0.63
D6         14.80   15.95    4.32          46.90   -3.40   33.64          33.82   95.77           0.73    0.80    1.58    0.79            0.27    0.25    0.07           0.48     0.55
D7         14.72   15.95    2.00          46.91   -3.96   50.58          50.74   94.48           0.75    0.79    2.19    0.78            0.31    0.30    0.04           0.54     0.63
D8         14.71   16.12    1.03          47.13   -4.94   62.44          62.64   94.53           0.78    0.77    2.91    0.78            0.31    0.28    0.01           0.68     0.77
D9         42.92   45.11   22.26          72.97   -1.70   24.16          24.22   94.01           0.29    0.35    0.66    0.34            0.31    0.27    0.28           0.37     0.44
D10        42.91   45.44   12.56          73.18   -2.67   46.97          47.05   93.25           0.27    0.35    1.01    0.33            0.29    0.25    0.18           0.34     0.40
D11        43.16   45.79    6.34          73.41   -2.91   69.12          69.18   92.41           0.27    0.34    1.50    0.32            0.32    0.29    0.09           0.26     0.31
D12        43.22   46.60    1.99          73.93   -4.97   97.26          97.39   92.93           0.31    0.33    2.69    0.31            0.33    0.26    0.01           0.34     0.39
D13        49.17   59.57   57.26          81.61  -21.26   -8.78          23.00  202.44           0.45    0.16    0.17    0.25            0.40    0.34    0.21           0.34     0.40
D14        49.20   40.23   52.00          69.63   30.44  -23.83          38.66  321.95           0.18    0.51    0.18    0.38            0.13    0.12    0.16           0.21     0.25
D15        64.80   69.81   27.24          86.91   -5.61   39.20          39.59   98.14           0.12    0.15    0.58    0.15            0.18    0.17    0.22           0.28     0.33
D16        28.95   30.32   25.12          61.93   -1.09   -0.17           1.15  193.27           0.50    0.52    0.57    0.52            0.38    0.34    0.32           0.50     0.58
D17        42.13   35.27   22.94          65.96   26.14   10.78          28.28   22.42           0.18    0.57    0.61    0.42            0.15    0.15    0.24           0.36     0.42
D18        44.38   56.78   28.38          80.05  -27.98   25.49          37.85  137.67           0.44    0.18    0.55    0.26            0.38    0.31    0.25           0.35     0.43
D19        33.73   33.54   50.96          64.60    4.88  -31.36          31.73  278.84           0.51    0.48    0.19    0.49            0.31    0.27    0.10           0.40     0.47
D20         2.28    2.36    0.89          17.26    0.21   13.15          13.15   89.10           1.51    1.68    2.33    1.62            0.06    0.06    0.02           0.31     0.35
D21        28.30   25.83    1.27          57.88   13.82   77.58          78.80   79.90           0.39    0.66    2.80    0.55            0.32    0.28    0.01           0.49     0.54
D22        35.79   39.91   52.98          69.41   -8.79  -25.28          26.77  250.84           0.56    0.36    0.19    0.43            0.27    0.24    0.06           0.37     0.42
E1          4.38    5.07    2.86          26.93   -6.66    8.85          11.07  126.94           1.30    1.29    1.69    1.31            0.11    0.12    0.07           0.43     0.48
E2          4.06    5.20    1.85          27.30  -12.70   18.30          22.27  124.75           1.38    1.23    2.00    1.30            0.12    0.13    0.05           0.43     0.49
E3          3.74    5.19    1.07          27.27  -17.35   27.64          32.64  122.11           1.48    1.19    2.46    1.30            0.11    0.15    0.03           0.49     0.56
E4          3.30    5.02    0.64          26.80  -22.22   34.14          40.74  123.06           1.63    1.16    2.99    1.32            0.10    0.13    0.01           0.55     0.64
E5         21.79   25.46   13.39          57.52  -12.35   17.68          21.57  124.92           0.65    0.56    0.92    0.60            0.38    0.34    0.21           0.50     0.59
E6         20.02   25.32    8.32          57.38  -20.25   33.43          39.09  121.20           0.72    0.53    1.23    0.61            0.39    0.39    0.15           0.52     0.60
E7         18.19   25.52    4.40          57.57  -30.37   51.55          59.83  120.50           0.84    0.49    1.72    0.61            0.31    0.34    0.07           0.45     0.51
E8         16.35   26.58    1.70          58.58  -44.70   73.75          86.24  121.22           1.13    0.42    2.78    0.60            0.21    0.24    0.01           0.40     0.45
E9         41.00   45.12   29.76          72.97   -7.53   11.04          13.36  124.27           0.37    0.33    0.50    0.35            0.38    0.31    0.28           0.37     0.44
E10        38.93   45.15   23.11          72.99  -14.05   22.58          26.60  121.88           0.40    0.31    0.65    0.35            0.37    0.31    0.27           0.40     0.49
E11        37.51   45.67   17.90          73.33  -20.05   33.84          39.34  120.64           0.44    0.29    0.80    0.35            0.40    0.35    0.24           0.41     0.49
E12        32.26   45.37    7.87          73.14  -37.10   62.30          72.51  120.77           0.62    0.24    1.38    0.36            0.36    0.37    0.09           0.38     0.43
E13        44.15   55.88   56.68          79.54  -26.43  -11.73          28.92  203.93           0.56    0.17    0.17    0.29            0.38    0.34    0.19           0.34     0.41
E14        44.28   33.17   49.65          64.30   39.64  -30.40          49.95  322.52           0.19    0.65    0.19    0.45            0.17    0.17    0.21           0.28     0.33
E15        63.51   68.56   20.63          86.28   -5.84   50.36          50.70   96.61           0.12    0.16    0.75    0.15            0.25    0.25    0.20           0.30     0.37
E16        20.79   21.87   17.97          53.89   -1.45    0.18           1.47  174.65           0.63    0.67    0.73    0.66            0.31    0.26    0.23           0.47     0.54
E17        35.74   27.24   15.46          59.20   35.03   15.21          38.19   23.47           0.21    0.76    0.80    0.51            0.16    0.16    0.21           0.40     0.47
E18        38.33   52.14   21.54          77.36  -34.79   33.16          48.06  136.37           0.54    0.20    0.71    0.30            0.34    0.32    0.22           0.37     0.42
E19        26.00   25.18   48.39          57.25    7.27  -41.11          41.74  280.02           0.67    0.61    0.21    0.63            0.29    0.25    0.22           0.44     0.49
E20         5.67    7.00    1.11          31.80  -11.64   34.87          36.77  108.46           1.23    1.09    2.49    1.16            0.14    0.16    0.02           0.49     0.54
E21        21.83   26.43    5.54          58.44  -16.15   47.04          49.74  108.95           0.64    0.53    1.51    0.58            0.30    0.29    0.06           0.45     0.52
E22         7.56   16.54   11.94          47.68  -60.48    4.78          60.67  175.48           1.97    0.57    1.00    0.87            0.09    0.16    0.14           0.31     0.33
F1          2.76    3.60    2.70          22.30  -12.05    2.06          12.23  170.31           1.58    1.41    1.69    1.48            0.07    0.08    0.06           0.38     0.42
F2          2.33    3.56    2.22          22.16  -19.99    5.89          20.84  163.59           1.75    1.36    1.84    1.49            0.06    0.09    0.05           0.35     0.39
F3          1.85    3.52    1.79          22.03  -30.05    9.83          31.61  161.89           2.03    1.30    2.01    1.52            0.06    0.10    0.05           0.40     0.45
F4          1.37    3.85    1.38          23.17  -47.77   16.42          50.52  161.03           2.77    1.17    2.29    1.50            0.03    0.10    0.04           0.47     0.57
F5          9.79   12.82    9.01          42.48  -18.83    5.24          19.55  164.44           1.08    0.83    1.10    0.92            0.19    0.20    0.16           0.46     0.52
F6          7.72   12.66    7.56          42.24  -35.57   10.24          37.02  163.94           1.37    0.76    1.22    0.95            0.14    0.19    0.13           0.41     0.45
F7          6.28   12.60    6.09          42.15  -49.43   16.36          52.07  161.69           1.70    0.71    1.38    0.97            0.14    0.24    0.12           0.44     0.50
F8          4.92   13.26    4.77          43.16  -69.58   24.68          73.83  160.47           2.44    0.62    1.61    0.96            0.06    0.14    0.08           0.28     0.33
F9         26.53   31.07   23.12          62.56  -13.45    4.59          14.21  161.14           0.60    0.47    0.62    0.52            0.31    0.25    0.24           0.40     0.51
F10        23.79   31.03   21.32          62.53  -24.90    8.02          26.16  162.15           0.73    0.43    0.67    0.54            0.30    0.28    0.24           0.42     0.51
F11        21.51   31.43   19.30          62.87  -36.72   12.77          38.88  160.82           0.87    0.39    0.74    0.54            0.26    0.25    0.24           0.39     0.50
F12        16.73   32.64   15.01          63.87  -65.38   24.38          69.78  159.55           1.39    0.30    0.92    0.55            0.15    0.21    0.19           0.29     0.34
F13        39.54   52.26   55.94          77.44  -31.27  -14.59          34.51  205.01           0.67    0.18    0.18    0.32            0.29    0.26    0.14           0.30     0.37
F14        39.76   27.13   47.01          59.09   48.49  -36.33          60.59  323.16           0.21    0.81    0.21    0.53            0.13    0.14    0.18           0.32     0.38
F15        62.31   67.06   15.33          85.54   -5.38   60.95          61.19   95.05           0.12    0.17    0.93    0.16            0.17    0.18    0.17           0.27     0.33
F16        14.03   14.90   12.28          45.49   -2.09    0.05           2.10  179.55           0.80    0.84    0.91    0.83            0.24    0.20    0.20           0.47     0.56
F17        30.30   20.79    9.82          52.72   43.75   20.10          48.15   24.67           0.23    0.97    1.01    0.61            0.09    0.09    0.13           0.40     0.44
