targets/wolf_faust/transmissive/N121111.it8
IT8.7/1
ORIGINATOR "Wolf Faust"
DESCRIPTOR "Velvia 100, 100F, Astia 100F, Provia 400X and Sensia 100 (Emul. 687 or higher), Type 3, L* a* b* (light D50, viewing angle 2)"
MANUFACTURER "Wolf Faust - http://www.coloraid.de"
CREATED "December 21, 2012"
PROD_DATE "2011:12"
DIFFUSE_GEOMETRY "opal"
SERIAL "N121111 Batch Average Data"
MATERIAL "Fujichrome Velvia 100 (RVP 100)"
KEYWORD "MEAN_DE" # Mean Delta E of samples compared to batch average
NUMBER_OF_FIELDS 18
BEGIN_DATA_FORMAT
SAMPLE_ID  XYZ_X   XYZ_Y   XYZ_Z          LAB_L   LAB_A   LAB_B          LAB_C   LAB_H          D_RED  D_GREEN  D_BLUE  D_VIS          STDEV_X STDEV_Y STDEV_Z        MEAN_DE  STDEV_DE
END_DATA_FORMAT
NUMBER_OF_SETS 288
BEGIN_DATA
A1          1.64    1.47    1.08          12.38    6.29    1.84           6.55   16.27           1.61    2.00    2.10    1.81            0.08    0.07    0.04           0.59     0.70
A2          2.02    1.37    0.86          11.78   18.00    4.19          18.48   13.09           1.42    2.25    2.17    1.79            0.10    0.06    0.04           0.55     0.65 
A3          2.59    1.44    0.70          12.23   27.96    7.83          29.04   15.65           1.24    2.54    2.22    1.73            0.12    0.06    0.03           0.54     0.68
A4          3.51    1.58    0.58          13.11   40.19   11.66          41.85   16.18           1.04    3.42    2.19    1.64            0.13    0.06    0.02           0.59     0.73 
A5          8.15    7.18    5.31          32.22   11.55    3.00          11.94   14.53           0.92    1.27    1.31    1.12            0.27    0.22    0.13           0.63     0.73
A6         10.11    7.24    4.37          32.34   27.40    8.22          28.61   16.70           0.73    1.42    1.39    1.08            0.28    0.19    0.11           0.58     0.68 
A7         12.43    7.43    3.74          32.75   42.44   12.73          44.30   16.70           0.58    1.63    1.44    1.03            0.32    0.19    0.11           0.55     0.64
A8         16.89    8.17    3.08          34.34   62.77   19.93          65.86   17.62           0.37    2.12    1.47    0.94            0.11    0.07    0.09           0.41     0.46 
A9         26.21   25.70   19.84          57.75    5.99    2.79           6.63   25.09           0.48    0.63    0.68    0.58            0.46    0.41    0.36           0.63     0.72
A10        28.64   25.78   18.65          57.82   15.39    5.46          16.33   19.54           0.39    0.67    0.71    0.57            0.44    0.38    0.37           0.56     0.63
A11        30.89   26.08   17.55          58.11   22.68    8.41          24.19   20.35           0.32    0.71    0.73    0.55            0.37    0.34    0.33           0.52     0.59
A12        35.33   26.61   16.31          58.61   36.20   12.15          38.19   18.55           0.21    0.78    0.77    0.52            0.22    0.26    0.35           0.57     0.64 
A13        70.05   74.55   60.86          89.18   -3.89    0.65           3.94  170.42           0.15    0.12    0.14    0.13            0.26    0.21    0.20           0.17     0.21
A14        70.51   71.61   60.42          87.78    3.14   -1.32           3.41  337.17           0.11    0.15    0.14    0.14            0.24    0.28    0.25           0.17     0.20 
A15        73.98   77.19   59.62          90.41   -0.92    4.00           4.10  102.94           0.10    0.11    0.15    0.11            0.19    0.20    0.27           0.15     0.19
A16        70.51   73.10   60.42          88.50    0.05   -0.10           0.14  260.63           0.13    0.14    0.14    0.14            0.22    0.22    0.21           0.14     0.16
A17        69.44   70.59   57.34          87.28    2.99    0.93           3.14   17.30           0.11    0.16    0.17    0.15            0.31    0.34    0.36           0.22     0.27
A18        70.65   74.81   58.68          89.30   -3.13    3.05           4.37  135.81           0.14    0.12    0.16    0.13            0.72    0.75    0.61           0.30     0.40 
A19        64.84   67.58   59.03          85.79   -0.71   -3.36           3.43  258.15           0.17    0.17    0.15    0.17            0.18    0.17    0.21           0.14     0.16
A20         5.41    2.48    1.41          17.82   45.59    6.80          46.09    8.49           0.86    2.99    1.78    1.45            0.13    0.06    0.03           0.45     0.54 
A21        24.38   16.92   12.56          48.16   39.60    3.83          39.79    5.52           0.35    1.05    0.87    0.71            0.30    0.23    0.29           0.52     0.61
A22        50.10   46.27   30.82          73.72   15.25   10.65          18.61   34.92           0.16    0.40    0.47    0.31            0.21    0.23    0.47           0.50     0.61
B1          2.49    2.31    1.37          17.03    5.44    5.95           8.06   47.58           1.43    1.76    2.02    1.62            0.09    0.08    0.04           0.50     0.58
B2          3.03    2.35    0.84          17.21   14.62   14.01          20.25   43.79           1.27    1.86    2.30    1.57            0.13    0.09    0.03           0.57     0.67
B3          3.49    2.29    0.50          16.92   23.52   19.71          30.69   39.96           1.15    2.03    2.59    1.55            0.14    0.09    0.02           0.58     0.71
B4          4.21    2.42    0.19          17.54   31.42   26.68          41.22   40.33           1.04    2.18    3.27    1.50            0.19    0.11    0.00           0.87     1.07
B5         10.57    9.58    5.62          37.08   10.50    9.83          14.39   43.13           0.81    1.12    1.31    0.99            0.31    0.26    0.14           0.65     0.77
B6         12.78    9.81    3.63          37.49   24.32   21.62          32.54   41.64           0.64    1.22    1.55    0.95            0.33    0.25    0.09           0.57     0.68
B7         15.37   10.21    2.19          38.21   37.45   33.85          50.48   42.11           0.51    1.33    1.84    0.91            0.37    0.25    0.06           0.55     0.64
B8         20.49   10.80    0.81          39.24   60.30   52.50          79.95   41.05           0.31    1.68    2.40    0.83            0.15    0.11    0.03           0.26     0.30
B9         30.97   31.18   23.29          62.65    3.38    4.43           5.59   52.64           0.43    0.53    0.61    0.50            0.58    0.53    0.50           0.63     0.71
B10        33.29   31.59   20.45          63.00   10.22   10.58          14.71   45.99           0.35    0.55    0.67    0.48            0.49    0.47    0.40           0.56     0.63
B11        35.03   31.55   18.09          62.97   16.38   15.56          22.60   43.53           0.29    0.58    0.74    0.47            0.50    0.47    0.40           0.56     0.62
B12        39.34   32.39   14.84          63.66   27.46   24.47          36.78   41.71           0.19    0.63    0.84    0.45            0.25    0.30    0.31           0.56     0.64
B13        62.04   68.30   58.89          86.16   -8.68   -2.59           9.06  196.62           0.24    0.14    0.15    0.18            0.40    0.29    0.20           0.30     0.39
B14        62.17   59.84   57.08          81.75   10.62   -8.33          13.50  321.88           0.14    0.25    0.16    0.22            0.12    0.14    0.12           0.17     0.21
B15        68.58   72.51   46.27          88.22   -2.88   14.76          15.04  101.04           0.12    0.14    0.29    0.14            0.15    0.14    0.29           0.24     0.30
B16        52.66   54.89   45.30          78.97   -0.67   -0.01           0.71  185.17           0.25    0.26    0.28    0.26            0.29    0.23    0.32           0.34     0.40
B17        59.09   57.64   44.37          80.54    8.60    3.81           9.41   23.89           0.14    0.27    0.29    0.23            0.13    0.15    0.33           0.30     0.37
B18        59.82   67.06   46.97          85.53  -11.19    9.31          14.56  140.24           0.24    0.15    0.28    0.18            0.28    0.23    0.35           0.31     0.35
B19        54.75   56.33   56.21          79.80    1.11  -10.80          10.86  275.85           0.25    0.25    0.17    0.25            0.20    0.24    0.29           0.23     0.26
B20         3.96    2.34    0.73          17.19   29.39   15.93          33.43   28.46           1.07    2.18    2.29    1.53            0.11    0.06    0.02           0.47     0.56
B21        15.12    9.93    3.50          37.71   38.11   22.87          44.45   30.97           0.51    1.37    1.54    0.92            0.29    0.20    0.07           0.45     0.51
B22        30.93   25.94   14.85          57.98   23.41   14.63          27.60   32.00           0.31    0.71    0.83    0.55            0.31    0.28    0.26           0.47     0.54
C1          5.17    5.22    2.88          27.35    1.62    9.39           9.53   80.19           1.16    1.34    1.67    1.27            0.15    0.15    0.07           0.51     0.57
C2          5.40    5.07    1.80          26.92    6.32   18.10          19.17   70.77           1.10    1.38    1.96    1.27            0.18    0.16    0.05           0.58     0.65
C3          5.97    5.27    0.93          27.48   10.34   30.12          31.84   71.07           1.03    1.38    2.45    1.24            0.21    0.17    0.03           0.63     0.76
C4          6.47    5.22    0.44          27.36   16.24   38.83          42.09   67.30           0.97    1.43    3.11    1.22            0.26    0.21    0.01           0.90     1.06
C5         21.13   20.56   10.21          52.47    6.30   18.40          19.45   71.08           0.54    0.74    1.04    0.67            0.47    0.44    0.25           0.62     0.71
C6         23.33   20.88    5.63          52.81   14.96   36.90          39.82   67.94           0.44    0.77    1.40    0.64            0.41    0.39    0.12           0.52     0.59
C7         25.55   21.10    2.70          53.06   23.47   55.10          59.89   66.93           0.37    0.81    1.92    0.62            0.48    0.46    0.07           0.58     0.66
C8         28.15   21.38    0.90          53.36   32.71   75.21          82.01   66.49           0.31    0.86    3.00    0.60            0.49    0.45    0.02           0.66     0.80
C9         37.10   37.68   25.97          67.78    2.51    8.41           8.78   73.34           0.35    0.44    0.56    0.42            0.57    0.53    0.49           0.49     0.57
C10        38.70   38.32   21.66          68.25    5.66   17.21          18.12   71.78           0.30    0.45    0.66    0.40            0.47    0.44    0.39           0.46     0.52
C11        40.10   38.42   17.92          68.33    9.74   25.19          27.01   68.86           0.26    0.46    0.77    0.39            0.37    0.37    0.31           0.45     0.52
C12        43.46   38.79   11.24          68.60   18.71   42.96          46.86   66.47           0.17    0.50    1.04    0.37            0.21    0.27    0.22           0.45     0.52
C13        55.15   63.61   58.11          83.76  -14.95   -5.93          16.09  201.62           0.34    0.15    0.16    0.21            0.41    0.31    0.20           0.32     0.41
C14        55.30   49.30   54.62          75.64   20.44  -16.30          26.15  321.43           0.16    0.37    0.17    0.29            0.12    0.14    0.15           0.18     0.24
C15        66.41   71.09   35.27          87.53   -4.66   27.84          28.23   99.51           0.12    0.14    0.44    0.14            0.08    0.08    0.28           0.30     0.35
C16        39.61   41.42   33.65          70.47   -1.01    0.78           1.29  141.32           0.36    0.38    0.43    0.38            0.45    0.35    0.40           0.48     0.59
C17        49.93   45.57   32.04          73.26   16.76    8.00          18.57   25.51           0.16    0.41    0.45    0.32            0.19    0.23    0.40           0.42     0.50
C18        51.37   61.52   36.21          82.66  -19.91   18.12          26.92  137.70           0.34    0.16    0.42    0.22            0.33    0.28    0.36           0.37     0.42
C19        43.24   43.81   53.39          72.10    2.99  -21.08          21.30  278.07           0.37    0.36    0.18    0.37            0.37    0.38    0.32           0.38     0.45
C20        10.26    7.54    0.91          33.00   25.70   39.95          47.50   57.24           0.72    1.36    2.48    1.05            0.22    0.14    0.01           0.59     0.67
C21        18.93   17.65    9.59          49.06   10.13   14.59          17.76   55.25           0.57    0.83    1.06    0.73            0.35    0.30    0.18           0.52     0.59
C22        24.94   20.96    9.39          52.91   21.56   21.88          30.72   45.42           0.40    0.81    1.07    0.64            0.34    0.29    0.18           0.56     0.63
D1          3.27    3.59    2.04          22.28   -3.24    7.78           8.43  112.60           1.40    1.47    1.85    1.45            0.11    0.11    0.06           0.48     0.55
D2          3.19    3.53    1.21          22.05   -3.58   16.59          16.98  102.19           1.40    1.46    2.21    1.45            0.12    0.12    0.04           0.52     0.60
D3          3.19    3.58    0.69          22.23   -4.24   25.24          25.60   99.54           1.41    1.43    2.67    1.44            0.14    0.15    0.02           0.70     0.84
D4          3.15    3.56    0.46          22.16   -4.62   29.57          29.93   98.89           1.44    1.42    3.09    1.44            0.16    0.16    0.01           0.85     1.02
D5         15.15   16.31    8.02          47.37   -3.36   17.32          17.64  100.96           0.74    0.79    1.17    0.78            0.41    0.40    0.22           0.62     0.71
D6         14.99   16.19    4.39          47.22   -3.71   33.77          33.97   96.26           0.73    0.79    1.57    0.78            0.37    0.37    0.11           0.58     0.67
D7         14.68   16.03    2.12          47.01   -4.66   49.60          49.82   95.37           0.75    0.78    2.15    0.78            0.39    0.43    0.06           0.64     0.75
D8         14.75   16.28    1.04          47.34   -5.59   62.61          62.86   95.10           0.78    0.76    2.94    0.77            0.47    0.47    0.02           0.88     1.07
D9         43.29   45.46   22.47          73.19   -1.59   24.15          24.20   93.77           0.28    0.35    0.66    0.33            0.49    0.46    0.43           0.47     0.54
D10        43.24   45.78   12.65          73.40   -2.62   47.10          47.17   93.19           0.27    0.34    1.01    0.33            0.45    0.45    0.25           0.37     0.43
D11        43.33   46.10    6.34          73.61   -3.27   69.46          69.54   92.70           0.27    0.34    1.50    0.32            0.44    0.44    0.10           0.36     0.39
D12        43.00   46.50    2.00          73.87   -5.36   97.06          97.21   93.16           0.32    0.33    2.70    0.31            0.51    0.43    0.02           0.48     0.57
D13        49.36   59.52   57.45          81.58  -20.62   -9.03          22.51  203.64           0.44    0.16    0.17    0.25            0.35    0.26    0.22           0.33     0.42
D14        49.35   40.48   52.06          69.81   30.08  -23.58          38.22  321.91           0.17    0.50    0.18    0.37            0.28    0.31    0.19           0.40     0.48
D15        64.88   69.87   27.54          86.93   -5.54   38.74          39.14   98.13           0.12    0.15    0.58    0.15            0.25    0.26    0.29           0.34     0.41
D16        29.19   30.53   25.18          62.11   -0.94    0.02           0.98  181.73           0.49    0.52    0.56    0.52            0.41    0.32    0.36           0.54     0.66
D17        42.26   35.52   22.97          66.15   25.71   11.06          27.99   23.27           0.18    0.57    0.61    0.41            0.20    0.24    0.33           0.44     0.51
D18        44.37   56.56   28.33          79.93  -27.48   25.37          37.40  137.30           0.43    0.18    0.56    0.26            0.35    0.31    0.33           0.36     0.44
D19        33.69   33.43   50.78          64.51    5.13  -31.30          31.72  279.31           0.51    0.48    0.20    0.49            0.30    0.25    0.19           0.44     0.50
D20         2.30    2.38    0.91          17.38    0.13   12.98          12.99   89.45           1.51    1.67    2.32    1.61            0.08    0.07    0.02           0.56     0.64
D21        28.62   26.22    1.33          58.24   13.52   77.50          78.67   80.10           0.38    0.65    2.78    0.54            0.50    0.45    0.02           0.62     0.70
D22        35.88   39.91   52.96          69.40   -8.48  -25.27          26.65  251.46           0.56    0.36    0.19    0.43            0.40    0.39    0.20           0.45     0.53
E1          4.43    5.15    2.96          27.16   -6.98    8.49          10.99  129.42           1.30    1.28    1.67    1.30            0.15    0.16    0.09           0.52     0.62
E2          3.93    5.08    1.81          26.95  -13.13   18.07          22.34  126.00           1.40    1.24    2.02    1.31            0.15    0.18    0.06           0.62     0.71
E3          3.68    5.25    1.12          27.44  -18.94   27.21          33.16  124.84           1.50    1.18    2.45    1.30            0.17    0.22    0.04           0.75     0.85
E4          3.41    5.17    0.64          27.21  -22.10   34.81          41.23  122.43           1.61    1.15    3.04    1.31            0.17    0.23    0.01           0.92     1.11
E5         21.99   25.72   13.43          57.76  -12.48   17.98          21.89  124.75           0.64    0.56    0.92    0.60            0.52    0.51    0.40           0.61     0.71
E6         19.85   25.34    8.29          57.41  -21.17   33.58          39.70  122.22           0.72    0.53    1.23    0.61            0.41    0.44    0.18           0.49     0.56
E7         18.25   25.62    4.54          57.68  -30.51   50.94          59.38  120.92           0.84    0.49    1.69    0.61            0.42    0.49    0.10           0.54     0.63
E8         16.26   26.56    1.71          58.57  -45.20   73.65          86.41  121.54           1.13    0.42    2.82    0.60            0.32    0.36    0.01           0.57     0.67
E9         41.40   45.48   30.00          73.21   -7.30   11.06          13.25  123.40           0.36    0.33    0.50    0.35            0.58    0.49    0.55           0.54     0.64
E10        39.14   45.29   23.22          73.08  -13.78   22.54          26.42  121.45           0.40    0.31    0.65    0.35            0.51    0.44    0.44           0.55     0.64
E11        37.47   45.67   18.02          73.33  -20.18   33.59          39.19  120.99           0.44    0.29    0.80    0.35            0.50    0.44    0.32           0.50     0.60
E12        32.16   45.21    7.87          73.03  -37.00   62.11          72.29  120.78           0.62    0.25    1.38    0.36            0.47    0.47    0.15           0.44     0.51
E13        44.11   55.63   56.79          79.40  -25.95  -12.09          28.63  204.98           0.55    0.17    0.17    0.29            0.43    0.35    0.21           0.40     0.49
E14        44.37   33.35   49.58          64.45   39.28  -30.07          49.47  322.57           0.19    0.64    0.19    0.45            0.18    0.24    0.16           0.40     0.49
E15        63.54   68.57   20.62          86.29   -5.81   50.40          50.73   96.57           0.12    0.16    0.75    0.15            0.15    0.17    0.35           0.48     0.60
E16        20.71   21.86   17.71          53.88   -1.79    0.74           1.94  157.45           0.63    0.67    0.74    0.66            0.35    0.29    0.30           0.55     0.64
E17        35.83   27.46   15.26          59.39   34.50   16.05          38.05   24.94           0.21    0.75    0.81    0.51            0.20    0.23    0.28           0.46     0.53
E18        38.10   51.77   21.32          77.14  -34.58   33.22          47.95  136.15           0.54    0.20    0.72    0.31            0.37    0.32    0.26           0.36     0.47
E19        25.73   24.93   48.01          57.01    7.22  -41.09          41.72  279.96           0.67    0.61    0.21    0.63            0.33    0.30    0.22           0.51     0.59
E20         5.67    7.03    1.13          31.87  -11.95   34.67          36.67  109.02           1.23    1.09    2.49    1.16            0.14    0.15    0.02           0.50     0.58
E21        21.92   26.55    5.59          58.56  -16.21   47.04          49.76  109.02           0.64    0.53    1.51    0.58            0.39    0.39    0.10           0.47     0.58
E22         7.54   16.61   11.85          47.76  -60.99    5.20          61.21  175.13           1.97    0.57    1.00    0.86            0.17    0.29    0.27           0.42     0.47
F1          2.74    3.62    2.67          22.36  -12.88    2.40          13.11  169.42           1.59    1.40    1.70    1.48            0.11    0.13    0.09           0.54     0.62
F2          2.36    3.64    2.21          22.44  -20.47    6.46          21.46  162.48           1.75    1.35    1.85    1.49            0.11    0.15    0.09           0.54     0.63
F3          1.91    3.67    1.92          22.55  -30.98    9.33          32.35  163.24           2.03    1.28    1.97    1.50            0.09    0.15    0.07           0.58     0.67
F4          1.38    3.94    1.39          23.46  -48.77   16.75          51.56  161.04           2.78    1.16    2.30    1.50            0.06    0.16    0.06           0.80     0.93
F5          9.91   13.02    9.04          42.79  -19.27    5.67          20.08  163.61           1.07    0.82    1.10    0.92            0.29    0.34    0.26           0.58     0.66
F6          7.76   12.78    7.55          42.43  -35.99   10.64          37.53  163.54           1.37    0.76    1.23    0.94            0.24    0.35    0.22           0.52     0.61
F7          6.28   12.73    6.10          42.35  -50.33   16.68          53.02  161.66           1.70    0.71    1.39    0.96            0.22    0.38    0.19           0.62     0.72
F8          4.97   13.50    4.82          43.51  -70.48   24.99          74.78  160.48           2.45    0.61    1.61    0.96            0.12    0.29    0.14           0.48     0.55
F9         26.67   31.26   23.70          62.73  -13.59    3.79          14.11  164.42           0.60    0.47    0.61    0.52            0.58    0.55    0.53           0.63     0.73
F10        23.90   31.17   21.09          62.65  -24.95    8.70          26.42  160.79           0.72    0.43    0.68    0.53            0.50    0.51    0.47           0.59     0.69
F11        21.52   31.43   19.35          62.87  -36.70   12.65          38.82  160.98           0.87    0.39    0.74    0.54            0.38    0.41    0.38           0.55     0.63
F12        17.01   32.91   15.03          64.09  -64.78   24.71          69.34  159.12           1.36    0.30    0.92    0.54            0.21    0.27    0.30           0.42     0.50
F13        39.55   52.05   56.10          77.31  -30.70  -14.98          34.16  206.00           0.67    0.19    0.18    0.32            0.45    0.41    0.28           0.40     0.48
F14        39.82   27.25   46.88          59.21   48.18  -35.98          60.13  323.25           0.21    0.80    0.21    0.53            0.25    0.28    0.21           0.45     0.53
F15        62.39   67.18   15.66          85.60   -5.45   60.23          60.48   95.17           0.12    0.17    0.92    0.16            0.17    0.20    0.24           0.40     0.46
F16        14.06   14.92   12.38          45.52   -2.00   -0.20           2.03  187.03           0.80    0.84    0.91    0.83            0.29    0.26    0.24           0.56     0.65
F17        30.45   20.98   10.00          52.93   43.38   19.86          47.71   24.60           0.23    0.96    1.01    0.61            0.21    0.22    0.21           0.46     0.52
