targets/wolf_faust/transmissive/N130501.it8
IT8.7/1
ORIGINATOR "Wolf Faust"
DESCRIPTOR "Velvia 100, 100F, Astia 100F, Provia 400X and Sensia 100 (Emul. 687 or higher), Type 3, L* a* b* (light D50, viewing angle 2)"
MANUFACTURER "Wolf Faust - http://www.coloraid.de"
CREATED "May 04, 2013"
PROD_DATE "2011:12"
DIFFUSE_GEOMETRY "opal"
SERIAL "N130501 Batch Average Data"
MATERIAL "Fujichrome Velvia 100 (RVP 100)"
KEYWORD "MEAN_DE" # Mean Delta E of samples compared to batch average
NUMBER_OF_FIELDS 18
BEGIN_DATA_FORMAT
SAMPLE_ID  XYZ_X   XYZ_Y   XYZ_Z          LAB_L   LAB_A   LAB_B          LAB_C   LAB_H          D_RED  D_GREEN  D_BLUE  D_VIS          STDEV_X STDEV_Y STDEV_Z        MEAN_DE  STDEV_DE
END_DATA_FORMAT
NUMBER_OF_SETS 288
BEGIN_DATA
A1          1.66    1.46    1.03          12.32    6.96    2.41           7.37   19.07           1.60    2.01    2.13    1.81            0.06    0.05    0.03           0.37     0.43
A2          1.99    1.35    0.86          11.63   18.09    4.00          18.53   12.48           1.42    2.27    2.17    1.80            0.08    0.05    0.03           0.45     0.51 
A3          2.55    1.42    0.70          12.07   27.89    7.52          28.89   15.09           1.25    2.56    2.22    1.74            0.09    0.06    0.03           0.43     0.49
A4          3.47    1.56    0.58          12.99   40.07   11.50          41.69   16.01           1.04    3.48    2.19    1.64            0.10    0.05    0.02           0.49     0.56 
A5          8.15    7.13    5.26          32.09   12.16    3.02          12.53   13.97           0.91    1.28    1.32    1.12            0.23    0.19    0.12           0.57     0.66
A6         10.13    7.20    4.31          32.25   27.98    8.41          29.22   16.74           0.73    1.44    1.40    1.08            0.27    0.19    0.09           0.59     0.66 
A7         12.26    7.36    3.74          32.61   41.86   12.53          43.69   16.67           0.58    1.63    1.45    1.04            0.26    0.15    0.08           0.46     0.53
A8         16.84    8.14    3.06          34.27   62.81   19.99          65.91   17.65           0.37    2.13    1.48    0.95            0.12    0.08    0.07           0.36     0.40 
A9         26.01   25.41   19.51          57.47    6.35    3.01           7.03   25.44           0.49    0.64    0.69    0.59            0.44    0.40    0.33           0.53     0.61
A10        28.32   25.50   18.47          57.56   15.28    5.39          16.21   19.46           0.40    0.68    0.71    0.57            0.43    0.39    0.33           0.51     0.60
A11        30.56   25.57   17.30          57.63   23.55    8.13          24.92   19.05           0.32    0.72    0.74    0.56            0.37    0.35    0.32           0.50     0.59
A12        35.16   26.39   16.12          58.41   36.48   12.25          38.48   18.56           0.21    0.78    0.77    0.52            0.21    0.25    0.25           0.48     0.58 
A13        69.79   74.28   60.46          89.05   -3.89    0.83           3.98  167.96           0.15    0.12    0.14    0.13            0.25    0.24    0.23           0.19     0.22
A14        70.21   71.23   59.99          87.60    3.28   -1.22           3.50  339.63           0.11    0.16    0.14    0.15            0.24    0.25    0.28           0.19     0.22 
A15        73.74   76.91   59.17          90.28   -0.87    4.23           4.32  101.65           0.10    0.11    0.16    0.11            0.25    0.26    0.28           0.16     0.18
A16        70.45   73.13   60.01          88.51   -0.14    0.34           0.38  114.15           0.13    0.13    0.14    0.14            0.28    0.30    0.32           0.18     0.20
A17        69.06   70.11   56.78          87.05    3.18    1.11           3.37   19.20           0.11    0.16    0.17    0.15            0.27    0.30    0.30           0.21     0.24
A18        70.25   74.57   58.17          89.19   -3.51    3.37           4.87  136.16           0.14    0.12    0.16    0.13            0.30    0.32    0.33           0.19     0.22 
A19        64.56   67.27   58.58          85.64   -0.68   -3.17           3.24  257.85           0.17    0.17    0.15    0.17            0.28    0.31    0.34           0.21     0.24
A20         5.53    2.53    1.41          18.03   46.07    7.15          46.63    8.82           0.85    3.03    1.78    1.44            0.10    0.05    0.03           0.37     0.40 
A21        24.35   16.84   12.36          48.06   39.91    4.23          40.14    6.05           0.35    1.06    0.87    0.71            0.19    0.17    0.16           0.39     0.46
A22        49.84   45.94   30.40          73.50   15.49   10.95          18.97   35.26           0.16    0.40    0.48    0.32            0.26    0.33    0.27           0.42     0.51
B1          2.60    2.39    1.40          17.40    5.89    6.19           8.55   46.43           1.41    1.75    2.01    1.60            0.10    0.08    0.04           0.50     0.56
B2          2.95    2.29    0.84          16.95   14.31   13.51          19.68   43.36           1.29    1.87    2.30    1.58            0.10    0.08    0.03           0.48     0.54
B3          3.43    2.27    0.51          16.83   22.84   19.39          29.96   40.34           1.17    2.02    2.58    1.56            0.11    0.07    0.01           0.54     0.63
B4          4.03    2.35    0.19          17.23   30.30   26.03          39.95   40.66           1.06    2.17    3.28    1.51            0.14    0.08    0.00           0.72     0.83
B5         10.51    9.48    5.60          36.88   10.85    9.62          14.51   41.56           0.81    1.13    1.31    1.00            0.24    0.21    0.11           0.52     0.61
B6         12.61    9.66    3.62          37.23   24.35   21.25          32.32   41.12           0.65    1.23    1.55    0.96            0.30    0.23    0.08           0.57     0.66
B7         15.15   10.05    2.13          37.92   37.36   33.85          50.41   42.17           0.51    1.34    1.86    0.91            0.32    0.22    0.05           0.49     0.58
B8         20.48   10.76    0.77          39.16   60.52   52.92          80.40   41.17           0.31    1.70    2.43    0.83            0.15    0.11    0.02           0.26     0.29
B9         31.02   31.06   23.03          62.56    3.97    4.76           6.21   50.20           0.42    0.53    0.61    0.50            0.47    0.44    0.36           0.50     0.58
B10        33.15   31.38   20.27          62.83   10.49   10.65          14.96   45.46           0.35    0.56    0.68    0.49            0.45    0.42    0.33           0.51     0.60
B11        34.83   31.34   17.92          62.79   16.46   15.64          22.70   43.53           0.29    0.59    0.74    0.48            0.41    0.41    0.33           0.48     0.58
B12        39.19   32.17   14.40          63.48   27.78   25.28          37.56   42.31           0.19    0.63    0.86    0.45            0.23    0.28    0.23           0.43     0.52
B13        61.87   68.14   58.66          86.08   -8.74   -2.49           9.09  195.90           0.24    0.14    0.16    0.18            0.39    0.34    0.23           0.24     0.31
B14        62.05   59.63   56.87          81.64   10.82   -8.32          13.65  322.46           0.14    0.25    0.16    0.22            0.25    0.29    0.25           0.23     0.30
B15        68.56   72.43   46.16          88.17   -2.75   14.82          15.07  100.51           0.12    0.14    0.29    0.14            0.24    0.25    0.32           0.23     0.27
B16        52.46   54.68   45.11          78.85   -0.67    0.01           0.69  181.08           0.25    0.26    0.28    0.26            0.36    0.31    0.29           0.29     0.35
B17        58.99   57.45   44.20          80.43    8.82    3.83           9.62   23.48           0.14    0.27    0.29    0.23            0.23    0.28    0.29           0.28     0.34
B18        59.72   66.97   46.87          85.49  -11.25    9.36          14.63  140.24           0.24    0.15    0.28    0.18            0.31    0.25    0.29           0.28     0.31
B19        54.74   56.32   56.20          79.80    1.11  -10.80          10.86  275.88           0.25    0.25    0.17    0.25            0.21    0.20    0.23           0.30     0.36
B20         3.89    2.31    0.73          17.04   29.13   15.52          33.01   28.05           1.08    2.19    2.28    1.53            0.10    0.06    0.02           0.41     0.47
B21        15.13    9.89    3.49          37.65   38.40   22.84          44.68   30.74           0.51    1.37    1.54    0.92            0.20    0.13    0.05           0.36     0.43
B22        30.78   25.78   14.80          57.83   23.52   14.51          27.63   31.68           0.31    0.72    0.83    0.55            0.27    0.27    0.18           0.39     0.49
C1          5.06    5.13    2.83          27.09    1.45    9.29           9.41   81.14           1.17    1.35    1.68    1.28            0.15    0.15    0.06           0.51     0.60
C2          5.45    5.19    1.74          27.27    5.37   19.38          20.11   74.52           1.10    1.36    1.99    1.26            0.17    0.15    0.03           0.60     0.68
C3          5.57    4.82    0.94          26.21   11.28   27.84          30.04   67.94           1.05    1.44    2.42    1.27            0.17    0.15    0.03           0.58     0.68
C4          6.35    5.17    0.45          27.20   15.66   38.44          41.50   67.84           0.98    1.43    3.10    1.23            0.20    0.15    0.01           0.72     0.84
C5         20.86   20.31   10.16          52.18    6.28   18.07          19.14   70.84           0.55    0.74    1.04    0.68            0.42    0.39    0.20           0.58     0.69
C6         23.28   20.72    5.64          52.63   15.49   36.56          39.71   67.03           0.44    0.78    1.40    0.65            0.43    0.41    0.11           0.58     0.66
C7         25.31   20.86    2.70          52.79   23.62   54.63          59.52   66.61           0.37    0.82    1.92    0.63            0.44    0.40    0.06           0.54     0.62
C8         27.81   21.02    0.89          52.97   33.05   74.69          81.67   66.13           0.31    0.87    3.01    0.61            0.44    0.39    0.01           0.60     0.72
C9         37.21   37.86   25.79          67.92    2.33    8.96           9.26   75.41           0.35    0.44    0.56    0.42            0.49    0.45    0.39           0.46     0.54
C10        38.25   37.96   21.52          67.99    5.34   17.05          17.87   72.60           0.31    0.45    0.66    0.41            0.49    0.45    0.39           0.49     0.57
C11        40.02   38.28   18.11          68.22    9.92   24.58          26.51   68.02           0.26    0.47    0.76    0.40            0.43    0.43    0.33           0.42     0.50
C12        43.46   38.76   10.99          68.58   18.80   43.70          47.58   66.72           0.17    0.50    1.06    0.37            0.35    0.41    0.20           0.47     0.56
C13        54.87   63.39   57.90          83.65  -15.17   -5.91          16.28  201.27           0.34    0.15    0.16    0.22            0.50    0.44    0.31           0.35     0.42
C14        54.97   48.94   54.19          75.41   20.56  -16.23          26.20  321.72           0.16    0.38    0.17    0.30            0.67    0.61    0.65           0.44     0.58
C15        66.44   71.04   35.55          87.50   -4.52   27.40          27.78   99.37           0.12    0.15    0.43    0.14            0.27    0.27    0.33           0.27     0.32
C16        39.36   41.17   33.81          70.29   -1.06    0.24           1.12  169.03           0.37    0.39    0.42    0.39            0.46    0.42    0.37           0.46     0.54
C17        49.87   45.39   32.21          73.15   17.10    7.55          18.69   23.82           0.16    0.41    0.45    0.32            0.21    0.25    0.28           0.32     0.42
C18        51.26   61.43   36.44          82.61  -19.98   17.71          26.70  138.46           0.34    0.16    0.41    0.22            0.37    0.32    0.33           0.32     0.39
C19        43.20   43.80   53.41          72.09    2.88  -21.12          21.32  277.76           0.37    0.36    0.18    0.37            0.32    0.29    0.20           0.36     0.41
C20        10.31    7.56    0.93          33.04   25.94   39.78          47.49   56.89           0.72    1.36    2.47    1.05            0.20    0.15    0.02           0.49     0.59
C21        18.85   17.70    9.58          49.13    9.47   14.72          17.51   57.26           0.57    0.82    1.06    0.73            0.27    0.24    0.12           0.48     0.56
C22        24.96   20.91    9.37          52.85   21.90   21.86          30.95   44.95           0.39    0.81    1.07    0.64            0.25    0.23    0.11           0.39     0.47
D1          3.21    3.53    1.98          22.05   -3.24    7.88           8.52  112.36           1.40    1.48    1.87    1.46            0.10    0.10    0.05           0.37     0.43
D2          3.17    3.50    1.22          21.93   -3.35   16.29          16.63  101.64           1.40    1.47    2.20    1.45            0.12    0.12    0.03           0.56     0.62
D3          3.10    3.49    0.69          21.92   -4.41   24.68          25.08  100.13           1.43    1.44    2.67    1.45            0.12    0.13    0.02           0.58     0.69
D4          3.09    3.48    0.46          21.86   -4.33   29.02          29.35   98.50           1.44    1.43    3.08    1.45            0.13    0.14    0.01           0.80     0.93
D5         15.18   16.20    8.12          47.23   -2.57   16.67          16.87   98.77           0.73    0.80    1.17    0.79            0.34    0.32    0.14           0.62     0.70
D6         14.77   15.95    4.31          46.91   -3.66   33.72          33.92   96.20           0.73    0.80    1.58    0.79            0.33    0.34    0.09           0.62     0.71
D7         14.66   15.94    2.00          46.90   -4.24   50.55          50.73   94.79           0.75    0.78    2.21    0.78            0.35    0.36    0.04           0.64     0.74
D8         14.69   16.15    1.04          47.17   -5.26   62.31          62.54   94.82           0.78    0.77    2.94    0.78            0.40    0.40    0.01           0.82     0.97
D9         43.05   45.17   22.29          73.00   -1.50   24.17          24.21   93.55           0.29    0.35    0.66    0.34            0.47    0.43    0.39           0.45     0.52
D10        43.04   45.53   12.59          73.24   -2.53   46.98          47.05   93.09           0.27    0.35    1.01    0.33            0.45    0.44    0.22           0.39     0.45
D11        43.21   45.83    6.34          73.43   -2.85   69.19          69.24   92.36           0.27    0.34    1.50    0.32            0.38    0.36    0.08           0.32     0.36
D12        43.29   46.65    2.01          73.96   -4.92   97.11          97.24   92.90           0.31    0.33    2.71    0.31            0.51    0.42    0.01           0.48     0.60
D13        49.03   59.26   57.19          81.43  -20.89   -9.01          22.75  203.32           0.45    0.16    0.17    0.25            0.41    0.37    0.28           0.33     0.39
D14        49.32   40.38   51.87          69.74   30.29  -23.49          38.33  322.21           0.17    0.51    0.18    0.37            0.24    0.29    0.29           0.35     0.42
D15        64.90   69.86   27.43          86.93   -5.47   38.93          39.31   98.00           0.12    0.15    0.58    0.15            0.24    0.25    0.29           0.28     0.34
D16        28.84   30.21   24.92          61.83   -1.13    0.01           1.16  180.52           0.50    0.53    0.57    0.52            0.47    0.44    0.45           0.53     0.63
D17        41.92   35.13   22.69          65.85   25.97   11.07          28.23   23.09           0.19    0.58    0.61    0.42            0.92    0.81    0.58           0.62     0.79
D18        44.22   56.46   28.28          79.87  -27.67   25.35          37.52  137.51           0.44    0.18    0.56    0.26            0.37    0.33    0.29           0.34     0.40
D19        33.57   33.36   50.60          64.45    4.99  -31.21          31.60  279.08           0.51    0.48    0.20    0.50            0.31    0.31    0.27           0.41     0.47
D20         2.25    2.34    0.89          17.17   -0.19   13.02          13.03   90.85           1.52    1.68    2.34    1.62            0.06    0.06    0.02           0.40     0.45
D21        28.31   25.86    1.29          57.90   13.75   77.46          78.67   79.94           0.39    0.65    2.82    0.55            0.37    0.34    0.01           0.57     0.66
D22        35.66   39.72   52.71          69.27   -8.66  -25.22          26.66  251.05           0.56    0.36    0.19    0.43            0.33    0.30    0.23           0.39     0.44
E1          4.34    5.06    2.84          26.90   -7.13    8.89          11.40  128.71           1.31    1.29    1.69    1.31            0.13    0.14    0.06           0.51     0.59
E2          4.03    5.21    1.85          27.33  -13.24   18.33          22.61  125.86           1.39    1.23    2.01    1.30            0.13    0.16    0.05           0.50     0.61
E3          3.70    5.20    1.08          27.29  -18.04   27.52          32.90  123.24           1.49    1.18    2.48    1.30            0.14    0.18    0.03           0.59     0.71
E4          3.26    5.05    0.65          26.87  -23.07   34.06          41.14  124.12           1.64    1.15    3.03    1.32            0.13    0.19    0.01           0.76     0.89
E5         21.72   25.43   13.36          57.49  -12.58   17.70          21.72  125.39           0.65    0.56    0.92    0.60            0.41    0.41    0.24           0.53     0.63
E6         19.88   25.20    8.29          57.27  -20.45   33.37          39.14  121.50           0.72    0.53    1.23    0.61            0.39    0.44    0.17           0.51     0.58
E7         18.00   25.34    4.39          57.40  -30.64   51.35          59.80  120.83           0.84    0.49    1.72    0.61            0.37    0.44    0.07           0.56     0.64
E8         16.17   26.40    1.71          58.41  -45.03   73.31          86.04  121.56           1.14    0.42    2.81    0.60            0.27    0.32    0.01           0.47     0.56
E9         41.02   45.06   29.72          72.93   -7.27   11.02          13.21  123.39           0.36    0.33    0.50    0.35            0.49    0.44    0.45           0.46     0.54
E10        38.79   44.91   23.00          72.83  -13.80   22.51          26.41  121.51           0.40    0.31    0.65    0.35            0.57    0.54    0.40           0.48     0.56
E11        37.41   45.49   17.90          73.22  -19.88   33.65          39.09  120.57           0.44    0.29    0.80    0.35            0.46    0.42    0.29           0.44     0.51
E12        31.92   44.90    7.84          72.82  -36.98   61.90          72.11  120.86           0.62    0.25    1.39    0.36            0.38    0.38    0.09           0.39     0.47
E13        43.88   55.42   56.42          79.28  -26.09  -11.92          28.69  204.55           0.56    0.18    0.17    0.29            0.38    0.35    0.28           0.37     0.43
E14        44.26   33.22   49.25          64.34   39.41  -29.88          49.46  322.83           0.19    0.65    0.20    0.45            0.21    0.26    0.27           0.41     0.48
E15        63.51   68.50   20.70          86.25   -5.72   50.17          50.50   96.50           0.12    0.16    0.75    0.15            0.24    0.26    0.24           0.26     0.33
E16        20.66   21.77   17.81          53.78   -1.57    0.33           1.63  168.17           0.63    0.67    0.73    0.67            0.33    0.31    0.25           0.50     0.58
E17        35.69   27.25   15.33          59.21   34.82   15.54          38.14   24.05           0.21    0.76    0.80    0.51            0.25    0.19    0.15           0.47     0.59
E18        38.17   51.80   21.48          77.16  -34.44   32.93          47.65  136.28           0.54    0.20    0.72    0.31            0.34    0.33    0.24           0.35     0.42
E19        25.81   25.01   47.89          57.08    7.23  -40.82          41.45  280.05           0.67    0.61    0.21    0.63            0.27    0.27    0.22           0.46     0.53
E20         5.57    6.93    1.11          31.65  -12.11   34.61          36.67  109.29           1.24    1.09    2.51    1.16            0.14    0.17    0.02           0.51     0.59
E21        21.69   26.32    5.51          58.34  -16.34   47.04          49.79  109.15           0.65    0.53    1.52    0.58            0.33    0.36    0.08           0.46     0.51
E22         7.42   16.42   11.77          47.52  -61.07    5.02          61.28  175.30           1.99    0.57    1.01    0.87            0.12    0.22    0.13           0.39     0.45
F1          2.72    3.58    2.69          22.23  -12.54    2.05          12.71  170.71           1.59    1.41    1.70    1.48            0.08    0.10    0.07           0.48     0.53
F2          2.29    3.55    2.20          22.13  -20.56    5.99          21.42  163.78           1.76    1.36    1.85    1.50            0.09    0.12    0.06           0.48     0.58
F3          1.84    3.55    1.80          22.13  -30.82    9.89          32.37  162.21           2.04    1.29    2.01    1.52            0.07    0.13    0.05           0.54     0.64
F4          1.37    3.90    1.39          23.35  -48.51   16.54          51.26  161.17           2.76    1.16    2.30    1.50            0.05    0.14    0.05           0.73     0.86
F5          9.71   12.78    8.95          42.43  -19.27    5.38          20.01  164.39           1.08    0.83    1.10    0.92            0.23    0.27    0.18           0.50     0.60
F6          7.58   12.54    7.51          42.05  -36.02   10.15          37.42  164.27           1.38    0.77    1.23    0.95            0.18    0.26    0.14           0.46     0.53
F7          6.17   12.49    6.04          41.98  -49.95   16.31          52.54  161.92           1.71    0.72    1.39    0.97            0.16    0.28    0.12           0.50     0.59
F8          4.88   13.29    4.78          43.19  -70.25   24.66          74.46  160.66           2.46    0.62    1.61    0.96            0.09    0.22    0.10           0.43     0.49
F9         26.43   30.96   23.09          62.48  -13.46    4.49          14.19  161.56           0.60    0.47    0.62    0.52            0.45    0.44    0.40           0.51     0.59
F10        23.64   30.86   21.27          62.39  -24.92    7.87          26.14  162.47           0.73    0.43    0.68    0.54            0.39    0.40    0.33           0.46     0.55
F11        21.30   31.18   19.26          62.66  -36.79   12.49          38.85  161.26           0.88    0.39    0.74    0.54            0.32    0.36    0.31           0.45     0.51
F12        16.43   32.21   15.01          63.51  -65.53   23.77          69.71  160.06           1.40    0.30    0.92    0.55            0.19    0.26    0.21           0.26     0.33
F13        39.27   51.81   55.81          77.17  -30.97  -14.91          34.38  205.71           0.67    0.19    0.18    0.33            0.39    0.38    0.28           0.34     0.41
F14        39.78   27.19   46.64          59.15   48.30  -35.80          60.12  323.46           0.21    0.80    0.21    0.53            0.23    0.24    0.30           0.41     0.46
F15        62.35   67.08   15.42          85.54   -5.33   60.73          60.97   95.01           0.12    0.17    0.93    0.16            0.24    0.27    0.18           0.24     0.28
F16        13.95   14.84   12.18          45.41   -2.24    0.19           2.27  175.57           0.80    0.84    0.92    0.84            0.24    0.24    0.21           0.51     0.57
F17        30.41   20.89    9.82          52.83   43.65   20.31          48.15   24.95           0.23    0.97    1.02    0.61            0.19    0.21    0.16           0.39     0.47
