targets/wolf_faust/transmissive/N140131.it8
IT8.7/1
ORIGINATOR "Wolf Faust"
DESCRIPTOR "Velvia 100, 100F, Astia 100F, Provia 400X and Sensia 100 (Emul. 687 or higher), Type 3, L* a* b* (light D50, viewing angle 2)"
MANUFACTURER "Wolf Faust - http://www.coloraid.de"
CREATED "February 05, 2014"
PROD_DATE "2013:05"
DIFFUSE_GEOMETRY "opal"
SERIAL "N140131 Batch Average Data"
MATERIAL "Fujichrome Velvia 100 (RVP 100)"
KEYWORD "MEAN_DE" # Mean Delta E of samples compared to batch average
NUMBER_OF_FIELDS 18
BEGIN_DATA_FORMAT
SAMPLE_ID  XYZ_X   XYZ_Y   XYZ_Z          LAB_L   LAB_A   LAB_B          LAB_C   LAB_H          D_RED  D_GREEN  D_BLUE  D_VIS          STDEV_X STDEV_Y STDEV_Z        MEAN_DE  STDEV_DE
END_DATA_FORMAT
NUMBER_OF_SETS 288
BEGIN_DATA
A1          1.80    1.54    1.15          12.86    8.24    1.67           8.41   11.44           1.55    2.00    2.06    1.78            0.04    0.03    0.02           0.44     0.49
A2          2.36    1.59    0.89          13.16   19.47    6.11          20.41   17.43           1.34    2.20    2.17    1.72            0.06    0.04    0.02           0.35     0.40 
A3          2.89    1.60    0.75          13.22   29.34    8.66          30.59   16.45           1.19    2.51    2.19    1.68            0.07    0.04    0.01           0.41     0.50
A4          3.74    1.68    0.62          13.72   41.21   12.03          42.93   16.27           1.01    3.42    2.16    1.61            0.07    0.03    0.01           0.35     0.44 
A5          8.49    7.33    5.16          32.55   13.15    4.30          13.83   18.11           0.89    1.27    1.33    1.11            0.13    0.11    0.05           0.44     0.48
A6         10.70    7.57    4.69          33.06   28.83    7.70          29.84   14.95           0.70    1.42    1.36    1.06            0.14    0.10    0.04           0.36     0.42 
A7         13.01    7.78    3.95          33.51   43.02   12.72          44.86   16.47           0.56    1.61    1.42    1.01            0.18    0.11    0.05           0.40     0.45
A8         16.87    8.19    3.28          34.37   62.54   18.63          65.26   16.59           0.37    2.10    1.45    0.94            0.09    0.06    0.05           0.20     0.24 
A9         26.86   25.83   20.16          57.87    8.13    2.35           8.46   16.13           0.46    0.64    0.67    0.58            0.31    0.28    0.19           0.40     0.45
A10        28.96   25.97   18.97          58.01   15.87    5.08          16.67   17.76           0.39    0.67    0.70    0.56            0.28    0.24    0.17           0.35     0.39
A11        31.34   26.27   18.00          58.29   23.55    7.69          24.78   18.09           0.31    0.71    0.72    0.55            0.27    0.26    0.20           0.35     0.39
A12        35.51   26.86   16.82          58.85   35.78   11.35          37.54   17.60           0.21    0.77    0.75    0.52            0.21    0.25    0.21           0.36     0.42 
A13        69.63   74.04   59.77          88.94   -3.75    1.32           3.98  160.57           0.15    0.12    0.15    0.13            0.30    0.28    0.24           0.21     0.24
A14        69.67   70.66   59.22          87.32    3.33   -0.92           3.46  344.52           0.11    0.16    0.15    0.15            0.21    0.23    0.23           0.16     0.17 
A15        73.28   76.50   58.42          90.09   -1.01    4.67           4.78  102.16           0.10    0.11    0.16    0.12            0.11    0.14    0.16           0.15     0.18
A16        69.95   72.64   59.26          88.28   -0.20    0.68           0.72  106.65           0.13    0.14    0.15    0.14            0.22    0.22    0.21           0.15     0.17
A17        68.71   69.78   56.20          86.89    3.11    1.44           3.43   24.73           0.11    0.17    0.18    0.15            0.22    0.24    0.29           0.17     0.19
A18        70.06   74.29   57.66          89.06   -3.32    3.67           4.95  132.20           0.14    0.12    0.17    0.13            0.20    0.24    0.23           0.19     0.22 
A19        63.85   66.54   57.68          85.27   -0.68   -2.89           2.97  256.70           0.18    0.17    0.16    0.18            0.17    0.18    0.20           0.22     0.26
A20         5.63    2.59    1.61          18.32   46.10    5.38          46.41    6.65           0.85    2.94    1.72    1.44            0.14    0.06    0.04           0.46     0.55 
A21        24.89   17.22   13.15          48.54   40.19    2.85          40.29    4.05           0.34    1.05    0.84    0.70            0.23    0.21    0.22           0.38     0.46
A22        50.14   46.40   30.96          73.80   14.99   10.58          18.35   35.21           0.16    0.39    0.47    0.31            0.24    0.26    0.38           0.32     0.40
B1          2.81    2.50    1.47          17.91    7.77    6.23           9.96   38.73           1.36    1.75    1.97    1.58            0.05    0.04    0.02           0.36     0.40
B2          3.31    2.47    0.86          17.77   16.98   14.62          22.41   40.72           1.22    1.87    2.28    1.55            0.07    0.05    0.02           0.40     0.47
B3          3.84    2.45    0.47          17.71   25.44   21.69          33.43   40.46           1.11    2.03    2.64    1.52            0.08    0.05    0.01           0.40     0.47
B4          4.47    2.52    0.18          18.02   33.01   27.65          43.06   39.94           1.00    2.20    3.30    1.48            0.09    0.04    0.00           0.40     0.49
B5         11.08    9.86    5.48          37.59   12.13   11.40          16.65   43.21           0.77    1.12    1.33    0.98            0.14    0.11    0.04           0.42     0.48
B6         13.16    9.92    3.74          37.70   25.97   21.30          33.59   39.36           0.62    1.23    1.53    0.94            0.14    0.11    0.03           0.40     0.46
B7         15.95   10.41    2.36          38.57   39.23   32.95          51.23   40.03           0.49    1.34    1.79    0.89            0.16    0.12    0.03           0.42     0.46
B8         20.59   10.90    0.84          39.41   60.04   52.10          79.50   40.95           0.31    1.67    2.37    0.83            0.12    0.08    0.02           0.18     0.21
B9         31.90   31.43   23.11          62.87    5.84    5.13           7.78   41.32           0.40    0.54    0.61    0.49            0.30    0.31    0.23           0.37     0.42
B10        34.19   32.00   20.44          63.34   11.89   11.19          16.33   43.27           0.33    0.56    0.67    0.48            0.27    0.27    0.16           0.31     0.38
B11        35.90   32.33   18.72          63.62   16.52   15.30          22.52   42.81           0.28    0.57    0.72    0.46            0.25    0.26    0.22           0.30     0.36
B12        39.42   32.56   14.99          63.80   27.13   24.32          36.43   41.88           0.19    0.62    0.84    0.44            0.14    0.17    0.13           0.26     0.30
B13        61.73   67.75   57.68          85.88   -8.20   -1.84           8.40  192.62           0.23    0.15    0.16    0.18            0.30    0.26    0.18           0.24     0.28
B14        61.80   59.56   56.03          81.60   10.42   -7.52          12.85  324.19           0.14    0.25    0.17    0.22            0.26    0.30    0.24           0.24     0.29
B15        68.13   71.92   46.39          87.93   -2.62   14.13          14.37  100.50           0.12    0.14    0.28    0.14            0.22    0.23    0.26           0.14     0.17
B16        53.06   55.07   45.45          79.08   -0.12    0.00           0.26  199.57           0.24    0.26    0.28    0.26            0.47    0.42    0.37           0.31     0.36
B17        59.04   57.63   44.56          80.53    8.48    3.57           9.21   22.85           0.14    0.27    0.29    0.23            0.27    0.33    0.29           0.25     0.29
B18        59.82   66.72   47.04          85.36  -10.47    8.94          13.77  139.53           0.23    0.15    0.27    0.18            0.32    0.30    0.30           0.24     0.29
B19        54.86   56.32   55.18          79.80    1.40   -9.73           9.83  278.20           0.25    0.25    0.18    0.25            0.35    0.35    0.28           0.27     0.32
B20         4.31    2.57    0.85          18.22   29.98   15.41          33.71   27.20           1.03    2.13    2.20    1.49            0.12    0.06    0.01           0.55     0.64
B21        16.19   10.44    3.57          38.63   40.39   23.97          46.97   30.69           0.48    1.36    1.53    0.89            0.24    0.16    0.07           0.41     0.49
B22        31.45   26.53   15.45          58.54   22.90   14.09          26.89   31.62           0.31    0.70    0.81    0.54            0.37    0.33    0.26           0.39     0.45
C1          5.39    5.25    2.95          27.43    4.00    9.03           9.88   66.14           1.12    1.36    1.65    1.27            0.11    0.10    0.05           0.48     0.53
C2          5.75    5.32    1.81          27.63    7.26   19.24          20.57   69.32           1.06    1.37    1.96    1.25            0.11    0.10    0.02           0.44     0.52
C3          6.25    5.23    0.93          27.39   13.88   30.03          33.09   65.20           0.99    1.42    2.43    1.23            0.11    0.09    0.01           0.44     0.50
C4          6.76    5.36    0.43          27.73   17.62   39.66          43.40   66.05           0.94    1.43    3.14    1.21            0.11    0.08    0.01           0.43     0.51
C5         21.60   20.90   10.24          52.84    6.94   18.93          20.17   69.87           0.53    0.73    1.04    0.66            0.20    0.20    0.07           0.38     0.44
C6         24.02   21.30    5.81          53.28   16.01   36.84          40.17   66.52           0.42    0.77    1.38    0.63            0.18    0.17    0.05           0.40     0.46
C7         26.22   21.45    2.85          53.44   24.66   54.62          59.93   65.70           0.35    0.81    1.88    0.61            0.25    0.20    0.04           0.42     0.45
C8         28.29   21.41    0.89          53.39   33.13   75.52          82.47   66.31           0.30    0.86    3.02    0.60            0.19    0.16    0.01           0.35     0.41
C9         38.08   38.13   25.91          68.11    4.28    9.09          10.05   64.78           0.33    0.44    0.56    0.41            0.26    0.28    0.13           0.32     0.37
C10        39.06   38.43   22.05          68.34    6.44   16.59          17.80   68.80           0.29    0.45    0.65    0.40            0.26    0.28    0.16           0.27     0.32
C11        40.41   38.49   18.26          68.38   10.48   24.51          26.66   66.85           0.25    0.47    0.75    0.39            0.23    0.26    0.13           0.30     0.36
C12        43.45   38.85   11.46          68.64   18.49   42.37          46.23   66.43           0.17    0.50    1.03    0.37            0.18    0.23    0.09           0.25     0.30
C13        54.88   63.11   56.91          83.50  -14.52   -5.15          15.41  199.52           0.34    0.16    0.17    0.22            0.35    0.32    0.17           0.30     0.34
C14        54.86   48.94   53.43          75.42   20.27  -15.41          25.46  322.76           0.16    0.38    0.18    0.30            0.24    0.26    0.24           0.19     0.23
C15        66.12   70.61   36.37          87.30   -4.33   25.89          26.25   99.50           0.12    0.15    0.42    0.15            0.19    0.20    0.29           0.23     0.27
C16        39.84   41.30   34.53          70.39    0.05   -0.65           0.71  273.09           0.36    0.39    0.41    0.39            0.35    0.34    0.24           0.34     0.40
C17        49.87   45.41   33.07          73.16   17.06    6.27          18.17   20.18           0.16    0.41    0.43    0.32            0.22    0.26    0.27           0.25     0.31
C18        51.58   61.34   37.29          82.56  -18.96   16.46          25.11  139.04           0.33    0.17    0.40    0.22            0.33    0.31    0.30           0.26     0.32
C19        43.30   43.71   52.42          72.03    3.46  -20.15          20.44  279.74           0.36    0.36    0.19    0.37            0.37    0.37    0.27           0.35     0.44
C20        11.28    8.09    1.00          34.16   28.35   40.57          49.50   55.06           0.67    1.35    2.41    1.02            0.23    0.17    0.02           0.56     0.64
C21        19.79   18.30    9.64          49.85   11.09   15.76          19.28   54.88           0.54    0.82    1.06    0.71            0.25    0.24    0.13           0.44     0.55
C22        26.10   21.81    9.51          53.82   22.48   23.06          32.21   45.73           0.37    0.80    1.07    0.62            0.36    0.31    0.14           0.40     0.47
D1          3.58    3.78    2.07          22.91   -1.01    8.55           8.61   96.70           1.33    1.46    1.84    1.42            0.09    0.09    0.03           0.49     0.56
D2          3.37    3.61    1.24          22.32   -1.65   16.66          16.75   95.64           1.36    1.47    2.19    1.44            0.07    0.07    0.02           0.46     0.51
D3          3.36    3.65    0.70          22.47   -2.46   25.45          25.57   95.52           1.37    1.44    2.66    1.43            0.07    0.06    0.01           0.43     0.50
D4          3.36    3.62    0.44          22.39   -2.21   30.24          30.32   94.19           1.38    1.43    3.13    1.43            0.07    0.07    0.00           0.46     0.53
D5         15.78   16.43    8.24          47.54   -0.35   16.76          16.77   91.18           0.70    0.80    1.15    0.78            0.12    0.12    0.04           0.38     0.45
D6         15.88   16.83    4.38          48.05   -1.99   35.25          35.31   93.24           0.69    0.78    1.57    0.76            0.17    0.19    0.03           0.42     0.53
D7         15.59   16.67    2.11          47.84   -2.81   51.12          51.20   93.14           0.71    0.77    2.17    0.76            0.20    0.22    0.03           0.43     0.50
D8         15.77   16.78    1.03          47.98   -2.34   63.99          64.03   92.10           0.73    0.76    2.96    0.75            0.20    0.21    0.01           0.48     0.55
D9         43.80   45.92   22.91          73.50   -1.40   23.83          23.87   93.37           0.28    0.34    0.65    0.33            0.24    0.26    0.13           0.27     0.29
D10        43.90   45.90   13.29          73.48   -1.06   45.46          45.48   91.34           0.25    0.35    0.97    0.32            0.34    0.36    0.19           0.32     0.36
D11        43.65   46.06    6.45          73.58   -2.21   68.93          68.97   91.83           0.26    0.34    1.49    0.32            0.21    0.22    0.05           0.22     0.24
D12        44.12   46.93    1.98          74.14   -3.26   97.72          97.78   91.91           0.29    0.33    2.71    0.31            0.27    0.27    0.02           0.28     0.32
D13        49.49   59.32   56.26          81.47  -19.78   -7.98          21.33  201.97           0.43    0.17    0.18    0.25            0.41    0.37    0.22           0.32     0.40
D14        49.56   41.06   51.11          70.21   28.89  -21.84          36.21  322.91           0.17    0.49    0.19    0.37            0.24    0.27    0.25           0.24     0.29
D15        64.50   69.40   27.74          86.70   -5.41   38.01          38.40   98.10           0.12    0.15    0.57    0.15            0.17    0.20    0.25           0.25     0.31
D16        30.17   31.38   25.31          62.82   -0.33    1.02           1.09  106.13           0.47    0.51    0.56    0.51            0.31    0.31    0.27           0.36     0.41
D17        42.73   36.24   23.29          66.70   24.72   11.40          27.22   24.76           0.18    0.55    0.60    0.41            0.19    0.22    0.21           0.25     0.30
D18        44.97   56.74   28.66          80.04  -26.20   24.99          36.21  136.35           0.42    0.18    0.55    0.26            0.39    0.37    0.29           0.34     0.40
D19        34.60   34.30   49.96          65.20    5.31  -29.19          29.67  280.31           0.48    0.47    0.21    0.48            0.36    0.37    0.28           0.40     0.48
D20         2.48    2.55    0.94          18.16    0.29   13.93          13.94   88.83           1.47    1.64    2.31    1.58            0.07    0.07    0.02           0.49     0.54
D21        28.93   26.34    1.34          58.36   14.21   77.53          78.82   79.61           0.38    0.65    2.77    0.54            0.25    0.27    0.02           0.42     0.52
D22        36.63   40.49   52.04          69.81   -7.75  -23.56          24.80  251.78           0.53    0.36    0.20    0.42            0.21    0.20    0.19           0.37     0.41
E1          4.48    5.19    2.94          27.27   -6.80    8.81          11.13  127.66           1.29    1.28    1.67    1.30            0.10    0.12    0.05           0.47     0.53
E2          4.26    5.35    1.88          27.70  -11.67   18.69          22.03  121.97           1.34    1.22    2.00    1.28            0.09    0.11    0.02           0.49     0.56
E3          4.00    5.43    1.11          27.92  -16.20   28.22          32.54  119.85           1.43    1.18    2.46    1.28            0.09    0.11    0.02           0.53     0.58
E4          3.65    5.47    0.65          28.04  -21.88   36.06          42.18  121.25           1.57    1.13    3.05    1.28            0.07    0.09    0.01           0.46     0.52
E5         22.94   25.92   13.54          57.96   -8.96   18.03          20.14  116.43           0.60    0.57    0.91    0.59            0.24    0.23    0.12           0.34     0.39
E6         20.84   25.85    8.32          57.89  -18.47   34.33          38.98  118.29           0.68    0.53    1.23    0.60            0.21    0.24    0.07           0.34     0.40
E7         18.56   25.73    4.61          57.77  -29.30   50.75          58.61  120.00           0.82    0.49    1.68    0.61            0.23    0.28    0.05           0.34     0.39
E8         16.42   26.46    1.68          58.47  -43.85   73.78          85.83  120.72           1.11    0.42    2.82    0.60            0.17    0.22    0.02           0.30     0.34
E9         41.44   45.27   29.89          73.07   -6.59   10.99          12.82  120.93           0.35    0.33    0.50    0.35            0.41    0.42    0.30           0.31     0.34
E10        39.99   45.66   23.74          73.32  -12.14   21.98          25.11  118.91           0.38    0.31    0.63    0.34            0.38    0.40    0.25           0.34     0.40
E11        38.31   45.84   18.72          73.44  -17.95   32.23          36.89  119.11           0.42    0.29    0.78    0.34            0.49    0.50    0.24           0.34     0.41
E12        33.12   45.74    7.88          73.38  -35.10   62.69          71.85  119.25           0.59    0.25    1.38    0.35            0.30    0.31    0.09           0.27     0.34
E13        44.61   55.80   55.75          79.50  -24.91  -10.84          27.17  203.52           0.53    0.18    0.18    0.28            0.44    0.41    0.25           0.37     0.45
E14        44.53   33.86   48.58          64.85   37.99  -28.22          47.33  323.39           0.19    0.63    0.20    0.44            0.24    0.26    0.29           0.26     0.31
E15        63.24   68.20   21.56          86.11   -5.71   48.19          48.52   96.76           0.12    0.16    0.72    0.16            0.14    0.17    0.15           0.21     0.25
E16        21.73   22.65   18.59          54.71   -0.51    0.22           0.57  148.83           0.61    0.66    0.71    0.65            0.26    0.28    0.20           0.40     0.48
E17        36.36   28.11   16.27          59.99   33.68   14.62          36.72   23.46           0.20    0.73    0.77    0.50            0.20    0.23    0.22           0.32     0.38
E18        38.98   52.24   22.42          77.43  -32.99   31.55          45.65  136.27           0.52    0.20    0.69    0.30            0.34    0.31    0.24           0.34     0.43
E19        26.62   25.76   47.17          57.81    7.42  -38.72          39.43  280.84           0.64    0.60    0.22    0.61            0.34    0.36    0.31           0.47     0.57
E20         6.15    7.54    1.16          33.00  -11.46   36.16          37.94  107.58           1.19    1.06    2.49    1.12            0.12    0.16    0.02           0.57     0.65
E21        22.75   27.20    5.66          59.16  -14.98   47.72          50.02  107.43           0.61    0.52    1.50    0.56            0.26    0.27    0.05           0.38     0.45
E22         7.88   17.18   12.39          48.49  -61.03    4.88          61.22  175.43           1.94    0.55    0.98    0.85            0.09    0.15    0.12           0.24     0.28
F1          3.11    3.88    2.80          23.27  -10.21    2.95          10.63  163.91           1.50    1.39    1.68    1.44            0.08    0.10    0.06           0.45     0.52
F2          2.45    3.74    2.33          22.79  -20.11    5.98          20.99  163.44           1.72    1.34    1.81    1.47            0.06    0.09    0.04           0.44     0.50
F3          2.13    3.89    2.00          23.29  -29.12    9.89          30.76  161.24           1.93    1.27    1.95    1.47            0.05    0.09    0.03           0.53     0.60
F4          1.42    4.09    1.46          23.95  -49.52   16.74          52.27  161.33           2.77    1.14    2.27    1.48            0.04    0.10    0.03           0.51     0.58
F5         10.42   13.13    9.16          42.96  -15.98    5.54          16.92  160.89           1.02    0.83    1.09    0.91            0.14    0.16    0.08           0.38     0.45
F6          8.16   13.09    7.63          42.90  -34.36   11.10          36.11  162.09           1.32    0.76    1.22    0.93            0.13    0.19    0.08           0.42     0.48
F7          6.46   13.04    6.20          42.82  -50.41   17.01          53.20  161.36           1.68    0.70    1.38    0.95            0.11    0.21    0.08           0.48     0.56
F8          5.02   13.67    4.94          43.76  -70.87   24.80          75.08  160.71           2.44    0.61    1.59    0.95            0.07    0.16    0.06           0.27     0.32
F9         27.45   31.57   23.73          62.98  -11.53    4.17          12.26  160.13           0.57    0.47    0.61    0.51            0.32    0.33    0.24           0.31     0.37
F10        24.62   31.85   21.55          63.22  -24.26    8.74          25.79  160.19           0.70    0.42    0.67    0.52            0.36    0.43    0.25           0.36     0.45
F11        21.80   31.57   19.78          62.99  -35.85   11.96          37.79  161.55           0.86    0.39    0.73    0.54            0.31    0.38    0.20           0.34     0.42
F12        17.11   32.92   15.59          64.09  -64.28   23.33          68.39  160.05           1.35    0.30    0.90    0.54            0.15    0.22    0.18           0.25     0.31
F13        39.70   51.97   54.97          77.26  -30.03  -13.87          33.08  204.79           0.65    0.19    0.19    0.32            0.33    0.33    0.23           0.28     0.36
F14        39.88   27.61   45.84          59.53   46.97  -34.18          58.09  323.96           0.21    0.79    0.22    0.52            0.27    0.27    0.30           0.34     0.40
F15        62.02   66.76   15.85          85.38   -5.40   59.41          59.65   95.19           0.12    0.17    0.91    0.16            0.18    0.22    0.17           0.23     0.27
F16        14.79   15.56   12.58          46.39   -1.27    0.75           1.48  149.10           0.77    0.82    0.90    0.81            0.21    0.22    0.18           0.40     0.45
F17        30.80   21.45   10.26          53.44   42.48   19.89          46.91   25.09           0.23    0.94    1.00    0.60            0.19    0.21    0.15           0.31     0.37
