targets/wolf_faust/transmissive/N140903.it8
IT8.7/1
ORIGINATOR "Wolf Faust"
DESCRIPTOR "Velvia 100, 100F, Astia 100F, Provia 400X and Sensia 100 (Emul. 687 or higher), Type 3, L* a* b* (light D50, viewing angle 2)"
MANUFACTURER "Wolf Faust - http://www.coloraid.de"
CREATED "September 05, 2014"
PROD_DATE "2013:05"
DIFFUSE_GEOMETRY "opal"
SERIAL "N140903 Batch Average Data"
MATERIAL "Fujichrome Velvia 100 (RVP 100)"
KEYWORD "MEAN_DE" # Mean Delta E of samples compared to batch average
NUMBER_OF_FIELDS 18
BEGIN_DATA_FORMAT
SAMPLE_ID  XYZ_X   XYZ_Y   XYZ_Z          LAB_L   LAB_A   LAB_B          LAB_C   LAB_H          D_RED  D_GREEN  D_BLUE  D_VIS          STDEV_X STDEV_Y STDEV_Z        MEAN_DE  STDEV_DE
END_DATA_FORMAT
NUMBER_OF_SETS 288
BEGIN_DATA
A1          1.84    1.58    1.16          13.13    8.04    1.96           8.28   13.66           1.54    1.98    2.05    1.77            0.07    0.05    0.03           0.52     0.58
A2          2.40    1.63    0.90          13.41   19.27    6.37          20.30   18.28           1.33    2.16    2.15    1.71            0.09    0.05    0.02           0.52     0.61 
A3          2.94    1.64    0.76          13.46   29.25    8.90          30.58   16.91           1.18    2.45    2.18    1.67            0.08    0.04    0.01           0.44     0.51
A4          3.79    1.71    0.63          13.89   41.22   12.07          42.95   16.32           1.00    3.12    2.14    1.60            0.09    0.04    0.01           0.44     0.51 
A5          8.65    7.50    5.21          32.92   12.98    4.72          13.82   19.98           0.88    1.26    1.33    1.10            0.18    0.12    0.09           0.66     0.74
A6         10.88    7.71    4.74          33.37   28.78    7.98          29.87   15.50           0.70    1.40    1.35    1.05            0.22    0.13    0.09           0.61     0.69 
A7         13.18    7.90    3.99          33.78   43.01   12.96          44.92   16.78           0.55    1.60    1.41    1.01            0.19    0.11    0.07           0.41     0.47
A8         17.02    8.29    3.34          34.58   62.49   18.51          65.18   16.50           0.37    2.07    1.44    0.94            0.07    0.04    0.05           0.29     0.35 
A9         27.25   26.21   20.37          58.23    8.14    2.53           8.53   17.33           0.46    0.63    0.66    0.57            0.41    0.33    0.35           0.53     0.60
A10        29.52   26.51   19.27          58.52   15.79    5.33          16.67   18.64           0.38    0.66    0.69    0.55            0.41    0.33    0.29           0.46     0.53
A11        31.81   26.70   18.25          58.70   23.49    7.84          24.77   18.46           0.31    0.70    0.71    0.54            0.39    0.31    0.30           0.43     0.48
A12        35.88   27.27   17.08          59.22   35.40   11.38          37.19   17.82           0.21    0.76    0.74    0.51            0.20    0.22    0.29           0.45     0.50 
A13        69.99   74.28   59.66          89.06   -3.47    1.63           3.83  154.85           0.14    0.12    0.15    0.13            0.35    0.30    0.31           0.24     0.28
A14        70.15   71.22   59.23          87.59    3.18   -0.47           3.21  351.73           0.11    0.16    0.15    0.15            0.28    0.39    0.29           0.30     0.34 
A15        73.69   76.84   58.58          90.25   -0.83    4.78           4.85   99.92           0.10    0.11    0.16    0.11            0.17    0.18    0.31           0.18     0.21
A16        70.40   73.08   59.28          88.48   -0.12    1.02           1.03   96.97           0.12    0.14    0.15    0.14            0.32    0.35    0.30           0.24     0.27
A17        69.16   70.28   56.34          87.13    3.03    1.71           3.48   29.55           0.11    0.16    0.18    0.15            0.33    0.42    0.38           0.28     0.31
A18        70.58   74.68   57.81          89.24   -3.01    3.82           4.87  128.25           0.13    0.12    0.17    0.13            0.30    0.26    0.35           0.25     0.28 
A19        64.49   67.16   57.78          85.58   -0.61   -2.45           2.53  256.22           0.17    0.17    0.16    0.18            0.47    0.47    0.30           0.37     0.45
A20         5.67    2.62    1.61          18.43   46.06    5.52          46.40    6.84           0.84    2.83    1.71    1.43            0.14    0.06    0.04           0.50     0.57 
A21        25.28   17.52   13.32          48.91   40.23    3.02          40.35    4.29           0.33    1.04    0.84    0.69            0.25    0.18    0.22           0.41     0.46
A22        50.48   46.81   31.20          74.07   14.75   10.68          18.21   35.91           0.16    0.39    0.47    0.31            0.37    0.41    0.47           0.41     0.46
B1          2.86    2.55    1.47          18.15    7.58    6.61          10.06   41.11           1.36    1.73    1.97    1.57            0.09    0.07    0.04           0.57     0.64
B2          3.38    2.53    0.86          18.04   16.94   14.99          22.62   41.51           1.21    1.85    2.27    1.54            0.08    0.05    0.02           0.45     0.49
B3          3.90    2.50    0.47          17.92   25.46   21.95          33.61   40.77           1.10    2.01    2.60    1.51            0.10    0.05    0.01           0.50     0.57
B4          4.53    2.57    0.18          18.22   32.98   27.92          43.21   40.25           1.00    2.17    3.14    1.47            0.12    0.06    0.00           0.55     0.64
B5         11.27   10.05    5.51          37.93   12.02   11.84          16.87   44.56           0.77    1.11    1.33    0.97            0.20    0.14    0.12           0.60     0.68
B6         13.35   10.10    3.75          38.02   25.83   21.76          33.77   40.12           0.62    1.22    1.53    0.94            0.21    0.13    0.06           0.52     0.59
B7         16.16   10.56    2.37          38.84   39.29   33.30          51.50   40.28           0.48    1.33    1.79    0.89            0.25    0.15    0.05           0.46     0.53
B8         20.68   10.97    0.86          39.52   59.96   52.05          79.41   40.96           0.30    1.66    2.35    0.83            0.07    0.05    0.02           0.20     0.22
B9         32.35   31.90   23.34          63.26    5.79    5.37           7.90   42.84           0.39    0.53    0.60    0.49            0.42    0.36    0.40           0.53     0.59
B10        34.50   32.34   20.62          63.62   11.78   11.31          16.34   43.84           0.33    0.55    0.67    0.47            0.43    0.37    0.33           0.46     0.52
B11        36.23   32.67   18.83          63.89   16.44   15.53          22.62   43.36           0.28    0.57    0.72    0.46            0.36    0.30    0.26           0.39     0.45
B12        39.77   32.99   15.17          64.16   26.68   24.49          36.22   42.54           0.19    0.61    0.83    0.44            0.25    0.29    0.27           0.40     0.48
B13        62.17   68.08   57.50          86.04   -7.89   -1.38           8.01  189.86           0.23    0.14    0.17    0.18            0.61    0.53    0.39           0.40     0.48
B14        62.10   59.99   55.83          81.83   10.09   -6.90          12.22  325.65           0.14    0.25    0.17    0.22            0.48    0.58    0.39           0.45     0.51
B15        68.45   72.15   46.59          88.04   -2.41   14.08          14.28   99.73           0.12    0.14    0.28    0.14            0.46    0.47    0.61           0.34     0.41
B16        53.33   55.34   45.42          79.24   -0.09    0.30           0.39  107.37           0.24    0.26    0.28    0.26            0.69    0.66    0.55           0.41     0.48
B17        59.39   58.03   44.69          80.76    8.35    3.80           9.18   24.48           0.14    0.26    0.29    0.23            0.46    0.53    0.52           0.35     0.39
B18        60.33   67.06   47.17          85.54  -10.01    9.08          13.52  137.78           0.23    0.15    0.27    0.18            0.63    0.53    0.56           0.48     0.55
B19        55.26   56.73   55.02          80.03    1.39   -9.15           9.26  278.71           0.24    0.25    0.18    0.25            0.66    0.63    0.31           0.52     0.64
B20         4.37    2.60    0.85          18.37   30.12   15.70          33.97   27.53           1.03    2.11    2.19    1.48            0.14    0.08    0.03           0.51     0.62
B21        16.27   10.50    3.55          38.72   40.45   24.24          47.16   30.93           0.48    1.36    1.53    0.89            0.23    0.14    0.06           0.42     0.47
B22        31.65   26.69   15.42          58.68   22.99   14.43          27.14   32.12           0.30    0.70    0.81    0.54            0.41    0.33    0.26           0.44     0.51
C1          5.48    5.35    2.95          27.71    3.88    9.48          10.25   67.79           1.12    1.35    1.65    1.26            0.14    0.11    0.06           0.59     0.66
C2          5.86    5.42    1.82          27.91    7.30   19.63          20.95   69.61           1.05    1.36    1.96    1.24            0.13    0.10    0.04           0.53     0.58
C3          6.38    5.34    0.93          27.68   13.94   30.41          33.45   65.38           0.98    1.41    2.41    1.22            0.12    0.09    0.02           0.42     0.48
C4          6.90    5.47    0.44          28.02   17.77   40.02          43.79   66.05           0.94    1.42    3.02    1.20            0.14    0.09    0.01           0.48     0.55
C5         21.95   21.26   10.28          53.23    6.88   19.49          20.68   70.56           0.52    0.72    1.04    0.65            0.33    0.29    0.17           0.58     0.64
C6         24.34   21.61    5.84          53.61   15.94   37.29          40.56   66.86           0.42    0.76    1.38    0.63            0.32    0.25    0.08           0.52     0.58
C7         26.57   21.80    2.87          53.82   24.44   55.11          60.29   66.09           0.35    0.80    1.88    0.61            0.28    0.22    0.07           0.36     0.40
C8         28.56   21.64    0.90          53.64   33.11   75.66          82.59   66.37           0.30    0.85    2.91    0.59            0.31    0.27    0.01           0.44     0.52
C9         38.48   38.54   26.15          68.42    4.26    9.20          10.14   65.16           0.32    0.44    0.55    0.41            0.52    0.46    0.43           0.51     0.56
C10        39.35   38.75   22.18          68.57    6.35   16.73          17.90   69.20           0.29    0.45    0.65    0.40            0.52    0.47    0.41           0.47     0.55
C11        40.75   38.84   18.38          68.63   10.44   24.69          26.81   67.07           0.25    0.46    0.75    0.39            0.44    0.41    0.31           0.42     0.48
C12        43.75   39.26   11.58          68.94   18.09   42.50          46.19   66.94           0.17    0.49    1.02    0.37            0.29    0.34    0.25           0.43     0.52
C13        55.34   63.43   56.72          83.67  -14.10   -4.66          14.86  198.29           0.33    0.16    0.17    0.21            0.59    0.49    0.33           0.45     0.56
C14        55.05   49.27   53.21          75.62   19.90  -14.83          24.82  323.32           0.16    0.37    0.18    0.29            0.45    0.53    0.37           0.50     0.58
C15        66.37   70.76   36.53          87.37   -4.09   25.80          26.12   99.02           0.12    0.15    0.41    0.14            0.38    0.39    0.56           0.45     0.51
C16        40.22   41.64   34.55          70.62    0.22   -0.27           0.48  186.44           0.35    0.39    0.41    0.38            0.63    0.56    0.54           0.53     0.62
C17        50.09   45.70   33.11          73.35   16.80    6.54          18.04   21.28           0.16    0.41    0.43    0.32            0.42    0.47    0.49           0.42     0.47
C18        52.02   61.60   37.40          82.70  -18.40   16.55          24.75  138.03           0.32    0.17    0.40    0.22            0.63    0.50    0.53           0.59     0.67
C19        43.69   44.08   52.26          72.28    3.48  -19.54          19.85  280.13           0.36    0.36    0.19    0.36            0.67    0.62    0.23           0.64     0.81
C20        11.37    8.12    0.99          34.23   28.67   40.88          49.93   54.96           0.67    1.35    2.40    1.01            0.31    0.22    0.03           0.67     0.81
C21        20.04   18.49    9.64          50.09   11.32   16.19          19.76   55.05           0.54    0.81    1.06    0.71            0.37    0.29    0.18           0.53     0.64
C22        26.28   21.93    9.48          53.96   22.65   23.38          32.56   45.92           0.37    0.79    1.07    0.62            0.36    0.29    0.14           0.45     0.51
D1          3.64    3.85    2.08          23.16   -1.13    8.85           8.94   97.34           1.33    1.45    1.84    1.41            0.11    0.10    0.04           0.55     0.63
D2          3.44    3.68    1.25          22.57   -1.66   17.03          17.12   95.56           1.35    1.46    2.18    1.43            0.09    0.08    0.02           0.47     0.53
D3          3.44    3.73    0.72          22.77   -2.49   25.71          25.83   95.54           1.36    1.43    2.62    1.42            0.08    0.07    0.01           0.49     0.56
D4          3.45    3.72    0.45          22.72   -2.16   30.63          30.71   94.04           1.37    1.42    3.01    1.41            0.09    0.08    0.01           0.49     0.56
D5         16.12   16.80    8.33          48.01   -0.44   17.25          17.26   91.47           0.69    0.79    1.15    0.77            0.27    0.24    0.17           0.55     0.61
D6         16.12   17.09    4.40          48.37   -2.03   35.73          35.79   93.26           0.68    0.77    1.57    0.75            0.21    0.16    0.06           0.50     0.56
D7         15.80   16.87    2.11          48.10   -2.67   51.62          51.69   92.96           0.70    0.77    2.16    0.76            0.25    0.23    0.04           0.49     0.55
D8         16.03   17.00    1.03          48.26   -2.08   64.33          64.36   91.86           0.72    0.76    2.88    0.75            0.30    0.29    0.02           0.65     0.79
D9         44.14   46.27   23.05          73.72   -1.38   23.95          23.99   93.29           0.27    0.34    0.64    0.33            0.58    0.57    0.37           0.49     0.54
D10        44.11   46.15   13.32          73.64   -1.13   45.65          45.67   91.42           0.25    0.34    0.97    0.32            0.47    0.45    0.23           0.37     0.42
D11        44.10   46.48    6.49          73.85   -2.07   69.25          69.28   91.71           0.25    0.34    1.49    0.31            0.42    0.41    0.11           0.35     0.39
D12        44.34   47.06    1.99          74.23   -2.96   97.76          97.81   91.74           0.29    0.33    2.65    0.30            0.50    0.47    0.03           0.40     0.49
D13        49.91   59.64   56.12          81.64  -19.40   -7.54          20.81  201.23           0.42    0.17    0.18    0.25            0.55    0.48    0.38           0.44     0.54
D14        49.77   41.38   50.98          70.44   28.51  -21.31          35.59  323.23           0.17    0.49    0.19    0.36            0.33    0.39    0.32           0.46     0.56
D15        64.66   69.48   27.83          86.74   -5.19   37.92          38.28   97.80           0.12    0.15    0.57    0.15            0.30    0.33    0.49           0.51     0.57
D16        30.44   31.63   25.31          63.04   -0.22    1.39           1.45   97.57           0.46    0.51    0.56    0.50            0.50    0.45    0.43           0.58     0.67
D17        42.90   36.47   23.34          66.88   24.46   11.61          27.08   25.39           0.18    0.55    0.60    0.40            0.32    0.36    0.39           0.44     0.50
D18        45.33   56.95   28.72          80.15  -25.67   25.10          35.90  135.64           0.41    0.18    0.55    0.26            0.56    0.46    0.45           0.58     0.67
D19        34.88   34.58   49.78          65.42    5.30  -28.60          29.09  280.50           0.48    0.47    0.21    0.48            0.60    0.57    0.24           0.69     0.84
D20         2.51    2.57    0.92          18.23    0.54   14.26          14.28   87.84           1.47    1.64    2.31    1.58            0.10    0.09    0.02           0.59     0.70
D21        29.17   26.50    1.35          58.51   14.49   77.65          78.99   79.43           0.37    0.65    2.71    0.53            0.36    0.27    0.02           0.49     0.57
D22        36.97   40.84   51.84          70.06   -7.71  -22.91          24.17  251.40           0.52    0.35    0.20    0.41            0.54    0.54    0.40           0.54     0.66
E1          4.55    5.28    2.94          27.52   -6.91    9.25          11.56  126.78           1.28    1.27    1.68    1.29            0.14    0.13    0.07           0.59     0.68
E2          4.34    5.45    1.87          27.97  -11.62   19.18          22.43  121.21           1.34    1.22    2.00    1.28            0.11    0.11    0.04           0.50     0.57
E3          4.10    5.54    1.11          28.21  -16.07   28.66          32.86  119.27           1.42    1.17    2.44    1.27            0.09    0.09    0.02           0.48     0.53
E4          3.76    5.60    0.66          28.39  -21.86   36.43          42.49  120.97           1.56    1.12    2.95    1.27            0.10    0.11    0.01           0.53     0.60
E5         23.28   26.30   13.65          58.32   -8.98   18.34          20.43  116.10           0.59    0.56    0.91    0.58            0.32    0.30    0.22           0.52     0.59
E6         21.14   26.18    8.35          58.21  -18.39   34.75          39.31  117.89           0.67    0.53    1.23    0.59            0.26    0.23    0.11           0.58     0.64
E7         18.86   26.06    4.62          58.10  -29.12   51.23          58.93  119.62           0.81    0.49    1.68    0.60            0.21    0.23    0.08           0.50     0.57
E8         16.69   26.73    1.69          58.72  -43.42   74.13          85.92  120.36           1.10    0.42    2.76    0.60            0.18    0.21    0.02           0.39     0.44
E9         41.89   45.73   30.14          73.37   -6.51   11.12          12.89  120.35           0.35    0.33    0.49    0.34            0.56    0.53    0.49           0.51     0.57
E10        40.32   45.98   23.87          73.53  -12.03   22.10          25.16  118.55           0.37    0.31    0.63    0.34            0.50    0.47    0.37           0.51     0.57
E11        38.67   46.19   18.85          73.67  -17.76   32.35          36.91  118.76           0.41    0.29    0.77    0.34            0.48    0.44    0.27           0.45     0.53
E12        33.36   45.91    7.89          73.48  -34.70   62.85          71.79  118.90           0.58    0.25    1.38    0.35            0.39    0.36    0.15           0.46     0.53
E13        44.81   55.90   55.51          79.56  -24.62  -10.48          26.76  203.06           0.53    0.18    0.18    0.28            0.44    0.39    0.32           0.41     0.50
E14        44.66   34.09   48.37          65.03   37.59  -27.66          46.67  323.65           0.19    0.62    0.21    0.44            0.28    0.32    0.26           0.45     0.54
E15        63.42   68.31   21.68          86.16   -5.53   48.06          48.38   96.57           0.12    0.16    0.72    0.15            0.31    0.34    0.40           0.50     0.55
E16        21.98   22.87   18.63          54.94   -0.34    0.54           0.78  150.41           0.60    0.65    0.71    0.64            0.39    0.34    0.34           0.61     0.70
E17        36.54   28.35   16.32          60.20   33.40   14.85          36.55   23.98           0.20    0.73    0.77    0.50            0.22    0.24    0.27           0.39     0.44
E18        39.30   52.43   22.46          77.54  -32.48   31.67          45.36  135.72           0.51    0.20    0.69    0.30            0.49    0.40    0.38           0.62     0.70
E19        26.88   26.04   47.06          58.07    7.37  -38.14          38.85  280.94           0.63    0.60    0.22    0.61            0.48    0.46    0.17           0.72     0.87
E20         6.23    7.59    1.16          33.11  -11.04   36.44          38.08  106.86           1.18    1.06    2.47    1.12            0.21    0.23    0.03           0.68     0.80
E21        23.06   27.51    5.66          59.44  -14.81   48.20          50.43  107.08           0.61    0.52    1.50    0.56            0.38    0.36    0.10           0.50     0.59
E22         8.01   17.42   12.38          48.78  -61.12    5.44          61.36  174.91           1.93    0.55    0.98    0.84            0.14    0.23    0.19           0.43     0.50
F1          3.17    3.96    2.80          23.54  -10.25    3.41          10.80  161.58           1.49    1.38    1.68    1.43            0.10    0.10    0.06           0.50     0.56
F2          2.51    3.82    2.33          23.06  -20.15    6.47          21.17  162.21           1.71    1.33    1.81    1.46            0.07    0.07    0.05           0.51     0.57
F3          2.17    3.96    2.00          23.54  -29.22   10.31          30.98  160.57           1.91    1.26    1.95    1.46            0.06    0.08    0.04           0.49     0.55
F4          1.45    4.16    1.47          24.18  -49.68   17.05          52.52  161.06           2.73    1.13    2.26    1.47            0.02    0.06    0.02           0.34     0.42
F5         10.65   13.41    9.24          43.38  -16.02    5.99          17.11  159.49           1.01    0.82    1.08    0.90            0.15    0.15    0.14           0.50     0.55
F6          8.32   13.31    7.66          43.23  -34.38   11.59          36.28  161.38           1.31    0.75    1.22    0.92            0.14    0.16    0.11           0.49     0.56
F7          6.62   13.28    6.21          43.19  -50.42   17.62          53.41  160.74           1.67    0.69    1.38    0.94            0.11    0.15    0.10           0.52     0.57
F8          5.13   13.90    4.96          44.08  -70.98   25.26          75.34  160.41           2.41    0.60    1.59    0.94            0.06    0.14    0.07           0.31     0.36
F9         27.87   32.01   23.88          63.35  -11.44    4.53          12.31  158.43           0.56    0.46    0.60    0.51            0.41    0.41    0.42           0.58     0.65
F10        24.94   32.20   21.67          63.51  -24.13    9.01          25.76  159.53           0.70    0.42    0.67    0.52            0.34    0.34    0.33           0.50     0.57
F11        22.13   31.93   19.91          63.28  -35.61   12.19          37.64  161.10           0.85    0.39    0.72    0.53            0.25    0.28    0.29           0.52     0.58
F12        17.31   33.15   15.63          64.28  -64.00   23.55          68.20  159.80           1.34    0.30    0.89    0.54            0.13    0.17    0.22           0.40     0.44
F13        40.02   52.24   54.82          77.43  -29.73  -13.43          32.63  204.31           0.64    0.19    0.19    0.32            0.32    0.29    0.30           0.37     0.44
F14        40.15   27.95   45.76          59.84   46.45  -33.56          57.30  324.16           0.21    0.78    0.22    0.52            0.22    0.24    0.24           0.44     0.53
F15        62.21   66.91   15.95          85.46   -5.26   59.30          59.53   95.07           0.12    0.17    0.91    0.16            0.28    0.32    0.28           0.41     0.46
F16        14.98   15.74   12.60          46.63   -1.17    1.08           1.62  136.62           0.76    0.82    0.90    0.81            0.32    0.30    0.23           0.52     0.61
F17        30.94   21.62   10.32          53.62   42.24   20.01          46.74   25.35           0.23    0.94    0.99    0.60            0.21    0.21    0.19           0.38     0.46
