targets/wolf_faust/transmissive/N150203.it8
IT8.7/1
ORIGINATOR "Wolf Faust"
DESCRIPTOR "Velvia 100, 100F, Astia 100F, Provia 400X and Sensia 100 (Emul. 687 or higher), Type 3, L* a* b* (light D50, viewing angle 2)"
MANUFACTURER "Wolf Faust - http://www.coloraid.de"
CREATED "March 06, 2015"
PROD_DATE "2014:02"
DIFFUSE_GEOMETRY "opal"
SERIAL "N150203 Batch Average Data"
MATERIAL "Fujichrome Velvia 100 (RVP 100)"
KEYWORD "MEAN_DE" # Mean Delta E of samples compared to batch average
NUMBER_OF_FIELDS 18
BEGIN_DATA_FORMAT
SAMPLE_ID  XYZ_X   XYZ_Y   XYZ_Z          LAB_L   LAB_A   LAB_B          LAB_C   LAB_H          D_RED  D_GREEN  D_BLUE  D_VIS          STDEV_X STDEV_Y STDEV_Z        MEAN_DE  STDEV_DE
END_DATA_FORMAT
NUMBER_OF_SETS 288
BEGIN_DATA
A1          1.76    1.52    1.10          12.74    7.81    2.11           8.09   15.13           1.56    2.00    2.08    1.79            0.05    0.04    0.02           0.34     0.40
A2          2.33    1.58    0.88          13.09   19.18    6.14          20.14   17.75           1.35    2.19    2.17    1.73            0.07    0.05    0.02           0.44     0.52 
A3          2.86    1.58    0.70          13.11   29.27    9.30          30.71   17.61           1.19    2.50    2.22    1.69            0.08    0.04    0.01           0.48     0.56
A4          3.78    1.69    0.59          13.78   41.42   12.63          43.30   16.95           1.00    3.31    2.17    1.61            0.08    0.03    0.01           0.47     0.54 
A5          8.60    7.35    5.10          32.60   13.93    4.72          14.71   18.69           0.87    1.28    1.33    1.10            0.18    0.14    0.05           0.52     0.60
A6         10.83    7.63    4.44          33.21   29.15    9.32          30.61   17.72           0.69    1.41    1.39    1.05            0.22    0.15    0.04           0.53     0.62 
A7         13.24    7.88    3.86          33.73   43.55   13.72          45.66   17.48           0.55    1.61    1.43    1.01            0.22    0.13    0.04           0.51     0.59
A8         16.87    8.19    3.28          34.38   62.49   18.63          65.21   16.60           0.37    2.09    1.45    0.94            0.10    0.06    0.03           0.19     0.22 
A9         26.99   26.05   19.68          58.08    7.76    3.71           8.61   25.56           0.46    0.63    0.68    0.57            0.38    0.36    0.21           0.51     0.59
A10        29.48   26.43   18.97          58.44   15.96    5.84          16.99   20.10           0.38    0.66    0.70    0.56            0.31    0.29    0.20           0.42     0.51
A11        31.42   26.47   18.03          58.48   23.03    7.95          24.37   19.05           0.31    0.70    0.72    0.54            0.32    0.30    0.22           0.48     0.56
A12        35.65   27.10   16.86          59.06   35.32   11.62          37.19   18.21           0.21    0.76    0.75    0.52            0.19    0.21    0.18           0.39     0.48 
A13        69.34   73.77   59.13          88.82   -3.84    1.75           4.22  155.60           0.15    0.12    0.15    0.14            0.45    0.47    0.38           0.25     0.30
A14        70.17   71.43   58.85          87.69    2.79    0.10           2.80   82.01           0.11    0.15    0.15    0.14            0.28    0.32    0.33           0.21     0.25 
A15        73.38   76.54   58.09          90.11   -0.89    5.04           5.12   99.99           0.10    0.12    0.17    0.11            0.30    0.34    0.34           0.23     0.25
A16        70.38   72.94   58.86          88.42    0.10    1.34           1.34   85.47           0.12    0.14    0.15    0.14            0.33    0.37    0.32           0.19     0.23
A17        68.93   70.06   55.95          87.03    2.99    1.93           3.56   32.84           0.11    0.16    0.18    0.15            0.27    0.31    0.32           0.19     0.23
A18        70.41   74.53   57.46          89.17   -3.06    4.06           5.09  127.02           0.13    0.12    0.17    0.13            0.38    0.41    0.34           0.22     0.25 
A19        64.91   67.65   57.54          85.83   -0.71   -1.78           1.92  248.16           0.17    0.17    0.16    0.17            0.42    0.46    0.31           0.25     0.30
A20         5.65    2.59    1.55          18.34   46.19    6.02          46.59    7.43           0.84    2.91    1.73    1.43            0.12    0.05    0.02           0.40     0.50 
A21        25.06   17.38   12.94          48.73   40.07    3.74          40.24    5.33           0.33    1.04    0.85    0.70            0.22    0.20    0.13           0.39     0.43
A22        50.28   46.72   30.53          74.01   14.49   11.62          18.57   38.73           0.16    0.39    0.48    0.31            0.25    0.30    0.22           0.31     0.35
B1          2.80    2.50    1.46          17.91    7.44    6.29           9.74   40.23           1.37    1.74    1.97    1.58            0.09    0.07    0.03           0.44     0.51
B2          3.30    2.47    0.89          17.79   16.69   14.07          21.83   40.12           1.22    1.87    2.25    1.55            0.09    0.07    0.02           0.46     0.52
B3          3.97    2.54    0.47          18.09   25.62   22.32          33.98   41.06           1.09    2.00    2.63    1.50            0.10    0.06    0.01           0.42     0.51
B4          4.47    2.52    0.18          17.99   33.05   27.66          43.10   39.93           1.00    2.20    3.25    1.48            0.12    0.06    0.00           0.50     0.65
B5         11.11    9.91    5.46          37.68   11.94   11.66          16.69   44.30           0.77    1.11    1.33    0.98            0.18    0.15    0.04           0.55     0.63
B6         13.36   10.01    3.49          37.86   26.55   23.16          35.23   41.10           0.61    1.23    1.57    0.94            0.21    0.16    0.03           0.49     0.58
B7         16.21   10.53    2.33          38.77   39.88   33.52          52.09   40.05           0.48    1.34    1.79    0.89            0.20    0.14    0.03           0.37     0.43
B8         20.55   10.86    0.81          39.35   60.09   52.56          79.83   41.17           0.31    1.67    2.39    0.83            0.10    0.08    0.02           0.21     0.24
B9         32.15   31.76   22.79          63.14    5.59    6.22           8.37   48.05           0.40    0.53    0.62    0.49            0.36    0.34    0.26           0.51     0.57
B10        34.40   32.26   20.42          63.55   11.70   11.61          16.49   44.78           0.33    0.55    0.67    0.47            0.33    0.33    0.21           0.42     0.49
B11        36.11   32.60   18.36          63.84   16.28   16.46          23.15   45.32           0.28    0.57    0.73    0.46            0.33    0.35    0.21           0.45     0.52
B12        39.48   32.75   14.97          63.96   26.64   24.64          36.29   42.77           0.19    0.61    0.84    0.44            0.44    0.40    0.19           0.44     0.53
B13        62.29   68.18   57.37          86.10   -7.84   -1.14           7.92  188.31           0.23    0.14    0.17    0.17            0.40    0.40    0.31           0.23     0.28
B14        62.01   59.93   55.64          81.80   10.03   -6.76          12.09  326.05           0.14    0.25    0.17    0.22            0.21    0.24    0.30           0.26     0.30
B15        68.30   72.06   45.97          88.00   -2.55   14.75          14.97   99.83           0.12    0.14    0.29    0.14            0.32    0.34    0.40           0.24     0.28
B16        53.47   55.49   44.93          79.32   -0.09    1.04           1.04   94.35           0.23    0.26    0.28    0.26            0.34    0.35    0.33           0.28     0.31
B17        59.32   58.06   44.21          80.77    8.13    4.42           9.25   28.51           0.14    0.26    0.29    0.23            0.27    0.31    0.38           0.30     0.34
B18        60.50   67.24   46.69          85.63   -9.99    9.80          14.00  135.55           0.22    0.15    0.28    0.18            0.47    0.47    0.39           0.26     0.30
B19        55.57   57.04   54.99          80.20    1.43   -8.82           8.94  279.22           0.24    0.24    0.18    0.25            0.47    0.49    0.30           0.39     0.43
B20         4.34    2.57    0.81          18.25   30.29   16.18          34.34   28.11           1.03    2.13    2.22    1.48            0.14    0.08    0.02           0.55     0.65
B21        16.12   10.55    3.52          38.81   39.20   24.60          46.28   32.11           0.48    1.34    1.54    0.89            0.25    0.18    0.04           0.43     0.51
B22        31.71   26.70   15.12          58.70   23.14   15.20          27.69   33.31           0.30    0.70    0.82    0.54            0.26    0.29    0.10           0.44     0.51
C1          5.44    5.28    2.86          27.53    4.11    9.81          10.64   67.29           1.12    1.35    1.67    1.26            0.15    0.14    0.04           0.50     0.58
C2          5.82    5.38    1.86          27.79    7.37   19.01          20.39   68.82           1.06    1.36    1.94    1.24            0.15    0.12    0.03           0.49     0.57
C3          6.38    5.40    0.89          27.85   13.18   31.36          34.02   67.21           0.98    1.40    2.47    1.22            0.13    0.10    0.01           0.44     0.52
C4          6.72    5.32    0.43          27.63   17.66   39.59          43.35   65.96           0.95    1.44    3.11    1.21            0.11    0.08    0.01           0.41     0.49
C5         22.03   21.19    9.94          53.15    7.60   20.45          21.82   69.60           0.51    0.73    1.06    0.65            0.26    0.24    0.09           0.58     0.65
C6         24.34   21.49    5.64          53.48   16.50   38.02          41.45   66.54           0.42    0.77    1.40    0.63            0.31    0.29    0.04           0.52     0.61
C7         26.39   21.58    2.73          53.58   24.72   55.79          61.02   66.10           0.35    0.80    1.92    0.61            0.28    0.28    0.04           0.47     0.53
C8         28.49   21.70    0.90          53.71   32.55   75.81          82.51   66.76           0.30    0.85    2.97    0.59            0.20    0.20    0.01           0.39     0.45
C9         38.27   38.34   25.84          68.27    4.19    9.49          10.38   66.14           0.33    0.44    0.56    0.41            0.43    0.43    0.30           0.42     0.48
C10        39.51   38.83   21.97          68.63    6.60   17.24          18.46   69.03           0.29    0.45    0.65    0.40            0.37    0.37    0.23           0.39     0.44
C11        40.82   38.88   17.90          68.66   10.50   25.79          27.85   67.84           0.24    0.46    0.77    0.39            0.30    0.32    0.21           0.35     0.40
C12        43.67   39.20   11.48          68.89   18.06   42.74          46.40   67.09           0.17    0.49    1.03    0.37            0.18    0.23    0.12           0.33     0.39
C13        55.60   63.66   56.59          83.79  -13.96   -4.32          14.61  197.22           0.32    0.15    0.17    0.21            0.41    0.42    0.30           0.26     0.32
C14        55.33   49.76   53.20          75.92   19.29  -14.29          24.00  323.47           0.15    0.36    0.18    0.29            0.20    0.23    0.31           0.31     0.38
C15        66.30   70.76   36.02          87.37   -4.25   26.51          26.85   99.11           0.12    0.15    0.42    0.14            0.31    0.35    0.34           0.24     0.28
C16        40.66   42.24   34.17          71.03   -0.20    0.98           1.02  101.41           0.35    0.38    0.42    0.38            0.43    0.40    0.33           0.38     0.45
C17        50.37   46.23   32.81          73.70   16.07    7.59          17.78   25.29           0.16    0.40    0.44    0.32            0.23    0.27    0.29           0.32     0.37
C18        52.37   61.93   37.01          82.88  -18.24   17.38          25.20  136.39           0.32    0.16    0.40    0.22            0.56    0.55    0.35           0.31     0.38
C19        44.30   44.86   52.31          72.80    3.04  -18.70          18.94  279.25           0.35    0.35    0.19    0.36            0.57    0.58    0.31           0.51     0.59
C20        11.43    8.14    0.98          34.27   28.91   40.98          50.15   54.79           0.66    1.35    2.41    1.01            0.29    0.22    0.02           0.65     0.78
C21        20.12   18.51    9.58          50.11   11.60   16.40          20.09   54.72           0.53    0.81    1.06    0.71            0.31    0.29    0.08           0.49     0.58
C22        26.15   21.85    9.41          53.86   22.52   23.48          32.54   46.19           0.37    0.80    1.07    0.62            0.33    0.32    0.10           0.52     0.59
D1          3.52    3.71    2.04          22.70   -0.88    8.42           8.47   95.96           1.34    1.47    1.85    1.43            0.10    0.10    0.04           0.41     0.47
D2          3.35    3.59    1.23          22.28   -1.92   16.72          16.83   96.55           1.36    1.47    2.19    1.44            0.09    0.09    0.02           0.45     0.51
D3          3.33    3.61    0.67          22.33   -2.36   25.90          26.01   95.21           1.37    1.44    2.69    1.43            0.08    0.08    0.01           0.49     0.57
D4          3.37    3.62    0.44          22.36   -1.84   30.29          30.34   93.48           1.38    1.43    3.09    1.43            0.07    0.06    0.01           0.42     0.50
D5         15.95   16.64    8.05          47.80   -0.52   17.95          17.96   91.67           0.69    0.80    1.17    0.77            0.21    0.21    0.09           0.57     0.65
D6         16.20   17.05    4.36          48.32   -1.33   35.84          35.87   92.13           0.68    0.78    1.58    0.75            0.24    0.25    0.04           0.57     0.64
D7         15.70   16.71    2.09          47.90   -2.36   51.41          51.47   92.63           0.70    0.77    2.17    0.76            0.19    0.21    0.02           0.48     0.55
D8         15.69   16.66    1.02          47.83   -2.17   63.85          63.89   91.95           0.73    0.77    2.93    0.76            0.16    0.17    0.01           0.42     0.50
D9         43.91   45.90   22.83          73.48   -1.02   23.96          23.98   92.43           0.27    0.35    0.65    0.33            0.35    0.36    0.23           0.35     0.39
D10        44.28   46.48   13.04          73.85   -1.54   46.80          46.83   91.89           0.25    0.34    0.99    0.32            0.35    0.39    0.13           0.34     0.38
D11        44.10   46.55    6.38          73.90   -2.28   69.78          69.81   91.87           0.25    0.33    1.50    0.31            0.39    0.43    0.06           0.36     0.42
D12        43.99   46.93    2.00          74.15   -3.65   97.55          97.62   92.14           0.30    0.33    2.66    0.31            0.35    0.34    0.02           0.37     0.46
D13        49.96   59.72   55.95          81.68  -19.47   -7.28          20.79  200.50           0.42    0.17    0.18    0.25            0.48    0.49    0.34           0.32     0.40
D14        49.65   41.32   50.71          70.40   28.35  -21.07          35.32  323.38           0.17    0.49    0.20    0.36            0.15    0.21    0.27           0.40     0.48
D15        64.66   69.52   27.71          86.76   -5.29   38.17          38.53   97.88           0.12    0.15    0.57    0.15            0.31    0.35    0.28           0.26     0.29
D16        30.35   31.58   25.17          62.99   -0.35    1.56           1.61  102.76           0.46    0.51    0.57    0.50            0.44    0.42    0.28           0.43     0.50
D17        42.82   36.43   23.24          66.85   24.38   11.75          27.07   25.73           0.18    0.55    0.60    0.41            0.21    0.26    0.23           0.40     0.45
D18        45.40   57.06   28.64          80.21  -25.74   25.34          36.11  135.45           0.41    0.18    0.55    0.26            0.56    0.58    0.28           0.35     0.43
D19        34.93   34.75   49.59          65.55    4.91  -28.17          28.59  279.89           0.48    0.46    0.21    0.47            0.56    0.58    0.32           0.63     0.73
D20         2.42    2.50    0.88          17.90    0.32   14.41          14.41   88.74           1.48    1.65    2.35    1.59            0.09    0.09    0.02           0.54     0.62
D21        29.04   26.53    1.35          58.54   13.84   77.70          78.92   79.90           0.37    0.64    2.74    0.53            0.36    0.36    0.02           0.51     0.61
D22        36.93   40.90   51.66          70.10   -8.04  -22.64          24.03  250.44           0.53    0.35    0.20    0.41            0.41    0.44    0.21           0.42     0.51
E1          4.71    5.48    2.96          28.07   -7.17   10.04          12.34  125.56           1.27    1.25    1.68    1.27            0.13    0.13    0.04           0.51     0.59
E2          4.22    5.32    1.79          27.62  -11.77   19.38          22.67  121.27           1.35    1.23    2.03    1.29            0.10    0.12    0.03           0.47     0.54
E3          4.01    5.49    1.15          28.09  -16.79   27.87          32.54  121.07           1.43    1.17    2.42    1.28            0.09    0.11    0.01           0.44     0.52
E4          3.71    5.49    0.65          28.08  -21.16   36.23          41.96  120.28           1.55    1.13    3.03    1.28            0.07    0.09    0.01           0.43     0.50
E5         23.29   26.23   13.27          58.26   -8.68   19.28          21.15  114.24           0.59    0.56    0.92    0.58            0.25    0.26    0.13           0.51     0.57
E6         20.96   26.21    8.12          58.23  -19.32   35.64          40.54  118.47           0.68    0.52    1.24    0.59            0.23    0.25    0.08           0.52     0.58
E7         18.89   25.98    4.58          58.02  -28.66   51.32          58.78  119.18           0.80    0.49    1.68    0.60            0.20    0.23    0.02           0.37     0.44
E8         16.57   26.58    1.67          58.58  -43.48   74.04          85.87  120.43           1.10    0.42    2.80    0.60            0.17    0.20    0.01           0.33     0.40
E9         42.12   45.85   30.00          73.45   -6.18   11.48          13.04  118.31           0.34    0.33    0.50    0.34            0.34    0.33    0.30           0.37     0.42
E10        40.14   45.84   23.23          73.44  -12.18   23.13          26.14  117.78           0.38    0.31    0.64    0.34            0.64    0.69    0.31           0.45     0.57
E11        38.70   46.26   18.42          73.72  -17.90   33.37          37.86  118.21           0.41    0.29    0.79    0.34            0.41    0.42    0.21           0.36     0.41
E12        33.46   45.98    7.84          73.53  -34.53   63.11          71.94  118.68           0.58    0.25    1.38    0.35            0.39    0.45    0.07           0.33     0.42
E13        44.98   56.08   55.32          79.66  -24.54  -10.12          26.55  202.40           0.52    0.18    0.18    0.28            0.45    0.47    0.33           0.31     0.40
E14        44.33   33.69   48.06          64.72   37.98  -27.85          47.10  323.75           0.19    0.63    0.21    0.44            0.20    0.25    0.27           0.44     0.53
E15        63.29   68.22   21.22          86.11   -5.61   48.89          49.21   96.55           0.12    0.16    0.73    0.16            0.17    0.20    0.13           0.21     0.23
E16        21.87   22.59   18.12          54.65    0.40    1.15           1.24   70.40           0.59    0.66    0.72    0.65            0.40    0.38    0.26           0.47     0.54
E17        36.13   27.89   15.85          59.79   33.79   15.27          37.08   24.31           0.20    0.74    0.79    0.50            0.19    0.24    0.21           0.40     0.48
E18        39.39   52.52   21.99          77.59  -32.42   32.67          46.03  134.78           0.51    0.20    0.70    0.30            0.52    0.54    0.24           0.39     0.46
E19        26.79   25.84   46.68          57.88    7.79  -38.03          38.82  281.58           0.63    0.60    0.23    0.61            0.57    0.58    0.38           0.74     0.85
E20         6.16    7.51    1.15          32.94  -11.04   36.26          37.90  106.94           1.18    1.07    2.49    1.13            0.19    0.22    0.02           0.69     0.79
E21        22.94   27.40    5.45          59.34  -14.95   49.05          51.28  106.95           0.61    0.52    1.53    0.56            0.38    0.41    0.06           0.55     0.64
E22         7.87   17.20   11.97          48.51  -61.18    6.16          61.49  174.25           1.93    0.55    1.00    0.85            0.17    0.32    0.16           0.49     0.57
F1          3.08    3.86    2.64          23.20  -10.43    4.10          11.21  158.57           1.50    1.39    1.71    1.44            0.10    0.11    0.04           0.49     0.56
F2          2.55    3.84    2.25          23.13  -19.74    7.28          21.04  159.76           1.69    1.33    1.84    1.46            0.07    0.10    0.04           0.44     0.49
F3          2.09    3.86    1.97          23.19  -29.49    9.96          31.13  161.35           1.94    1.27    1.95    1.48            0.05    0.09    0.03           0.46     0.55
F4          1.40    4.04    1.43          23.80  -49.63   16.86          52.42  161.24           2.80    1.14    2.28    1.49            0.02    0.07    0.02           0.37     0.45
F5         10.51   13.26    9.13          43.15  -16.14    5.98          17.21  159.69           1.01    0.82    1.09    0.90            0.12    0.14    0.09           0.49     0.58
F6          8.18   13.14    7.56          42.97  -34.49   11.51          36.36  161.55           1.31    0.75    1.23    0.93            0.12    0.17    0.07           0.55     0.64
F7          6.51   13.11    6.01          42.92  -50.33   18.05          53.47  160.27           1.67    0.70    1.40    0.95            0.11    0.19    0.04           0.52     0.59
F8          5.13   13.94    5.00          44.14  -71.23   25.14          75.54  160.56           2.44    0.60    1.58    0.94            0.05    0.12    0.03           0.33     0.38
F9         27.71   31.84   23.67          63.21  -11.47    4.68          12.39  157.82           0.57    0.46    0.61    0.51            0.33    0.35    0.25           0.48     0.54
F10        24.82   32.12   21.20          63.44  -24.34    9.83          26.25  158.02           0.70    0.42    0.68    0.52            0.35    0.38    0.23           0.40     0.46
F11        22.13   31.91   19.47          63.27  -35.54   13.08          37.87  159.80           0.84    0.39    0.73    0.53            0.32    0.39    0.24           0.43     0.48
F12        17.41   33.26   15.28          64.37  -63.85   24.57          68.41  158.96           1.33    0.29    0.91    0.54            0.20    0.32    0.17           0.28     0.33
F13        40.27   52.46   54.64          77.55  -29.51  -13.02          32.25  203.80           0.64    0.19    0.19    0.32            0.42    0.46    0.33           0.32     0.41
F14        40.04   27.90   45.55          59.80   46.29  -33.37          57.07  324.22           0.21    0.78    0.22    0.52            0.19    0.23    0.29           0.49     0.56
F15        62.18   66.90   15.83          85.46   -5.32   59.57          59.81   95.10           0.12    0.17    0.91    0.16            0.30    0.36    0.14           0.23     0.27
F16        15.03   15.71   12.46          46.58   -0.65    1.41           1.56  114.14           0.75    0.82    0.91    0.81            0.30    0.30    0.20           0.50     0.58
F17        30.82   21.50   10.23          53.50   42.31   20.10          46.84   25.41           0.23    0.94    1.00    0.60            0.20    0.24    0.15           0.46     0.55
