targets/wolf_faust/transmissive/N160625.it8
IT8.7/1
ORIGINATOR "Wolf Faust"
DESCRIPTOR "Velvia 100, 100F, Astia 100F, Provia 400X and Sensia 100 (Emul. 687 or higher), Type 3, L* a* b* (light D50, viewing angle 2)"
MANUFACTURER "Wolf Faust - http://www.coloraid.de"
CREATED "July 14, 2016"
PROD_DATE "2014:02"
DIFFUSE_GEOMETRY "opal"
SERIAL "N160625 Batch Average Data"
MATERIAL "Fujichrome Velvia 100 (RVP 100)"
KEYWORD "MEAN_DE" # Mean Delta E of samples compared to batch average
NUMBER_OF_FIELDS 18
BEGIN_DATA_FORMAT
SAMPLE_ID  XYZ_X   XYZ_Y   XYZ_Z          LAB_L   LAB_A   LAB_B          LAB_C   LAB_H          D_RED  D_GREEN  D_BLUE  D_VIS          STDEV_X STDEV_Y STDEV_Z        MEAN_DE  STDEV_DE
END_DATA_FORMAT
NUMBER_OF_SETS 288
BEGIN_DATA
A1          1.78    1.53    1.11          12.82    7.89    2.06           8.16   14.65           1.56    2.00    2.08    1.79            0.05    0.04    0.02           0.35     0.39
A2          2.33    1.58    0.89          13.11   18.99    5.97          19.91   17.44           1.35    2.18    2.16    1.73            0.07    0.05    0.02           0.41     0.48 
A3          2.85    1.59    0.72          13.16   28.92    9.03          30.30   17.33           1.20    2.48    2.21    1.68            0.08    0.04    0.01           0.41     0.48
A4          3.74    1.70    0.61          13.84   40.58   12.28          42.40   16.84           1.01    3.08    2.16    1.61            0.08    0.04    0.02           0.41     0.46 
A5          8.51    7.26    5.06          32.40   14.03    4.56          14.75   18.01           0.88    1.29    1.34    1.11            0.18    0.15    0.08           0.52     0.57
A6         10.74    7.57    4.43          33.06   29.07    9.14          30.48   17.45           0.70    1.42    1.39    1.06            0.19    0.14    0.06           0.47     0.52 
A7         13.27    7.89    3.86          33.76   43.65   13.73          45.76   17.45           0.55    1.61    1.43    1.00            0.18    0.11    0.06           0.44     0.49
A8         16.96    8.27    3.33          34.55   62.29   18.57          65.00   16.60           0.37    2.06    1.44    0.94            0.11    0.07    0.05           0.31     0.36 
A9         26.87   25.92   19.42          57.96    7.77    4.04           8.76   27.52           0.46    0.63    0.69    0.58            0.27    0.27    0.18           0.41     0.46
A10        29.49   26.40   18.80          58.41   16.12    6.16          17.26   20.90           0.38    0.67    0.70    0.56            0.29    0.26    0.21           0.37     0.40
A11        31.48   26.50   17.88          58.51   23.15    8.33          24.60   19.79           0.31    0.70    0.72    0.54            0.27    0.24    0.20           0.36     0.39
A12        35.88   27.25   16.75          59.20   35.47   12.13          37.49   18.87           0.21    0.76    0.75    0.51            0.23    0.28    0.22           0.48     0.54 
A13        69.29   73.83   58.71          88.84   -4.06    2.22           4.63  151.37           0.15    0.12    0.16    0.13            0.23    0.25    0.22           0.17     0.19
A14        70.19   71.42   58.38          87.69    2.84    0.56           2.90   11.23           0.11    0.15    0.16    0.14            0.19    0.21    0.17           0.13     0.15 
A15        73.46   76.67   57.73          90.17   -0.96    5.50           5.58   99.87           0.10    0.11    0.17    0.11            0.21    0.23    0.18           0.20     0.22
A16        70.35   72.91   58.44          88.41    0.10    1.74           1.75   86.64           0.12    0.14    0.16    0.14            0.16    0.17    0.15           0.16     0.18
A17        68.77   69.86   55.38          86.93    3.07    2.36           3.88   37.57           0.11    0.16    0.18    0.15            0.21    0.24    0.25           0.23     0.25
A18        70.21   74.40   56.85          89.11   -3.25    4.59           5.63  125.33           0.13    0.12    0.17    0.13            0.26    0.27    0.30           0.23     0.26 
A19        64.38   67.11   56.72          85.56   -0.75   -1.41           1.60  241.78           0.17    0.17    0.17    0.18            0.26    0.26    0.25           0.20     0.22
A20         5.68    2.63    1.60          18.49   45.86    5.77          46.23    7.17           0.84    2.81    1.72    1.43            0.11    0.05    0.03           0.40     0.48 
A21        25.05   17.38   12.79          48.73   40.03    4.18          40.25    5.97           0.34    1.04    0.86    0.70            0.21    0.19    0.18           0.38     0.41
A22        49.99   46.33   29.90          73.76   14.77   12.17          19.14   39.50           0.16    0.39    0.49    0.31            0.20    0.25    0.31           0.36     0.41
B1          2.78    2.49    1.47          17.87    7.39    6.18           9.63   39.88           1.37    1.75    1.98    1.58            0.09    0.08    0.03           0.44     0.49
B2          3.29    2.47    0.90          17.78   16.62   13.89          21.66   39.88           1.23    1.87    2.25    1.55            0.08    0.06    0.01           0.38     0.45
B3          3.96    2.55    0.48          18.12   25.44   22.27          33.81   41.19           1.09    2.00    2.64    1.50            0.10    0.06    0.01           0.46     0.53
B4          4.51    2.57    0.20          18.22   32.65   27.56          42.73   40.17           1.00    2.17    3.17    1.47            0.12    0.08    0.02           0.45     0.54
B5         11.02    9.81    5.39          37.50   12.04   11.68          16.78   44.11           0.78    1.12    1.33    0.98            0.18    0.17    0.06           0.44     0.51
B6         13.29    9.96    3.50          37.76   26.55   22.97          35.11   40.87           0.62    1.23    1.57    0.94            0.19    0.16    0.04           0.50     0.57
B7         16.23   10.52    2.34          38.77   39.99   33.41          52.11   39.88           0.48    1.35    1.79    0.89            0.20    0.15    0.03           0.41     0.47
B8         20.67   10.96    0.87          39.52   59.93   51.93          79.30   40.91           0.31    1.66    2.34    0.83            0.12    0.10    0.02           0.27     0.30
B9         31.95   31.57   22.42          62.99    5.51    6.65           8.64   50.36           0.40    0.53    0.62    0.49            0.29    0.30    0.24           0.40     0.44
B10        34.29   32.14   20.16          63.46   11.75   11.97          16.78   45.56           0.33    0.55    0.68    0.47            0.26    0.28    0.20           0.37     0.40
B11        36.09   32.48   18.14          63.74   16.64   16.79          23.64   45.25           0.28    0.57    0.74    0.46            0.27    0.25    0.21           0.38     0.42
B12        39.84   32.98   14.97          64.14   26.96   24.97          36.75   42.80           0.19    0.61    0.84    0.44            0.22    0.29    0.24           0.51     0.56
B13        62.04   68.04   56.79          86.03   -8.12   -0.67           8.15  184.74           0.23    0.14    0.17    0.18            0.22    0.21    0.21           0.20     0.22
B14        61.98   59.86   54.94          81.76   10.14   -6.09          11.83  329.03           0.14    0.25    0.18    0.22            0.20    0.23    0.21           0.20     0.24
B15        68.22   71.99   45.48          87.96   -2.58   15.27          15.49   99.59           0.12    0.14    0.29    0.14            0.19    0.23    0.26           0.30     0.34
B16        53.29   55.31   44.26          79.22   -0.13    1.68           1.70   93.97           0.23    0.26    0.29    0.26            0.33    0.29    0.28           0.25     0.28
B17        59.26   57.98   43.51          80.73    8.19    5.19           9.70   32.37           0.14    0.27    0.30    0.23            0.22    0.25    0.31           0.27     0.30
B18        60.15   67.01   45.99          85.51  -10.31   10.42          14.66  134.69           0.23    0.15    0.29    0.18            0.27    0.22    0.28           0.29     0.33
B19        55.05   56.54   53.96          79.92    1.36   -8.21           8.32  279.38           0.24    0.25    0.19    0.25            0.31    0.31    0.23           0.26     0.30
B20         4.35    2.59    0.83          18.33   30.05   16.00          34.04   28.02           1.03    2.12    2.21    1.48            0.09    0.05    0.01           0.40     0.46
B21        16.15   10.59    3.55          38.88   39.07   24.53          46.13   32.12           0.49    1.34    1.53    0.89            0.23    0.18    0.05           0.38     0.44
B22        31.58   26.59   14.88          58.59   23.14   15.61          27.91   34.00           0.30    0.70    0.83    0.54            0.23    0.24    0.23           0.39     0.42
C1          5.43    5.28    2.88          27.52    4.07    9.66          10.48   67.11           1.12    1.35    1.66    1.26            0.12    0.12    0.04           0.53     0.59
C2          5.83    5.40    1.88          27.85    7.29   18.90          20.26   68.92           1.06    1.36    1.94    1.24            0.14    0.13    0.02           0.50     0.57
C3          6.38    5.42    0.91          27.90   13.01   31.23          33.83   67.38           0.99    1.40    2.46    1.22            0.13    0.12    0.02           0.41     0.48
C4          6.84    5.46    0.47          27.99   17.38   39.31          42.98   66.15           0.94    1.42    2.99    1.20            0.17    0.13    0.03           0.53     0.61
C5         21.91   21.06    9.81          53.02    7.61   20.64          22.00   69.75           0.52    0.73    1.06    0.66            0.29    0.29    0.12           0.43     0.48
C6         24.34   21.48    5.60          53.47   16.56   38.21          41.64   66.57           0.42    0.77    1.41    0.63            0.32    0.27    0.09           0.45     0.52
C7         26.53   21.70    2.74          53.70   24.75   55.86          61.10   66.10           0.35    0.80    1.91    0.61            0.26    0.25    0.03           0.43     0.53
C8         28.62   21.84    0.96          53.86   32.40   75.14          81.83   66.67           0.30    0.84    2.82    0.59            0.25    0.28    0.01           0.49     0.60
C9         38.15   38.26   25.48          68.21    4.09   10.01          10.82   67.79           0.33    0.44    0.57    0.41            0.33    0.34    0.27           0.37     0.41
C10        39.48   38.74   21.76          68.56    6.81   17.55          18.82   68.78           0.29    0.45    0.66    0.40            0.35    0.32    0.26           0.31     0.35
C11        40.82   38.78   17.75          68.59   10.82   26.01          28.17   67.42           0.24    0.47    0.77    0.39            0.33    0.33    0.25           0.37     0.40
C12        43.78   39.21   11.51          68.90   18.36   42.66          46.45   66.72           0.17    0.49    1.03    0.37            0.16    0.21    0.15           0.36     0.40
C13        55.30   63.48   56.07          83.70  -14.31   -3.94          14.84  195.38           0.33    0.16    0.18    0.21            0.30    0.25    0.24           0.29     0.33
C14        55.29   49.66   52.37          75.86   19.45  -13.49          23.67  325.25           0.15    0.37    0.19    0.29            0.21    0.27    0.15           0.31     0.38
C15        66.12   70.58   35.53          87.28   -4.26   27.05          27.38   98.95           0.12    0.15    0.43    0.15            0.24    0.25    0.32           0.31     0.37
C16        40.45   42.03   33.59          70.89   -0.23    1.58           1.61   97.87           0.35    0.38    0.43    0.38            0.28    0.27    0.20           0.28     0.31
C17        50.31   46.09   32.22          73.60   16.30    8.31          18.30   27.03           0.16    0.40    0.45    0.32            0.16    0.20    0.26           0.30     0.34
C18        52.00   61.67   36.50          82.74  -18.61   17.85          25.78  136.18           0.32    0.17    0.41    0.22            0.40    0.34    0.41           0.38     0.47
C19        43.70   44.23   51.26          72.38    3.09  -18.26          18.52  279.60           0.36    0.36    0.20    0.36            0.25    0.23    0.19           0.30     0.34
C20        11.38    8.12    1.01          34.23   28.75   40.58          49.73   54.68           0.67    1.35    2.39    1.01            0.21    0.15    0.01           0.50     0.56
C21        20.11   18.49    9.51          50.08   11.65   16.60          20.28   54.92           0.53    0.81    1.06    0.71            0.26    0.24    0.14           0.44     0.49
C22        26.08   21.78    9.36          53.79   22.53   23.53          32.58   46.24           0.37    0.80    1.08    0.62            0.26    0.27    0.16           0.39     0.44
D1          3.57    3.76    2.09          22.86   -0.85    8.30           8.35   95.85           1.34    1.47    1.84    1.42            0.10    0.09    0.03           0.48     0.54
D2          3.40    3.65    1.26          22.47   -1.90   16.70          16.81   96.50           1.36    1.46    2.18    1.43            0.08    0.08    0.02           0.42     0.48
D3          3.37    3.66    0.68          22.51   -2.45   25.92          26.04   95.40           1.37    1.44    2.69    1.42            0.08    0.08    0.01           0.46     0.53
D4          3.46    3.71    0.47          22.70   -1.86   30.23          30.29   93.53           1.37    1.42    3.03    1.41            0.10    0.10    0.02           0.54     0.64
D5         15.82   16.50    7.95          47.62   -0.54   18.00          18.01   91.72           0.70    0.80    1.18    0.77            0.25    0.25    0.11           0.45     0.51
D6         16.22   17.07    4.37          48.34   -1.34   35.82          35.84   92.15           0.68    0.78    1.58    0.75            0.25    0.24    0.05           0.51     0.59
D7         15.79   16.83    2.12          48.04   -2.46   51.37          51.43   92.74           0.70    0.77    2.16    0.76            0.25    0.25    0.03           0.51     0.60
D8         15.75   16.76    1.07          47.96   -2.39   63.34          63.39   92.16           0.73    0.76    2.84    0.75            0.19    0.21    0.01           0.53     0.59
D9         43.67   45.66   22.52          73.32   -1.02   24.28          24.30   92.42           0.28    0.35    0.65    0.33            0.28    0.28    0.24           0.32     0.35
D10        44.17   46.33   12.93          73.76   -1.46   46.94          46.96   91.78           0.25    0.34    0.99    0.32            0.38    0.35    0.20           0.35     0.38
D11        44.04   46.49    6.41          73.86   -2.28   69.61          69.64   91.87           0.26    0.34    1.50    0.31            0.39    0.36    0.09           0.28     0.32
D12        44.07   47.11    2.11          74.26   -3.90   96.69          96.77   92.31           0.30    0.33    2.50    0.30            0.25    0.24    0.02           0.24     0.28
D13        49.59   59.46   55.36          81.54  -19.85   -6.91          21.02  199.18           0.43    0.17    0.18    0.25            0.27    0.21    0.21           0.31     0.36
D14        49.67   41.28   49.90          70.37   28.53  -20.21          34.97  324.69           0.17    0.49    0.20    0.36            0.18    0.25    0.11           0.38     0.46
D15        64.56   69.40   27.41          86.70   -5.26   38.56          38.91   97.77           0.12    0.16    0.58    0.15            0.11    0.12    0.22           0.32     0.39
D16        30.14   31.36   24.74          62.81   -0.34    2.01           2.05   99.46           0.47    0.51    0.57    0.50            0.27    0.27    0.20           0.35     0.40
D17        42.81   36.34   22.82          66.78   24.65   12.42          27.60   26.74           0.18    0.55    0.61    0.41            0.17    0.24    0.22           0.38     0.43
D18        45.01   56.75   28.35          80.04  -26.10   25.51          36.50  135.66           0.42    0.18    0.55    0.26            0.45    0.42    0.35           0.42     0.50
D19        34.47   34.31   48.63          65.21    4.83  -27.67          28.09  279.90           0.48    0.47    0.22    0.48            0.38    0.37    0.19           0.47     0.54
D20         2.51    2.57    0.91          18.25    0.50   14.57          14.58   88.06           1.47    1.64    2.33    1.58            0.08    0.07    0.02           0.50     0.58
D21        29.05   26.57    1.43          58.58   13.75   76.83          78.05   79.85           0.38    0.64    2.60    0.53            0.28    0.30    0.04           0.51     0.57
D22        36.44   40.45   50.74          69.78   -8.25  -22.17          23.65  249.58           0.53    0.36    0.21    0.42            0.35    0.35    0.28           0.37     0.42
E1          4.70    5.47    2.97          28.03   -7.14    9.91          12.22  125.77           1.27    1.25    1.68    1.27            0.11    0.12    0.04           0.54     0.60
E2          4.27    5.38    1.82          27.78  -11.77   19.35          22.65  121.30           1.35    1.22    2.02    1.28            0.10    0.11    0.03           0.42     0.50
E3          4.03    5.52    1.17          28.17  -16.88   27.79          32.51  121.28           1.43    1.17    2.41    1.27            0.10    0.14    0.03           0.57     0.63
E4          3.77    5.55    0.68          28.25  -21.01   35.81          41.52  120.41           1.54    1.13    2.95    1.28            0.08    0.12    0.01           0.52     0.60
E5         23.06   26.03   13.08          58.07   -8.89   19.46          21.40  114.53           0.59    0.57    0.93    0.59            0.23    0.23    0.13           0.45     0.50
E6         20.85   26.10    8.08          58.13  -19.43   35.62          40.58  118.61           0.69    0.52    1.25    0.59            0.20    0.21    0.08           0.40     0.45
E7         18.84   25.99    4.61          58.03  -28.97   51.16          58.79  119.52           0.81    0.49    1.68    0.60            0.16    0.18    0.05           0.35     0.40
E8         16.57   26.62    1.74          58.62  -43.69   73.41          85.43  120.76           1.10    0.42    2.70    0.60            0.09    0.11    0.01           0.23     0.25
E9         41.79   45.58   29.45          73.27   -6.40   12.06          13.65  117.95           0.35    0.33    0.51    0.34            0.30    0.25    0.25           0.33     0.38
E10        40.04   45.79   23.03          73.41  -12.36   23.44          26.50  117.80           0.38    0.31    0.65    0.34            0.36    0.31    0.27           0.38     0.42
E11        38.37   45.99   18.22          73.54  -18.19   33.51          38.13  118.49           0.42    0.29    0.79    0.34            0.39    0.37    0.25           0.40     0.45
E12        33.29   45.92    7.96          73.49  -34.98   62.59          71.70  119.20           0.58    0.24    1.37    0.35            0.25    0.25    0.09           0.30     0.34
E13        44.60   55.79   54.70          79.49  -24.93   -9.74          26.76  201.35           0.53    0.18    0.19    0.28            0.33    0.29    0.24           0.31     0.37
E14        44.25   33.56   47.06          64.61   38.21  -26.86          46.70  324.89           0.19    0.64    0.22    0.44            0.27    0.29    0.29           0.41     0.49
E15        63.18   68.06   20.99          86.04   -5.54   49.21          49.52   96.42           0.12    0.16    0.74    0.16            0.14    0.17    0.20           0.37     0.44
E16        21.68   22.39   17.74          54.43    0.45    1.63           1.72   73.80           0.60    0.67    0.73    0.65            0.24    0.26    0.17           0.43     0.49
E17        36.25   27.96   15.65          59.85   33.92   15.89          37.46   25.09           0.20    0.74    0.79    0.50            0.16    0.21    0.21           0.41     0.45
E18        39.14   52.35   21.92          77.49  -32.74   32.62          46.21  135.11           0.51    0.20    0.70    0.30            0.32    0.27    0.22           0.39     0.45
E19        26.53   25.61   45.71          57.67    7.66  -37.24          38.02  281.62           0.63    0.61    0.24    0.61            0.37    0.37    0.23           0.53     0.59
E20         6.24    7.59    1.17          33.12  -11.03   36.22          37.86  106.94           1.18    1.06    2.48    1.12            0.15    0.17    0.02           0.56     0.63
E21        22.86   27.34    5.49          59.29  -15.07   48.77          51.05  107.17           0.61    0.52    1.53    0.56            0.32    0.31    0.07           0.48     0.52
E22         7.83   17.09   11.93          48.37  -60.94    6.03          61.24  174.35           1.92    0.56    1.00    0.85            0.12    0.20    0.19           0.32     0.36
F1          3.11    3.90    2.69          23.33  -10.42    3.94          11.14  159.28           1.50    1.38    1.70    1.43            0.08    0.10    0.04           0.48     0.55
F2          2.58    3.88    2.29          23.26  -19.69    7.18          20.96  159.99           1.69    1.32    1.83    1.45            0.06    0.09    0.03           0.40     0.48
F3          2.11    3.88    2.00          23.27  -29.38    9.80          30.97  161.56           1.94    1.27    1.95    1.47            0.05    0.09    0.03           0.40     0.47
F4          1.44    4.07    1.47          23.89  -48.82   16.51          51.54  161.31           2.69    1.15    2.26    1.48            0.03    0.07    0.03           0.49     0.57
F5         10.47   13.22    9.04          43.09  -16.15    6.16          17.29  159.11           1.02    0.83    1.09    0.90            0.15    0.16    0.08           0.40     0.45
F6          8.16   13.12    7.56          42.94  -34.49   11.46          36.34  161.62           1.32    0.75    1.23    0.93            0.13    0.17    0.09           0.42     0.47
F7          6.51   13.10    6.05          42.91  -50.34   17.88          53.42  160.44           1.67    0.70    1.40    0.95            0.10    0.16    0.08           0.33     0.36
F8          5.13   13.88    5.04          44.05  -70.77   24.78          74.98  160.70           2.36    0.60    1.58    0.94            0.06    0.11    0.06           0.27     0.32
F9         27.44   31.62   23.30          63.02  -11.76    5.04          12.80  156.78           0.57    0.47    0.62    0.51            0.31    0.26    0.23           0.42     0.47
F10        24.56   31.87   20.91          63.23  -24.58   10.06          26.56  157.75           0.70    0.42    0.69    0.52            0.30    0.29    0.22           0.38     0.43
F11        21.91   31.71   19.28          63.10  -35.82   13.20          38.18  159.77           0.85    0.39    0.74    0.53            0.25    0.27    0.24           0.37     0.42
F12        17.33   33.21   15.31          64.33  -64.10   24.43          68.59  159.13           1.33    0.29    0.91    0.54            0.13    0.19    0.20           0.31     0.36
F13        39.89   52.14   53.96          77.36  -29.87  -12.62          32.43  202.90           0.64    0.19    0.20    0.32            0.34    0.34    0.30           0.29     0.35
F14        39.93   27.80   44.41          59.70   46.38  -32.15          56.43  325.27           0.21    0.78    0.23    0.52            0.30    0.33    0.28           0.49     0.60
F15        61.96   66.61   15.68          85.30   -5.19   59.68          59.91   94.97           0.12    0.17    0.92    0.16            0.27    0.31    0.21           0.38     0.45
F16        14.93   15.59   12.28          46.43   -0.62    1.66           1.79  109.60           0.76    0.83    0.91    0.81            0.21    0.22    0.14           0.41     0.46
F17        30.95   21.60   10.14          53.60   42.35   20.57          47.08   25.91           0.23    0.94    1.00    0.60            0.16    0.19    0.18           0.46     0.50
