targets/wolf_faust/transmissive/V030303.it8
IT8.7/1
ORIGINATOR "Wolf Faust"
DESCRIPTOR "Velvia (RVP) Type 3, L* a* b* (light D50, viewing angle 2)"
MANUFACTURER "Wolf Faust - http://www.coloraid.de"
CREATED "March 16, 2002"
PROD_DATE "2003:03"
SERIAL "V030303 Batch Average Data"
MATERIAL "For Fujichrome Velvia (RVP) Films"
KEYWORD "MEAN_DE" # Mean Delta E of samples compared to batch average
NUMBER_OF_FIELDS 17
BEGIN_DATA_FORMAT
SAMPLE_ID   XYZ_X   XYZ_Y   XYZ_Z          LAB_L   LAB_A   LAB_B          LAB_C   LAB_H          STDEV_X  STDEV_Y  STDEV_Z          STDEV_L  STDEV_A  STDEV_B        MEAN_DE  STDEV_DE
END_DATA_FORMAT
NUMBER_OF_SETS 288
BEGIN_DATA
A1           2.11    1.77    1.27          14.25    9.43    2.43           9.75   14.42            0.05     0.05     0.02            0.26     0.27     0.25           0.40    0.45
A2           2.62    1.74    1.05          14.06   20.65    5.09          21.27   13.83            0.06     0.04     0.02            0.22     0.19     0.30           0.38    0.42 
A3           3.22    1.84    0.89          14.59   29.18    8.49          30.39   16.22            0.07     0.04     0.02            0.22     0.22     0.25           0.36    0.40
A4           4.20    1.81    0.65          14.46   44.58   12.74          46.37   15.95            0.09     0.04     0.01            0.22     0.34     0.24           0.42    0.47 
A5           9.53    8.21    5.84          34.42   13.84    4.22          14.48   16.95            0.25     0.22     0.14            0.45     0.40     0.51           0.72    0.79
A6          11.30    8.18    5.02          34.35   27.63    8.15          28.81   16.44            0.29     0.22     0.11            0.45     0.38     0.48           0.69    0.76 
A7          13.37    8.13    4.25          34.24   42.23   12.19          43.95   16.10            0.37     0.23     0.12            0.48     0.40     0.39           0.68    0.73
A8          17.03    8.42    3.46          34.85   61.37   18.21          64.02   16.53            0.15     0.10     0.10            0.19     0.04     0.39           0.34    0.44 
A9          28.18   27.21   21.55          59.17    7.81    1.77           8.03   12.77            0.75     0.70     0.50            0.65     0.40     0.47           0.83    0.90
A10         30.11   27.29   20.63          59.24   14.88    3.73          15.35   14.06            0.78     0.69     0.51            0.63     0.34     0.45           0.78    0.85
A11         32.34   27.46   19.50          59.39   22.41    6.34          23.29   15.79            0.80     0.65     0.54            0.60     0.40     0.49           0.80    0.87
A12         38.40   27.69   16.97          59.61   41.95   12.31          43.73   16.35            0.44     0.48     0.46            0.44     0.49     0.54           0.73    0.85 
A13         78.02   80.15   66.04          91.75    1.48    0.09           1.51   111.78            0.21     0.21     0.26            0.10     0.15     0.33           0.31    0.37
A14         77.70   78.78   65.53          91.13    3.51   -0.49           3.56   316.44            0.17     0.29     0.25            0.13     0.28     0.36           0.36    0.47 
A15         77.78   80.15   59.27          91.75    1.00    6.67           6.75   81.32            0.15     0.22     0.36            0.10     0.18     0.47           0.45    0.51
A16         75.83   78.77   65.18          91.13   -0.24   -0.16           0.42   230.26            0.33     0.25     0.26            0.11     0.27     0.32           0.38    0.43
A17         76.20   77.25   60.31          90.44    3.49    3.37           4.86   43.96            0.21     0.33     0.37            0.15     0.26     0.34           0.37    0.45
A18         77.21   79.72   60.46          91.56    0.68    5.14           5.19   82.29            0.17     0.17     0.41            0.08     0.19     0.40           0.41    0.45 
A19         77.24   78.83   65.58          91.16    2.49   -0.50           2.55   313.05            0.21     0.24     0.33            0.11     0.12     0.28           0.23    0.32
A20          1.89    1.13    0.38          10.05   22.54   10.19          24.73   24.33            0.05     0.03     0.01            0.24     0.25     0.30           0.40    0.46 
A21          5.34    2.80    0.37          19.22   38.71   26.16          46.72   34.05            0.13     0.07     0.01            0.31     0.30     0.44           0.49    0.61
A22          9.50    4.54    0.27          25.38   52.58   38.71          65.30   36.36            0.20     0.10     0.01            0.31     0.31     0.47           0.51    0.64
B1           3.18    2.83    1.59          19.34    8.03    7.28          10.84   42.18            0.08     0.06     0.03            0.26     0.23     0.35           0.44    0.50
B2           3.86    2.93    1.04          19.77   16.91   15.06          22.64   41.69            0.09     0.07     0.02            0.26     0.23     0.38           0.44    0.52
B3           4.37    2.89    0.63          19.60   24.77   21.88          33.05   41.46            0.10     0.07     0.01            0.28     0.18     0.48           0.50    0.58
B4           4.92    2.65    0.08          18.57   36.44   30.55          47.55   39.97            0.15     0.08     0.00            0.36     0.31     0.62           0.65    0.78
B5          12.08   10.78    6.15          39.21   12.18   11.01          16.43   42.09            0.33     0.29     0.14            0.50     0.47     0.44           0.75    0.81
B6          14.02   10.79    4.05          39.21   24.94   21.98          33.25   41.40            0.37     0.29     0.10            0.49     0.46     0.54           0.79    0.86
B7          16.38   10.94    2.50          39.48   37.76   33.26          50.32   41.38            0.44     0.30     0.06            0.51     0.46     0.56           0.81    0.89
B8          20.62   11.07    0.94          39.71   58.90   51.02          77.93   40.90            0.17     0.13     0.02            0.22     0.12     0.21           0.28    0.32
B9          33.22   32.98   24.75          64.14    5.05    4.32           6.66   40.53            0.88     0.83     0.62            0.67     0.43     0.44           0.84    0.91
B10         35.14   33.03   22.09          64.18   11.50    9.36          14.83   39.13            0.88     0.80     0.58            0.65     0.39     0.40           0.79    0.85
B11         36.77   33.30   19.74          64.40   16.02   14.47          21.60   42.08            0.89     0.79     0.58            0.63     0.41     0.51           0.85    0.91
B12         42.93   33.59   13.44          64.64   34.22   29.81          45.38   41.06            0.41     0.49     0.35            0.39     0.45     0.53           0.66    0.80
B13         68.15   73.48   65.21          88.67   -5.81   -4.43           7.31   217.32            0.65     0.48     0.26            0.23     0.45     0.37           0.56    0.63
B14         70.42   66.90   61.56          85.45   12.98   -6.48          14.51   333.53            0.45     0.67     0.33            0.34     0.51     0.48           0.70    0.78
B15         75.32   78.20   46.07          90.87   -0.18   19.58          19.59   90.51            0.22     0.27     0.64            0.13     0.15     0.70           0.58    0.72
B16         59.34   61.97   52.02          82.90   -1.00   -0.97           1.42   224.10            0.79     0.71     0.55            0.38     0.30     0.31           0.51    0.58
B17         64.80   60.54   47.22          82.13   14.99    3.15          15.32   11.87            0.45     0.60     0.58            0.32     0.39     0.38           0.57    0.64
B18         65.33   71.47   51.71          87.71   -7.88    7.66          11.00   135.80            0.58     0.43     0.52            0.21     0.42     0.41           0.57    0.63
B19         62.66   65.49   62.57          84.73   -1.13   -8.70           8.77   262.64            0.76     0.73     0.35            0.38     0.27     0.45           0.55    0.65
B20          3.64    2.29    0.46          16.94   25.71   20.56          32.92   38.65            0.11     0.07     0.02            0.34     0.29     0.46           0.56    0.65
B21          8.82    4.25    0.28          24.49   50.78   36.93          62.79   36.03            0.20     0.10     0.01            0.31     0.33     0.49           0.51    0.66
B22         31.58   27.76   15.72          59.66   18.50   15.37          24.05   39.73            0.60     0.54     0.35            0.49     0.39     0.44           0.70    0.76
C1           6.24    6.13    3.31          29.73    3.60   10.39          11.00   70.90            0.13     0.12     0.07            0.31     0.30     0.39           0.52    0.58
C2           6.55    6.01    2.02          29.43    8.18   20.22          21.81   67.98            0.16     0.15     0.04            0.36     0.34     0.41           0.56    0.65
C3           7.01    5.99    1.10          29.38   13.02   30.82          33.46   67.09            0.18     0.15     0.02            0.37     0.36     0.47           0.62    0.70
C4           7.54    5.87    0.24          29.08   19.45   45.61          49.58   66.90            0.24     0.20     0.01            0.51     0.32     0.76           0.81    0.97
C5          23.13   22.34   11.28          54.39    7.24   18.35          19.73   68.46            0.61     0.55     0.32            0.58     0.42     0.56           0.82    0.91
C6          25.01   22.35    6.28          54.40   15.41   36.65          39.76   67.20            0.55     0.47     0.19            0.49     0.40     0.53           0.76    0.83
C7          26.62   22.22    3.09          54.26   22.73   54.25          58.83   67.27            0.50     0.39     0.08            0.41     0.48     0.56           0.73    0.84
C8          30.02   22.31    0.48          54.35   35.61   84.68          91.87   67.19            0.57     0.43     0.01            0.45     0.33     0.65           0.71    0.86
C9          39.34   39.93   28.22          69.41    2.67    7.42           7.89   70.25            0.98     0.93     0.72            0.66     0.36     0.37           0.75    0.84
C10         40.33   40.02   23.94          69.48    5.47   14.99          15.96   69.93            0.97     0.92     0.67            0.65     0.38     0.48           0.82    0.89
C11         41.77   40.34   19.73          69.71    8.89   23.66          25.28   69.41            0.90     0.82     0.59            0.58     0.37     0.51           0.78    0.85
C12         48.05   40.60    7.12          69.90   26.16   59.70          65.18   66.34            0.35     0.45     0.17            0.31     0.40     0.49           0.59    0.71
C13         62.94   69.77   64.61          86.88   -9.74   -6.95          11.97   215.50            0.66     0.49     0.26            0.24     0.50     0.37           0.58    0.66
C14         63.16   56.04   57.29          79.63   22.02  -12.21          25.18   331.00            0.52     0.74     0.37            0.42     0.63     0.52           0.79    0.92
C15         72.51   75.56   34.15          89.65   -0.71   33.12          33.13   91.23            0.20     0.25     0.59            0.12     0.12     0.76           0.64    0.78
C16         45.16   47.45   39.39          74.47   -1.69   -0.32           1.75   189.87            0.86     0.82     0.59            0.52     0.28     0.40           0.64    0.71
C17         53.79   46.22   32.40          73.69   25.03    8.19          26.34   18.11            0.51     0.63     0.65            0.41     0.44     0.45           0.67    0.75
C18         58.16   66.12   42.31          85.06  -13.13   14.16          19.32   132.85            0.63     0.49     0.50            0.25     0.47     0.43           0.62    0.68
C19         51.01   53.53   59.00          78.18   -1.57  -16.46          16.53   264.53            0.86     0.88     0.35            0.51     0.27     0.63           0.73    0.86
C20          2.56    2.00    0.77          15.48   13.42   12.11          18.08   42.06            0.07     0.06     0.03            0.29     0.21     0.33           0.43    0.48
C21         26.04   20.71    7.31          52.63   27.38   29.16          40.00   46.81            0.50     0.38     0.18            0.42     0.44     0.53           0.75    0.81
C22         38.47   36.46   22.29          66.87   10.90   13.58          17.42   51.23            0.67     0.63     0.42            0.47     0.33     0.48           0.69    0.75
D1           4.11    4.31    2.35          24.67   -0.69    9.07           9.11   94.42            0.09     0.09     0.05            0.28     0.29     0.37           0.50    0.55
D2           4.13    4.29    1.44          24.59   -0.03   18.17          18.18   90.08            0.11     0.11     0.03            0.35     0.32     0.39           0.54    0.61
D3           3.98    4.19    0.84          24.30   -0.87   26.12          26.14   91.91            0.09     0.09     0.01            0.28     0.36     0.43           0.55    0.62
D4           3.92    4.14    0.27          24.14   -1.19   36.56          36.58   91.86            0.13     0.15     0.01            0.47     0.32     0.70           0.73    0.90
D5          17.13   17.98    9.09          49.47   -1.14   17.01          17.05   93.84            0.47     0.46     0.26            0.56     0.38     0.52           0.78    0.85
D6          16.97   17.90    4.92          49.37   -1.59   34.59          34.63   92.64            0.42     0.40     0.13            0.49     0.38     0.50           0.71    0.79
D7          16.86   18.02    2.42          49.52   -2.87   51.33          51.41   93.20            0.45     0.43     0.06            0.51     0.47     0.71           0.84    0.99
D8          16.81   18.09    0.69          49.60   -3.43   72.45          72.53   92.71            0.42     0.41     0.01            0.49     0.35     0.68           0.78    0.90
D9          45.25   47.70   24.36          74.63   -2.12   23.11          23.21   95.23            1.02     0.99     0.66            0.63     0.33     0.41           0.75    0.82
D10         45.33   48.09   13.93          74.88   -2.96   46.17          46.27   93.67            0.83     0.79     0.45            0.50     0.41     0.67           0.83    0.93
D11         44.84   47.94    6.95          74.79   -3.96   68.89          69.00   93.29            0.67     0.66     0.21            0.42     0.32     0.47           0.65    0.71
D12         45.42   48.88    3.39          75.38   -4.84   88.58          88.71   93.13            0.59     0.48     0.06            0.30     0.46     0.31           0.52    0.63
D13         59.29   67.13   64.15          85.57  -12.64   -8.77          15.39   214.76            0.71     0.53     0.27            0.27     0.56     0.41           0.65    0.75
D14         56.77   47.03   53.30          74.21   30.23  -17.35          34.86   330.15            0.49     0.66     0.36            0.42     0.62     0.49           0.77    0.89
D15         70.66   73.55   26.81          88.71   -0.54   43.04          43.04   90.72            0.18     0.24     0.47            0.11     0.13     0.72           0.62    0.74
D16         33.80   35.21   29.12          65.91   -0.54   -0.10           0.72   191.57            0.69     0.67     0.48            0.52     0.29     0.48           0.68    0.76
D17         45.11   35.60   22.05          66.21   33.80   12.92          36.19   20.92            0.43     0.48     0.47            0.37     0.39     0.52           0.66    0.75
D18         52.91   61.98   34.50          82.90  -16.94   20.98          26.96   128.92            0.63     0.49     0.52            0.26     0.49     0.48           0.65    0.74
D19         41.14   42.67   55.14          71.33   -0.01  -24.29          24.29   269.98            0.83     0.86     0.37            0.59     0.23     0.72           0.81    0.96
D20         17.18   13.78    4.92          43.90   23.14   25.15          34.17   47.38            0.37     0.29     0.13            0.42     0.45     0.42           0.66    0.74
D21         25.12   24.61   15.89          56.69    6.01    9.85          11.55   58.61            0.59     0.56     0.30            0.55     0.35     0.47           0.72    0.81
D22         42.43   41.87   25.66          70.78    6.26   14.13          15.45   66.11            0.67     0.68     0.42            0.47     0.21     0.39           0.59    0.65
E1           5.41    6.17    3.39          29.84   -6.21   10.05          11.82   121.72            0.12     0.12     0.06            0.30     0.37     0.44           0.58    0.65
E2           4.91    6.02    2.13          29.46  -10.59   19.26          21.99   118.81            0.14     0.16     0.05            0.40     0.40     0.42           0.62    0.71
E3           4.53    6.04    1.30          29.51  -15.78   28.29          32.40   119.15            0.10     0.12     0.03            0.30     0.37     0.44           0.56    0.65
E4           4.02    6.21    0.45          29.92  -24.51   43.09          49.58   119.63            0.11     0.16     0.01            0.39     0.27     0.55           0.58    0.72
E5          24.38   27.89   14.77          59.79  -10.51   17.96          20.81   120.35            0.67     0.69     0.40            0.63     0.27     0.52           0.78    0.86
E6          22.31   28.05    9.19          59.94  -20.36   34.73          40.26   120.38            0.53     0.56     0.26            0.51     0.34     0.59           0.77    0.85
E7          20.34   28.17    5.07          60.04  -30.10   52.17          60.23   119.98            0.44     0.51     0.10            0.46     0.25     0.49           0.62    0.72
E8          18.59   28.08    2.98          59.96  -38.59   64.84          75.46   120.76            0.39     0.37     0.05            0.33     0.64     0.45           0.70    0.85
E9          43.67   47.76   32.28          74.67   -6.84   10.05          12.17   124.25            0.97     1.02     0.70            0.64     0.34     0.38           0.74    0.82
E10         41.59   47.98   25.12          74.81  -13.65   22.04          25.93   121.78            0.83     0.86     0.52            0.54     0.37     0.38           0.69    0.76
E11         39.73   48.05   19.48          74.86  -19.58   33.05          38.42   120.65            0.71     0.74     0.41            0.46     0.34     0.45           0.65    0.73
E12         38.04   48.69   14.17          75.26  -26.65   46.20          53.33   119.98            0.65     0.53     0.27            0.33     0.68     0.46           0.79    0.88
E13         55.90   64.62   63.67          84.29  -15.36  -10.53          18.63   214.42            0.77     0.58     0.26            0.30     0.62     0.43           0.70    0.81
E14         51.75   40.35   49.96          69.72   36.87  -21.41          42.63   329.86            0.47     0.61     0.35            0.43     0.63     0.50           0.77    0.91
E15         69.30   71.91   21.86          87.93   -0.09   50.75          50.75   90.10            0.17     0.23     0.48            0.11     0.10     0.84           0.74    0.86
E16         24.60   25.70   21.17          57.75   -0.77    0.08           0.89   184.56            0.66     0.68     0.46            0.64     0.34     0.47           0.78    0.86
E17         38.62   28.21   15.01          60.07   40.66   17.85          44.41   23.69            0.35     0.36     0.38            0.33     0.31     0.54           0.62    0.70
E18         48.56   58.40   28.63          80.96  -20.13   26.65          33.40   127.06            0.62     0.49     0.45            0.27     0.53     0.41           0.63    0.72
E19         32.92   33.92   51.57          64.90    0.74  -31.51          31.52   271.35            0.66     0.70     0.39            0.56     0.27     0.70           0.81    0.94
E20         23.29   16.23    1.18          47.28   38.63   60.58          71.85   57.48            0.37     0.28     0.03            0.36     0.33     0.63           0.71    0.80
E21         21.04   17.99    4.46          49.49   18.71   37.27          41.71   63.34            0.38     0.33     0.11            0.40     0.37     0.39           0.61    0.67
E22         32.22   28.80   10.95          60.60   16.77   30.08          34.44   60.85            0.51     0.46     0.24            0.41     0.35     0.55           0.71    0.77
F1           3.50    4.25    3.06          24.46   -8.87    3.08           9.39   160.85            0.08     0.09     0.07            0.29     0.30     0.32           0.49    0.53
F2           2.91    4.28    2.60          24.58  -19.14    6.78          20.31   160.50            0.07     0.09     0.06            0.29     0.32     0.37           0.52    0.57
F3           2.42    4.30    2.20          24.63  -28.80   10.27          30.58   160.38            0.06     0.09     0.05            0.28     0.30     0.36           0.50    0.55
F4           1.58    4.46    1.56          25.13  -50.23   17.59          53.22   160.70            0.04     0.08     0.02            0.26     0.28     0.33           0.40    0.50
F5          11.44   14.54   10.07          45.00  -17.23    5.98          18.24   160.86            0.32     0.39     0.27            0.55     0.35     0.41           0.69    0.77
F6           9.22   14.56    8.39          45.02  -34.40   11.86          36.39   160.98            0.28     0.38     0.23            0.53     0.18     0.50           0.66    0.75
F7           7.50   14.71    6.97          45.23  -50.47   17.84          53.54   160.53            0.19     0.30     0.17            0.42     0.18     0.37           0.52    0.59
F8           5.77   14.61    5.58          45.10  -67.77   23.88          71.85   160.59            0.08     0.13     0.06            0.18     0.16     0.25           0.31    0.35
F9          29.29   33.85   25.48          64.84  -12.36    4.20          13.06   161.22            0.94     1.03     0.71            0.82     0.38     0.43           0.89    0.99
F10         26.34   34.12   23.34          65.06  -24.99    8.47          26.39   161.27            0.68     0.77     0.58            0.60     0.39     0.31           0.71    0.78
F11         23.65   34.11   21.26          65.05  -36.36   12.48          38.45   161.06            0.59     0.70     0.50            0.55     0.34     0.38           0.70    0.75
F12         20.26   33.76   18.86          64.77  -50.90   16.99          53.66   161.54            0.45     0.49     0.34            0.39     0.57     0.37           0.72    0.78
F13         52.87   62.29   63.24          83.07  -17.77  -12.22          21.57   214.51            0.78     0.60     0.24            0.32     0.65     0.46           0.74    0.86
F14         46.95   34.32   46.55          65.21   43.30  -25.22          50.11   329.78            0.42     0.51     0.36            0.40     0.54     0.41           0.66    0.79
F15         68.13   70.40   17.95          87.19    0.56   57.64          57.64   89.44            0.18     0.22     0.36            0.11     0.10     0.70           0.60    0.72
F16         17.42   18.24   15.03          49.78   -0.91    0.05           1.01   182.64            0.44     0.44     0.34            0.53     0.34     0.44           0.69    0.76
F17         33.23   22.46    9.99          54.51   46.62   22.63          51.82   25.90            0.31     0.31     0.20            0.33     0.32     0.44           0.56    0.64
F18         44.41   54.85   23.57          78.96  -23.16   32.01          39.52   125.89            0.56     0.46     0.40            0.27     0.51     0.37           0.60    0.68
F19         25.96   26.29   47.95          58.30    2.55  -38.78          38.86   273.77            0.52     0.56     0.29            0.52     0.21     0.66           0.75    0.87
