targets/wolf_faust/transmissive/V030302.it8
IT8.7/1
ORIGINATOR "Wolf Faust"
DESCRIPTOR "Velvia (RVP) Type 3, L* a* b* (light D50, viewing angle 2)"
MANUFACTURER "Wolf Faust - http://www.coloraid.de"
CREATED "March 16, 2002"
PROD_DATE "2003:03"
SERIAL "V030302 Batch Average Data"
MATERIAL "For Fujichrome Velvia (RVP) Films"
KEYWORD "MEAN_DE" # Mean Delta E of samples compared to batch average
NUMBER_OF_FIELDS 17
BEGIN_DATA_FORMAT
SAMPLE_ID   XYZ_X   XYZ_Y   XYZ_Z          LAB_L   LAB_A   LAB_B          LAB_C   LAB_H          STDEV_X  STDEV_Y  STDEV_Z          STDEV_L  STDEV_A  STDEV_B        MEAN_DE  STDEV_DE
END_DATA_FORMAT
NUMBER_OF_SETS 288
BEGIN_DATA
A1           2.23    1.88    1.28          14.83    9.66    3.21          10.18   18.37            0.04     0.04     0.04            0.20     0.31     0.36           0.46    0.51
A2           2.71    1.85    1.05          14.66   19.90    6.15          20.84   17.18            0.06     0.04     0.03            0.24     0.28     0.29           0.43    0.47 
A3           3.31    1.91    0.92          14.99   28.91    8.79          30.22   16.90            0.07     0.04     0.03            0.21     0.25     0.28           0.40    0.44
A4           4.26    1.85    0.64          14.64   44.73   13.07          46.61   16.29            0.08     0.04     0.02            0.20     0.30     0.30           0.42    0.47 
A5           9.93    8.62    6.06          35.24   13.51    4.62          14.28   18.88            0.18     0.16     0.13            0.32     0.47     0.42           0.63    0.71
A6          11.81    8.59    5.19          35.18   27.70    8.72          29.05   17.47            0.23     0.17     0.13            0.35     0.40     0.41           0.61    0.67 
A7          13.51    8.24    4.39          34.48   42.10   11.81          43.73   15.67            0.23     0.15     0.11            0.29     0.36     0.43           0.57    0.63
A8          17.27    8.58    3.61          35.15   61.37   17.74          63.89   16.12            0.14     0.09     0.09            0.18     0.07     0.48           0.46    0.51 
A9          29.51   28.65   22.22          60.47    7.32    2.71           7.83   20.31            0.52     0.51     0.52            0.45     0.48     0.53           0.79    0.85
A10         31.08   28.36   21.14          60.21   14.33    4.37          14.99   16.99            0.49     0.47     0.46            0.42     0.58     0.56           0.82    0.91
A11         33.34   28.51   20.06          60.34   21.88    6.81          22.92   17.29            0.63     0.60     0.47            0.53     0.50     0.47           0.81    0.87
A12         39.13   28.50   17.58          60.33   41.14   12.18          42.91   16.49            0.39     0.44     0.41            0.39     0.47     0.43           0.66    0.75 
A13         78.19   80.23   66.08          91.79    1.65    0.12           1.66   55.71            0.12     0.17     0.22            0.08     0.19     0.15           0.22    0.25
A14         77.91   79.14   65.68          91.30    3.21   -0.36           3.23   353.69            0.11     0.17     0.20            0.08     0.16     0.14           0.19    0.22 
A15         77.75   80.07   59.56          91.72    1.09    6.31           6.41   80.14            0.14     0.20     0.39            0.09     0.21     0.42           0.39    0.47
A16         76.28   79.04   65.28          91.25    0.14   -0.05           0.31   203.83            0.19     0.14     0.23            0.06     0.26     0.17           0.27    0.32
A17         76.42   77.62   60.58          90.61    3.21    3.39           4.67   46.52            0.14     0.19     0.32            0.09     0.17     0.21           0.26    0.28
A18         77.31   79.75   60.62          91.57    0.82    5.01           5.09   80.59            0.10     0.14     0.30            0.06     0.21     0.32           0.32    0.39 
A19         77.38   79.00   65.64          91.24    2.42   -0.42           2.46   350.14            0.09     0.11     0.16            0.05     0.12     0.10           0.14    0.17
A20          1.94    1.17    0.38          10.31   22.48   10.53          24.82   25.11            0.04     0.03     0.01            0.19     0.20     0.22           0.31    0.35 
A21          5.44    2.87    0.37          19.52   38.67   26.60          46.94   34.53            0.10     0.05     0.01            0.20     0.29     0.31           0.42    0.47
A22          9.46    4.52    0.26          25.31   52.59   38.68          65.29   36.34            0.13     0.06     0.01            0.20     0.25     0.26           0.34    0.41
B1           3.35    2.99    1.62          20.02    7.91    8.12          11.34   45.75            0.07     0.06     0.05            0.25     0.32     0.42           0.54    0.58
B2           3.88    2.97    1.06          19.91   16.59   15.16          22.47   42.44            0.08     0.06     0.03            0.25     0.35     0.31           0.48    0.53
B3           4.51    2.99    0.63          19.99   24.94   22.52          33.61   42.08            0.09     0.07     0.02            0.27     0.21     0.28           0.40    0.44
B4           5.17    2.81    0.08          19.27   36.50   31.70          48.34   40.97            0.11     0.06     0.00            0.26     0.27     0.41           0.47    0.56
B5          12.68   11.43    6.38          40.30   11.60   11.89          16.62   45.71            0.25     0.25     0.17            0.41     0.55     0.56           0.79    0.88
B6          14.63   11.33    4.16          40.12   24.78   22.86          33.71   42.69            0.30     0.23     0.11            0.39     0.48     0.48           0.71    0.78
B7          16.49   11.12    2.57          39.79   37.05   33.29          49.81   41.94            0.30     0.21     0.08            0.36     0.43     0.35           0.61    0.66
B8          20.87   11.26    0.95          40.01   58.79   51.37          78.08   41.15            0.16     0.12     0.03            0.20     0.10     0.32           0.34    0.39
B9          34.71   34.54   25.74          65.39    4.86    4.69           6.77   44.00            0.70     0.72     0.70            0.56     0.49     0.49           0.82    0.89
B10         36.18   34.31   22.63          65.20   10.62   10.07          14.64   43.47            0.59     0.60     0.53            0.47     0.56     0.53           0.84    0.90
B11         37.63   34.20   20.20          65.12   15.72   14.76          21.57   43.19            0.57     0.57     0.48            0.45     0.53     0.54           0.81    0.88
B12         43.66   34.45   13.99          65.32   33.42   29.52          44.59   41.45            0.41     0.48     0.36            0.38     0.44     0.63           0.77    0.85
B13         68.73   73.86   65.41          88.85   -5.31   -4.31           6.84   219.06            0.37     0.26     0.25            0.12     0.39     0.24           0.42    0.47
B14         71.08   67.91   61.99          85.96   12.19   -6.01          13.59   333.75            0.40     0.53     0.37            0.27     0.35     0.26           0.42    0.51
B15         75.48   78.30   46.82          90.92   -0.05   18.77          18.77   90.13            0.19     0.25     0.70            0.12     0.21     0.80           0.65    0.84
B16         60.61   63.19   52.50          83.54   -0.75   -0.38           0.89   206.61            0.55     0.55     0.57            0.29     0.25     0.29           0.45    0.48
B17         65.69   61.80   47.99          82.81   14.05    3.42          14.47   13.66            0.42     0.52     0.66            0.27     0.28     0.39           0.48    0.55
B18         65.82   71.80   52.11          87.87   -7.47    7.50          10.59   134.87            0.52     0.33     0.62            0.16     0.52     0.47           0.63    0.72
B19         63.04   66.03   62.86          85.01   -1.45   -8.50           8.62   260.36            0.56     0.55     0.21            0.28     0.26     0.37           0.49    0.53
B20          3.72    2.34    0.50          17.18   25.88   20.21          32.83   37.99            0.08     0.05     0.02            0.24     0.26     0.23           0.38    0.42
B21          9.01    4.36    0.29          24.84   50.86   37.40          63.13   36.33            0.14     0.07     0.01            0.22     0.28     0.30           0.43    0.47
B22         32.62   28.71   16.30          60.53   18.52   15.47          24.14   39.87            0.50     0.52     0.39            0.46     0.60     0.49           0.82    0.90
C1           6.42    6.30    3.35          30.17    3.70   10.89          11.51   71.24            0.13     0.13     0.10            0.32     0.48     0.39           0.63    0.70
C2           6.79    6.27    2.06          30.09    7.82   20.99          22.40   69.55            0.14     0.13     0.05            0.32     0.40     0.37           0.57    0.63
C3           7.27    6.24    1.12          30.00   12.93   31.58          34.13   67.74            0.16     0.14     0.03            0.34     0.37     0.38           0.56    0.63
C4           7.87    6.18    0.25          29.86   19.22   46.77          50.57   67.66            0.18     0.15     0.01            0.38     0.36     0.56           0.66    0.77
C5          24.14   23.39   11.77          55.47    7.06   18.74          20.03   69.35            0.52     0.52     0.32            0.53     0.54     0.53           0.83    0.92
C6          25.64   23.15    6.43          55.22   14.53   37.37          40.10   68.74            0.50     0.47     0.17            0.48     0.53     0.54           0.82    0.89
C7          27.48   23.12    3.13          55.19   22.18   55.53          59.80   68.23            0.44     0.41     0.08            0.43     0.44     0.38           0.66    0.72
C8          30.64   22.86    0.49          54.93   35.46   85.48          92.54   67.47            0.42     0.34     0.01            0.35     0.21     0.49           0.52    0.64
C9          40.86   41.64   28.79          70.62    2.19    8.57           8.85   75.66            0.65     0.68     0.65            0.47     0.44     0.44           0.72    0.78
C10         41.55   41.32   24.15          70.40    5.26   16.18          17.02   72.01            0.67     0.74     0.62            0.51     0.47     0.48           0.79    0.85
C11         42.96   41.67   20.20          70.64    8.42   24.27          25.70   70.87            0.73     0.78     0.55            0.54     0.49     0.39           0.77    0.83
C12         48.22   40.81    7.28          70.04   26.02   59.31          64.76   66.31            0.45     0.57     0.20            0.40     0.52     0.54           0.79    0.85
C13         63.62   70.21   64.75          87.10   -9.10   -6.71          11.31   216.42            0.41     0.29     0.27            0.14     0.44     0.28           0.48    0.55
C14         63.88   57.05   57.82          80.21   21.20  -11.76          24.24   330.98            0.49     0.68     0.35            0.38     0.55     0.40           0.64    0.78
C15         72.74   75.75   35.21          89.74   -0.62   31.75          31.76   91.11            0.18     0.23     0.66            0.11     0.18     0.92           0.74    0.94
C16         46.60   48.60   40.44          75.20   -0.75   -0.44           0.92   207.50            0.68     0.71     0.69            0.44     0.29     0.37           0.60    0.65
C17         54.56   47.12   33.53          74.27   24.46    7.51          25.59   17.06            0.52     0.62     0.70            0.40     0.41     0.47           0.65    0.74
C18         58.81   66.56   42.61          85.28  -12.53   14.18          18.92   131.47            0.56     0.39     0.73            0.20     0.56     0.63           0.76    0.86
C19         51.64   54.09   59.29          78.51   -1.34  -16.17          16.23   265.24            0.70     0.78     0.32            0.45     0.35     0.55           0.72    0.79
C20          2.63    2.04    0.78          15.69   13.86   12.41          18.61   41.84            0.06     0.05     0.03            0.25     0.19     0.24           0.37    0.39
C21         26.38   21.03    7.47          52.98   27.28   29.14          39.92   46.89            0.44     0.37     0.21            0.40     0.47     0.53           0.73    0.82
C22         39.03   37.04   22.76          67.31   10.78   13.46          17.25   51.30            0.56     0.58     0.58            0.44     0.39     0.48           0.67    0.75
D1           4.27    4.48    2.38          25.19   -0.63    9.69           9.72   93.71            0.07     0.07     0.07            0.23     0.36     0.43           0.56    0.61
D2           4.27    4.52    1.47          25.31   -1.14   18.94          18.98   93.44            0.08     0.09     0.04            0.29     0.42     0.35           0.56    0.62
D3           4.15    4.39    0.86          24.93   -1.20   26.86          26.89   92.56            0.07     0.08     0.02            0.26     0.34     0.30           0.49    0.52
D4           4.16    4.46    0.28          25.14   -1.98   38.00          38.05   92.97            0.10     0.13     0.01            0.39     0.42     0.56           0.73    0.80
D5          17.94   18.87    9.37          50.53   -1.30   17.87          17.93   94.15            0.37     0.40     0.23            0.46     0.51     0.50           0.77    0.85
D6          17.61   18.76    5.06          50.40   -2.53   35.60          35.70   94.07            0.34     0.38     0.15            0.45     0.45     0.50           0.72    0.81
D7          17.52   18.73    2.45          50.37   -2.86   52.51          52.59   93.12            0.35     0.39     0.06            0.46     0.37     0.37           0.62    0.69
D8          17.06   18.38    0.70          49.95   -3.60   72.85          72.94   92.83            0.32     0.36     0.01            0.43     0.28     0.51           0.64    0.73
D9          46.38   49.17   24.89          75.55   -2.88   23.74          23.91   96.92            0.56     0.62     0.54            0.38     0.41     0.40           0.62    0.69
D10         45.95   48.77   14.13          75.31   -3.01   46.37          46.47   93.72            0.52     0.59     0.30            0.37     0.41     0.43           0.67    0.70
D11         45.46   48.48    7.08          75.12   -3.60   68.92          69.01   92.99            0.45     0.49     0.16            0.31     0.25     0.33           0.48    0.51
D12         45.93   49.23    3.41          75.59   -4.32   88.79          88.89   92.79            0.45     0.40     0.08            0.25     0.32     0.29           0.45    0.50
D13         60.01   67.61   64.27          85.81  -11.95   -8.47          14.65   215.33            0.57     0.47     0.41            0.24     0.45     0.30           0.51    0.59
D14         57.47   47.96   53.82          74.80   29.41  -16.89          33.91   330.13            0.42     0.56     0.28            0.35     0.54     0.41           0.60    0.76
D15         70.88   73.76   27.70          88.81   -0.52   41.71          41.71   90.71            0.20     0.26     0.59            0.12     0.16     0.91           0.77    0.93
D16         35.12   36.71   30.21          67.06   -0.96    0.15           1.04   168.28            0.57     0.58     0.60            0.44     0.37     0.37           0.64    0.69
D17         46.13   36.81   22.93          67.13   32.72   12.84          35.16   21.42            0.40     0.46     0.49            0.35     0.38     0.60           0.70    0.79
D18         53.61   62.48   35.01          83.17  -16.32   20.71          26.37   128.25            0.53     0.37     0.66            0.19     0.56     0.66           0.80    0.89
D19         41.90   43.45   55.46          71.86    0.01  -23.71          23.72   270.01            0.59     0.66     0.26            0.45     0.41     0.63           0.79    0.87
D20         17.57   14.04    4.99          44.29   23.59   25.47          34.73   47.20            0.33     0.28     0.13            0.40     0.51     0.41           0.67    0.77
D21         25.95   25.62   16.30          57.67    5.25   10.56          11.80   63.53            0.49     0.51     0.41            0.48     0.44     0.39           0.69    0.76
D22         43.26   42.85   26.10          71.45    5.82   14.52          15.64   68.16            0.59     0.62     0.53            0.42     0.42     0.41           0.66    0.73
E1           5.57    6.37    3.43          30.32   -6.35   10.56          12.33   121.01            0.10     0.10     0.07            0.23     0.41     0.35           0.55    0.59
E2           5.14    6.33    2.19          30.22  -11.06   20.02          22.88   118.92            0.09     0.12     0.06            0.29     0.41     0.40           0.59    0.64
E3           4.70    6.29    1.33          30.13  -16.20   29.04          33.26   119.16            0.09     0.12     0.03            0.29     0.40     0.27           0.51    0.56
E4           4.19    6.42    0.46          30.45  -24.34   43.87          50.17   119.03            0.07     0.10     0.01            0.25     0.20     0.36           0.41    0.48
E5          25.29   29.01   15.20          60.79  -10.97   18.60          21.60   120.52            0.54     0.61     0.43            0.53     0.43     0.46           0.76    0.82
E6          22.81   28.54    9.37          60.37  -19.97   34.84          40.16   119.82            0.44     0.52     0.26            0.47     0.42     0.48           0.74    0.79
E7          20.59   28.29    5.11          60.15  -29.40   52.16          59.88   119.41            0.33     0.42     0.13            0.38     0.25     0.31           0.51    0.55
E8          17.08   26.16    2.49          58.18  -38.97   65.66          76.36   120.69            0.27     0.31     0.06            0.29     0.24     0.21           0.39    0.43
E9          44.42   48.72   32.96          75.27   -7.28   10.09          12.45   125.84            0.73     0.79     0.77            0.49     0.38     0.45           0.70    0.77
E10         42.48   48.95   25.75          75.42  -13.60   21.97          25.84   121.76            0.68     0.75     0.59            0.47     0.34     0.38           0.63    0.70
E11         40.75   49.04   20.23          75.47  -19.07   32.54          37.72   120.37            0.60     0.63     0.45            0.39     0.36     0.36           0.60    0.64
E12         38.90   49.34   14.42          75.66  -25.63   46.23          52.86   119.00            0.57     0.52     0.39            0.32     0.53     0.56           0.77    0.83
E13         56.76   65.24   63.89          84.61  -14.61  -10.18          17.81   214.86            0.46     0.32     0.23            0.16     0.48     0.35           0.53    0.62
E14         52.47   41.26   50.49          70.36   35.99  -20.90          41.62   329.85            0.38     0.50     0.27            0.35     0.52     0.38           0.58    0.73
E15         69.43   72.03   22.40          87.98   -0.06   49.79          49.79   90.06            0.20     0.27     0.47            0.13     0.15     0.81           0.68    0.84
E16         25.53   26.68   21.81          58.68   -0.81    0.41           1.00   152.81            0.43     0.44     0.48            0.42     0.48     0.40           0.69    0.75
E17         39.28   28.92   15.49          60.71   40.01   17.74          43.77   23.91            0.37     0.40     0.37            0.35     0.36     0.60           0.69    0.79
E18         49.26   58.88   28.72          81.23  -19.38   26.96          33.20   125.72            0.54     0.43     0.54            0.24     0.53     0.57           0.72    0.81
E19         33.77   34.79   52.01          65.58    0.77  -30.82          30.83   271.43            0.53     0.59     0.27            0.46     0.32     0.61           0.75    0.83
E20         23.65   16.59    1.19          47.74   38.25   61.20          72.17   58.00            0.29     0.20     0.03            0.26     0.35     0.34           0.50    0.55
E21         21.40   18.34    4.54          49.90   18.63   37.57          41.94   63.62            0.38     0.36     0.11            0.43     0.51     0.40           0.70    0.78
E22         33.21   29.91   11.33          61.57   16.11   30.56          34.55   62.20            0.57     0.57     0.28            0.49     0.57     0.48           0.77    0.89
F1           3.71    4.53    3.13          25.36   -9.52    4.14          10.39   156.53            0.07     0.08     0.09            0.25     0.39     0.46           0.60    0.65
F2           3.03    4.48    2.67          25.20  -19.82    7.33          21.13   159.70            0.06     0.09     0.07            0.29     0.41     0.36           0.58    0.62
F3           2.61    4.67    2.28          25.76  -29.83   11.54          31.98   158.84            0.06     0.11     0.07            0.33     0.45     0.34           0.57    0.65
F4           1.64    4.60    1.60          25.57  -50.67   17.93          53.75   160.51            0.03     0.09     0.04            0.26     0.40     0.20           0.44    0.52
F5          11.92   15.14   10.34          45.82  -17.36    6.51          18.55   159.45            0.27     0.33     0.31            0.45     0.51     0.47           0.75    0.83
F6           9.72   15.34    8.66          46.09  -34.91   12.71          37.15   160.00            0.21     0.31     0.24            0.42     0.43     0.41           0.66    0.73
F7           7.74   15.01    7.04          45.65  -50.09   18.26          53.32   159.97            0.15     0.27     0.19            0.36     0.32     0.32           0.55    0.58
F8           5.86   14.73    5.59          45.26  -67.50   24.09          71.67   160.35            0.07     0.14     0.13            0.19     0.13     0.36           0.38    0.43
F9          29.98   34.76   25.98          65.56  -12.85    4.57          13.65   160.40            0.65     0.73     0.71            0.57     0.50     0.44           0.82    0.87
F10         27.09   35.06   23.83          65.79  -25.07    8.83          26.58   160.59            0.59     0.69     0.64            0.54     0.40     0.41           0.72    0.78
F11         24.34   34.91   21.63          65.68  -36.05   12.83          38.26   160.41            0.47     0.59     0.57            0.45     0.35     0.42           0.65    0.71
F12         22.89   36.46   20.28          66.86  -47.59   17.60          50.74   159.71            0.36     0.35     0.41            0.27     0.51     0.51           0.68    0.77
F13         53.72   62.91   63.44          83.40  -17.01  -11.84          20.73   214.84            0.53     0.37     0.22            0.20     0.54     0.37           0.58    0.68
F14         47.59   35.12   47.03          65.84   42.39  -24.72          49.07   329.75            0.48     0.52     0.42            0.40     0.52     0.39           0.67    0.76
F15         68.17   70.40   18.29          87.19    0.62   56.90          56.90   89.37            0.13     0.18     0.33            0.09     0.13     0.73           0.61    0.74
F16         18.00   18.81   15.30          50.46   -0.74    0.54           1.00   138.61            0.39     0.40     0.41            0.48     0.44     0.35           0.67    0.74
F17         33.43   22.66   10.16          54.72   46.42   22.44          51.56   25.79            0.28     0.28     0.25            0.29     0.30     0.62           0.68    0.74
F18         45.28   55.49   23.81          79.32  -22.23   32.20          39.13   124.62            0.54     0.44     0.51            0.25     0.54     0.58           0.73    0.83
F19         26.77   27.18   48.41          59.14    2.31  -37.87          37.95   273.49            0.51     0.57     0.44            0.53     0.33     0.55           0.72    0.83
