targets/wolf_faust/transmissive/V040102.it8
IT8.7/1
ORIGINATOR "Wolf Faust"
DESCRIPTOR "Velvia (RVP 50), Type 3, L* a* b* (light D50, viewing angle 2)"
MANUFACTURER "Wolf Faust - http://www.coloraid.de"
CREATED "January 16, 2004"
PROD_DATE "2004:01"
SERIAL "V040102 Batch Average Data"
MATERIAL "For Fujichrome Velvia (RVP 50) Film"
KEYWORD "MEAN_DE" # Mean Delta E of samples compared to batch average
NUMBER_OF_FIELDS 17
BEGIN_DATA_FORMAT
SAMPLE_ID   XYZ_X   XYZ_Y   XYZ_Z          LAB_L   LAB_A   LAB_B          LAB_C   LAB_H          STDEV_X  STDEV_Y  STDEV_Z          STDEV_L  STDEV_A  STDEV_B        MEAN_DE  STDEV_DE
END_DATA_FORMAT
NUMBER_OF_SETS 288
BEGIN_DATA
A1           2.19    1.87    1.32          14.76    8.91    2.70           9.31   16.81            0.06     0.05     0.04            0.27     0.22     0.35           0.45    0.49
A2           2.67    1.82    1.07          14.53   19.65    5.65          20.45   16.02            0.06     0.05     0.03            0.25     0.21     0.44           0.50    0.55 
A3           3.30    1.91    0.94          15.00   28.75    8.50          29.99   16.46            0.08     0.05     0.03            0.26     0.24     0.43           0.50    0.56
A4           4.27    1.83    0.65          14.57   45.11   12.81          46.90   15.85            0.09     0.04     0.02            0.21     0.34     0.41           0.51    0.57 
A5           9.83    8.48    5.98          34.96   13.89    4.48          14.60   17.85            0.24     0.21     0.13            0.42     0.32     0.60           0.72    0.80
A6          11.53    8.33    5.16          34.67   27.90    7.98          29.02   15.96            0.24     0.18     0.11            0.36     0.31     0.50           0.64    0.69 
A7          13.41    8.17    4.38          34.34   42.08   11.66          43.67   15.49            0.29     0.19     0.11            0.38     0.34     0.62           0.75    0.81
A8          16.61    8.32    3.54          34.63   59.95   17.31          62.39   16.10            0.41     0.20     0.10            0.40     0.58     0.33           0.65    0.78 
A9          28.41   27.47   21.46          59.40    7.66    2.36           8.03   17.00            0.65     0.65     0.42            0.60     0.54     0.64           0.96    1.03
A10         30.23   27.41   20.49          59.35   14.89    4.22          15.49   15.78            0.71     0.67     0.40            0.61     0.51     0.69           0.99    1.05
A11         32.12   27.31   19.31          59.26   22.21    6.50          23.15   16.31            0.73     0.64     0.29            0.59     0.39     0.70           0.92    1.00
A12         37.75   27.50   16.83          59.43   40.63   12.34          42.46   16.90            0.49     0.44     0.27            0.40     0.60     0.39           0.77    0.82 
A13         74.46   76.67   63.81          90.17    1.09   -0.51           1.22   334.55            1.27     1.28     1.12            0.59     0.15     0.14           0.55    0.62
A14         73.92   75.32   62.43          89.54    2.68   -0.27           2.69   354.34            1.90     1.89     1.62            0.88     0.18     0.10           0.80    0.91 
A15         74.71   76.84   58.66          90.25    1.27    4.69           4.86   74.82            1.49     1.50     1.20            0.70     0.08     0.25           0.63    0.74
A16         74.88   77.27   63.39          90.44    0.75    0.36           0.84   25.67            1.28     1.31     1.14            0.60     0.14     0.11           0.52    0.63
A17         74.48   76.19   61.28          89.94    2.10    1.56           2.62   36.56            2.11     2.11     1.77            0.98     0.14     0.12           0.80    1.00
A18         73.84   76.67   55.70          90.17   -0.18    7.61           7.61   91.30            1.16     1.18     0.98            0.55     0.16     0.25           0.53    0.62 
A19         74.16   76.14   63.63          89.92    1.54   -0.77           1.73   333.57            1.86     1.89     1.68            0.88     0.10     0.16           0.69    0.90
A20          1.94    1.18    0.37          10.43   22.03   11.06          24.66   26.65            0.05     0.03     0.02            0.25     0.19     0.40           0.45    0.51 
A21          5.27    2.76    0.35          19.07   38.54   26.36          46.70   34.37            0.09     0.05     0.02            0.20     0.27     0.40           0.46    0.52
A22          9.51    4.52    0.24          25.32   52.91   39.13          65.81   36.48            0.23     0.11     0.02            0.34     0.43     0.55           0.65    0.78
B1           3.30    2.94    1.69          19.78    8.14    6.97          10.72   40.52            0.08     0.07     0.05            0.30     0.24     0.45           0.55    0.59
B2           3.91    2.95    1.03          19.84   17.27   15.35          23.10   41.63            0.09     0.06     0.03            0.26     0.29     0.43           0.52    0.58
B3           4.37    2.87    0.63          19.53   25.14   21.87          33.32   41.02            0.09     0.07     0.02            0.28     0.21     0.42           0.51    0.55
B4           5.16    2.79    0.07          19.19   36.76   31.82          48.61   40.88            0.10     0.06     0.01            0.24     0.19     0.44           0.40    0.54
B5          12.35   11.14    6.41          39.82   11.45   10.89          15.81   43.54            0.27     0.25     0.14            0.41     0.46     0.50           0.73    0.79
B6          14.12   10.91    4.13          39.43   24.61   21.87          32.93   41.62            0.30     0.23     0.08            0.39     0.42     0.54           0.71    0.78
B7          16.45   11.00    2.61          39.58   37.78   32.56          49.88   40.75            0.29     0.18     0.06            0.31     0.43     0.61           0.73    0.81
B8          19.96   10.93    1.06          39.46   56.66   48.79          74.78   40.73            0.63     0.36     0.06            0.61     0.56     0.45           0.84    0.94
B9          33.71   33.52   24.70          64.57    4.92    5.13           7.12   46.08            0.73     0.77     0.43            0.62     0.36     0.67           0.91    0.98
B10         35.30   33.34   22.00          64.43   10.99    9.95          14.84   42.12            0.76     0.71     0.29            0.57     0.45     0.69           0.92    1.00
B11         36.84   33.15   19.62          64.28   16.76   14.52          22.18   40.89            0.77     0.70     0.31            0.57     0.45     0.68           0.90    0.99
B12         42.40   33.58   14.00          64.63   32.68   28.30          43.23   40.90            0.54     0.54     0.24            0.43     0.56     0.34           0.72    0.78
B13         59.73   64.70   56.29          84.33   -6.23   -3.07           6.95   206.22            0.70     0.70     0.49            0.36     0.35     0.37           0.58    0.62
B14         65.12   61.13   52.07          82.45   14.34   -1.81          14.46   352.85            0.65     0.75     0.60            0.40     0.57     0.28           0.68    0.75
B15         67.47   66.30   45.05          85.15    7.90   10.94          13.50   54.17            0.67     0.70     0.55            0.35     0.36     0.21           0.50    0.54
B16         57.20   59.97   49.63          81.82   -1.52   -0.16           1.57   185.35            0.60     0.60     0.41            0.32     0.39     0.39           0.58    0.64
B17         63.28   59.70   45.01          81.67   13.51    4.99          14.41   20.31            0.80     0.77     0.62            0.42     0.45     0.26           0.62    0.67
B18         58.43   63.82   49.41          83.87   -7.36    3.63           8.21   153.73            0.70     0.65     0.47            0.34     0.36     0.30           0.53    0.58
B19         58.28   60.77   56.02          82.26   -0.77   -6.37           6.42   263.13            0.70     0.64     0.48            0.35     0.39     0.38           0.57    0.64
B20          3.61    2.29    0.46          16.93   25.35   20.48          32.60   38.93            0.07     0.05     0.02            0.23     0.22     0.40           0.45    0.51
B21          8.95    4.33    0.28          24.72   50.84   37.38          63.11   36.32            0.20     0.10     0.02            0.31     0.38     0.46           0.56    0.67
B22         31.45   27.63   15.66          59.55   18.51   15.35          24.05   39.65            0.62     0.58     0.34            0.53     0.49     0.67           0.89    0.99
C1           6.28    6.16    3.45          29.82    3.63    9.62          10.29   69.33            0.14     0.13     0.07            0.32     0.38     0.40           0.56    0.63
C2           6.72    6.22    2.14          29.97    7.56   20.09          21.46   69.39            0.11     0.09     0.06            0.23     0.33     0.48           0.57    0.63
C3           7.06    6.07    1.14          29.58   12.70   30.57          33.10   67.44            0.11     0.09     0.04            0.23     0.40     0.43           0.58    0.64
C4           7.73    6.04    0.22          29.50   19.45   46.65          50.54   67.36            0.12     0.09     0.01            0.22     0.40     0.32           0.48    0.56
C5          23.33   22.53   11.31          54.58    7.31   18.58          19.97   68.54            0.47     0.45     0.23            0.48     0.50     0.66           0.85    0.96
C6          25.28   22.51    6.48          54.56   15.85   36.01          39.35   66.25            0.39     0.33     0.11            0.35     0.55     0.56           0.78    0.86
C7          27.33   22.73    3.10          54.80   23.27   55.12          59.83   67.12            0.30     0.27     0.11            0.28     0.68     0.61           0.88    0.95
C8          29.82   22.17    0.48          54.19   35.54   84.39          91.57   67.16            1.02     0.79     0.02            0.84     0.70     1.06           1.28    1.52
C9          39.83   40.47   27.98          69.80    2.51    8.48           8.85   73.50            0.71     0.71     0.34            0.50     0.44     0.63           0.83    0.92
C10         40.68   40.58   23.34          69.88    4.83   16.78          17.47   73.96            0.69     0.68     0.38            0.48     0.50     0.60           0.82    0.92
C11         41.91   40.62   19.48          69.90    8.45   24.50          25.92   70.97            0.68     0.64     0.22            0.45     0.36     0.63           0.76    0.85
C12         47.67   41.01    8.83          70.18   23.88   53.65          58.73   66.00            0.64     0.61     0.19            0.43     0.46     0.46           0.72    0.78
C13         52.20   60.22   56.94          81.96  -14.74   -7.84          16.69   207.98            0.64     0.59     0.29            0.32     0.36     0.44           0.59    0.66
C14         56.54   48.39   48.58          75.07   25.97  -10.61          28.06   337.78            0.67     0.75     0.58            0.47     0.67     0.44           0.84    0.93
C15         64.38   63.83   31.26          83.87    6.51   27.49          28.25   76.68            0.55     0.54     0.40            0.28     0.36     0.24           0.48    0.52
C16         44.11   46.28   37.93          73.72   -1.48    0.34           1.59   166.41            0.80     0.81     0.45            0.52     0.47     0.51           0.80    0.86
C17         53.00   46.11   31.35          73.62   23.30    9.66          25.23   22.54            0.56     0.60     0.46            0.39     0.64     0.43           0.82    0.87
C18         48.77   57.69   37.38          80.57  -17.86   12.90          22.04   144.17            0.64     0.57     0.24            0.32     0.38     0.52           0.62    0.72
C19         46.41   47.70   53.67          74.63    1.17  -17.02          17.06   273.93            0.72     0.74     0.34            0.46     0.42     0.58           0.75    0.85
C20          2.58    2.01    0.74          15.55   13.62   12.86          18.74   43.33            0.06     0.04     0.02            0.23     0.18     0.42           0.45    0.51
C21         26.15   20.71    7.48          52.63   27.82   28.49          39.82   45.68            0.48     0.39     0.15            0.43     0.50     0.63           0.82    0.91
C22         38.40   36.57   22.03          66.95   10.32   14.23          17.59   54.07            0.75     0.73     0.38            0.55     0.52     0.60           0.87    0.96
D1           4.14    4.34    2.41          24.77   -0.66    8.71           8.74   94.39            0.09     0.09     0.06            0.29     0.25     0.38           0.48    0.54
D2           4.14    4.35    1.46          24.78   -0.73   18.23          18.25   92.30            0.09     0.09     0.04            0.27     0.28     0.40           0.51    0.56
D3           4.08    4.35    0.90          24.79   -1.56   26.02          26.07   93.44            0.08     0.09     0.03            0.28     0.43     0.34           0.57    0.62
D4           3.93    4.19    0.25          24.28   -1.55   37.12          37.15   92.40            0.06     0.07     0.01            0.21     0.39     0.31           0.47    0.55
D5          17.29   18.01    9.18          49.50   -0.41   16.76          16.78   91.43            0.35     0.38     0.21            0.46     0.53     0.57           0.82    0.91
D6          16.99   18.01    4.96          49.51   -2.07   34.63          34.69   93.43            0.28     0.28     0.10            0.34     0.63     0.59           0.85    0.93
D7          16.94   18.04    2.37          49.55   -2.48   51.79          51.85   92.75            0.22     0.27     0.08            0.33     0.71     0.63           0.92    1.00
D8          16.77   18.15    0.67          49.67   -4.00   73.03          73.14   93.13            0.37     0.44     0.02            0.54     0.63     0.54           0.84    0.99
D9          45.01   47.49   24.24          74.50   -2.22   23.08          23.20   95.51            0.55     0.62     0.43            0.39     0.49     0.67           0.86    0.92
D10         45.04   47.91   13.88          74.77   -3.31   46.12          46.24   94.12            0.56     0.56     0.26            0.35     0.53     0.59           0.79    0.87
D11         44.69   47.78    6.82          74.68   -3.93   69.25          69.37   93.25            0.60     0.64     0.19            0.41     0.60     0.58           0.86    0.93
D12         43.37   46.58    3.32          73.91   -4.50   86.54          86.65   92.98            1.39     1.57     0.17            1.04     0.58     0.91           1.11    1.50
D13         46.25   56.15   57.09          79.70  -21.11  -11.89          24.23   209.37            0.47     0.43     0.12            0.25     0.28     0.41           0.47    0.55
D14         49.30   38.53   44.82          68.41   35.96  -17.65          40.06   333.87            0.52     0.57     0.47            0.42     0.77     0.50           0.94    1.01
D15         62.80   62.43   22.94          83.14    6.09   40.41          40.86   81.43            0.56     0.54     0.24            0.28     0.34     0.24           0.47    0.50
D16         32.69   34.17   28.41          65.10   -0.91   -0.35           1.14   203.96            0.62     0.69     0.34            0.54     0.51     0.61           0.90    0.96
D17         44.65   35.71   21.81          66.29   32.12   13.54          34.86   22.86            0.46     0.49     0.28            0.37     0.57     0.41           0.74    0.80
D18         41.33   52.17   28.72          77.38  -25.52   20.32          32.64   141.47            0.53     0.47     0.22            0.28     0.41     0.61           0.69    0.79
D19         36.03   36.11   50.15          66.60    4.08  -26.99          27.30   278.59            0.63     0.65     0.31            0.50     0.51     0.60           0.83    0.93
D20         17.35   13.85    5.04          44.01   23.59   24.72          34.17   46.33            0.30     0.25     0.07            0.36     0.37     0.58           0.71    0.78
D21         25.27   24.63   15.92          56.71    6.56    9.81          11.80   56.22            0.50     0.48     0.22            0.47     0.48     0.57           0.80    0.88
D22         42.49   41.94   25.90          70.83    6.23   13.79          15.14   65.70            0.69     0.68     0.33            0.47     0.52     0.49           0.77    0.86
E1           5.52    6.25    3.47          30.03   -5.68    9.79          11.32   120.18            0.12     0.13     0.08            0.33     0.32     0.44           0.58    0.63
E2           4.95    6.09    2.22          29.63  -10.86   18.78          21.70   120.04            0.10     0.12     0.06            0.31     0.40     0.41           0.59    0.65
E3           4.67    6.22    1.31          29.95  -15.82   28.93          32.98   118.68            0.10     0.13     0.04            0.31     0.44     0.36           0.60    0.65
E4           4.00    6.26    0.43          30.07  -25.49   43.65          50.55   120.28            0.06     0.12     0.01            0.29     0.52     0.29           0.56    0.66
E5          24.39   27.99   15.00          59.88  -10.86   17.55          20.65   121.79            0.41     0.42     0.19            0.38     0.45     0.72           0.84    0.93
E6          22.16   27.99    9.25          59.88  -20.77   34.38          40.17   121.14            0.30     0.37     0.18            0.33     0.48     0.63           0.78    0.86
E7          20.32   28.02    5.07          59.91  -29.65   51.98          59.84   119.70            0.30     0.36     0.11            0.33     0.55     0.65           0.83    0.92
E8          16.11   25.57    2.90          57.62  -41.97   61.46          74.43   124.33            0.17     0.19     0.09            0.18     0.52     0.61           0.71    0.82
E9          43.62   47.85   31.55          74.73   -7.25   11.27          13.41   122.77            0.60     0.67     0.52            0.42     0.46     0.59           0.80    0.86
E10         41.39   47.70   24.93          74.64  -13.51   22.08          25.89   121.47            0.49     0.52     0.37            0.33     0.41     0.67           0.79    0.85
E11         39.61   47.76   19.51          74.67  -19.16   32.66          37.87   120.41            0.57     0.58     0.30            0.36     0.39     0.69           0.80    0.87
E12         34.27   45.11   12.96          72.96  -29.28   45.47          54.09   122.78            0.43     0.37     0.20            0.24     0.48     0.72           0.83    0.90
E13         41.33   52.41   57.08          77.52  -26.12  -15.63          30.44   210.90            0.40     0.38     0.09            0.23     0.25     0.40           0.45    0.53
E14         43.47   31.25   41.27          62.72   44.07  -23.03          49.73   332.41            0.41     0.41     0.38            0.34     0.70     0.47           0.85    0.91
E15         61.57   61.07   17.00          82.41    6.36   51.55          51.95   82.97            0.58     0.58     0.28            0.31     0.28     0.30           0.49    0.51
E16         23.44   24.54   20.46          56.62   -0.97   -0.44           1.23   200.75            0.44     0.49     0.28            0.49     0.44     0.67           0.87    0.94
E17         37.90   27.93   14.69          59.82   39.41   18.22          43.42   24.81            0.55     0.51     0.31            0.47     0.50     0.40           0.73    0.79
E18         35.23   47.06   21.96          74.23  -31.47   26.93          41.42   139.45            0.55     0.52     0.24            0.33     0.45     0.72           0.83    0.91
E19         27.64   26.93   46.32          58.90    6.81  -35.83          36.48   280.76            0.53     0.53     0.25            0.49     0.56     0.62           0.85    0.97
E20         23.41   16.29    1.15          47.34   38.86   61.16          72.46   57.56            0.42     0.34     0.05            0.44     0.49     0.62           0.82    0.90
E21         21.04   18.01    4.46          49.50   18.66   37.31          41.72   63.43            0.40     0.36     0.10            0.44     0.63     0.71           0.97    1.04
E22         32.44   28.89   10.95          60.68   17.22   30.19          34.76   60.30            0.58     0.54     0.20            0.48     0.62     0.56           0.87    0.96
F1           3.53    4.32    3.11          24.69   -9.40    3.11           9.91   161.73            0.08     0.10     0.07            0.31     0.22     0.44           0.52    0.58
F2           2.92    4.34    2.63          24.76  -19.77    6.88          20.93   160.82            0.07     0.10     0.08            0.33     0.29     0.39           0.54    0.59
F3           2.48    4.46    2.22          25.14  -29.82   10.99          31.78   159.77            0.05     0.08     0.06            0.24     0.31     0.41           0.52    0.57
F4           1.57    4.45    1.55          25.10  -50.41   17.67          53.42   160.68            0.03     0.10     0.06            0.30     0.38     0.27           0.50    0.56
F5          11.31   14.43   10.05          44.84  -17.45    5.74          18.38   161.79            0.19     0.24     0.22            0.35     0.40     0.60           0.75    0.80
F6           9.18   14.55    8.42          45.00  -34.67   11.71          36.60   161.33            0.14     0.19     0.15            0.26     0.35     0.60           0.67    0.74
F7           7.40   14.56    6.97          45.02  -50.49   17.46          53.42   160.93            0.10     0.17     0.15            0.24     0.27     0.53           0.59    0.64
F8           5.64   14.33    5.59          44.71  -67.53   23.15          71.39   161.08            0.07     0.13     0.14            0.18     0.16     0.45           0.45    0.50
F9          28.99   33.60   25.17          64.64  -12.63    4.41          13.39   160.75            0.50     0.62     0.45            0.50     0.50     0.67           0.88    0.97
F10         26.04   33.80   23.21          64.80  -25.12    8.29          26.46   161.74            0.50     0.60     0.43            0.48     0.42     0.74           0.88    0.97
F11         23.31   33.66   21.03          64.69  -36.33   12.32          38.37   161.27            0.44     0.53     0.35            0.43     0.32     0.70           0.82    0.88
F12         18.29   31.41   17.30          62.85  -52.58   17.13          55.30   161.95            0.22     0.25     0.30            0.20     0.31     0.72           0.74    0.81
F13         37.29   49.06   56.99          75.49  -30.07  -19.05          35.59   212.35            0.41     0.41     0.19            0.25     0.25     0.40           0.47    0.54
F14         38.33   25.32   37.75          57.38   51.34  -27.58          58.28   331.75            0.46     0.42     0.43            0.40     0.49     0.34           0.64    0.72
F15         60.74   59.96   12.87          81.82    6.99   61.00          61.40   83.47            0.68     0.70     0.27            0.38     0.23     0.31           0.50    0.54
F16         16.55   17.26   14.35          48.59   -0.54   -0.27           0.87   207.87            0.42     0.46     0.25            0.57     0.43     0.62           0.88    0.95
F17         32.20   21.86    9.69          53.87   45.72   22.55          50.98   26.25            0.53     0.44     0.22            0.47     0.40     0.42           0.70    0.75
F18         30.25   42.45   16.68          71.18  -36.03   32.94          48.83   137.57            0.50     0.47     0.26            0.32     0.51     0.68           0.84    0.91
F19         21.00   19.60   42.33          51.38   10.39  -43.94          45.15   283.30            0.43     0.43     0.29            0.49     0.49     0.57           0.79    0.90
