targets/wolf_faust/transmissive/V040510.it8
IT8.7/1
ORIGINATOR "Wolf Faust"
DESCRIPTOR "Velvia (RVP 50), Type 3, L* a* b* (light D50, viewing angle 2)"
MANUFACTURER "Wolf Faust - http://www.coloraid.de"
CREATED "June 03, 2004"
PROD_DATE "2004:05"
DIFFUSE_GEOMETRY "opal"
SERIAL "V040510 Batch Average Data"
MATERIAL "For Fujichrome Velvia (RVP 50) Film"
KEYWORD "MEAN_DE" # Mean Delta E of samples compared to batch average
NUMBER_OF_FIELDS 17
BEGIN_DATA_FORMAT
SAMPLE_ID   XYZ_X   XYZ_Y   XYZ_Z          LAB_L   LAB_A   LAB_B          LAB_C   LAB_H          STDEV_X  STDEV_Y  STDEV_Z          STDEV_L  STDEV_A  STDEV_B        MEAN_DE  STDEV_DE
END_DATA_FORMAT
NUMBER_OF_SETS 288
BEGIN_DATA
A1           2.14    1.85    1.29          14.68    8.34    2.83           8.81   18.73            0.05     0.04     0.04            0.20     0.17     0.28           0.34    0.39
A2           2.58    1.78    1.08          14.27   19.15    5.04          19.80   14.76            0.07     0.05     0.04            0.27     0.20     0.23           0.34    0.41 
A3           3.15    1.82    0.92          14.53   28.33    7.95          29.43   15.67            0.07     0.04     0.03            0.20     0.27     0.29           0.36    0.44
A4           4.31    1.84    0.65          14.62   45.46   13.00          47.28   15.96            0.08     0.04     0.03            0.20     0.26     0.32           0.38    0.45 
A5           9.46    8.34    5.81          34.67   12.18    4.77          13.09   21.38            0.20     0.15     0.14            0.30     0.41     0.30           0.50    0.59
A6          11.30    8.26    5.00          34.51   26.97    8.53          28.29   17.55            0.25     0.18     0.16            0.38     0.30     0.34           0.51    0.59 
A7          13.36    8.26    4.24          34.52   41.00   12.75          42.94   17.27            0.27     0.16     0.12            0.32     0.42     0.35           0.55    0.63
A8          17.03    8.56    3.42          35.13   60.13   18.97          63.06   17.51            0.10     0.06     0.10            0.12     0.08     0.49           0.38    0.51 
A9          28.13   27.80   21.39          59.71    5.28    3.02           6.09   29.88            0.54     0.56     0.52            0.51     0.47     0.28           0.65    0.75
A10         30.32   27.97   20.29          59.86   13.04    5.49          14.15   22.83            0.54     0.55     0.53            0.49     0.45     0.33           0.65    0.75
A11         32.06   27.60   19.05          59.53   20.83    7.52          22.15   19.85            0.51     0.40     0.36            0.36     0.43     0.40           0.60    0.69
A12         38.44   28.34   16.95          60.20   39.57   13.38          41.78   18.68            0.24     0.24     0.37            0.21     0.21     0.57           0.48    0.64 
A13         70.67   74.66   64.74          89.23   -2.78   -3.03           4.11   227.46            0.48     0.42     0.33            0.20     0.27     0.20           0.35    0.40
A14         74.32   74.49   63.87          89.15    5.19   -2.33           5.69   335.88            0.40     0.47     0.34            0.22     0.26     0.19           0.34    0.39 
A15         75.51   77.90   58.26          90.73    0.81    5.94           6.00   82.20            0.24     0.26     0.40            0.12     0.05     0.29           0.25    0.31
A16         73.79   76.81   64.10          90.23   -0.55   -0.69           0.89   231.50            0.34     0.30     0.20            0.14     0.15     0.17           0.24    0.27
A17         73.62   74.11   60.23          88.97    4.53    0.91           4.62   11.44            0.39     0.44     0.39            0.21     0.20     0.12           0.27    0.31
A18         69.85   74.18   58.88          89.01   -3.57    2.34           4.27   146.85            0.42     0.34     0.35            0.16     0.24     0.28           0.36    0.40 
A19         70.99   73.42   64.13          88.65    0.41   -3.45           3.47   276.81            0.47     0.49     0.43            0.23     0.11     0.27           0.32    0.37
A20          6.12    2.91    1.82          19.68   45.68    5.41          46.00    6.75            0.11     0.05     0.05            0.22     0.26     0.39           0.47    0.52 
A21         25.61   18.18   13.98          49.72   38.14    2.65          38.24    3.98            0.36     0.25     0.28            0.31     0.47     0.40           0.60    0.69
A22         51.46   47.99   30.70          74.82   14.12   12.74          19.02   42.06            0.51     0.49     0.40            0.31     0.38     0.32           0.53    0.59
B1           3.19    2.93    1.68          19.74    6.49    7.02           9.57   47.25            0.07     0.06     0.05            0.25     0.22     0.25           0.38    0.42
B2           3.72    2.90    1.06          19.63   15.43   14.64          21.27   43.50            0.07     0.06     0.03            0.24     0.20     0.21           0.34    0.37
B3           4.32    2.87    0.65          19.52   24.48   21.42          32.53   41.18            0.11     0.08     0.02            0.32     0.17     0.24           0.37    0.44
B4           5.36    2.91    0.07          19.67   37.04   32.52          49.29   41.28            0.12     0.06     0.00            0.25     0.33     0.39           0.44    0.57
B5          12.01   11.07    6.27          39.69    9.62   11.33          14.87   49.70            0.23     0.19     0.15            0.32     0.39     0.27           0.49    0.57
B6          14.11   11.12    4.20          39.77   23.10   22.06          31.94   43.67            0.27     0.22     0.12            0.37     0.32     0.29           0.51    0.57
B7          16.31   11.09    2.53          39.72   36.32   33.50          49.41   42.68            0.27     0.20     0.08            0.33     0.30     0.36           0.51    0.57
B8          20.64   11.29    1.01          40.07   57.43   50.57          76.52   41.37            0.10     0.07     0.03            0.12     0.10     0.28           0.26    0.32
B9          32.89   33.28   24.60          64.38    2.87    5.00           5.79   60.27            0.53     0.45     0.41            0.36     0.58     0.32           0.66    0.76
B10         34.86   33.55   21.80          64.60    8.78   10.64          13.80   50.52            0.49     0.41     0.39            0.33     0.57     0.32           0.63    0.73
B11         36.43   33.67   19.55          64.70   13.60   15.39          20.54   48.54            0.52     0.44     0.33            0.35     0.50     0.30           0.59    0.68
B12         43.02   34.46   13.80          65.32   31.54   30.04          43.56   43.60            0.27     0.28     0.25            0.22     0.26     0.39           0.38    0.52
B13         60.61   67.01   62.07          85.51   -9.23   -6.87          11.51   216.67            0.55     0.50     0.42            0.25     0.31     0.26           0.42    0.47
B14         65.66   62.26   58.75          83.05   12.95   -7.80          15.12   328.94            0.51     0.58     0.41            0.31     0.30     0.26           0.41    0.50
B15         68.87   71.64   44.35          87.79   -0.44   16.34          16.35   91.55            0.45     0.46     0.34            0.22     0.14     0.22           0.30    0.34
B16         55.73   58.59   48.26          81.07   -1.90    0.11           1.92   176.06            0.60     0.64     0.57            0.35     0.35     0.22           0.47    0.54
B17         63.14   60.60   45.57          82.16   11.08    5.17          12.22   25.01            0.44     0.48     0.39            0.26     0.25     0.19           0.35    0.41
B18         58.19   65.34   47.34          84.66  -11.33    7.36          13.52   146.98            0.57     0.52     0.55            0.27     0.31     0.33           0.47    0.53
B19         57.64   59.85   59.79          81.76   -0.16  -11.08          11.09   269.17            0.59     0.62     0.49            0.34     0.32     0.39           0.54    0.61
B20          4.75    2.91    0.96          19.66   29.59   16.10          33.69   28.55            0.08     0.05     0.02            0.22     0.21     0.17           0.31    0.35
B21         16.40   11.19    3.97          39.90   36.11   23.61          43.15   33.18            0.22     0.15     0.11            0.25     0.38     0.41           0.54    0.61
B22         32.41   27.91   16.61          59.80   20.91   13.49          24.89   32.84            0.46     0.35     0.25            0.32     0.54     0.31           0.62    0.70
C1           6.06    6.18    3.33          29.86    1.12   10.48          10.55   83.90            0.12     0.12     0.09            0.29     0.28     0.21           0.40    0.45
C2           6.57    6.22    2.10          29.95    6.14   20.43          21.33   73.27            0.13     0.12     0.06            0.29     0.29     0.24           0.42    0.47
C3           7.00    6.18    1.12          29.86   10.89   31.33          33.17   70.84            0.14     0.12     0.03            0.30     0.27     0.29           0.42    0.50
C4           7.59    6.06    0.23          29.55   17.88   46.58          49.89   69.00            0.17     0.13     0.01            0.32     0.30     0.49           0.54    0.66
C5          22.51   22.16   11.01          54.19    5.29   18.83          19.56   74.32            0.45     0.40     0.24            0.42     0.47     0.29           0.59    0.70
C6          24.66   22.61    6.27          54.67   12.77   37.14          39.28   71.02            0.47     0.40     0.14            0.41     0.52     0.31           0.65    0.73
C7          26.86   22.73    3.06          54.79   21.41   55.37          59.37   68.86            0.45     0.42     0.09            0.43     0.39     0.34           0.59    0.68
C8          29.99   22.66    0.54          54.72   33.94   84.08          90.67   68.02            0.42     0.29     0.01            0.30     0.41     0.45           0.57    0.68
C9          39.39   40.43   27.72          69.77    1.27    8.86           8.96   81.86            0.66     0.71     0.63            0.50     0.51     0.29           0.67    0.77
C10         40.07   40.15   24.19          69.58    4.24   14.69          15.30   73.92            0.56     0.47     0.36            0.33     0.56     0.22           0.60    0.69
C11         41.40   40.41   19.48          69.76    7.55   24.27          25.42   72.73            0.53     0.45     0.34            0.32     0.50     0.31           0.59    0.67
C12         47.61   40.95    7.58          70.14   23.91   58.29          63.00   67.70            0.25     0.28     0.13            0.19     0.29     0.35           0.38    0.50
C13         53.02   61.66   61.60          82.73  -15.93  -11.20          19.47   215.10            0.48     0.42     0.37            0.22     0.39     0.30           0.46    0.54
C14         57.61   49.85   54.01          75.98   24.68  -15.07          28.91   328.60            0.45     0.52     0.39            0.32     0.42     0.33           0.52    0.62
C15         66.58   69.61   31.63          86.80   -1.19   31.96          31.99   92.13            0.45     0.47     0.33            0.23     0.13     0.36           0.38    0.44
C16         42.42   44.62   36.59          72.64   -1.78    0.32           1.82   168.71            0.54     0.47     0.43            0.31     0.54     0.21           0.57    0.65
C17         53.32   47.07   32.43          74.23   21.48    9.07          23.32   22.90            0.38     0.40     0.44            0.26     0.27     0.32           0.41    0.49
C18         48.91   58.55   36.17          81.05  -19.56   15.40          24.90   141.78            0.52     0.49     0.35            0.27     0.46     0.37           0.56    0.65
C19         45.69   46.72   55.77          74.01    1.83  -20.32          20.41   275.15            0.67     0.62     0.53            0.40     0.48     0.55           0.71    0.83
C20         11.80    8.83    1.15          35.66   25.57   40.99          48.31   58.05            0.14     0.11     0.03            0.22     0.28     0.18           0.34    0.40
C21         21.28   19.99   10.83          51.82    9.82   15.30          18.18   57.33            0.29     0.29     0.24            0.33     0.50     0.37           0.62    0.70
C22         26.77   22.95   10.49          55.02   20.09   21.89          29.71   47.46            0.37     0.34     0.21            0.35     0.49     0.38           0.64    0.71
D1           3.99    4.32    2.36          24.71   -2.46    9.03           9.36   105.23            0.08     0.09     0.07            0.27     0.27     0.24           0.41    0.45
D2           3.98    4.34    1.50          24.75   -2.87   17.66          17.90   99.24            0.08     0.09     0.03            0.27     0.19     0.24           0.36    0.41
D3           3.98    4.35    0.86          24.80   -3.00   26.71          26.88   96.42            0.08     0.09     0.02            0.27     0.22     0.25           0.38    0.42
D4           4.01    4.38    0.26          24.89   -3.06   38.04          38.17   94.60            0.09     0.09     0.01            0.28     0.18     0.42           0.45    0.54
D5          16.82   18.11    9.02          49.63   -3.52   17.55          17.90   101.36            0.35     0.34     0.21            0.41     0.40     0.31           0.58    0.65
D6          16.83   18.24    4.92          49.78   -4.12   35.27          35.52   96.67            0.32     0.29     0.11            0.35     0.48     0.33           0.61    0.68
D7          16.65   18.06    2.37          49.57   -4.24   51.77          51.95   94.68            0.30     0.32     0.06            0.39     0.37     0.31           0.56    0.62
D8          16.57   18.24    0.70          49.79   -5.57   72.65          72.86   94.39            0.28     0.30     0.01            0.36     0.32     0.50           0.58    0.69
D9          44.92   47.71   24.26          74.64   -3.10   23.30          23.51   97.58            0.62     0.67     0.55            0.42     0.42     0.37           0.62    0.70
D10         44.77   48.08   13.75          74.88   -4.55   46.64          46.86   95.58            0.55     0.55     0.32            0.35     0.41     0.38           0.57    0.66
D11         44.60   48.05    6.98          74.86   -4.93   68.85          69.03   94.10            0.45     0.44     0.15            0.28     0.37     0.32           0.52    0.57
D12         44.46   47.97    3.50          74.81   -5.12   86.83          86.98   93.37            0.38     0.34     0.06            0.21     0.28     0.25           0.38    0.43
D13         46.95   57.04   60.95          80.20  -21.31  -14.93          26.02   215.02            0.45     0.40     0.39            0.23     0.42     0.32           0.48    0.58
D14         51.16   40.77   49.79          70.01   34.04  -20.70          39.84   328.70            0.40     0.43     0.38            0.30     0.39     0.31           0.46    0.58
D15         65.07   67.96   23.60          85.98   -1.02   44.06          44.07   91.33            0.36     0.38     0.30            0.19     0.13     0.34           0.34    0.41
D16         31.79   33.66   27.44          64.69   -2.40    0.57           2.49   166.10            0.44     0.47     0.47            0.37     0.49     0.31           0.60    0.69
D17         45.67   37.31   22.82          67.51   29.80   13.68          32.79   24.66            0.34     0.33     0.31            0.25     0.29     0.31           0.41    0.49
D18         41.78   52.78   28.34          77.74  -25.73   21.58          33.58   140.02            0.52     0.46     0.42            0.27     0.41     0.52           0.61    0.72
D19         35.86   36.17   51.84          66.65    3.32  -28.79          28.99   276.57            0.47     0.49     0.50            0.38     0.46     0.48           0.66    0.77
D20          2.97    3.02    1.08          20.13    0.98   15.18          15.22   86.31            0.04     0.04     0.02            0.17     0.25     0.20           0.32    0.36
D21         30.56   28.91    1.48          60.70   10.28   79.85          80.51   82.67            0.33     0.32     0.02            0.28     0.46     0.34           0.56    0.64
D22         39.45   42.71   54.89          71.36   -5.36  -23.97          24.56   257.41            0.60     0.60     0.64            0.41     0.54     0.53           0.75    0.86
E1           5.33    6.24    3.44          30.01   -7.87   10.01          12.73   128.16            0.11     0.13     0.10            0.31     0.24     0.29           0.43    0.49
E2           4.89    6.21    2.24          29.94  -12.99   19.09          23.09   124.23            0.09     0.11     0.06            0.27     0.21     0.32           0.42    0.47
E3           4.55    6.27    1.33          30.08  -18.00   28.98          34.11   121.85            0.09     0.12     0.04            0.30     0.25     0.27           0.40    0.48
E4           4.02    6.35    0.43          30.27  -26.16   44.04          51.23   120.71            0.08     0.11     0.01            0.27     0.20     0.31           0.37    0.46
E5          23.70   27.70   14.35          59.62  -12.73   18.75          22.67   124.18            0.48     0.50     0.32            0.46     0.45     0.36           0.66    0.74
E6          22.04   28.22    9.14          60.08  -22.22   35.13          41.56   122.32            0.41     0.49     0.24            0.44     0.36     0.34           0.58    0.66
E7          19.87   27.84    5.06          59.75  -31.16   51.72          60.38   121.07            0.33     0.40     0.13            0.36     0.34     0.31           0.53    0.59
E8          18.44   27.71    3.00          59.62  -37.91   64.15          74.51   120.58            0.23     0.26     0.06            0.24     0.27     0.26           0.39    0.45
E9          42.99   47.50   31.18          74.51   -8.15   11.46          14.07   125.43            0.58     0.64     0.61            0.41     0.44     0.31           0.60    0.67
E10         40.96   47.76   24.62          74.67  -14.95   22.69          27.18   123.37            0.53     0.55     0.45            0.35     0.42     0.33           0.55    0.64
E11         39.16   47.54   19.21          74.53  -19.96   33.08          38.64   121.11            0.47     0.50     0.34            0.31     0.37     0.34           0.53    0.60
E12         37.20   47.68   13.82          74.62  -26.63   46.01          53.16   120.07            0.38     0.38     0.23            0.24     0.37     0.38           0.49    0.59
E13         42.50   53.42   60.20          78.12  -25.17  -17.77          30.81   215.22            0.53     0.48     0.21            0.28     0.37     0.35           0.49    0.58
E14         45.62   33.61   45.76          64.65   41.99  -25.26          49.00   328.97            0.39     0.38     0.40            0.30     0.35     0.27           0.42    0.53
E15         64.11   66.65   18.23          85.33   -0.35   53.80          53.80   90.37            0.40     0.42     0.16            0.21     0.12     0.28           0.30    0.37
E16         23.52   24.88   20.12          56.95   -2.06    0.85           2.25   157.09            0.26     0.26     0.32            0.25     0.45     0.29           0.52    0.59
E17         39.39   29.79   15.93          61.47   37.06   17.98          41.20   25.88            0.31     0.25     0.21            0.22     0.18     0.32           0.36    0.43
E18         36.57   48.32   22.53          75.03  -30.44   27.19          40.82   138.22            0.42     0.46     0.30            0.29     0.41     0.46           0.58    0.68
E19         28.17   27.71   47.83          59.62    5.82  -36.37          36.83   279.09            0.41     0.40     0.25            0.37     0.42     0.40           0.59    0.69
E20          6.90    8.44    1.36          34.88  -11.70   36.84          38.65   107.62            0.09     0.10     0.02            0.19     0.38     0.24           0.40    0.49
E21         23.92   29.15    6.18          60.91  -17.36   48.32          51.35   109.77            0.30     0.31     0.11            0.27     0.56     0.28           0.58    0.68
E22          8.65   18.41   13.33          49.99  -60.58    4.86          60.77   175.41            0.09     0.14     0.26            0.17     0.11     0.47           0.40    0.51
F1           3.44    4.34    3.05          24.77  -11.21    3.67          11.80   161.86            0.07     0.08     0.08            0.26     0.21     0.31           0.40    0.45
F2           2.85    4.34    2.59          24.76  -21.12    7.21          22.32   161.15            0.05     0.07     0.06            0.23     0.16     0.26           0.34    0.39
F3           2.35    4.39    2.22          24.90  -31.30   10.61          33.05   161.27            0.05     0.09     0.07            0.27     0.27     0.28           0.40    0.47
F4           1.50    4.39    1.49          24.92  -51.50   18.04          54.57   160.70            0.03     0.08     0.04            0.25     0.28     0.22           0.38    0.43
F5          11.09   14.23    9.70          44.56  -17.84    6.44          18.97   160.15            0.23     0.26     0.25            0.37     0.33     0.42           0.59    0.65
F6           9.03   14.48    8.15          44.91  -35.50   12.56          37.66   160.51            0.15     0.21     0.17            0.29     0.32     0.36           0.50    0.56
F7           7.39   14.79    6.92          45.35  -52.04   18.25          55.15   160.68            0.11     0.19     0.14            0.26     0.26     0.27           0.39    0.46
F8           5.62   14.22    5.56          44.55  -67.09   23.04          70.94   161.05            0.09     0.16     0.14            0.23     0.08     0.37           0.39    0.45
F9          28.49   33.35   25.23          64.44  -13.74    3.96          14.30   163.88            0.53     0.53     0.42            0.42     0.50     0.33           0.64    0.74
F10         25.58   33.44   22.61          64.52  -25.77    8.93          27.28   160.88            0.43     0.45     0.33            0.36     0.48     0.23           0.55    0.64
F11         23.02   33.55   20.77          64.60  -37.26   12.69          39.36   161.19            0.34     0.40     0.29            0.32     0.39     0.36           0.52    0.62
F12         20.01   33.25   18.53          64.36  -50.33   16.98          53.12   161.36            0.26     0.33     0.22            0.26     0.35     0.38           0.47    0.58
F13         38.63   50.17   59.65          76.18  -28.72  -20.57          35.33   215.61            0.41     0.44     0.52            0.27     0.36     0.34           0.47    0.56
F14         40.64   27.73   41.77          59.64   48.86  -28.98          56.81   329.33            0.34     0.35     0.29            0.32     0.32     0.21           0.39    0.49
F15         63.22   65.28   14.26          84.63    0.64   62.11          62.11   89.41            0.28     0.31     0.17            0.16     0.14     0.25           0.26    0.33
F16         16.39   17.43   14.01          48.80   -2.33    0.99           2.55   156.72            0.23     0.21     0.18            0.26     0.43     0.25           0.48    0.56
F17         33.76   23.54   10.64          55.63   43.67   22.45          49.11   27.21            0.26     0.18     0.11            0.18     0.18     0.30           0.31    0.39
F18         31.78   43.88   17.71          72.15  -34.57   32.23          47.26   137.01            0.35     0.34     0.28            0.23     0.31     0.50           0.52    0.63
F19         21.65   20.64   43.94          52.55    8.44  -43.92          44.72   280.88            0.24     0.21     0.53            0.24     0.33     0.45           0.50    0.61
