targets/wolf_faust/transmissive/V040221.it8
IT8.7/1
ORIGINATOR "Wolf Faust"
DESCRIPTOR "Velvia (RVP 50), Type 3, L* a* b* (light D50, viewing angle 2)"
MANUFACTURER "Wolf Faust - http://www.coloraid.de"
CREATED "May 04, 2004"
PROD_DATE "2004:03"
DIFFUSE_GEOMETRY "opal"
SERIAL "V040221 Batch Average Data"
MATERIAL "For Fujichrome Velvia (RVP 50) Film"
KEYWORD "MEAN_DE" # Mean Delta E of samples compared to batch average
NUMBER_OF_FIELDS 17
BEGIN_DATA_FORMAT
SAMPLE_ID   XYZ_X   XYZ_Y   XYZ_Z          LAB_L   LAB_A   LAB_B          LAB_C   LAB_H          STDEV_X  STDEV_Y  STDEV_Z          STDEV_L  STDEV_A  STDEV_B        MEAN_DE  STDEV_DE
END_DATA_FORMAT
NUMBER_OF_SETS 288
BEGIN_DATA
A1           2.29    1.97    1.37          15.33    8.72    3.06           9.25   19.34            0.06     0.07     0.06            0.36     0.41     0.30           0.55    0.62
A2           2.85    1.97    1.13          15.35   19.53    6.26          20.51   17.78            0.06     0.06     0.05            0.34     0.29     0.25           0.44    0.51 
A3           3.38    1.95    0.96          15.22   29.07    8.48          30.28   16.27            0.07     0.06     0.04            0.31     0.20     0.32           0.44    0.49
A4           4.74    2.01    0.69          15.54   47.17   13.73          49.13   16.22            0.06     0.03     0.02            0.15     0.18     0.30           0.34    0.38 
A5          10.10    8.76    6.18          35.52   13.64    4.53          14.38   18.36            0.21     0.26     0.22            0.52     0.63     0.47           0.82    0.94
A6          12.04    8.71    5.23          35.42   28.23    8.93          29.61   17.55            0.23     0.23     0.19            0.46     0.46     0.40           0.66    0.76 
A7          14.25    8.71    4.48          35.41   42.72   12.91          44.63   16.81            0.22     0.19     0.18            0.38     0.33     0.55           0.67    0.75
A8          17.39    8.77    3.73          35.54   60.35   17.61          62.87   16.27            0.21     0.15     0.15            0.30     0.12     0.54           0.54    0.63 
A9          29.14   28.20   21.95          60.06    7.67    2.54           8.08   18.32            0.70     0.95     0.92            0.85     1.05     0.52           1.31    1.45
A10         31.84   29.04   21.47          60.81   14.51    4.78          15.28   18.25            0.78     1.02     0.87            0.90     1.11     0.42           1.29    1.49
A11         34.42   29.49   20.27          61.21   21.89    7.87          23.27   19.78            0.75     0.94     0.79            0.82     1.05     0.47           1.23    1.41
A12         39.37   29.05   18.02          60.83   39.79   12.03          41.57   16.82            0.63     0.72     0.67            0.64     0.77     0.53           0.99    1.13 
A13         74.16   77.25   65.10          90.43   -0.66   -1.30           1.46   243.24            0.20     0.14     0.07            0.07     0.13     0.09           0.15    0.17
A14         75.93   76.72   64.50          90.19    4.00   -1.14           4.16   344.18            0.21     0.36     0.13            0.17     0.30     0.18           0.32    0.39 
A15         76.39   78.77   59.16          91.13    0.88    5.71           5.77   81.18            0.11     0.09     0.44            0.04     0.04     0.38           0.32    0.39
A16         74.74   77.71   64.64          90.65   -0.40   -0.49           0.63   230.79            0.15     0.10     0.10            0.05     0.10     0.07           0.12    0.13
A17         76.27   77.69   63.26          90.64    2.78    0.81           2.90   16.36            0.23     0.32     0.26            0.15     0.19     0.06           0.20    0.25
A18         71.64   75.64   60.13          89.69   -2.70    2.25           3.52   140.24            0.36     0.28     0.44            0.13     0.21     0.24           0.29    0.34 
A19         73.44   75.80   64.72          89.77    0.74   -2.08           2.21   289.27            0.22     0.30     0.10            0.14     0.17     0.16           0.24    0.27
A20          2.10    1.30    0.45          11.24   22.24   10.90          24.77   26.11            0.03     0.03     0.02            0.21     0.16     0.19           0.27    0.32 
A21          5.77    3.09    0.45          20.41   38.65   26.61          46.92   34.54            0.11     0.08     0.02            0.29     0.04     0.10           0.25    0.31
A22         10.66    5.20    0.38          27.31   53.29   39.97          66.61   36.87            0.16     0.09     0.02            0.26     0.07     0.18           0.26    0.32
B1           3.37    3.04    1.70          20.21    7.34    7.61          10.58   46.06            0.08     0.11     0.08            0.42     0.51     0.40           0.67    0.77
B2           4.00    3.06    1.08          20.28   16.69   15.42          22.73   42.74            0.08     0.09     0.06            0.36     0.47     0.43           0.64    0.73
B3           4.53    2.99    0.63          19.99   25.25   22.59          33.88   41.82            0.07     0.07     0.03            0.28     0.30     0.22           0.41    0.47
B4           5.92    3.17    0.07          20.71   39.00   34.46          52.05   41.46            0.10     0.07     0.00            0.25     0.07     0.38           0.34    0.46
B5          12.94   11.66    6.48          40.66   11.73   12.06          16.83   45.84            0.29     0.38     0.27            0.61     0.74     0.39           0.88    1.03
B6          14.88   11.62    4.25          40.61   24.18   23.21          33.52   43.83            0.27     0.33     0.17            0.53     0.70     0.34           0.80    0.95
B7          17.29   11.61    2.67          40.59   38.01   33.85          50.90   41.69            0.26     0.28     0.11            0.45     0.60     0.39           0.72    0.85
B8          20.95   11.49    1.03          40.39   57.53   50.83          76.77   41.46            0.26     0.21     0.05            0.34     0.26     0.28           0.43    0.51
B9          34.89   34.68   25.73          65.49    5.01    4.90           7.02   44.84            0.75     1.08     1.05            0.85     1.13     0.47           1.35    1.49
B10         36.71   34.79   23.06          65.58   10.73    9.92          14.63   42.92            0.73     1.07     0.92            0.84     1.23     0.38           1.39    1.53
B11         38.28   34.59   19.98          65.42   16.51   15.75          22.83   43.70            0.70     1.01     0.74            0.79     1.17     0.27           1.29    1.43
B12         43.74   34.98   14.38          65.73   31.89   29.21          43.25   42.50            0.68     0.85     0.51            0.66     0.88     0.34           1.00    1.15
B13         62.23   68.06   61.85          86.04   -7.72   -5.75           9.63   216.68            0.35     0.43     0.29            0.22     0.22     0.12           0.30    0.33
B14         67.32   64.28   59.14          84.11   12.06   -6.37          13.64   332.16            0.82     1.22     0.56            0.63     0.93     0.53           1.04    1.24
B15         69.67   72.15   45.69          88.04    0.23   15.16          15.17   89.16            0.55     0.72     0.90            0.34     0.34     0.51           0.60    0.70
B16         58.04   60.61   49.08          82.17   -0.96    1.06           1.58   125.66            0.75     1.11     0.95            0.60     0.81     0.16           0.87    1.02
B17         64.96   62.77   46.79          83.32   10.22    5.71          11.72   29.31            0.92     1.29     0.96            0.68     0.88     0.20           0.96    1.14
B18         60.09   66.68   48.08          85.34   -9.73    7.69          12.41   141.74            0.55     0.60     0.93            0.30     0.13     0.57           0.59    0.66
B19         60.12   61.99   60.07          82.91    0.81   -9.38           9.43   274.76            0.66     1.00     0.43            0.53     0.75     0.49           0.90    1.05
B20          3.92    2.54    0.59          18.07   25.04   20.11          32.12   38.77            0.07     0.06     0.03            0.27     0.22     0.19           0.35    0.40
B21          9.77    4.85    0.41          26.32   50.68   37.72          63.18   36.66            0.17     0.10     0.02            0.29     0.12     0.17           0.30    0.36
B22         33.26   29.18   16.24          60.93   19.02   16.34          25.08   40.68            0.77     0.97     0.73            0.86     1.00     0.37           1.22    1.36
C1           6.39    6.34    3.35          30.26    2.93   11.02          11.42   75.14            0.15     0.22     0.14            0.52     0.71     0.34           0.81    0.94
C2           6.90    6.34    2.10          30.26    8.16   20.95          22.49   68.75            0.15     0.21     0.09            0.51     0.70     0.35           0.77    0.93
C3           7.35    6.32    1.14          30.21   12.77   31.72          34.19   68.08            0.16     0.21     0.06            0.51     0.66     0.29           0.74    0.88
C4           8.14    6.43    0.23          30.46   19.07   48.17          51.81   68.39            0.21     0.23     0.01            0.55     0.53     0.76           0.80    1.07
C5          24.33   23.47   11.71          55.55    7.54   19.05          20.51   68.45            0.57     0.79     0.50            0.80     1.01     0.32           1.18    1.33
C6          26.18   23.47    6.44          55.55   15.38   37.89          40.91   67.92            0.53     0.73     0.27            0.74     1.04     0.30           1.12    1.31
C7          28.54   24.00    3.27          56.08   22.50   56.13          60.48   68.15            0.52     0.71     0.15            0.71     1.08     0.43           1.16    1.36
C8          31.90   23.72    0.52          55.81   36.28   86.47          93.77   67.24            0.50     0.58     0.02            0.58     0.75     0.62           0.94    1.13
C9          41.38   41.91   28.58          70.80    2.98    9.22           9.72   72.32            0.97     1.32     1.09            0.91     1.05     0.40           1.25    1.45
C10         42.02   41.63   24.70          70.61    5.74   15.55          16.60   69.85            0.88     1.23     0.90            0.85     1.14     0.39           1.28    1.48
C11         42.85   41.03   19.34          70.19   10.06   25.30          27.24   68.35            0.68     1.06     0.68            0.74     1.20     0.29           1.31    1.44
C12         48.41   41.62    7.26          70.61   24.10   60.38          65.02   68.24            0.64     0.89     0.23            0.62     0.91     0.29           0.97    1.14
C13         54.65   62.89   61.56          83.39  -14.61  -10.04          17.73   214.49            0.35     0.35     0.20            0.18     0.15     0.14           0.24    0.28
C14         58.85   51.08   54.33          76.73   24.43  -14.11          28.21   329.98            0.89     1.26     0.59            0.76     1.15     0.69           1.41    1.55
C15         67.16   69.90   32.42          86.95   -0.52   31.02          31.02   90.97            0.51     0.71     0.81            0.35     0.39     0.63           0.73    0.82
C16         44.84   46.66   37.83          73.96   -0.42    0.90           1.35   111.73            0.90     1.26     1.07            0.81     0.97     0.30           1.13    1.30
C17         54.82   48.62   33.40          75.21   21.05    9.32          23.03   23.91            0.95     1.26     1.06            0.79     1.00     0.29           1.18    1.30
C18         50.83   60.04   37.32          81.86  -17.92   15.22          23.52   139.69            0.54     0.50     0.93            0.27     0.28     0.85           0.78    0.93
C19         47.93   48.50   56.17          75.13    3.24  -18.80          19.10   279.68            0.87     1.28     0.58            0.81     1.09     0.79           1.35    1.57
C20          2.76    2.18    0.85          16.42   13.12   12.42          18.06   43.43            0.05     0.06     0.04            0.30     0.34     0.25           0.47    0.52
C21         27.50   21.81    7.82          53.82   28.15   29.22          40.57   46.07            0.60     0.67     0.32            0.71     0.70     0.29           0.91    1.04
C22         40.45   38.31   23.84          68.24   11.15   13.06          17.18   49.58            0.89     1.18     0.94            0.87     1.03     0.40           1.21    1.41
D1           4.33    4.62    2.41          25.63   -1.74   10.19          10.36   99.63            0.11     0.17     0.10            0.50     0.70     0.32           0.77    0.92
D2           4.22    4.48    1.48          25.19   -1.38   18.67          18.73   94.22            0.11     0.17     0.07            0.52     0.75     0.32           0.79    0.97
D3           4.21    4.51    0.89          25.30   -2.00   27.11          27.19   94.22            0.11     0.18     0.05            0.54     0.77     0.23           0.82    0.97
D4           4.19    4.53    0.26          25.35   -2.47   38.80          38.88   93.62            0.13     0.20     0.01            0.59     0.73     0.78           0.86    1.22
D5          17.58   18.44    9.10          50.01   -1.05   17.92          17.97   93.33            0.46     0.67     0.38            0.79     0.98     0.32           1.12    1.30
D6          17.55   18.64    5.03          50.25   -2.24   35.55          35.63   93.60            0.43     0.65     0.21            0.77     1.02     0.36           1.13    1.33
D7          17.80   18.93    2.44          50.60   -2.37   52.96          53.02   92.56            0.41     0.62     0.11            0.73     1.00     0.39           1.12    1.29
D8          17.73   19.08    0.70          50.77   -3.46   74.33          74.41   92.66            0.35     0.52     0.02            0.61     0.78     0.65           1.03    1.18
D9          47.22   49.76   25.69          75.92   -2.10   22.94          23.05   95.26            0.86     1.21     0.84            0.75     0.94     0.39           1.09    1.26
D10         46.87   49.64   14.11          75.84   -2.74   47.35          47.44   93.31            0.67     1.01     0.43            0.62     0.97     0.35           1.05    1.20
D11         46.51   49.44    7.06          75.72   -3.22   70.03          70.11   92.63            0.56     0.80     0.20            0.49     0.75     0.31           0.83    0.95
D12         45.93   48.93    3.48          75.41   -3.50   87.98          88.05   92.28            0.39     0.40     0.11            0.25     0.29     0.46           0.53    0.60
D13         48.62   58.42   61.07          80.97  -20.01  -13.72          24.26   214.43            0.40     0.36     0.24            0.20     0.25     0.17           0.30    0.36
D14         52.08   41.52   50.02          70.53   34.19  -20.06          39.64   329.60            0.82     1.08     0.61            0.75     1.09     0.61           1.33    1.46
D15         65.80   68.47   24.18          86.24   -0.50   43.45          43.45   90.66            0.43     0.58     0.56            0.29     0.30     0.55           0.58    0.69
D16         33.75   35.21   28.39          65.91   -0.70    1.09           1.53   119.96            0.71     0.97     0.89            0.76     0.83     0.36           1.02    1.18
D17         46.84   38.39   23.44          68.30   29.67   13.90          32.76   25.10            0.75     0.94     0.82            0.68     0.84     0.43           1.04    1.17
D18         43.53   54.25   29.07          78.61  -24.22   21.88          32.65   137.93            0.52     0.48     0.87            0.28     0.35     0.96           0.89    1.06
D19         37.53   37.28   52.00          67.48    5.25  -27.54          28.05   280.73            0.77     1.11     0.62            0.83     1.21     0.85           1.46    1.69
D20         17.76   14.43    5.17          44.83   22.28   25.46          33.84   48.82            0.40     0.45     0.22            0.64     0.63     0.35           0.83    0.96
D21         26.46   26.15   16.50          58.17    5.17   10.96          12.14   64.84            0.67     0.87     0.69            0.83     0.84     0.40           1.07    1.24
D22         44.22   43.52   26.31          71.90    6.71   14.93          16.38   65.88            0.95     1.27     0.92            0.86     1.00     0.33           1.18    1.36
E1           5.63    6.40    3.47          30.40   -6.09   10.45          12.11   120.15            0.16     0.25     0.14            0.59     0.78     0.43           0.90    1.07
E2           5.04    6.26    2.20          30.04  -11.57   19.67          22.83   120.45            0.14     0.23     0.09            0.57     0.80     0.42           0.89    1.07
E3           4.60    6.23    1.29          29.97  -16.82   29.25          33.75   119.88            0.13     0.24     0.06            0.58     0.84     0.34           0.93    1.08
E4           4.37    6.73    0.44          31.18  -25.09   45.39          51.87   118.93            0.14     0.25     0.02            0.58     0.64     0.69           0.83    1.11
E5          25.04   28.83   14.85          60.63  -11.31   19.22          22.32   120.45            0.60     0.93     0.61            0.82     1.02     0.32           1.21    1.35
E6          22.86   28.66    9.42          60.48  -20.18   34.85          40.27   120.06            0.49     0.83     0.35            0.74     1.00     0.30           1.14    1.27
E7          20.93   28.85    5.22          60.65  -29.91   52.45          60.38   119.69            0.34     0.58     0.16            0.51     0.65     0.24           0.76    0.86
E8          19.56   28.87    3.17          60.67  -36.66   64.69          74.36   119.54            0.29     0.37     0.12            0.32     0.19     0.43           0.51    0.57
E9          45.19   49.42   32.29          75.71   -6.93   11.84          13.75   120.30            0.82     1.15     1.00            0.71     0.85     0.45           1.03    1.20
E10         43.03   49.26   26.00          75.61  -12.78   21.86          25.33   120.31            0.68     0.99     0.78            0.61     0.79     0.44           0.95    1.09
E11         40.90   49.09   20.22          75.50  -18.74   32.63          37.63   119.87            0.61     0.84     0.59            0.52     0.51     0.43           0.74    0.85
E12         37.98   48.36   14.22          75.05  -25.94   45.69          52.54   119.59            0.51     0.51     0.44            0.32     0.30     0.64           0.70    0.78
E13         43.88   54.61   60.35          78.82  -24.09  -16.71          29.32   214.75            0.46     0.46     0.45            0.27     0.28     0.18           0.36    0.43
E14         46.05   33.75   45.71          64.76   42.72  -25.02          49.51   329.65            0.69     0.84     0.55            0.67     0.95     0.51           1.15    1.27
E15         64.51   66.75   18.14          85.37    0.34   54.08          54.08   89.64            0.44     0.62     0.48            0.31     0.36     0.54           0.66    0.72
E16         24.74   25.73   20.51          57.78   -0.29    1.47           1.69   103.39            0.60     0.79     0.72            0.76     0.82     0.32           1.01    1.16
E17         40.06   30.28   16.06          61.89   37.34   18.40          41.63   26.24            0.64     0.74     0.59            0.64     0.76     0.41           0.96    1.07
E18         37.93   49.42   22.62          75.71  -28.95   28.21          40.42   135.75            0.53     0.50     0.69            0.31     0.39     0.84           0.84    0.98
E19         29.23   28.17   47.99          60.04    8.15  -35.84          36.77   282.78            0.62     0.88     0.56            0.80     1.06     0.73           1.28    1.51
E20         24.88   17.56    1.29          48.96   38.32   62.04          72.93   58.30            0.45     0.48     0.06            0.59     0.64     0.30           0.78    0.92
E21         21.98   18.90    4.66          50.56   18.52   38.03          42.31   64.04            0.45     0.56     0.18            0.66     0.79     0.28           0.90    1.06
E22         34.09   30.54   11.36          62.11   16.84   31.41          35.65   61.82            0.57     0.78     0.40            0.66     0.92     0.14           0.97    1.15
F1           3.58    4.46    3.11          25.13  -10.47    3.85          11.16   159.81            0.09     0.16     0.11            0.48     0.65     0.29           0.68    0.86
F2           2.91    4.30    2.57          24.64  -19.56    7.14          20.82   159.93            0.09     0.17     0.12            0.55     0.68     0.31           0.74    0.92
F3           2.46    4.48    2.24          25.18  -30.43   10.92          32.33   160.26            0.09     0.19     0.10            0.58     0.67     0.40           0.77    0.97
F4           1.59    4.62    1.58          25.62  -52.13   18.28          55.24   160.67            0.06     0.18     0.08            0.53     0.65     0.19           0.72    0.86
F5          11.35   14.34    9.85          44.71  -16.62    6.20          17.75   159.51            0.28     0.48     0.37            0.67     0.87     0.36           1.01    1.15
F6           9.31   14.81    8.39          45.37  -35.18   12.49          37.33   160.45            0.29     0.54     0.29            0.75     0.87     0.40           1.02    1.21
F7           7.66   14.90    6.97          45.49  -50.13   18.26          53.36   159.98            0.18     0.39     0.22            0.53     0.60     0.17           0.72    0.82
F8           5.76   14.45    5.62          44.87  -66.97   23.26          70.89   160.84            0.13     0.22     0.14            0.31     0.11     0.24           0.36    0.41
F9          30.21   34.83   26.03          65.61  -12.18    4.58          13.02   159.33            0.75     1.06     0.85            0.83     0.87     0.29           1.07    1.24
F10         26.91   35.00   22.98          65.74  -25.60   10.34          27.61   157.98            0.59     0.92     0.74            0.72     0.78     0.31           0.95    1.10
F11         24.38   35.11   21.60          65.83  -36.57   13.17          38.87   160.19            0.49     0.74     0.63            0.58     0.43     0.38           0.71    0.81
F12         20.92   34.19   19.13          65.11  -49.17   17.01          52.03   160.93            0.42     0.47     0.62            0.38     0.41     0.72           0.77    0.91
F13         39.69   51.11   59.73          76.75  -27.84  -19.66          34.08   215.24            0.31     0.29     0.20            0.17     0.28     0.20           0.33    0.39
F14         40.76   27.57   41.57          59.50   49.84  -28.96          57.65   329.84            0.55     0.63     0.47            0.57     0.77     0.40           0.95    1.04
F15         63.83   65.66   14.42          84.82    1.20   62.03          62.04   88.90            0.34     0.49     0.37            0.25     0.32     0.54           0.58    0.68
F16         17.43   18.20   14.69          49.73   -0.63    0.83           1.28   122.38            0.47     0.63     0.52            0.76     0.81     0.42           1.04    1.19
F17         34.35   23.96   10.90          56.04   43.91   22.38          49.29   27.00            0.50     0.54     0.42            0.54     0.62     0.57           0.89    1.00
F18         32.88   44.85   17.98          72.79  -33.42   32.74          46.79   135.59            0.53     0.52     0.59            0.34     0.41     0.80           0.82    0.96
F19         22.22   20.77   43.86          52.69   10.46  -43.56          44.81   283.49            0.52     0.70     0.54            0.77     0.97     0.67           1.19    1.41
