targets/wolf_faust/transmissive/V040511.it8
IT8.7/1
ORIGINATOR "Wolf Faust"
DESCRIPTOR "Velvia (RVP 50), Type 3, L* a* b* (light D50, viewing angle 2)"
MANUFACTURER "Wolf Faust - http://www.coloraid.de"
CREATED "September 10, 2004"
PROD_DATE "2004:05"
DIFFUSE_GEOMETRY "opal"
SERIAL "V040511 Batch Average Data"
MATERIAL "For Fujichrome Velvia (RVP 50) Film"
KEYWORD "MEAN_DE" # Mean Delta E of samples compared to batch average
NUMBER_OF_FIELDS 17
BEGIN_DATA_FORMAT
SAMPLE_ID   XYZ_X   XYZ_Y   XYZ_Z          LAB_L   LAB_A   LAB_B          LAB_C   LAB_H          STDEV_X  STDEV_Y  STDEV_Z          STDEV_L  STDEV_A  STDEV_B        MEAN_DE  STDEV_DE
END_DATA_FORMAT
NUMBER_OF_SETS 288
BEGIN_DATA
A1           2.16    1.84    1.31          14.59    9.15    2.43           9.47   14.92            0.06     0.05     0.04            0.26     0.19     0.26           0.38    0.41
A2           2.62    1.83    1.11          14.55   18.58    5.13          19.28   15.42            0.06     0.04     0.04            0.23     0.25     0.27           0.40    0.43 
A3           3.16    1.82    0.93          14.50   28.57    7.82          29.63   15.31            0.07     0.04     0.03            0.24     0.21     0.29           0.39    0.43
A4           4.31    1.85    0.66          14.65   45.38   12.72          47.13   15.66            0.08     0.04     0.02            0.20     0.24     0.37           0.42    0.48 
A5           9.46    8.28    5.96          34.56   12.64    3.89          13.24   17.15            0.22     0.18     0.15            0.35     0.43     0.36           0.58    0.66
A6          11.38    8.32    4.98          34.65   26.96    8.89          28.39   18.26            0.27     0.19     0.14            0.37     0.44     0.33           0.58    0.66 
A7          13.27    8.19    4.26          34.37   41.03   12.40          42.87   16.81            0.30     0.18     0.12            0.36     0.40     0.39           0.58    0.67
A8          16.90    8.48    3.47          34.97   60.13   18.31          62.86   16.94            0.10     0.06     0.09            0.13     0.07     0.44           0.39    0.46 
A9          28.08   27.60   21.19          59.52    5.89    3.08           6.67   27.89            0.49     0.44     0.38            0.39     0.55     0.27           0.66    0.73
A10         30.06   27.53   19.91          59.46   13.78    5.59          14.88   22.12            0.48     0.40     0.35            0.35     0.56     0.29           0.65    0.73
A11         32.09   27.47   19.06          59.40   21.47    7.29          22.68   18.77            0.50     0.39     0.35            0.35     0.51     0.32           0.63    0.70
A12         37.89   27.71   16.86          59.63   40.26   12.60          42.19   17.38            0.23     0.25     0.31            0.23     0.25     0.36           0.40    0.49 
A13         70.38   74.36   64.54          89.09   -2.79   -3.08           4.16   227.79            0.35     0.28     0.23            0.13     0.23     0.18           0.28    0.32
A14         73.93   74.04   63.61          88.94    5.30   -2.45           5.84   335.22            0.25     0.31     0.24            0.15     0.20     0.13           0.25    0.28 
A15         75.31   77.69   58.36          90.64    0.83    5.67           5.73   81.64            0.16     0.17     0.27            0.08     0.04     0.23           0.21    0.25
A16         73.44   76.49   63.94          90.09   -0.65   -0.79           1.03   230.77            0.27     0.24     0.21            0.11     0.15     0.13           0.21    0.23
A17         73.33   73.72   60.42          88.79    4.71    0.41           4.73    5.03            0.24     0.30     0.28            0.14     0.16     0.13           0.23    0.25
A18         69.50   73.86   58.78          88.86   -3.67    2.18           4.28   149.32            0.38     0.29     0.36            0.14     0.26     0.25           0.35    0.39 
A19         71.01   73.11   63.77          88.50    1.09   -3.36           3.54   287.95            0.40     0.37     0.17            0.17     0.15     0.23           0.28    0.32
A20          6.12    2.90    1.79          19.65   45.78    5.69          46.13    7.09            0.14     0.07     0.05            0.27     0.36     0.40           0.54    0.60 
A21         25.48   18.00   13.63          49.50   38.56    3.18          38.69    4.72            0.40     0.27     0.29            0.32     0.48     0.36           0.63    0.68
A22         52.94   47.90   30.43          74.76   18.21   13.06          22.42   35.66            0.45     0.50     0.51            0.31     0.32     0.34           0.52    0.56
B1           3.16    2.87    1.60          19.50    6.99    7.44          10.22   46.85            0.07     0.06     0.05            0.24     0.27     0.23           0.39    0.43
B2           3.71    2.87    1.06          19.49   15.79   14.32          21.32   42.21            0.07     0.05     0.03            0.21     0.30     0.22           0.38    0.43
B3           4.30    2.88    0.66          19.56   24.08   21.28          32.13   41.47            0.09     0.06     0.02            0.24     0.30     0.23           0.39    0.45
B4           5.27    2.86    0.08          19.49   36.75   32.13          48.81   41.16            0.11     0.06     0.00            0.23     0.27     0.37           0.43    0.52
B5          12.15   11.01    6.30          39.60   10.97   11.03          15.57   45.19            0.25     0.21     0.16            0.34     0.47     0.34           0.61    0.67
B6          14.03   11.00    4.10          39.57   23.44   22.27          32.34   43.54            0.25     0.19     0.12            0.30     0.51     0.45           0.66    0.75
B7          16.44   11.08    2.53          39.72   37.07   33.49          49.96   42.10            0.31     0.20     0.07            0.32     0.46     0.37           0.58    0.68
B8          20.69   11.34    1.03          40.14   57.34   50.45          76.37   41.34            0.10     0.08     0.02            0.13     0.10     0.22           0.24    0.27
B9          32.98   33.14   24.07          64.27    3.68    5.77           6.87   57.73            0.56     0.51     0.42            0.40     0.60     0.33           0.71    0.80
B10         34.85   33.32   21.74          64.42    9.54   10.44          14.15   47.64            0.57     0.49     0.39            0.38     0.51     0.37           0.66    0.74
B11         36.39   33.13   19.49          64.26   15.35   14.75          21.30   43.88            0.58     0.50     0.34            0.39     0.54     0.35           0.67    0.76
B12         42.34   33.62   13.69          64.66   32.37   29.18          43.58   42.04            0.28     0.33     0.27            0.26     0.31     0.33           0.42    0.52
B13         60.88   67.05   61.85          85.53   -8.69   -6.62          10.93   217.33            0.67     0.60     0.38            0.30     0.32     0.25           0.42    0.51
B14         65.40   62.06   58.52          82.94   12.83   -7.76          14.99   328.83            0.40     0.46     0.25            0.24     0.24     0.21           0.34    0.40
B15         68.54   71.23   44.85          87.60   -0.32   15.40          15.40   91.21            0.38     0.35     0.41            0.17     0.16     0.32           0.35    0.40
B16         55.88   58.49   48.31          81.01   -1.29   -0.05           1.33   182.33            0.56     0.52     0.49            0.28     0.36     0.30           0.48    0.54
B17         62.95   60.44   45.83          82.08   11.00    4.71          11.97   23.20            0.37     0.39     0.40            0.21     0.22     0.22           0.34    0.37
B18         58.48   65.41   47.63          84.70  -10.81    7.09          12.93   146.74            0.47     0.38     0.45            0.19     0.30     0.40           0.49    0.53
B19         57.80   59.73   59.39          81.69    0.51  -10.80          10.82   272.68            0.59     0.58     0.24            0.31     0.37     0.34           0.54    0.59
B20          4.74    2.87    0.95          19.51   30.03   16.12          34.08   28.23            0.11     0.06     0.02            0.24     0.34     0.32           0.47    0.53
B21         16.13   10.87    3.89          39.36   36.85   23.21          43.55   32.20            0.28     0.17     0.08            0.28     0.48     0.30           0.56    0.63
B22         32.19   27.58   16.49          59.50   21.42   13.26          25.20   31.77            0.46     0.35     0.30            0.31     0.55     0.31           0.65    0.71
C1           6.13    6.15    3.41          29.78    2.25    9.79          10.06   77.06            0.14     0.13     0.09            0.31     0.37     0.27           0.50    0.55
C2           6.46    6.05    2.08          29.54    6.81   19.84          20.98   71.06            0.12     0.10     0.05            0.23     0.35     0.26           0.45    0.50
C3           6.86    6.03    1.12          29.47   11.19   30.66          32.64   69.95            0.13     0.11     0.02            0.26     0.35     0.22           0.45    0.49
C4           7.72    6.17    0.24          29.84   17.90   46.90          50.20   69.12            0.14     0.11     0.00            0.26     0.34     0.39           0.51    0.58
C5          23.31   22.71   11.13          54.77    6.44   19.45          20.50   71.70            0.44     0.40     0.24            0.40     0.56     0.27           0.66    0.74
C6          24.56   22.28    6.29          54.32   13.81   36.44          38.97   69.24            0.39     0.36     0.16            0.36     0.57     0.32           0.67    0.75
C7          26.52   22.44    3.07          54.49   21.34   54.80          58.81   68.72            0.39     0.32     0.07            0.32     0.53     0.30           0.62    0.69
C8          30.10   22.60    0.55          54.65   34.64   83.91          90.78   67.56            0.40     0.28     0.01            0.28     0.44     0.40           0.56    0.65
C9          39.26   40.09   26.98          69.53    1.91    9.69           9.90   78.92            0.62     0.58     0.45            0.40     0.55     0.36           0.70    0.77
C10         40.17   39.99   23.70          69.46    5.06   15.40          16.22   71.83            0.56     0.51     0.43            0.35     0.54     0.44           0.70    0.78
C11         41.55   40.26   19.46          69.65    8.47   24.12          25.57   70.67            0.60     0.53     0.35            0.37     0.52     0.31           0.63    0.71
C12         47.35   40.61    7.62          69.90   24.21   57.70          62.58   67.24            0.26     0.35     0.14            0.24     0.32     0.27           0.39    0.48
C13         52.83   61.41   61.39          82.60  -15.86  -11.23          19.43   215.30            0.49     0.40     0.19            0.21     0.35     0.26           0.42    0.48
C14         57.44   49.70   53.86          75.88   24.66  -15.07          28.90   328.57            0.40     0.49     0.28            0.29     0.35     0.24           0.42    0.52
C15         66.11   69.09   31.60          86.55   -1.11   31.57          31.59   92.02            0.33     0.31     0.34            0.15     0.14     0.36           0.37    0.41
C16         42.24   44.30   36.33          72.42   -1.39    0.32           1.48   165.96            0.57     0.53     0.53            0.34     0.53     0.32           0.63    0.70
C17         53.05   46.82   32.17          74.07   21.47    9.19          23.36   23.18            0.35     0.41     0.44            0.25     0.27     0.31           0.42    0.48
C18         48.61   58.18   36.00          80.84  -19.46   15.28          24.74   141.87            0.54     0.45     0.46            0.25     0.42     0.45           0.59    0.66
C19         45.30   46.25   55.37          73.70    2.05  -20.43          20.55   275.71            0.59     0.62     0.30            0.40     0.51     0.40           0.69    0.75
C20         11.57    8.59    1.13          35.19   25.97   40.46          48.08   57.31            0.20     0.13     0.02            0.24     0.46     0.24           0.49    0.57
C21         20.95   19.73   10.74          51.53    9.52   15.07          17.84   57.75            0.31     0.25     0.21            0.28     0.54     0.34           0.62    0.70
C22         26.41   22.47   10.33          54.53   20.72   21.57          29.91   46.16            0.39     0.29     0.18            0.29     0.54     0.27           0.60    0.67
D1           4.00    4.27    2.35          24.54   -1.71    8.85           9.03   100.85            0.07     0.07     0.06            0.22     0.32     0.31           0.44    0.49
D2           3.99    4.29    1.50          24.61   -2.10   17.48          17.61   96.84            0.09     0.08     0.04            0.25     0.32     0.21           0.41    0.46
D3           3.99    4.32    0.86          24.70   -2.51   26.55          26.67   95.40            0.08     0.08     0.02            0.25     0.30     0.23           0.41    0.45
D4           3.98    4.35    0.26          24.81   -3.09   37.78          37.91   94.67            0.06     0.06     0.00            0.18     0.35     0.28           0.41    0.48
D5          16.79   17.89    9.07          49.36   -2.51   16.89          17.09   98.41             0.33     0.31     0.21            0.36     0.55     0.34           0.65    0.74
D6          16.77   17.96    4.95          49.45   -3.02   34.54          34.68   94.99            0.30     0.31     0.13            0.36     0.55     0.33           0.65    0.74
D7          16.75   18.24    2.41          49.78   -4.56   51.84          52.05   95.02            0.28     0.28     0.06            0.33     0.49     0.24           0.57    0.64
D8          16.56   18.09    0.70          49.61   -4.87   72.25          72.42   93.86            0.30     0.29     0.01            0.34     0.50     0.44           0.66    0.75
D9          44.76   47.37   23.71          74.43   -2.62   23.94          24.09   96.25            0.59     0.55     0.39            0.34     0.51     0.34           0.62    0.70
D10         44.69   47.48   13.70          74.50   -3.12   46.12          46.23   93.88            0.47     0.44     0.23            0.27     0.46     0.44           0.59    0.69
D11         44.80   47.79    6.88          74.69   -3.65   68.99          69.09   93.02            0.50     0.44     0.13            0.27     0.42     0.42           0.57    0.66
D12         44.47   47.76    3.45          74.68   -4.55   86.92          87.04   92.99            0.55     0.43     0.06            0.27     0.45     0.37           0.57    0.64
D13         46.98   56.98   60.80          80.17  -21.08  -14.84          25.78   215.13            0.49     0.41     0.19            0.22     0.37     0.29           0.45    0.52
D14         51.07   40.73   49.66          69.98   33.93  -20.61          39.69   328.72            0.36     0.42     0.28            0.29     0.32     0.21           0.40    0.48
D15         64.59   67.42   23.48          85.71   -0.93   43.82          43.83   91.21            0.32     0.31     0.27            0.15     0.14     0.33           0.36    0.39
D16         31.69   33.39   27.12          64.47   -1.82    0.73           2.01   157.16            0.48     0.45     0.48            0.35     0.50     0.39           0.65    0.73
D17         45.47   37.13   22.67          67.38   29.82   13.75          32.84   24.75            0.30     0.34     0.39            0.25     0.26     0.38           0.45    0.53
D18         41.67   52.60   28.18          77.64  -25.58   21.66          33.52   139.75            0.52     0.44     0.39            0.26     0.45     0.45           0.62    0.69
D19         35.64   35.83   51.49          66.39    3.71  -28.85          29.10   277.32            0.50     0.53     0.28            0.39     0.56     0.40           0.71    0.79
D20          2.83    2.85    1.05          19.44    1.54   14.47          14.56   83.93            0.05     0.05     0.02            0.19     0.27     0.19           0.33    0.38
D21         30.07   28.33    1.47          60.18   10.71   79.11          79.83   82.29            0.40     0.33     0.02            0.29     0.47     0.27           0.54    0.61
D22         38.98   42.28   54.58          71.06   -5.57  -24.14          24.79   257.02            0.54     0.58     0.40            0.39     0.48     0.37           0.65    0.72
E1           5.29    6.14    3.36          29.76   -7.32   10.09          12.48   125.90            0.11     0.13     0.09            0.30     0.38     0.25           0.48    0.55
E2           4.88    6.13    2.16          29.72  -12.19   19.42          22.93   122.10            0.10     0.11     0.06            0.27     0.34     0.26           0.46    0.51
E3           4.49    6.19    1.33          29.88  -17.92   28.57          33.73   122.08            0.07     0.08     0.03            0.19     0.35     0.17           0.38    0.43
E4           3.95    6.16    0.42          29.81  -25.09   43.38          50.11   120.04            0.05     0.07     0.01            0.17     0.26     0.23           0.34    0.39
E5          24.00   27.83   14.50          59.73  -11.92   18.55          22.06   122.70            0.40     0.40     0.26            0.36     0.53     0.36           0.67    0.73
E6          21.85   27.78    9.13          59.69  -21.42   34.48          40.60   121.85            0.32     0.37     0.20            0.33     0.46     0.38           0.60    0.68
E7          19.78   27.61    5.05          59.53  -30.71   51.39          59.87   120.86            0.28     0.33     0.12            0.29     0.38     0.31           0.51    0.57
E8          18.43   27.53    2.92          59.46  -37.23   64.46          74.44   120.01            0.25     0.27     0.06            0.24     0.30     0.26           0.40    0.46
E9          43.15   47.32   31.05          74.39   -7.16   11.46          13.53   121.95            0.49     0.48     0.50            0.30     0.47     0.45           0.65    0.72
E10         40.84   47.15   24.48          74.28  -13.66   22.27          26.13   121.51            0.50     0.47     0.39            0.29     0.46     0.44           0.63    0.70
E11         39.11   47.22   19.18          74.33  -19.23   32.77          38.00   120.40            0.48     0.44     0.31            0.27     0.44     0.46           0.62    0.69
E12         37.10   47.44   13.68          74.47  -26.29   46.13          53.09   119.68            0.47     0.40     0.21            0.25     0.47     0.41           0.59    0.67
E13         42.47   53.35   60.16          78.08  -25.10  -17.80          30.77   215.34            0.45     0.38     0.15            0.22     0.36     0.29           0.45    0.52
E14         45.26   33.21   45.43          64.33   42.34  -25.42          49.38   329.02            0.33     0.37     0.28            0.29     0.34     0.20           0.40    0.49
E15         63.63   66.11   18.26          85.05   -0.26   53.26          53.26   90.28            0.30     0.30     0.22            0.15     0.12     0.30           0.32    0.36
E16         23.18   24.39   19.92          56.47   -1.48    0.43           1.60   161.97            0.35     0.32     0.38            0.31     0.49     0.40           0.62    0.70
E17         39.00   29.37   15.79          61.11   37.40   17.71          41.39   25.34            0.23     0.24     0.28            0.20     0.18     0.38           0.40    0.46
E18         36.26   47.92   22.39          74.78  -30.38   27.04          40.67   138.33            0.47     0.41     0.31            0.26     0.45     0.40           0.60    0.65
E19         27.73   27.11   47.43          59.07    6.45  -36.85          37.41   279.92            0.37     0.38     0.26            0.34     0.49     0.34           0.62    0.69
E20          6.73    8.17    1.33          34.33  -11.08   36.24          37.90   106.99            0.10     0.10     0.02            0.20     0.38     0.14           0.40    0.45
E21         23.57   28.44    6.13          60.28  -16.18   47.44          50.13   108.83            0.32     0.32     0.12            0.28     0.51     0.28           0.58    0.64
E22          8.48   18.11   12.96          49.62  -60.49    5.25          60.72   175.04            0.09     0.15     0.24            0.17     0.15     0.41           0.42    0.47
F1           3.45    4.30    3.05          24.64  -10.39    3.48          10.96   161.53            0.08     0.10     0.09            0.30     0.28     0.26           0.44    0.48
F2           2.82    4.28    2.60          24.59  -20.85    6.81          21.93   161.93            0.07     0.09     0.07            0.27     0.24     0.20           0.37    0.42
F3           2.38    4.30    2.20          24.64  -29.50   10.31          31.25   160.74            0.04     0.07     0.06            0.22     0.27     0.24           0.37    0.42
F4           1.49    4.35    1.50          24.79  -51.29   17.75          54.28   160.92            0.02     0.06     0.03            0.17     0.23     0.18           0.28    0.34
F5          11.09   14.16    9.63          44.46  -17.47    6.50          18.64   159.59            0.19     0.22     0.21            0.30     0.51     0.35           0.62    0.68
F6           8.92   14.18    8.16          44.48  -34.54   11.80          36.50   161.14            0.13     0.18     0.16            0.25     0.39     0.33           0.51    0.57
F7           7.30   14.38    6.90          44.77  -50.47   17.33          53.36   161.05            0.10     0.18     0.14            0.24     0.25     0.33           0.43    0.48
F8           5.63   14.20    5.57          44.52  -66.89   22.91          70.71   161.09            0.06     0.11     0.12            0.16     0.05     0.37           0.34    0.40
F9          28.60   33.33   25.32          64.42  -13.20    3.77          13.73   164.06            0.45     0.45     0.40            0.35     0.49     0.39           0.65    0.71
F10         25.55   33.08   22.60          64.23  -24.64    8.45          26.05   161.08            0.37     0.38     0.34            0.30     0.49     0.42           0.65    0.71
F11         22.78   33.01   20.84          64.16  -36.47   11.80          38.33   162.07            0.36     0.41     0.39            0.32     0.40     0.43           0.61    0.67
F12         19.89   33.03   18.39          64.18  -50.18   16.99          52.98   161.29            0.25     0.26     0.28            0.21     0.31     0.52           0.55    0.64
F13         38.49   49.97   59.47          76.05  -28.61  -20.61          35.26   215.76            0.40     0.35     0.13            0.21     0.32     0.29           0.42    0.48
F14         40.33   27.39   41.49          59.33   49.21  -29.16          57.20   329.35            0.26     0.26     0.20            0.24     0.25     0.17           0.32    0.39
F15         62.84   64.85   14.38          84.41    0.72   61.41          61.41   89.33            0.27     0.28     0.17            0.14     0.11     0.28           0.29    0.33
F16         16.34   17.26   14.18          48.58   -1.65    0.17           1.72   174.91            0.26     0.23     0.27            0.28     0.46     0.39           0.61    0.67
F17         33.51   23.30   10.72          55.38   43.86   21.78          48.97   26.41            0.17     0.17     0.19            0.17     0.17     0.38           0.39    0.44
F18         31.63   43.68   17.87          72.01  -34.55   31.65          46.85   137.51            0.35     0.32     0.27            0.21     0.35     0.48           0.56    0.63
F19         21.38   20.27   43.52          52.14    8.93  -44.11          45.01   281.45            0.28     0.29     0.22            0.32     0.44     0.32           0.58    0.63
