targets/wolf_faust/transmissive/V040220.it8
IT8.7/1
ORIGINATOR "Wolf Faust"
DESCRIPTOR "Velvia (RVP 50), Type 3, L* a* b* (light D50, viewing angle 2)"
MANUFACTURER "Wolf Faust - http://www.coloraid.de"
CREATED "March 03, 2004"
PROD_DATE "2004:03"
DIFFUSE_GEOMETRY "opal"
SERIAL "V040220 Batch Average Data"
MATERIAL "For Fujichrome Velvia (RVP 50) Film"
KEYWORD "MEAN_DE" # Mean Delta E of samples compared to batch average
NUMBER_OF_FIELDS 17
BEGIN_DATA_FORMAT
SAMPLE_ID   XYZ_X   XYZ_Y   XYZ_Z          LAB_L   LAB_A   LAB_B          LAB_C   LAB_H          STDEV_X  STDEV_Y  STDEV_Z          STDEV_L  STDEV_A  STDEV_B        MEAN_DE  STDEV_DE
END_DATA_FORMAT
NUMBER_OF_SETS 288
BEGIN_DATA
A1           2.14    1.84    1.27          14.59    8.60    3.06           9.13   19.52            0.08     0.07     0.05            0.40     0.30     0.38           0.56    0.63
A2           2.73    1.87    1.04          14.79   19.64    6.56          20.71   18.45            0.10     0.07     0.05            0.41     0.35     0.39           0.58    0.67 
A3           3.19    1.83    0.89          14.57   28.77    8.46          29.99   16.38            0.11     0.06     0.04            0.36     0.39     0.43           0.59    0.68
A4           4.60    1.96    0.68          15.25   46.64   13.39          48.52   16.01            0.10     0.04     0.02            0.23     0.40     0.44           0.58    0.64 
A5           9.55    8.27    5.80          34.53   13.52    4.61          14.28   18.81            0.27     0.25     0.21            0.50     0.58     0.46           0.81    0.90
A6          11.42    8.22    4.92          34.44   28.15    8.86          29.51   17.46            0.34     0.24     0.18            0.50     0.54     0.54           0.80    0.91 
A7          13.41    8.18    4.28          34.34   42.04   12.20          43.77   16.18            0.41     0.25     0.17            0.52     0.57     0.59           0.86    0.97
A8          17.04    8.52    3.52          35.05   60.53   18.18          63.20   16.71            0.15     0.10     0.13            0.19     0.11     0.59           0.56    0.63 
A9          27.89   26.90   20.96          58.88    7.91    2.45           8.29   17.05            0.91     0.87     0.71            0.81     0.77     0.51           1.12    1.23
A10         30.22   27.33   20.22          59.27   15.19    4.63          15.88   16.92            0.96     0.88     0.71            0.81     0.75     0.56           1.13    1.24
A11         32.56   27.71   19.09          59.62   22.20    7.63          23.47   18.95            0.95     0.86     0.66            0.79     0.79     0.52           1.11    1.23
A12         38.60   28.20   17.33          60.07   40.62   12.28          42.44   16.82            0.49     0.54     0.58            0.49     0.57     0.62           0.88    0.97 
A13         73.52   76.73   64.93          90.20   -0.96   -1.54           1.82   238.39            0.45     0.34     0.12            0.16     0.26     0.19           0.32    0.36
A14         75.36   75.87   64.17          89.80    4.53   -1.51           4.77   341.67            0.34     0.52     0.20            0.24     0.38     0.26           0.42    0.52 
A15         76.05   78.38   58.56          90.95    0.95    6.01           6.09   81.02            0.24     0.25     0.55            0.11     0.05     0.40           0.36    0.42
A16         76.73   78.89   64.31          91.18    1.35    0.75           1.54   28.88            0.23     0.24     0.20            0.11     0.05     0.07           0.12    0.14
A17         75.83   77.03   62.95          90.34    3.17    0.60           3.24   10.94            0.32     0.47     0.27            0.22     0.31     0.19           0.36    0.43
A18         70.63   74.88   59.41          89.34   -3.32    2.36           4.08   144.48            0.66     0.49     0.52            0.23     0.40     0.28           0.50    0.54 
A19         72.64   74.98   64.49          89.38    0.72   -2.52           2.63   285.98            0.54     0.53     0.15            0.25     0.22     0.31           0.41    0.46
A20          1.95    1.20    0.42          10.54   21.70   10.29          24.02   25.36            0.07     0.05     0.03            0.35     0.26     0.15           0.42    0.46 
A21          5.63    2.99    0.42          19.99   38.80   26.47          46.97   34.30            0.18     0.10     0.03            0.41     0.41     0.38           0.60    0.69
A22          9.98    4.82    0.34          26.21   52.76   38.72          65.45   36.27            0.28     0.14     0.02            0.42     0.47     0.47           0.69    0.78
B1           3.26    2.94    1.65          19.78    7.39    7.46          10.50   45.30            0.10     0.09     0.06            0.38     0.47     0.34           0.63    0.69
B2           3.75    2.86    0.99          19.45   16.61   15.40          22.65   42.84            0.13     0.10     0.05            0.43     0.40     0.36           0.60    0.69
B3           4.42    2.92    0.61          19.74   24.94   22.53          33.61   42.09            0.13     0.09     0.03            0.35     0.41     0.47           0.64    0.72
B4           5.65    3.02    0.06          20.12   38.43   33.55          51.01   41.12            0.16     0.08     0.00            0.33     0.46     0.61           0.70    0.83
B5          12.26   11.04    6.21          39.65   11.54   11.51          16.30   44.93            0.41     0.35     0.18            0.59     0.62     0.56           0.92    1.02
B6          14.05   10.93    3.97          39.46   24.05   22.88          33.19   43.58            0.43     0.34     0.14            0.58     0.67     0.50           0.88    1.02
B7          16.35   10.93    2.55          39.46   37.68   32.85          49.99   41.08            0.49     0.34     0.09            0.57     0.62     0.61           0.90    1.05
B8          20.50   11.12    0.97          39.78   57.99   50.64          76.99   41.13            0.23     0.17     0.03            0.29     0.18     0.35           0.42    0.49
B9          33.41   33.08   24.24          64.22    5.37    5.37           7.60   45.22            0.98     0.95     0.72            0.77     0.78     0.51           1.09    1.21
B10         35.20   33.18   22.06          64.30   11.21    9.62          14.78   40.67            0.97     0.90     0.63            0.73     0.77     0.47           1.04    1.16
B11         36.89   33.44   19.20          64.51   15.92   15.80          22.43   44.80            0.96     0.88     0.59            0.71     0.80     0.49           1.05    1.17
B12         42.93   34.00   13.72          64.96   32.83   29.60          44.21   42.04            0.54     0.66     0.42            0.52     0.65     0.38           0.85    0.92
B13         60.82   66.84   61.41          85.42   -8.36   -6.37          10.51   217.32            0.68     0.61     0.32            0.31     0.37     0.32           0.53    0.58
B14         65.78   62.33   58.27          83.09   13.06   -7.26          14.95   330.94            0.70     0.90     0.42            0.48     0.62     0.40           0.74    0.88
B15         68.37   70.65   44.15          87.31    0.56   15.76          15.78   87.99            0.64     0.71     0.61            0.35     0.21     0.34           0.49    0.53
B16         55.94   58.33   47.33          80.92   -0.75    0.94           1.27   126.98            1.14     1.19     0.84            0.66     0.55     0.27           0.81    0.90
B17         63.29   60.70   45.22          82.22   11.18    5.69          12.54   27.00            0.76     0.97     0.77            0.52     0.60     0.22           0.70    0.83
B18         58.59   65.34   46.95          84.66  -10.38    7.83          13.01   142.98            0.88     0.78     0.77            0.40     0.45     0.39           0.65    0.72
B19         58.26   60.03   59.32          81.85    0.91  -10.45          10.51   274.98            0.91     0.96     0.36            0.52     0.79     0.56           1.00    1.10
B20          3.63    2.34    0.51          17.16   24.55   19.99          31.66   39.15            0.13     0.09     0.03            0.44     0.32     0.26           0.55    0.61
B21          9.26    4.57    0.37          25.47   50.18   36.91          62.30   36.33            0.27     0.14     0.02            0.42     0.47     0.47           0.67    0.78
B22         31.94   27.91   15.51          59.80   19.18   16.15          25.08   40.11            0.89     0.87     0.54            0.79     0.79     0.35           1.05    1.17
C1           6.11    5.98    3.18          29.35    3.80   10.66          11.32   70.43            0.22     0.23     0.12            0.58     0.54     0.34           0.77    0.86
C2           6.43    5.92    2.01          29.20    7.96   19.94          21.47   68.26            0.21     0.21     0.08            0.53     0.54     0.36           0.75    0.84
C3           6.93    5.99    1.06          29.39   12.27   31.43          33.74   68.68            0.22     0.19     0.04            0.49     0.51     0.41           0.75    0.82
C4           7.71    6.08    0.22          29.60   18.85   46.82          50.48   68.07            0.22     0.17     0.01            0.44     0.55     0.68           0.84    0.98
C5          23.23   22.53   11.10          54.58    6.88   19.21          20.42   70.33            0.70     0.65     0.31            0.68     0.77     0.50           1.01    1.14
C6          24.99   22.44    6.22          54.48   14.98   37.06          39.98   67.99            0.69     0.66     0.20            0.69     0.75     0.50           1.01    1.13
C7          27.06   22.60    3.04          54.65   22.82   55.26          59.79   67.56            0.73     0.65     0.10            0.68     0.73     0.60           1.04    1.16
C8          30.65   22.76    0.50          54.82   35.96   85.02          92.31   67.07            0.72     0.58     0.01            0.60     0.66     0.88           1.10    1.26
C9          39.28   39.52   26.98          69.12    3.70    8.98           9.73   67.75            1.04     1.00     0.67            0.72     0.70     0.43           0.98    1.09
C10         40.01   39.30   23.28          68.96    6.70   15.32          16.73   66.43            1.05     1.00     0.57            0.72     0.71     0.44           0.99    1.10
C11         41.47   39.65   18.57          69.21   10.11   25.29          27.24   68.23            0.99     0.95     0.48            0.69     0.73     0.47           1.00    1.11
C12         47.31   40.13    6.78          69.56   25.55   60.59          65.76   67.13            0.51     0.69     0.17            0.49     0.70     0.34           0.79    0.92
C13         53.27   61.71   61.05          82.76  -15.42  -10.61          18.72   214.54            0.62     0.54     0.22            0.29     0.39     0.34           0.53    0.59
C14         57.68   49.68   53.58          75.87   25.32  -14.79          29.32   329.71            0.62     0.79     0.40            0.49     0.66     0.42           0.78    0.92
C15         66.11   68.68   31.52          86.34   -0.24   31.34          31.35   90.44            0.54     0.60     0.46            0.30     0.23     0.34           0.44    0.51
C16         42.71   44.23   35.90          72.38    0.20    0.84           1.04   80.81            0.99     1.01     0.75            0.67     0.68     0.37           0.92    1.03
C17         53.21   46.68   31.90          73.99   22.25    9.47          24.19   23.05            0.67     0.81     0.77            0.52     0.57     0.35           0.75    0.84
C18         49.26   58.66   35.71          81.11  -18.85   16.15          24.83   139.41            0.82     0.71     0.67            0.39     0.56     0.56           0.80    0.88
C19         46.01   46.34   55.27          73.76    3.81  -20.22          20.60   280.63            0.89     0.93     0.38            0.60     0.98     0.66           1.20    1.32
C20          2.55    2.01    0.78          15.54   13.04   12.03          17.75   42.71            0.08     0.07     0.04            0.39     0.34     0.22           0.50    0.56
C21         26.20   20.64    7.31          52.55   28.35   29.03          40.58   45.68            0.72     0.61     0.24            0.67     0.73     0.41           0.98    1.07
C22         38.35   36.02   22.01          66.53   11.97   13.55          18.09   48.59            0.98     1.01     0.68            0.77     0.86     0.32           1.05    1.20
D1           4.10    4.33    2.29          24.71   -1.07    9.64           9.71   96.36            0.15     0.17     0.10            0.54     0.46     0.26           0.67    0.75
D2           3.92    4.16    1.41          24.19   -1.33   17.80          17.86   94.29            0.14     0.16     0.06            0.53     0.49     0.25           0.69    0.76
D3           3.91    4.18    0.79          24.26   -1.77   26.89          26.95   93.76            0.13     0.15     0.03            0.47     0.47     0.35           0.68    0.75
D4           3.96    4.28    0.26          24.56   -2.38   37.52          37.60   93.63            0.11     0.12     0.01            0.39     0.45     0.62           0.73    0.86
D5          16.76   17.47    8.70          48.84   -0.50   17.34          17.36   91.68            0.56     0.56     0.28            0.70     0.61     0.53           0.94    1.07
D6          16.56   17.54    4.71          48.92   -1.94   34.93          34.99   93.18            0.51     0.57     0.16            0.70     0.68     0.49           0.99    1.09
D7          16.75   17.95    2.35          49.43   -3.06   51.73          51.83   93.38            0.51     0.59     0.09            0.72     0.82     0.57           1.13    1.24
D8          16.99   18.20    0.68          49.74   -3.07   72.96          73.03   92.41            0.52     0.54     0.01            0.66     0.66     0.93           1.15    1.32
D9          45.17   47.34   23.86          74.40   -1.37   23.63          23.67   93.35            1.13     1.15     0.59            0.74     0.61     0.53           0.98    1.09
D10         45.01   47.39   13.30          74.43   -1.95   47.10          47.14   92.38            1.09     1.08     0.30            0.69     0.68     0.60           1.00    1.14
D11         44.62   47.38    6.78          74.43   -3.06   68.99          69.06   92.54            0.86     0.90     0.17            0.57     0.71     0.52           0.95    1.05
D12         44.55   47.75    3.37          74.66   -4.26   87.45          87.55   92.79            0.68     0.55     0.09            0.35     0.55     0.58           0.76    0.87
D13         47.44   57.42   60.64          80.41  -20.86  -14.25          25.27   214.33            0.60     0.53     0.21            0.30     0.39     0.35           0.54    0.60
D14         50.98   40.24   49.22          69.64   35.15  -20.70          40.79   329.51            0.56     0.68     0.42            0.49     0.65     0.37           0.75    0.89
D15         64.55   66.98   23.22          85.50   -0.09   43.94          43.94   90.11            0.52     0.58     0.34            0.29     0.23     0.32           0.42    0.49
D16         31.96   33.07   26.62          64.21    0.24    1.14           1.31   81.30            0.86     0.86     0.65            0.69     0.68     0.38           0.93    1.04
D17         45.51   36.84   22.28          67.15   30.86   14.11          33.94   24.57            0.54     0.65     0.55            0.49     0.58     0.34           0.75    0.83
D18         42.18   53.02   27.63          77.89  -25.15   23.00          34.08   137.56            0.81     0.71     0.55            0.42     0.64     0.60           0.88    0.98
D19         35.80   35.17   51.02          65.88    6.44  -29.22          29.92   282.43            0.93     0.99     0.48            0.77     0.73     0.80           1.20    1.33
D20         16.72   13.48    4.90          43.48   22.41   24.52          33.22   47.58            0.47     0.41     0.17            0.61     0.68     0.40           0.89    0.99
D21         24.81   24.35   15.42          56.43    5.80   10.54          12.04   61.28            0.71     0.71     0.48            0.71     0.74     0.36           0.98    1.08
D22         42.10   41.12   24.85          70.26    7.51   14.68          16.50   62.95            1.03     1.06     0.68            0.74     0.81     0.30           1.02    1.14
E1           5.26    5.96    3.29          29.29   -5.68    9.80          11.33   120.07            0.19     0.23     0.14            0.60     0.50     0.25           0.74    0.82
E2           4.71    5.80    2.06          28.90  -10.75   18.96          21.80   119.53            0.17     0.23     0.09            0.59     0.52     0.31           0.78    0.85
E3           4.45    6.03    1.24          29.47  -16.71   29.05          33.51   119.91            0.14     0.20     0.05            0.52     0.56     0.38           0.72    0.85
E4           4.18    6.47    0.44          30.57  -25.12   44.48          51.09   119.45            0.14     0.22     0.01            0.54     0.49     0.67           0.79    0.99
E5          23.86   27.40   14.24          59.33  -10.83   18.56          21.50   120.26            0.81     0.90     0.44            0.82     0.74     0.47           1.09    1.20
E6          21.91   27.38    8.93          59.32  -19.56   34.57          39.73   119.50            0.65     0.84     0.29            0.78     0.74     0.48           1.07    1.18
E7          19.98   27.67    5.04          59.58  -29.90   51.58          59.62   120.10            0.55     0.74     0.16            0.67     0.59     0.44           0.92    1.00
E8          18.79   27.92    2.92          59.81  -36.91   65.09          74.83   119.56            0.42     0.45     0.09            0.41     0.49     0.57           0.76    0.86
E9          43.14   47.07   30.67          74.23   -6.53   11.78          13.49   118.98            1.18     1.22     0.77            0.78     0.66     0.45           0.99    1.12
E10         41.08   47.19   24.76          74.30  -13.04   21.81          25.43   120.88            0.86     0.96     0.62            0.61     0.71     0.47           0.93    1.05
E11         39.20   47.10   19.04          74.25  -18.62   32.94          37.84   119.48            0.79     0.89     0.48            0.57     0.61     0.45           0.85    0.95
E12         36.61   47.11   13.65          74.26  -26.99   45.83          53.19   120.50            0.65     0.60     0.34            0.38     0.55     0.66           0.84    0.94
E13         42.53   53.51   60.04          78.18  -25.32  -17.51          30.79   214.66            0.62     0.56     0.23            0.33     0.44     0.37           0.58    0.66
E14         45.28   32.92   45.11          64.10   43.39  -25.44          50.30   329.62            0.48     0.56     0.39            0.45     0.59     0.32           0.70    0.81
E15         63.51   65.57   17.63          84.78    0.65   54.20          54.21   89.32            0.50     0.58     0.27            0.30     0.22     0.25           0.39    0.45
E16         23.09   23.99   19.12          56.07   -0.22    1.44           1.57   100.01            0.67     0.63     0.49            0.63     0.66     0.39           0.89    0.99
E17         39.19   29.33   15.35          61.07   38.15   18.71          42.49   26.13            0.43     0.49     0.38            0.43     0.49     0.33           0.66    0.73
E18         36.12   47.81   21.61          74.71  -30.54   28.45          41.74   137.03            0.58     0.54     0.48            0.34     0.50     0.69           0.80    0.91
E19         27.55   26.39   46.96          58.40    8.60  -37.46          38.44   282.92            0.75     0.80     0.47            0.76     0.73     0.76           1.17    1.30
E20         23.68   16.58    1.16          47.72   38.41   61.66          72.65   58.08            0.56     0.46     0.05            0.59     0.67     0.45           0.91    1.00
E21         20.60   17.55    4.33          48.94   18.95   37.12          41.68   62.97            0.51     0.49     0.15            0.60     0.77     0.37           0.94    1.05
E22         32.27   28.79   10.65          60.59   17.01   30.99          35.36   61.25            0.91     0.86     0.33            0.76     0.81     0.47           1.07    1.20
F1           3.36    4.18    2.97          24.26  -10.33    3.37          10.86   161.92            0.12     0.16     0.11            0.52     0.47     0.26           0.65    0.75
F2           2.77    4.09    2.39          23.97  -19.24    7.52          20.66   158.64            0.10     0.16     0.09            0.53     0.44     0.27           0.62    0.74
F3           2.26    4.11    2.12          24.04  -29.53   10.07          31.20   161.17            0.10     0.18     0.10            0.60     0.53     0.22           0.73    0.83
F4           1.51    4.38    1.51          24.87  -51.10   17.83          54.12   160.76            0.05     0.15     0.06            0.47     0.67     0.24           0.70    0.86
F5          10.83   13.71    9.44          43.80  -16.59    6.02          17.66   160.03            0.38     0.47     0.33            0.69     0.58     0.42           0.90    1.00
F6           8.71   13.77    7.73          43.90  -33.89   12.44          36.10   159.84            0.29     0.46     0.26            0.66     0.57     0.37           0.84    0.95
F7           7.31   14.30    6.69          44.66  -49.90   18.05          53.07   160.12            0.23     0.45     0.23            0.63     0.57     0.34           0.83    0.92
F8           5.57   14.11    5.42          44.39  -66.98   23.41          70.95   160.73            0.11     0.20     0.14            0.29     0.12     0.29           0.38    0.42
F9          28.30   32.62   24.53          63.84  -11.88    4.19          12.61   160.52            0.87     0.96     0.69            0.79     0.73     0.47           1.06    1.17
F10         25.40   33.01   21.73          64.16  -25.03   10.02          26.97   158.17            0.75     0.87     0.62            0.71     0.64     0.42           0.95    1.05
F11         23.11   33.45   20.50          64.52  -36.48   13.10          38.76   160.25            0.60     0.75     0.52            0.60     0.48     0.40           0.78    0.86
F12         20.05   33.26   18.26          64.37  -50.22   17.60          53.21   160.69            0.42     0.46     0.43            0.37     0.46     0.55           0.74    0.81
F13         38.49   50.10   59.39          76.13  -28.95  -20.39          35.41   215.16            0.58     0.53     0.17            0.33     0.44     0.41           0.59    0.68
F14         40.06   26.84   40.99          58.82   50.57  -29.38          58.48   329.84            0.42     0.44     0.35            0.41     0.50     0.26           0.61    0.70
F15         62.78   64.36   13.88          84.15    1.66   62.28          62.30   88.47            0.49     0.56     0.21            0.29     0.22     0.30           0.41    0.47
F16         16.31   16.94   13.74          48.18   -0.14    0.62           0.83   105.27            0.50     0.52     0.41            0.66     0.59     0.40           0.88    0.97
F17         33.50   23.08   10.37          55.15   44.80   22.51          50.14   26.68            0.38     0.40     0.29            0.41     0.45     0.35           0.63    0.70
F18         31.33   43.40   17.13          71.83  -34.83   33.00          47.99   136.54            0.53     0.51     0.41            0.34     0.48     0.64           0.77    0.87
F19         20.98   19.38   42.88          51.13   11.36  -45.05          46.47   284.16            0.50     0.51     0.37            0.59     0.73     0.58           1.00    1.10
