targets/wolf_faust/transmissive/V041215.it8
IT8.7/1
ORIGINATOR "Wolf Faust"
DESCRIPTOR "Velvia (RVP 50), Type 3, L* a* b* (light D50, viewing angle 2)"
MANUFACTURER "Wolf Faust - http://www.coloraid.de"
CREATED "January 04, 2005"
PROD_DATE "2004:12"
DIFFUSE_GEOMETRY "opal"
SERIAL "V041215 Batch Average Data"
MATERIAL "For Fujichrome Velvia (RVP 50) Film"
KEYWORD "MEAN_DE" # Mean Delta E of samples compared to batch average
NUMBER_OF_FIELDS 17
BEGIN_DATA_FORMAT
SAMPLE_ID   XYZ_X   XYZ_Y   XYZ_Z          LAB_L   LAB_A   LAB_B          LAB_C   LAB_H          STDEV_X  STDEV_Y  STDEV_Z          STDEV_L  STDEV_A  STDEV_B        MEAN_DE  STDEV_DE
END_DATA_FORMAT
NUMBER_OF_SETS 288
BEGIN_DATA
A1           2.44    2.10    1.58          16.00    8.85    1.68           9.02   10.77            0.04     0.05     0.04            0.25     0.26     0.36           0.46    0.51
A2           2.95    2.05    1.33          15.77   19.46    4.31          19.93   12.49            0.06     0.05     0.03            0.26     0.21     0.36           0.44    0.49 
A3           3.51    2.01    1.08          15.54   29.85    7.31          30.73   13.76            0.05     0.04     0.03            0.19     0.14     0.39           0.40    0.46
A4           4.62    1.99    0.79          15.44   46.08   11.72          47.55   14.27            0.06     0.03     0.02            0.13     0.18     0.35           0.37    0.42 
A5          10.32    9.01    6.83          36.00   13.25    2.51          13.50   10.72            0.18     0.17     0.21            0.34     0.26     0.52           0.61    0.67
A6          12.40    9.01    5.81          35.99   28.24    7.09          29.12   14.09            0.17     0.16     0.19            0.30     0.23     0.56           0.60    0.68 
A7          14.70    8.94    5.03          35.87   43.50   10.74          44.81   13.87            0.19     0.14     0.18            0.28     0.18     0.58           0.59    0.67
A8          17.82    8.85    4.17          35.70   61.99   15.19          63.83   13.76            0.20     0.12     0.15            0.23     0.14     0.60           0.56    0.66 
A9          30.82   30.32   25.27          61.92    5.99   -0.45           6.05   247.68            0.32     0.39     0.62            0.34     0.32     0.77           0.76    0.90
A10         33.04   30.32   23.56          61.93   13.99    2.67          14.25   10.77            0.35     0.40     0.53            0.34     0.30     0.66           0.70    0.80
A11         35.21   30.36   22.78          61.96   21.33    4.20          21.75   11.14            0.34     0.37     0.50            0.32     0.29     0.63           0.66    0.76
A12         40.27   29.94   20.26          61.60   39.27    8.57          40.20   12.31            0.36     0.40     0.47            0.35     0.38     0.58           0.65    0.78 
A13         74.26   77.72   67.07          90.65   -1.40   -2.76           3.09   243.14            0.15     0.12     0.09            0.06     0.09     0.06           0.11    0.12
A14         77.73   78.59   66.86          91.05    3.93   -1.89           4.36   334.34            0.08     0.12     0.08            0.05     0.08     0.07           0.10    0.12 
A15         78.83   80.83   64.62          92.06    1.77    1.96           2.66   47.30            0.13     0.10     0.48            0.04     0.07     0.41           0.35    0.41
A16         77.12   79.68   67.03          91.54    0.60   -1.19           1.34   296.72            0.11     0.09     0.12            0.04     0.06     0.09           0.11    0.12
A17         77.10   77.73   65.79          90.66    4.35   -1.56           4.62   340.28            0.19     0.25     0.29            0.11     0.13     0.15           0.20    0.23
A18         73.89   77.52   60.63          90.56   -1.75    3.25           3.70   118.75            0.30     0.22     0.82            0.10     0.20     0.69           0.59    0.73 
A19         76.15   78.06   66.72          90.81    1.80   -2.17           2.82   309.65            0.11     0.12     0.10            0.06     0.05     0.05           0.08    0.09
A20          6.62    3.12    2.15          20.53   47.34    3.69          47.48    4.45            0.08     0.04     0.05            0.15     0.16     0.37           0.40    0.43 
A21         27.66   19.59   16.74          51.37   39.39   -1.37          39.41   358.00            0.37     0.33     0.40            0.37     0.29     0.47           0.60    0.67
A22         56.07   51.58   35.89          77.02   16.37    8.86          18.62   28.44            0.55     0.69     0.60            0.41     0.43     0.57           0.75    0.83
B1           3.60    3.30    1.95          21.20    6.85    6.71           9.60   44.40            0.05     0.07     0.05            0.25     0.28     0.41           0.49    0.56
B2           4.11    3.18    1.17          20.77   16.14   14.97          22.02   42.85            0.07     0.07     0.04            0.25     0.25     0.40           0.47    0.53
B3           4.77    3.22    0.72          20.89   24.53   22.50          33.29   42.54            0.05     0.04     0.02            0.17     0.16     0.30           0.33    0.38
B4           5.66    3.08    0.09          20.36   37.60   33.36          50.27   41.58            0.07     0.04     0.00            0.17     0.14     0.25           0.28    0.33
B5          13.20   11.87    7.10          41.00   12.00    9.99          15.62   39.75            0.15     0.16     0.22            0.25     0.25     0.57           0.60    0.67
B6          15.27   11.90    4.62          41.06   24.56   21.87          32.88   41.68            0.17     0.17     0.13            0.27     0.28     0.47           0.54    0.61
B7          17.50   11.75    2.85          40.81   38.22   32.82          50.38   40.65            0.15     0.14     0.07            0.22     0.24     0.43           0.47    0.54
B8          21.26   11.49    0.99          40.39   59.00   51.46          78.28   41.09            0.13     0.11     0.03            0.17     0.13     0.30           0.34    0.37
B9          36.55   36.76   29.09          67.09    3.70    1.99           4.25   27.64            0.42     0.49     0.69            0.37     0.31     0.81           0.83    0.95
B10         38.13   36.50   25.68          66.90    9.66    7.41          12.18   37.42            0.42     0.48     0.63            0.36     0.29     0.69           0.71    0.83
B11         40.14   36.99   23.14          67.27   14.43   12.67          19.20   41.26            0.48     0.53     0.56            0.40     0.29     0.54           0.62    0.73
B12         45.01   36.56   16.11          66.95   30.35   27.00          40.62   41.65            0.37     0.44     0.45            0.34     0.40     0.57           0.62    0.77
B13         64.36   70.07   65.16          87.03   -7.13   -7.22          10.15   225.34            0.30     0.28     0.25            0.14     0.12     0.16           0.22    0.25
B14         69.73   67.49   63.01          85.75   10.22   -7.37          12.60   324.22            0.33     0.46     0.23            0.23     0.29     0.21           0.36    0.43
B15         71.19   73.99   49.39          88.92   -0.32   12.35          12.36   91.51            0.36     0.37     0.74            0.18     0.04     0.63           0.54    0.65
B16         61.28   63.45   52.78          83.68    0.22   -0.45           0.67   212.49            0.45     0.50     0.74            0.26     0.12     0.59           0.56    0.65
B17         67.53   65.86   51.36          84.93    9.01    3.25           9.60   19.80            0.43     0.53     0.84            0.27     0.25     0.69           0.68    0.78
B18         62.90   69.14   51.72          86.57   -8.50    5.70          10.25   146.29            0.42     0.36     0.85            0.18     0.20     0.73           0.66    0.77
B19         63.52   65.53   63.25          84.75    0.78   -9.32           9.35   274.74            0.36     0.47     0.27            0.24     0.24     0.18           0.31    0.39
B20          5.16    3.15    1.15          20.65   30.44   15.10          33.98   26.39            0.07     0.05     0.03            0.19     0.18     0.28           0.34    0.38
B21         17.56   11.85    4.58          40.97   37.83   21.96          43.74   30.14            0.20     0.17     0.12            0.27     0.25     0.38           0.46    0.53
B22         35.32   30.44   19.62          62.03   21.41   10.64          23.91   26.43            0.49     0.51     0.48            0.43     0.27     0.46           0.59    0.69
C1           6.75    6.69    3.92          31.09    3.10    8.79           9.32   70.51            0.11     0.13     0.13            0.30     0.28     0.50           0.58    0.64
C2           7.14    6.65    2.41          30.98    7.42   19.43          20.80   69.09            0.10     0.12     0.07            0.27     0.22     0.51           0.56    0.62
C3           7.60    6.61    1.25          30.91   12.20   31.42          33.71   68.78            0.10     0.11     0.04            0.25     0.22     0.41           0.46    0.53
C4           8.18    6.48    0.27          30.59   18.91   47.56          51.18   68.32            0.12     0.10     0.01            0.25     0.20     0.35           0.43    0.48
C5          25.08   24.50   12.89          56.58    6.32   17.43          18.54   70.05            0.42     0.45     0.44            0.45     0.27     0.75           0.81    0.91
C6          26.88   24.57    7.36          56.65   13.47   35.90          38.34   69.43            0.25     0.29     0.22            0.28     0.33     0.58           0.65    0.72
C7          28.92   24.44    3.48          56.53   22.06   55.44          59.67   68.30            0.20     0.23     0.10            0.23     0.35     0.37           0.51    0.56
C8          31.96   24.03    0.58          56.12   35.15   85.83          92.75   67.73            0.20     0.20     0.01            0.20     0.30     0.25           0.40    0.44
C9          42.70   43.55   31.74          71.93    2.10    6.17           6.52   71.09            0.40     0.47     0.69            0.31     0.24     0.68           0.70    0.79
C10         43.76   43.84   27.32          72.12    4.43   13.57          14.27   71.93            0.40     0.48     0.59            0.32     0.29     0.56           0.62    0.71
C11         45.12   43.90   22.73          72.16    8.15   21.88          23.35   69.58            0.43     0.47     0.47            0.31     0.28     0.50           0.57    0.65
C12         49.24   42.84    8.40          71.45   22.73   57.41          61.75   68.40            0.23     0.33     0.19            0.22     0.33     0.40           0.48    0.56
C13         55.03   63.59   64.13          83.75  -15.21  -11.89          19.30   218.03            0.32     0.31     0.29            0.16     0.18     0.12           0.23    0.27
C14         62.95   56.55   58.98          79.92   20.29  -13.43          24.33   326.50            0.34     0.45     0.23            0.26     0.34     0.22           0.41    0.48
C15         68.92   72.11   36.26          88.02   -1.29   27.30          27.33   92.72            0.28     0.28     0.55            0.14     0.08     0.59           0.54    0.61
C16         47.37   49.82   42.44          75.96   -1.84   -1.69           2.52   221.39            0.39     0.47     0.73            0.29     0.23     0.51           0.54    0.63
C17         58.55   53.11   39.49          77.94   18.49    5.53          19.31   16.64            0.38     0.46     0.69            0.27     0.30     0.61           0.59    0.73
C18         51.75   61.17   40.53          82.47  -18.09   11.97          21.70   146.52            0.36     0.30     0.73            0.16     0.27     0.70           0.63    0.76
C19         51.05   53.07   59.74          77.92   -0.31  -17.66          17.67   268.97            0.36     0.53     0.30            0.31     0.44     0.26           0.50    0.60
C20         12.58    9.28    1.26          36.53   27.18   40.93          49.13   56.41            0.13     0.12     0.04            0.23     0.19     0.30           0.36    0.42
C21         22.86   21.48   12.64          53.47   10.03   12.78          16.25   51.88            0.36     0.38     0.39            0.41     0.32     0.53           0.65    0.74
C22         28.73   24.57   12.18          56.65   20.80   19.56          28.55   43.23            0.44     0.44     0.36            0.44     0.28     0.47           0.59    0.70
D1           4.51    4.79    2.74          26.11   -1.39    8.32           8.44   99.46            0.08     0.10     0.09            0.29     0.29     0.43           0.55    0.60
D2           4.41    4.70    1.69          25.87   -1.61   17.46          17.54   95.27            0.08     0.09     0.06            0.27     0.23     0.45           0.52    0.57
D3           4.40    4.77    0.93          26.07   -2.66   27.67          27.80   95.50            0.08     0.10     0.04            0.29     0.33     0.34           0.49    0.55
D4           4.34    4.68    0.31          25.80   -2.29   38.61          38.68   93.40            0.09     0.11     0.01            0.32     0.27     0.41           0.52    0.59
D5          18.61   19.63   10.54          51.42   -1.64   15.54          15.63   96.07            0.30     0.34     0.40            0.38     0.26     0.70           0.75    0.84
D6          18.24   19.37    5.55          51.11   -2.24   34.41          34.48   93.73            0.23     0.31     0.21            0.36     0.43     0.46           0.63    0.73
D7          17.93   19.25    2.68          50.97   -3.30   51.70          51.80   93.65            0.19     0.22     0.07            0.25     0.29     0.32           0.45    0.50
D8          17.93   19.33    0.76          51.08   -3.72   73.69          73.78   92.89            0.20     0.23     0.02            0.27     0.21     0.26           0.37    0.43
D9          47.85   50.48   27.71          76.36   -2.27   20.25          20.38   96.41            0.55     0.60     0.72            0.37     0.18     0.69           0.70    0.81
D10         47.46   50.18   15.77          76.18   -2.55   43.75          43.82   93.34            0.48     0.56     0.43            0.34     0.24     0.65           0.68    0.77
D11         46.90   49.79    7.53          75.94   -3.07   68.46          68.53   92.57            0.42     0.46     0.17            0.28     0.20     0.37           0.47    0.51
D12         46.26   49.20    3.15          75.57   -3.29   90.55          90.61   92.08            0.32     0.29     0.06            0.18     0.21     0.37           0.42    0.47
D13         49.18   59.19   63.29          81.40  -20.32  -15.15          25.35   216.70            0.26     0.22     0.14            0.12     0.20     0.11           0.22    0.26
D14         56.10   46.59   54.73          73.93   29.80  -19.36          35.54   326.99            0.44     0.55     0.38            0.35     0.46     0.22           0.52    0.61
D15         67.18   70.30   26.88          87.14   -1.33   40.23          40.26   91.90            0.32     0.34     0.52            0.17     0.08     0.64           0.54    0.67
D16         36.26   38.05   33.19          68.05   -1.41   -2.70           3.07   242.22            0.44     0.52     0.69            0.38     0.34     0.46           0.60    0.69
D17         49.89   41.80   29.01          70.73   27.54    8.40          28.80   16.94            0.47     0.53     0.77            0.37     0.34     0.69           0.70    0.85
D18         44.10   55.10   31.45          79.10  -24.66   18.97          31.11   142.45            0.44     0.41     0.78            0.24     0.31     0.86           0.74    0.95
D19         41.20   42.31   55.96          71.08    1.23  -25.58          25.61   272.75            0.48     0.67     0.44            0.46     0.56     0.36           0.70    0.81
D20          3.24    3.26    1.27          21.06    1.58   14.12          14.22   83.63            0.04     0.06     0.05            0.23     0.29     0.31           0.44    0.48
D21         32.13   29.72    1.53          61.41   12.95   80.56          81.60   80.87            0.24     0.26     0.04            0.23     0.35     0.28           0.45    0.50
D22         41.53   45.65   57.65          73.32   -7.40  -23.47          24.61   252.50            0.48     0.70     0.42            0.45     0.57     0.37           0.68    0.81
E1           5.92    6.80    3.93          31.35   -6.84    9.18          11.45   126.71            0.12     0.15     0.13            0.34     0.26     0.53           0.64    0.68
E2           5.38    6.72    2.57          31.15  -12.16   18.36          22.02   123.51            0.10     0.15     0.09            0.34     0.31     0.40           0.55    0.61
E3           4.99    6.74    1.45          31.20  -17.06   29.36          33.96   120.17            0.09     0.14     0.05            0.33     0.31     0.33           0.50    0.56
E4           4.41    6.76    0.50          31.25  -24.81   44.38          50.85   119.21            0.09     0.14     0.01            0.32     0.27     0.37           0.49    0.55
E5          25.99   29.72   16.69          61.41  -10.67   16.07          19.30   123.64            0.39     0.49     0.62            0.42     0.25     0.84           0.85    0.97
E6          23.69   29.59   10.27          61.29  -20.01   33.42          38.95   120.92            0.31     0.43     0.38            0.38     0.33     0.73           0.79    0.88
E7          21.43   29.50    5.64          61.22  -30.00   51.38          59.50   120.28            0.24     0.35     0.19            0.31     0.25     0.55           0.62    0.67
E8          19.29   28.64    2.90          60.46  -37.12   66.33          76.01   119.23            0.18     0.25     0.07            0.22     0.18     0.24           0.32    0.37
E9          46.53   50.77   36.42          76.54   -6.69    7.29           9.91   132.74            0.59     0.66     1.02            0.40     0.19     0.92           0.92    1.02
E10         43.73   50.07   27.96          76.11  -12.87   19.39          23.27   123.60            0.48     0.56     0.78            0.34     0.19     0.82           0.80    0.91
E11         41.33   49.44   21.67          75.72  -18.38   30.09          35.26   121.44            0.43     0.49     0.63            0.30     0.21     0.85           0.82    0.93
E12         38.59   49.20   14.47          75.57  -26.24   45.95          52.92   119.74            0.48     0.49     0.44            0.31     0.28     0.66           0.66    0.78
E13         44.00   55.04   62.35          79.06  -24.82  -18.26          30.81   216.34            0.37     0.35     0.29            0.20     0.22     0.16           0.31    0.34
E14         50.05   38.45   50.69          68.35   38.25  -24.58          45.47   327.28            0.60     0.68     0.55            0.50     0.59     0.26           0.69    0.81
E15         65.79   68.56   19.63          86.29   -0.72   52.44          52.45   90.79            0.49     0.53     0.50            0.26     0.09     0.64           0.55    0.69
E16         26.43   27.93   24.18          59.82   -2.03   -2.11           2.99   225.04            0.48     0.54     0.75            0.49     0.36     0.69           0.82    0.92
E17         42.57   33.02   19.88          64.17   35.14   13.80          37.76   21.43            0.44     0.46     0.66            0.37     0.35     0.84           0.83    0.98
E18         37.49   49.48   23.68          75.75  -30.51   26.27          40.26   139.28            0.35     0.33     0.64            0.20     0.28     0.87           0.75    0.94
E19         32.35   32.73   52.19          63.94    2.87  -33.85          33.98   274.84            0.42     0.61     0.41            0.50     0.65     0.42           0.80    0.92
E20          7.38    8.80    1.46          35.60  -10.13   36.88          38.25   105.35            0.11     0.15     0.04            0.28     0.25     0.25           0.40    0.45
E21         25.48   30.63    6.92          62.19  -16.19   47.27          49.97   108.91            0.33     0.46     0.22            0.39     0.36     0.43           0.62    0.68
E22          9.67   20.00   15.39          51.84  -60.11    2.71          60.18   177.42            0.16     0.23     0.56            0.26     0.24     0.99           0.90    1.05
F1           3.87    4.77    3.60          26.07  -10.13    2.15          10.36   168.05            0.07     0.09     0.10            0.27     0.26     0.44           0.53    0.58
F2           3.24    4.80    3.02          26.16  -20.40    6.30          21.35   162.85            0.07     0.11     0.12            0.31     0.32     0.49           0.61    0.66
F3           2.65    4.78    2.56          26.09  -30.59    9.73          32.10   162.36            0.06     0.11     0.09            0.32     0.32     0.44           0.58    0.64
F4           1.75    4.90    1.80          26.45  -51.54   17.30          54.37   161.45            0.03     0.10     0.06            0.28     0.36     0.31           0.50    0.55
F5          12.24   15.37   11.27          46.13  -16.51    4.14          17.04   165.97            0.18     0.24     0.40            0.32     0.24     0.91           0.88    1.00
F6           9.90   15.39    9.48          46.16  -33.80    9.97          35.24   163.58            0.16     0.23     0.38            0.32     0.21     0.79           0.78    0.87
F7           8.22   15.78    7.96          46.69  -50.19   16.37          52.79   161.94            0.13     0.23     0.34            0.31     0.18     0.86           0.83    0.93
F8           5.85   14.80    6.14          45.36  -67.96   21.69          71.34   162.30            0.06     0.11     0.17            0.15     0.10     0.61           0.55    0.63
F9          31.56   36.23   28.73          66.69  -11.86    1.88          12.04   171.03            0.42     0.51     0.88            0.39     0.25     0.96           0.98    1.07
F10         27.96   35.91   26.00          66.45  -24.42    6.07          25.18   166.05            0.38     0.49     0.80            0.37     0.19     0.92           0.91    1.01
F11         25.05   35.66   23.91          66.26  -35.51    9.50          36.77   165.03            0.33     0.41     0.74            0.31     0.17     0.90           0.85    0.97
F12         21.26   34.83   20.45          65.62  -49.76   15.11          52.01   163.12            0.18     0.19     0.51            0.15     0.28     0.88           0.85    0.94
F13         39.69   51.43   61.50          76.94  -28.66  -21.09          35.58   216.35            0.23     0.20     0.18            0.12     0.25     0.14           0.27    0.31
F14         44.54   31.50   46.74          62.93   46.30  -29.40          54.85   327.59            0.39     0.45     0.41            0.38     0.51     0.23           0.57    0.68
F15         64.86   67.07   14.51          85.54    0.42   63.03          63.03   89.62            0.21     0.24     0.31            0.12     0.11     0.64           0.58    0.66
F16         18.63   19.58   17.13          51.36   -1.28   -2.27           2.65   238.57            0.33     0.38     0.57            0.43     0.32     0.77           0.83    0.94
F17         36.10   25.69   13.11          57.74   42.55   18.82          46.53   23.85            0.25     0.27     0.40            0.26     0.29     0.80           0.80    0.89
F18         32.13   44.53   17.69          72.58  -35.16   33.03          48.24   136.80            0.21     0.22     0.45            0.14     0.18     0.81           0.74    0.84
F19         25.10   24.57   48.12          56.65    6.13  -41.83          42.28   278.33            0.31     0.46     0.39            0.45     0.64     0.34           0.68    0.85
