targets/wolf_faust/transmissive/V041216.it8
IT8.7/1
ORIGINATOR "Wolf Faust"
DESCRIPTOR "Velvia (RVP 50), Type 3, L* a* b* (light D50, viewing angle 2)"
MANUFACTURER "Wolf Faust - http://www.coloraid.de"
CREATED "February 12, 2005"
PROD_DATE "2004:12"
DIFFUSE_GEOMETRY "opal"
SERIAL "V041216 Batch Average Data"
MATERIAL "For Fujichrome Velvia (RVP 50) Film"
KEYWORD "MEAN_DE" # Mean Delta E of samples compared to batch average
NUMBER_OF_FIELDS 17
BEGIN_DATA_FORMAT
SAMPLE_ID   XYZ_X   XYZ_Y   XYZ_Z          LAB_L   LAB_A   LAB_B          LAB_C   LAB_H          STDEV_X  STDEV_Y  STDEV_Z          STDEV_L  STDEV_A  STDEV_B        MEAN_DE  STDEV_DE
END_DATA_FORMAT
NUMBER_OF_SETS 288
BEGIN_DATA
A1           2.21    1.88    1.33          14.86    9.06    2.68           9.45   16.45            0.09     0.09     0.08            0.48     0.27     0.37           0.59    0.66
A2           2.72    1.87    1.06          14.78   19.50    6.30          20.49   17.89            0.10     0.08     0.07            0.46     0.22     0.37           0.55    0.63 
A3           3.28    1.88    0.93          14.82   29.18    8.34          30.35   15.96            0.14     0.09     0.07            0.49     0.24     0.38           0.57    0.66
A4           4.39    1.90    0.71          14.93   45.19   12.42          46.87   15.37            0.12     0.05     0.04            0.28     0.44     0.31           0.55    0.61 
A5           9.88    8.52    6.07          35.03   13.95    4.20          14.58   16.73            0.29     0.30     0.28            0.60     0.45     0.54           0.83    0.93
A6          12.00    8.62    5.29          35.23   28.76    8.31          29.94   16.10            0.38     0.31     0.26            0.62     0.44     0.59           0.87    0.96 
A7          13.99    8.51    4.45          35.02   42.79   12.43          44.56   16.20            0.51     0.36     0.24            0.72     0.29     0.42           0.81    0.89
A8          17.60    8.69    3.66          35.38   62.14   17.80          64.64   15.99            0.29     0.19     0.19            0.38     0.11     0.59           0.60    0.71 
A9          29.83   29.18   22.71          60.93    6.53    2.56           7.02   21.43            0.97     1.02     0.91            0.89     0.58     0.37           1.02    1.13
A10         31.99   29.29   21.53          61.03   14.08    5.02          14.96   19.63            0.99     1.00     0.83            0.88     0.52     0.35           0.97    1.08
A11         34.48   29.61   20.72          61.31   21.65    7.14          22.79   18.25            1.14     1.10     0.86            0.96     0.46     0.33           1.01    1.11
A12         39.70   29.44   18.10          61.16   39.38   12.44          41.30   17.53            0.69     0.77     0.74            0.67     0.75     0.56           0.98    1.15 
A13         72.09   76.10   66.23          89.90   -2.68   -3.27           4.23   230.92            0.66     0.47     0.13            0.22     0.45     0.26           0.49    0.56
A14         77.30   77.94   66.14          90.75    4.33   -1.72           4.66   338.38            0.33     0.48     0.22            0.22     0.29     0.19           0.35    0.41 
A15         78.40   80.36   63.05          91.85    1.81    3.10           3.60   59.24            0.20     0.18     0.64            0.08     0.06     0.50           0.42    0.51
A16         75.71   78.55   66.15          91.03   -0.07   -1.25           1.29   267.37            0.52     0.39     0.24            0.17     0.30     0.13           0.31    0.37
A17         76.25   76.52   64.49          90.10    5.05   -1.29           5.21   345.65            0.45     0.65     0.51            0.30     0.39     0.22           0.47    0.54
A18         71.69   75.82   59.36          89.77   -2.96    3.17           4.35   133.05            0.92     0.67     1.10            0.31     0.60     0.64           0.81    0.93 
A19         75.13   77.13   65.97          90.38    1.56   -2.20           2.71   305.54            0.52     0.51     0.19            0.23     0.13     0.24           0.30    0.36
A20          6.26    2.96    1.87          19.87   46.33    5.28          46.63    6.51            0.28     0.14     0.10            0.56     0.53     0.42           0.76    0.88 
A21         26.98   18.90   14.66          50.56   40.07    2.35          40.14    3.35            0.80     0.63     0.51            0.74     0.38     0.37           0.82    0.91
A22         55.15   50.73   33.24          76.51   16.29   11.80          20.13   35.92            1.01     1.17     1.00            0.71     0.63     0.63           1.05    1.14
B1           3.25    2.93    1.66          19.77    7.33    7.34          10.37   45.05            0.13     0.13     0.11            0.54     0.31     0.36           0.66    0.72
B2           3.91    2.95    1.00          19.85   17.23   15.87          23.43   42.66            0.14     0.13     0.07            0.51     0.30     0.39           0.63    0.71
B3           4.40    2.88    0.61          19.54   25.48   22.23          33.81   41.10            0.14     0.12     0.05            0.47     0.29     0.33           0.57    0.65
B4           5.57    3.00    0.09          20.05   37.90   32.87          50.17   40.92            0.17     0.11     0.00            0.44     0.21     0.69           0.70    0.85
B5          12.61   11.26    6.44          40.01   12.33   11.12          16.61   42.04            0.33     0.35     0.24            0.58     0.47     0.46           0.80    0.88
B6          14.59   11.25    4.24          39.99   25.08   22.23          33.51   41.55            0.41     0.36     0.20            0.59     0.52     0.62           0.91    1.00
B7          17.07   11.42    2.60          40.28   38.13   33.84          50.98   41.58            0.46     0.36     0.13            0.58     0.44     0.41           0.77    0.84
B8          21.13   11.34    0.89          40.15   59.43   52.66          79.40   41.54            0.27     0.22     0.07            0.37     0.29     0.57           0.62    0.74
B9          35.59   35.74   25.94          66.31    3.87    5.94           7.11   57.07            0.97     1.06     0.83            0.81     0.66     0.26           0.96    1.08
B10         37.67   35.92   23.43          66.45   10.08   10.73          14.73   46.83            1.11     1.17     0.81            0.89     0.65     0.34           1.02    1.16
B11         39.10   35.69   20.68          66.28   15.42   15.79          22.07   45.68            1.13     1.15     0.72            0.88     0.51     0.39           0.97    1.09
B12         44.02   35.33   14.58          66.00   31.53   29.18          42.96   42.78            0.69     0.86     0.54            0.66     0.84     0.30           0.94    1.11
B13         63.42   69.07   64.19          86.54   -7.16   -7.14          10.11   224.93            0.71     0.60     0.35            0.30     0.39     0.29           0.47    0.57
B14         68.44   65.77   61.70          84.87   11.21   -7.61          13.55   325.87            0.82     1.04     0.49            0.53     0.56     0.46           0.72    0.90
B15         70.43   72.99   47.80          88.44    0.10   13.36          13.36   89.53            0.73     0.77     1.04            0.37     0.18     0.77           0.78    0.87
B16         60.21   62.31   51.01          83.08    0.29    0.46           0.79   133.12            1.24     1.28     1.21            0.68     0.27     0.66           0.89    0.99
B17         66.54   64.65   49.36          84.30    9.50    4.43          10.50   24.98            0.93     1.18     1.16            0.61     0.63     0.65           0.98    1.09
B18         62.32   68.40   50.49          86.20   -8.24    6.43          10.46   142.07            1.06     0.90     1.07            0.45     0.56     0.64           0.85    0.97
B19         62.38   64.28   62.31          84.11    0.94   -9.52           9.57   275.61            1.03     1.15     0.43            0.59     0.44     0.62           0.82    0.96
B20          4.89    2.96    0.98          19.87   30.44   16.27          34.52   28.12            0.23     0.15     0.07            0.60     0.35     0.32           0.66    0.76
B21         16.72   11.11    4.06          39.76   38.47   22.86          44.74   30.72            0.54     0.40     0.16            0.67     0.32     0.43           0.75    0.86
B22         34.31   29.33   17.40          61.07   22.09   13.85          26.07   32.09            0.97     0.90     0.56            0.78     0.49     0.29           0.87    0.97
C1           6.31    6.18    3.35          29.85    3.84   10.35          11.04   69.68            0.22     0.24     0.18            0.59     0.44     0.41           0.77    0.85
C2           6.69    6.18    2.14          29.85    7.86   19.85          21.35   68.39            0.18     0.20     0.12            0.49     0.41     0.44           0.70    0.77
C3           7.21    6.30    1.14          30.14   11.71   31.66          33.76   69.71            0.19     0.20     0.09            0.49     0.49     0.48           0.76    0.85
C4           7.97    6.26    0.26          30.05   19.33   46.92          50.75   67.61            0.19     0.18     0.01            0.45     0.36     0.60           0.72    0.83
C5          24.24   23.66   11.83          55.74    6.34   19.03          20.06   71.57            0.60     0.69     0.41            0.70     0.60     0.52           0.94    1.06
C6          26.34   23.73    6.54          55.81   14.89   37.92          40.74   68.56            0.70     0.71     0.25            0.71     0.60     0.65           1.02    1.13
C7          28.19   23.44    3.18          55.51   23.58   55.74          60.52   67.08            0.70     0.67     0.15            0.68     0.56     0.47           0.90    0.99
C8          32.19   24.13    0.56          56.22   35.57   86.34          93.38   67.61            0.63     0.56     0.02            0.56     0.37     0.66           0.80    0.94
C9          41.91   42.56   29.22          71.25    2.63    8.96           9.35   73.71            1.05     1.15     0.88            0.79     0.61     0.32           0.91    1.05
C10         42.75   42.64   24.63          71.30    4.92   16.87          17.59   73.74            1.11     1.21     0.77            0.82     0.61     0.34           0.95    1.08
C11         43.94   42.54   20.44          71.23    8.75   24.81          26.32   70.57            1.15     1.23     0.66            0.83     0.54     0.48           0.97    1.10
C12         48.41   41.62    7.46          70.60   24.10   59.58          64.28   67.98            0.69     0.94     0.26            0.65     0.93     0.43           1.01    1.21
C13         54.17   62.75   63.34          83.31  -15.50  -11.89          19.54   217.50            0.64     0.52     0.24            0.28     0.46     0.34           0.49    0.63
C14         60.84   53.61   57.26          78.23   22.69  -14.59          26.98   327.25            0.80     1.09     0.56            0.63     0.87     0.55           0.98    1.21
C15         68.20   71.12   34.26          87.54   -0.81   29.34          29.35   91.59            0.65     0.72     0.85            0.35     0.16     0.74           0.73    0.84
C16         46.07   48.17   39.85          74.92   -1.06   -0.13           1.26   193.36            1.23     1.35     1.29            0.85     0.55     0.69           1.10    1.23
C17         57.17   51.40   36.49          76.92   19.52    7.86          21.05   21.92            0.97     1.23     1.24            0.74     0.86     0.75           1.22    1.36
C18         51.24   60.57   38.82          82.14  -18.06   13.67          22.65   142.86            0.98     0.81     0.87            0.44     0.70     0.55           0.85    0.99
C19         49.49   50.94   58.50          76.64    1.01  -18.61          18.65   273.08            1.04     1.19     0.48            0.72     0.70     0.78           1.08    1.27
C20         12.25    8.98    1.12          35.94   27.45   41.92          50.11   56.79            0.43     0.35     0.08            0.67     0.39     0.42           0.77    0.88
C21         22.17   20.71   11.29          52.63   10.48   15.28          18.54   55.57            0.74     0.70     0.34            0.78     0.53     0.57           0.99    1.10
C22         28.09   23.69   11.11          55.77   22.09   21.24          30.65   43.87            0.82     0.73     0.37            0.73     0.45     0.45           0.88    0.97
D1           4.23    4.47    2.41          25.16   -1.13    9.39           9.46   96.89            0.14     0.17     0.13            0.51     0.37     0.39           0.68    0.74
D2           4.11    4.33    1.47          24.72   -0.83   17.99          18.01   92.64            0.13     0.16     0.08            0.49     0.42     0.37           0.66    0.75
D3           4.14    4.44    0.82          25.06   -1.96   27.73          27.80   94.05            0.13     0.18     0.07            0.54     0.53     0.41           0.76    0.87
D4           4.11    4.43    0.29          25.04   -2.22   37.65          37.72   93.36            0.11     0.14     0.01            0.45     0.38     0.60           0.71    0.84
D5          18.04   19.07    9.44          50.76   -1.82   18.04          18.14   95.77            0.41     0.50     0.33            0.58     0.57     0.46           0.83    0.93
D6          17.72   18.85    5.10          50.51   -2.41   35.61          35.69   93.87            0.43     0.50     0.20            0.59     0.52     0.49           0.84    0.93
D7          17.75   18.93    2.40          50.60   -2.67   53.32          53.39   92.87            0.40     0.47     0.12            0.56     0.58     0.44           0.80    0.91
D8          17.62   18.92    0.72          50.59   -3.31   73.57          73.64   92.58            0.41     0.45     0.02            0.53     0.34     0.59           0.75    0.86
D9          47.05   49.38   25.34          75.68   -1.54   23.15          23.21   93.80            0.66     0.77     0.50            0.48     0.46     0.34           0.65    0.74
D10         46.50   48.99   14.21          75.44   -2.05   46.38          46.43   92.53            0.68     0.75     0.34            0.46     0.38     0.33           0.60    0.68
D11         46.37   49.04    7.07          75.48   -2.56   69.55          69.60   92.11            0.70     0.73     0.18            0.45     0.39     0.36           0.62    0.70
D12         46.16   48.93    2.90          75.41   -2.86   92.07          92.11   91.78            0.60     0.55     0.10            0.34     0.27     0.27           0.45    0.51
D13         48.39   58.45   62.55          80.99  -20.69  -15.14          25.64   216.20            0.49     0.41     0.16            0.23     0.38     0.28           0.42    0.53
D14         54.58   44.52   53.36          72.57   31.82  -20.23          37.70   327.55            0.66     0.87     0.53            0.58     0.82     0.46           0.93    1.10
D15         66.79   69.65   25.17          86.83   -0.82   42.66          42.66   91.10            0.49     0.55     0.48            0.27     0.15     0.51           0.50    0.60
D16         35.25   36.84   30.49          67.15   -0.94   -0.13           1.09   200.18            1.06     1.19     1.02            0.89     0.58     0.42           1.01    1.15
D17         49.16   41.04   26.44          70.20   27.88   11.78          30.27   22.90            0.81     1.00     0.95            0.70     0.84     0.56           1.08    1.23
D18         43.56   54.49   29.53          78.75  -24.73   21.37          32.69   139.18            0.69     0.59     0.74            0.34     0.54     0.67           0.79    0.93
D19         39.85   40.48   54.86          69.81    2.57  -26.61          26.74   275.51            0.91     1.05     0.50            0.74     0.75     0.75           1.09    1.29
D20          2.98    3.00    1.07          20.05    1.51   15.17          15.24   84.32            0.13     0.14     0.08            0.56     0.28     0.31           0.59    0.70
D21         31.30   28.78    1.48          60.58   13.50   79.68          80.81   80.38            0.77     0.81     0.09            0.71     0.52     0.37           0.81    0.95
D22         40.77   44.72   56.99          72.70   -7.08  -23.86          24.89   253.47            0.87     0.95     0.38            0.63     0.37     0.71           0.88    1.02
E1           5.47    6.22    3.44          29.96   -6.05    9.88          11.60   121.47            0.17     0.21     0.16            0.52     0.47     0.47           0.77    0.84
E2           5.00    6.18    2.29          29.86  -11.25   18.58          21.72   121.18            0.16     0.23     0.11            0.56     0.50     0.39           0.77    0.85
E3           4.59    6.18    1.28          29.86  -16.44   29.15          33.47   119.42            0.14     0.23     0.08            0.56     0.57     0.41           0.79    0.89
E4           4.16    6.33    0.46          30.22  -23.90   43.40          49.55   118.84            0.12     0.21     0.02            0.52     0.53     0.62           0.82    0.97
E5          25.18   28.82   15.40          60.62  -10.65   17.82          20.76   120.86            0.67     0.86     0.57            0.76     0.56     0.44           0.93    1.04
E6          22.95   28.63    9.52          60.45  -19.66   34.46          39.68   119.70            0.53     0.70     0.34            0.62     0.57     0.49           0.89    0.97
E7          20.96   28.72    5.20          60.53  -29.21   52.37          59.97   119.15            0.41     0.53     0.19            0.47     0.35     0.42           0.65    0.73
E8          19.09   28.37    2.75          60.22  -37.14   67.06          76.66   118.98            0.29     0.38     0.12            0.34     0.10     0.32           0.40    0.48
E9          45.52   49.72   33.44          75.90   -6.79   10.44          12.45   123.00            0.89     0.97     0.77            0.60     0.39     0.42           0.74    0.83
E10         43.21   49.47   25.86          75.74  -12.83   22.32          25.75   119.88            0.84     0.88     0.49            0.54     0.41     0.33           0.68    0.76
E11         40.83   48.69   20.17          75.26  -17.90   32.30          36.93   119.00            0.68     0.70     0.35            0.44     0.43     0.34           0.61    0.70
E12         38.03   48.56   13.54          75.18  -26.33   47.71          54.49   118.89            0.52     0.46     0.25            0.29     0.47     0.35           0.56    0.65
E13         43.52   54.58   61.72          78.80  -25.07  -18.10          30.92   215.83            0.55     0.48     0.21            0.28     0.42     0.28           0.49    0.58
E14         48.85   36.87   49.49          67.18   40.06  -25.25          47.36   327.78            0.63     0.79     0.54            0.59     0.84     0.47           0.92    1.13
E15         65.73   68.21   18.60          86.11   -0.09   54.36          54.36   90.10            0.50     0.58     0.41            0.29     0.17     0.43           0.46    0.54
E16         25.61   26.89   22.26          58.87   -1.33   -0.14           1.41   190.08            0.75     0.82     0.65            0.76     0.51     0.35           0.85    0.97
E17         41.77   32.10   18.04          63.42   35.99   16.46          39.58   24.58            0.57     0.68     0.53            0.56     0.72     0.46           0.86    1.02
E18         37.04   48.92   22.31          75.40  -30.51   28.26          41.59   137.19            0.59     0.53     0.53            0.33     0.52     0.56           0.67    0.83
E19         31.36   31.34   51.14          62.79    4.21  -34.66          34.92   276.92            0.81     0.87     0.43            0.72     0.65     0.81           1.12    1.26
E20          7.16    8.51    1.32          35.02   -9.79   37.63          38.88   104.59            0.26     0.32     0.08            0.62     0.36     0.26           0.68    0.77
E21         24.99   29.77    6.29          61.46  -15.09   48.77          51.05   107.19            0.54     0.62     0.18            0.53     0.47     0.45           0.73    0.84
E22          9.05   19.02   13.78          50.71  -60.35    4.89          60.55   175.37            0.19     0.32     0.33            0.37     0.15     0.29           0.42    0.50
F1           3.62    4.49    3.21          25.22  -10.23    3.30          10.75   162.11            0.14     0.18     0.14            0.56     0.39     0.21           0.65    0.72
F2           2.94    4.42    2.67          25.01  -20.66    7.01          21.82   161.26            0.11     0.17     0.15            0.54     0.39     0.40           0.70    0.77
F3           2.47    4.46    2.32          25.14  -29.90   10.12          31.57   161.30            0.10     0.19     0.13            0.58     0.54     0.40           0.80    0.88
F4           1.63    4.56    1.66          25.44  -50.33   17.07          53.15   161.26            0.06     0.17     0.11            0.52     0.69     0.61           0.97    1.06
F5          11.68   14.76   10.18          45.30  -16.81    6.13          17.89   159.94            0.28     0.41     0.29            0.57     0.63     0.22           0.75    0.88
F6           9.54   14.91    8.68          45.50  -33.82   11.63          35.76   161.03            0.24     0.40     0.27            0.55     0.56     0.30           0.73    0.84
F7           7.76   14.93    7.26          45.53  -49.38   17.14          52.27   160.86            0.19     0.35     0.28            0.49     0.38     0.43           0.66    0.76
F8           5.72   14.51    5.76          44.96  -67.78   22.74          71.50   161.45            0.08     0.15     0.14            0.21     0.03     0.40           0.38    0.45
F9          30.49   35.31   26.38          65.98  -12.74    4.60          13.55   160.13            0.79     0.96     0.76            0.74     0.45     0.26           0.77    0.91
F10         27.09   34.97   24.20          65.73  -24.81    8.04          26.08   162.05            0.63     0.77     0.57            0.60     0.38     0.39           0.73    0.81
F11         24.32   34.71   21.81          65.52  -35.49   12.20          37.54   161.03            0.52     0.60     0.39            0.47     0.37     0.39           0.64    0.71
F12         20.62   34.08   19.07          65.02  -50.22   16.96          53.01   161.34            0.31     0.34     0.31            0.27     0.37     0.39           0.54    0.60
F13         39.03   50.77   60.76          76.54  -29.01  -21.04          35.84   215.96            0.41     0.36     0.11            0.22     0.34     0.29           0.40    0.50
F14         43.40   30.18   45.48          61.81   47.81  -29.82          56.35   328.05            0.44     0.51     0.45            0.44     0.60     0.28           0.67    0.79
F15         64.70   66.65   13.80          85.32    0.99   64.51          64.51   89.13            0.33     0.40     0.27            0.20     0.20     0.37           0.39    0.47
F16         17.79   18.62   15.55          50.23   -0.87   -0.47           1.07   212.01            0.53     0.57     0.45            0.68     0.44     0.27           0.77    0.85
F17         35.46   24.98   11.98          57.05   43.36   20.84          48.11   25.68            0.43     0.48     0.35            0.47     0.59     0.40           0.71    0.85
F18         31.79   44.06   16.80          72.27  -35.07   34.53          49.22   135.44            0.64     0.58     0.35            0.39     0.63     0.30           0.66    0.80
F19         24.24   23.49   47.12          55.57    7.08  -42.53          43.12   279.46            0.54     0.55     0.35            0.56     0.57     0.62           0.89    1.01
