targets/wolf_faust/transmissive/V041214.it8
IT8.7/1
ORIGINATOR "Wolf Faust"
DESCRIPTOR "Velvia (RVP 50), Type 3, L* a* b* (light D50, viewing angle 2)"
MANUFACTURER "Wolf Faust - http://www.coloraid.de"
CREATED "February 06, 2005"
PROD_DATE "2004:12"
DIFFUSE_GEOMETRY "opal"
SERIAL "V041214 Batch Average Data"
MATERIAL "For Fujichrome Velvia (RVP 50) Film"
KEYWORD "MEAN_DE" # Mean Delta E of samples compared to batch average
NUMBER_OF_FIELDS 17
BEGIN_DATA_FORMAT
SAMPLE_ID   XYZ_X   XYZ_Y   XYZ_Z          LAB_L   LAB_A   LAB_B          LAB_C   LAB_H          STDEV_X  STDEV_Y  STDEV_Z          STDEV_L  STDEV_A  STDEV_B        MEAN_DE  STDEV_DE
END_DATA_FORMAT
NUMBER_OF_SETS 288
BEGIN_DATA
A1           2.42    2.07    1.49          15.84    9.07    2.42           9.39   14.94            0.04     0.04     0.03            0.21     0.29     0.29           0.42    0.46
A2           2.90    1.99    1.22          15.44   20.01    5.07          20.64   14.21            0.05     0.04     0.04            0.22     0.27     0.31           0.41    0.47 
A3           3.51    2.00    1.01          15.49   30.04    8.15          31.13   15.18            0.05     0.04     0.03            0.19     0.20     0.34           0.37    0.44
A4           4.61    1.99    0.71          15.42   46.06   13.12          47.90   15.89            0.05     0.02     0.03            0.12     0.18     0.44           0.41    0.49 
A5          10.43    9.12    6.54          36.20   13.20    4.11          13.84   17.30            0.15     0.16     0.16            0.30     0.50     0.62           0.72    0.85
A6          12.24    8.85    5.45          35.69   28.46    8.28          29.64   16.21            0.20     0.17     0.20            0.34     0.36     0.65           0.69    0.81 
A7          14.77    8.94    4.66          35.87   43.92   12.70          45.72   16.13            0.17     0.10     0.12            0.19     0.45     0.59           0.64    0.76
A8          17.77    8.83    3.96          35.65   61.92   16.35          64.04   14.79            0.12     0.08     0.10            0.16     0.06     0.54           0.47    0.56 
A9          30.59   29.95   23.63          61.61    6.49    2.00           6.81   17.06            0.44     0.57     0.59            0.49     0.73     0.69           1.00    1.12
A10         32.97   30.29   22.81          61.90   13.84    4.05          14.44   16.28            0.46     0.46     0.52            0.39     0.62     0.81           0.95    1.09
A11         34.92   29.88   21.60          61.55   22.13    5.76          22.87   14.58            0.31     0.43     0.51            0.37     0.67     0.72           0.95    1.05
A12         39.93   29.65   19.00          61.35   39.28   10.78          40.74   15.35            0.34     0.38     0.39            0.33     0.37     0.61           0.68    0.78 
A13         72.54   76.54   66.59          90.11   -2.62   -3.26           4.18   231.19            0.24     0.22     0.11            0.10     0.17     0.15           0.20    0.25
A14         77.49   78.26   66.38          90.90    4.09   -1.70           4.43   337.47            0.21     0.29     0.15            0.13     0.17     0.14           0.22    0.26 
A15         78.52   80.64   63.28          91.97    1.54    3.10           3.46   63.55            0.21     0.27     0.24            0.12     0.11     0.16           0.19    0.23
A16         77.03   79.60   66.62          91.51    0.55   -0.87           1.04   302.39            0.15     0.19     0.11            0.08     0.12     0.12           0.17    0.19
A17         76.57   77.09   64.72          90.36    4.55   -1.06           4.67   346.95            0.27     0.39     0.27            0.18     0.24     0.21           0.29    0.37
A18         71.63   75.94   59.00          89.83   -3.33    3.64           4.94   132.72            0.29     0.24     0.66            0.11     0.15     0.52           0.45    0.55 
A19         75.62   77.71   66.31          90.65    1.41   -2.07           2.50   304.30            0.31     0.31     0.13            0.14     0.13     0.15           0.21    0.25
A20          6.70    3.15    2.03          20.65   47.61    5.03          47.87    6.03            0.09     0.04     0.07            0.16     0.24     0.53           0.52    0.60 
A21         27.93   19.84   15.88          51.65   39.23    1.19          39.25    1.73            0.34     0.28     0.33            0.32     0.54     0.38           0.63    0.73
A22         54.99   50.52   33.97          76.39   16.43   10.51          19.50   32.62            0.65     0.77     0.66            0.47     0.54     0.30           0.69    0.77
B1           3.70    3.33    1.94          21.33    7.75    7.05          10.49   42.30            0.08     0.09     0.07            0.32     0.31     0.36           0.51    0.57
B2           4.10    3.15    1.14          20.65   16.51   15.25          22.48   42.73            0.08     0.07     0.04            0.28     0.35     0.29           0.46    0.54
B3           4.74    3.17    0.69          20.71   24.87   22.74          33.70   42.44            0.06     0.05     0.03            0.20     0.35     0.22           0.40    0.45
B4           5.60    3.05    0.09          20.26   37.35   33.28          50.03   41.70            0.07     0.04     0.00            0.16     0.28     0.23           0.35    0.39
B5          13.30   11.91    6.76          41.08   12.29   11.57          16.88   43.25            0.24     0.27     0.23            0.43     0.51     0.64           0.76    0.93
B6          15.16   11.75    4.36          40.81   25.00   22.92          33.91   42.51            0.28     0.26     0.16            0.42     0.51     0.56           0.71    0.87
B7          17.45   11.65    2.64          40.66   38.58   34.22          51.57   41.57            0.28     0.21     0.09            0.35     0.43     0.55           0.64    0.78
B8          21.12   11.39    0.96          40.23   59.04   51.62          78.43   41.16            0.13     0.10     0.04            0.17     0.10     0.38           0.37    0.43
B9          36.14   36.01   27.30          66.53    4.79    3.97           6.24   39.67            0.60     0.61     0.85            0.47     0.70     0.68           0.93    1.08
B10         38.38   36.81   24.63          67.13    9.48    9.67          13.55   45.56            0.61     0.55     0.50            0.42     0.64     0.66           0.91    1.01
B11         39.74   36.38   21.73          66.81   15.17   14.58          21.05   43.87            0.61     0.60     0.55            0.46     0.59     0.63           0.82    0.97
B12         44.60   36.09   15.67          66.59   30.72   27.43          41.19   41.77            0.26     0.34     0.36            0.26     0.39     0.51           0.59    0.69
B13         64.00   69.57   64.16          86.79   -6.90   -6.69           9.61   224.14            0.32     0.28     0.13            0.14     0.37     0.21           0.40    0.45
B14         69.20   66.79   61.90          85.40   10.60   -6.89          12.64   326.97            0.53     0.70     0.35            0.35     0.46     0.31           0.56    0.65
B15         70.42   73.07   47.48          88.48   -0.07   13.80          13.80   90.26            0.28     0.37     0.46            0.18     0.33     0.42           0.49    0.56
B16         60.75   62.76   51.13          83.31    0.55    0.73           1.08   47.35            0.77     0.76     0.81            0.40     0.47     0.51           0.71    0.80
B17         66.81   64.99   49.68          84.48    9.35    4.37          10.33   25.06            0.57     0.73     0.79            0.38     0.42     0.58           0.72    0.81
B18         62.27   68.43   50.06          86.22   -8.41    6.94          10.91   140.51            0.27     0.28     0.54            0.14     0.25     0.46           0.48    0.54
B19         63.17   64.78   62.30          84.37    1.62   -9.06           9.21   280.15            0.66     0.70     0.28            0.36     0.33     0.38           0.53    0.62
B20          5.34    3.22    1.03          20.89   31.53   17.25          35.94   28.68            0.09     0.05     0.03            0.21     0.31     0.25           0.37    0.45
B21         17.76   11.88    4.31          41.02   38.68   23.56          45.29   31.35            0.24     0.17     0.14            0.28     0.48     0.50           0.64    0.75
B22         34.99   29.88   18.25          61.55   22.38   12.77          25.77   29.71            0.43     0.43     0.47            0.37     0.51     0.52           0.71    0.81
C1           6.68    6.56    3.61          30.78    3.67   10.23          10.87   70.28            0.12     0.12     0.13            0.30     0.47     0.50           0.67    0.75
C2           7.10    6.54    2.24          30.74    8.11   20.49          22.04   68.43            0.11     0.11     0.08            0.27     0.57     0.33           0.63    0.72
C3           7.56    6.52    1.20          30.68   12.81   31.70          34.20   68.01            0.10     0.11     0.05            0.27     0.54     0.20           0.55    0.64
C4           8.11    6.42    0.27          30.44   18.90   47.47          51.09   68.29            0.12     0.10     0.01            0.25     0.44     0.37           0.53    0.63
C5          24.91   24.11   12.20          56.20    7.22   18.75          20.10   68.94            0.51     0.58     0.40            0.58     0.72     0.66           0.94    1.14
C6          26.92   24.32    6.79          56.40   14.72   37.85          40.61   68.75            0.48     0.52     0.22            0.51     0.70     0.60           0.86    1.05
C7          28.97   24.48    3.35          56.56   22.13   56.40          60.59   68.58            0.35     0.31     0.09            0.30     0.74     0.39           0.76    0.89
C8          32.12   24.15    0.56          56.24   35.23   86.34          93.25   67.80            0.17     0.14     0.01            0.14     0.57     0.08           0.47    0.59
C9          42.15   42.81   30.14          71.42    2.63    7.78           8.24   71.45            0.62     0.64     0.88            0.43     0.77     0.67           0.99    1.11
C10         43.01   42.83   26.00          71.44    5.13   14.68          15.56   70.79            0.62     0.63     0.69            0.43     0.76     0.52           0.89    1.01
C11         44.40   42.99   21.34          71.55    8.76   23.52          25.10   69.58            0.64     0.61     0.52            0.42     0.50     0.70           0.79    0.96
C12         48.91   42.38    8.05          71.13   23.17   58.18          62.63   68.28            0.26     0.38     0.16            0.26     0.40     0.33           0.51    0.58
C13         55.02   63.47   63.40          83.69  -14.97  -11.30          18.76   217.05            0.35     0.27     0.12            0.14     0.36     0.23           0.39    0.45
C14         62.11   55.37   57.64          79.25   21.22  -13.22          25.00   328.08            0.54     0.72     0.37            0.41     0.55     0.36           0.64    0.77
C15         68.31   71.27   34.80          87.62   -0.90   28.67          28.69   91.81            0.28     0.35     0.44            0.17     0.27     0.40           0.43    0.51
C16         47.06   49.08   40.77          75.50   -0.73   -0.35           0.95   213.20            0.81     0.83     0.89            0.51     0.48     0.46           0.71    0.84
C17         57.54   51.91   37.34          77.23   19.10    7.19          20.42   20.65            0.51     0.73     0.38            0.44     0.65     0.44           0.75    0.89
C18         51.37   60.71   38.90          82.22  -18.04   13.70          22.65   142.78            0.28     0.25     0.36            0.14     0.21     0.28           0.32    0.38
C19         50.84   52.26   58.78          77.44    1.18  -17.51          17.56   273.86            0.72     0.81     0.32            0.48     0.51     0.52           0.73    0.88
C20         12.81    9.37    1.16          36.68   28.07   42.50          50.94   56.55            0.17     0.14     0.03            0.26     0.46     0.26           0.50    0.58
C21         23.11   21.53   11.90          53.52   10.91   15.01          18.56   54.00            0.40     0.42     0.35            0.45     0.65     0.56           0.86    0.97
C22         28.73   24.36   11.43          56.45   21.68   21.43          30.48   44.67            0.42     0.42     0.35            0.42     0.58     0.46           0.75    0.85
D1           4.53    4.80    2.62          26.14   -1.20    9.35           9.43   97.34            0.10     0.12     0.09            0.35     0.35     0.35           0.55    0.61
D2           4.47    4.78    1.63          26.08   -1.80   18.47          18.56   95.57            0.08     0.09     0.06            0.27     0.42     0.29           0.51    0.58
D3           4.33    4.65    0.87          25.71   -2.08   28.01          28.09   94.25            0.07     0.09     0.03            0.26     0.45     0.24           0.50    0.57
D4           4.31    4.67    0.30          25.76   -2.58   38.71          38.80   93.80            0.06     0.08     0.01            0.25     0.41     0.28           0.48    0.56
D5          18.45   19.44    9.83          51.19   -1.48   17.45          17.52   94.83            0.38     0.45     0.33            0.52     0.57     0.71           0.85    1.05
D6          18.33   19.39    5.20          51.14   -1.87   36.15          36.20   92.96            0.27     0.30     0.16            0.35     0.73     0.25           0.72    0.85
D7          18.17   19.42    2.55          51.17   -2.86   53.06          53.14   93.09            0.26     0.30     0.08            0.34     0.65     0.21           0.64    0.76
D8          18.24   19.61    0.75          51.39   -3.44   74.48          74.56   92.64            0.18     0.21     0.01            0.24     0.53     0.33           0.59    0.67
D9          47.55   49.91   26.65          76.01   -1.59   21.44          21.50   94.27            0.64     0.72     0.78            0.44     0.62     0.59           0.85    0.97
D10         47.06   49.64   14.87          75.85   -2.24   45.41          45.46   92.82            0.66     0.72     0.43            0.44     0.50     0.65           0.78    0.93
D11         46.85   49.58    7.13          75.81   -2.65   69.86          69.91   92.17            0.56     0.60     0.18            0.37     0.53     0.42           0.66    0.77
D12         46.53   49.29    3.06          75.63   -2.76   91.29          91.34   91.73            0.53     0.42     0.08            0.26     0.43     0.41           0.53    0.65
D13         49.22   59.16   62.67          81.38  -20.12  -14.58          24.85   215.94            0.37     0.32     0.19            0.18     0.31     0.26           0.36    0.44
D14         56.13   46.68   54.04          73.98   29.64  -18.54          34.96   327.98            0.57     0.73     0.48            0.47     0.62     0.34           0.73    0.85
D15         66.75   69.65   25.64          86.82   -0.89   41.83          41.84   91.23            0.23     0.33     0.38            0.16     0.27     0.45           0.45    0.55
D16         35.98   37.69   30.94          67.79   -1.20    0.25           1.30   163.98            0.42     0.58     0.51            0.43     0.73     0.42           0.80    0.95
D17         49.53   41.56   27.02          70.57   27.29   11.40          29.57   22.69            0.51     0.66     0.43            0.46     0.62     0.22           0.66    0.80
D18         43.93   54.81   29.77          78.93  -24.45   21.30          32.43   138.95            0.33     0.29     0.37            0.17     0.27     0.45           0.42    0.55
D19         41.39   42.23   55.47          71.03    2.05  -25.15          25.24   274.65            0.76     0.85     0.44            0.59     0.69     0.56           0.95    1.07
D20          3.22    3.23    1.16          20.93    1.83   15.47          15.58   83.25            0.05     0.06     0.03            0.21     0.31     0.17           0.36    0.42
D21         32.46   29.94    1.46          61.60   13.32   81.67          82.75   80.74            0.48     0.46     0.04            0.40     0.59     0.31           0.64    0.78
D22         41.78   45.50   57.09          73.21   -6.20  -23.07          23.90   254.96            0.64     0.69     0.36            0.45     0.71     0.44           0.83    0.95
E1           5.90    6.73    3.73          31.19   -6.39   10.14          11.99   122.20            0.11     0.14     0.12            0.34     0.39     0.41           0.57    0.66
E2           5.37    6.61    2.37          30.90  -11.18   19.59          22.56   119.70            0.08     0.13     0.07            0.31     0.49     0.21           0.54    0.62
E3           4.91    6.56    1.36          30.79  -16.38   29.75          33.96   118.83            0.07     0.12     0.03            0.27     0.34     0.36           0.45    0.57
E4           4.38    6.67    0.49          31.04  -24.32   44.34          50.58   118.74            0.05     0.09     0.01            0.22     0.37     0.30           0.46    0.53
E5          25.73   29.39   16.01          61.12  -10.52   17.19          20.16   121.46            0.42     0.55     0.47            0.48     0.58     0.67           0.85    1.00
E6          23.55   29.33    9.67          61.07  -19.67   35.04          40.18   119.31            0.34     0.49     0.26            0.43     0.52     0.48           0.71    0.83
E7          21.46   29.32    5.33          61.07  -29.20   52.64          60.19   119.02            0.26     0.37     0.12            0.32     0.38     0.35           0.53    0.61
E8          19.36   28.57    2.79          60.40  -36.52   67.06          76.36   118.58            0.18     0.21     0.06            0.19     0.15     0.28           0.33    0.37
E9          45.73   49.73   34.06          75.90   -6.21    9.55          11.40   122.99            0.31     0.49     0.55            0.30     0.65     0.45           0.76    0.84
E10         43.17   49.44   26.90          75.72  -12.84   20.50          24.20   122.06            0.34     0.49     0.64            0.30     0.65     0.58           0.80    0.92
E11         41.43   49.61   20.79          75.83  -18.53   32.01          36.99   120.06            0.24     0.34     0.48            0.21     0.56     0.66           0.77    0.89
E12         38.58   49.01   14.02          75.46  -25.78   46.93          53.54   118.79            0.25     0.31     0.25            0.19     0.39     0.62           0.64    0.75
E13         44.11   55.05   61.73          79.07  -24.53  -17.64          30.22   215.72            0.16     0.18     0.36            0.10     0.29     0.25           0.31    0.39
E14         49.87   38.33   49.86          68.26   38.15  -23.80          44.97   328.04            0.52     0.55     0.60            0.40     0.66     0.38           0.74    0.86
E15         65.32   67.84   18.71          85.93   -0.22   53.78          53.78   90.23            0.36     0.39     0.30            0.20     0.26     0.43           0.44    0.54
E16         26.62   27.86   22.70          59.76   -1.00    0.55           1.25   153.43            0.52     0.55     0.64            0.50     0.45     0.53           0.72    0.85
E17         42.33   32.87   18.64          64.05   34.94   16.22          38.52   24.90            0.36     0.45     0.38            0.36     0.57     0.30           0.64    0.74
E18         37.57   49.32   22.43          75.65  -29.85   28.47          41.25   136.36            0.17     0.18     0.32            0.11     0.34     0.63           0.57    0.72
E19         32.34   32.23   51.21          63.53    4.57  -33.47          33.78   277.76            0.56     0.63     0.40            0.51     0.63     0.65           0.86    1.04
E20          7.46    8.86    1.46          35.70   -9.79   37.04          38.31   104.80            0.10     0.11     0.02            0.21     0.28     0.23           0.35    0.42
E21         25.71   30.55    6.53          62.12  -14.93   48.84          51.07   107.00            0.42     0.41     0.11            0.35     0.42     0.36           0.51    0.66
E22          9.35   19.58   14.40          51.36  -60.60    4.37          60.76   175.87            0.12     0.21     0.26            0.24     0.22     0.29           0.37    0.43
F1           3.97    4.92    3.50          26.49  -10.49    3.55          11.08   161.30            0.06     0.09     0.10            0.27     0.35     0.41           0.52    0.60
F2           3.19    4.72    2.90          25.92  -20.13    6.79          21.25   161.34            0.07     0.12     0.10            0.36     0.42     0.25           0.52    0.61
F3           2.61    4.71    2.46          25.88  -30.32   10.20          31.99   161.40            0.05     0.09     0.08            0.28     0.39     0.32           0.47    0.57
F4           1.70    4.75    1.69          26.02  -51.11   17.69          54.09   160.91            0.04     0.10     0.06            0.31     0.33     0.30           0.46    0.55
F5          12.18   15.27   10.85          46.00  -16.38    5.19          17.19   162.41            0.23     0.34     0.33            0.46     0.49     0.52           0.72    0.86
F6           9.76   15.31    8.87          46.05  -34.44   11.90          36.44   160.93            0.18     0.32     0.26            0.43     0.39     0.41           0.59    0.71
F7           8.02   15.44    7.39          46.22  -49.91   17.82          53.00   160.36            0.15     0.32     0.18            0.42     0.44     0.29           0.59    0.68
F8           5.79   14.64    5.74          45.14  -67.75   23.17          71.60   161.12            0.09     0.18     0.10            0.25     0.11     0.20           0.30    0.34
F9          31.00   35.57   27.46          66.19  -11.76    3.12          12.17   165.09            0.50     0.70     0.59            0.54     0.70     0.28           0.82    0.92
F10         27.70   35.46   24.62          66.11  -24.01    7.92          25.28   161.72            0.44     0.65     0.53            0.50     0.59     0.42           0.78    0.88
F11         24.90   35.43   22.62          66.08  -35.40   11.61          37.27   161.84            0.32     0.50     0.52            0.39     0.45     0.59           0.75    0.84
F12         21.20   34.73   19.93          65.54  -49.69   16.04          52.21   162.11            0.20     0.26     0.34            0.20     0.10     0.55           0.51    0.59
F13         39.79   51.50   61.11          76.98  -28.54  -20.63          35.21   215.87            0.39     0.41     0.29            0.25     0.19     0.19           0.28    0.36
F14         44.07   31.04   45.70          62.54   46.63  -28.83          54.82   328.27            0.42     0.48     0.47            0.40     0.51     0.19           0.51    0.67
F15         64.75   66.75   14.00          85.38    0.87   64.06          64.07   89.23            0.41     0.47     0.23            0.24     0.28     0.36           0.44    0.52
F16         18.62   19.47   16.10          51.23   -0.83   -0.08           1.03   184.23            0.40     0.43     0.43            0.50     0.42     0.62           0.75    0.90
F17         36.13   25.75   12.48          57.80   42.37   20.68          47.14   26.02            0.45     0.45     0.27            0.42     0.36     0.32           0.53    0.64
F18         32.12   44.40   17.02          72.49  -34.82   34.42          48.96   135.34            0.36     0.39     0.29            0.26     0.27     0.52           0.53    0.64
F19         24.94   24.12   47.36          56.20    7.34  -41.71          42.35   279.98            0.53     0.62     0.51            0.61     0.53     0.49           0.78    0.95
