targets/wolf_faust/transmissive/V041217.it8
IT8.7/1
ORIGINATOR "Wolf Faust"
DESCRIPTOR "Velvia (RVP 50), Type 3, L* a* b* (light D50, viewing angle 2)"
MANUFACTURER "Wolf Faust - http://www.coloraid.de"
CREATED "February 12, 2005"
PROD_DATE "2004:12"
DIFFUSE_GEOMETRY "opal"
SERIAL "V041217 Batch Average Data"
MATERIAL "For Fujichrome Velvia (RVP 50) Film"
KEYWORD "MEAN_DE" # Mean Delta E of samples compared to batch average
NUMBER_OF_FIELDS 17
BEGIN_DATA_FORMAT
SAMPLE_ID   XYZ_X   XYZ_Y   XYZ_Z          LAB_L   LAB_A   LAB_B          LAB_C   LAB_H          STDEV_X  STDEV_Y  STDEV_Z          STDEV_L  STDEV_A  STDEV_B        MEAN_DE  STDEV_DE
END_DATA_FORMAT
NUMBER_OF_SETS 288
BEGIN_DATA
A1           2.14    1.84    1.31          14.61    8.60    2.54           8.97   16.44            0.04     0.03     0.03            0.18     0.20     0.32           0.36    0.42
A2           2.64    1.82    1.08          14.52   19.19    5.45          19.95   15.84            0.04     0.03     0.03            0.16     0.26     0.28           0.35    0.41 
A3           3.11    1.77    0.96          14.24   28.78    6.79          29.57   13.28            0.06     0.04     0.03            0.22     0.25     0.36           0.43    0.49
A4           4.21    1.82    0.70          14.52   44.49   11.84          46.04   14.90            0.07     0.03     0.01            0.16     0.25     0.46           0.47    0.55 
A5           9.46    8.21    6.14          34.41   13.28    2.81          13.59   11.93            0.13     0.13     0.13            0.27     0.25     0.62           0.64    0.72
A6          11.25    8.16    5.22          34.32   27.45    7.09          28.35   14.47            0.19     0.15     0.10            0.30     0.24     0.61           0.63    0.72 
A7          13.46    8.15    4.50          34.29   42.62   10.87          43.99   14.30            0.21     0.13     0.11            0.28     0.28     0.61           0.64    0.72
A8          17.49    8.60    3.67          35.20   62.35   17.45          64.75   15.64            0.12     0.08     0.11            0.16     0.05     0.49           0.44    0.52 
A9          29.00   28.50   22.93          60.34    5.97    1.12           6.11   10.43            0.41     0.44     0.46            0.39     0.26     0.77           0.79    0.90
A10         31.04   28.47   21.75          60.31   13.78    3.34          14.20   13.56            0.43     0.42     0.44            0.38     0.25     0.85           0.83    0.96
A11         33.39   28.54   20.52          60.37   21.92    5.92          22.71   15.10            0.45     0.44     0.44            0.40     0.27     0.72           0.76    0.87
A12         38.95   28.52   17.87          60.35   40.49   11.56          42.11   15.93            0.37     0.39     0.47            0.35     0.37     0.68           0.70    0.85 
A13         70.93   75.35   66.27          89.55   -3.63   -3.91           5.34   227.16            0.26     0.17     0.06            0.08     0.22     0.13           0.21    0.27
A14         77.17   77.69   66.20          90.64    4.58   -1.98           4.99   336.62            0.14     0.21     0.08            0.10     0.20     0.11           0.21    0.25 
A15         78.89   80.78   65.06          92.03    1.99    1.50           2.54   35.89            0.28     0.30     0.80            0.14     0.14     0.59           0.46    0.62
A16         76.13   78.87   66.52          91.18    0.15   -1.34           1.36   276.41            0.19     0.15     0.08            0.07     0.14     0.09           0.16    0.18
A17         76.44   76.69   65.27          90.18    5.10   -1.90           5.44   339.64            0.18     0.26     0.23            0.12     0.24     0.25           0.31    0.36
A18         71.23   75.58   59.18          89.66   -3.46    3.17           4.73   138.62            0.68     0.54     1.36            0.25     0.37     1.02           0.90    1.11 
A19         74.65   76.84   66.03          90.25    1.14   -2.49           2.74   294.67            0.29     0.32     0.13            0.15     0.07     0.15           0.17    0.22
A20          6.03    2.85    1.85          19.43   45.77    4.70          46.01    5.86            0.15     0.07     0.09            0.31     0.32     0.72           0.76    0.84 
A21         26.02   18.33   14.30          49.89   39.11    2.12          39.17    3.10            0.43     0.34     0.45            0.41     0.21     0.87           0.85    0.99
A22         54.29   49.92   32.79          76.02   16.23   11.63          19.98   35.60            0.61     0.70     0.92            0.43     0.38     0.83           0.83    1.01
B1           3.20    2.88    1.71          19.57    7.42    6.38           9.79   40.72            0.03     0.03     0.02            0.12     0.24     0.22           0.30    0.35
B2           3.69    2.81    1.04          19.28   16.36   14.32          21.74   41.21            0.05     0.04     0.02            0.16     0.22     0.19           0.29    0.33
B3           4.22    2.78    0.63          19.12   24.80   21.16          32.60   40.48            0.07     0.05     0.03            0.23     0.22     0.27           0.36    0.41
B4           5.19    2.78    0.09          19.16   37.19   31.33          48.63   40.11            0.07     0.04     0.00            0.18     0.24     0.26           0.34    0.40
B5          12.19   10.90    6.38          39.42   12.08   10.33          15.90   40.51            0.22     0.21     0.17            0.35     0.18     0.60           0.65    0.72
B6          13.83   10.64    4.09          38.96   24.83   21.28          32.71   40.59            0.31     0.25     0.13            0.43     0.24     0.61           0.70    0.78
B7          16.27   10.90    2.56          39.41   37.43   32.68          49.69   41.13            0.33     0.24     0.10            0.42     0.35     0.44           0.62    0.69
B8          20.99   11.22    0.92          39.95   59.62   51.73          78.93   40.95            0.18     0.14     0.03            0.23     0.14     0.23           0.29    0.36
B9          34.59   34.80   26.45          65.59    3.60    3.81           5.26   46.29            0.68     0.73     0.79            0.57     0.31     0.70           0.87    0.95
B10         36.50   35.03   23.35          65.77    9.22    9.68          13.38   46.34            0.55     0.55     0.63            0.43     0.26     0.70           0.78    0.86
B11         38.02   34.65   20.72          65.47   15.48   14.30          21.08   42.71            0.55     0.55     0.52            0.43     0.31     0.67           0.76    0.86
B12         43.16   34.24   14.27          65.15   32.66   28.51          43.35   41.12            0.22     0.24     0.31            0.19     0.18     0.55           0.50    0.61
B13         62.17   68.24   64.53          86.12   -8.23   -8.19          11.61   224.85            0.23     0.18     0.11            0.09     0.20     0.14           0.23    0.26
B14         67.62   64.90   61.90          84.43   11.32   -8.56          14.19   322.92            0.22     0.26     0.13            0.13     0.26     0.16           0.29    0.33
B15         70.43   73.27   49.03          88.58   -0.48   12.18          12.19   92.23            0.57     0.57     1.12            0.27     0.21     0.96           0.88    1.02
B16         59.46   61.74   51.63          82.77   -0.16   -0.75           1.00   249.94            1.02     1.01     1.47            0.54     0.28     0.98           1.01    1.16
B17         66.21   64.31   49.82          84.12    9.55    3.61          10.24   20.58            1.01     1.15     1.56            0.60     0.38     0.97           1.01    1.20
B18         61.71   68.16   51.00          86.09   -9.14    5.66          10.77   148.40            0.88     0.75     1.29            0.37     0.43     0.89           0.80    1.06
B19         61.52   63.57   62.43          83.74    0.54  -10.27          10.29   272.99            0.60     0.73     0.21            0.38     0.27     0.47           0.51    0.67
B20          4.78    2.88    0.92          19.57   30.41   16.59          34.64   28.61            0.11     0.07     0.04            0.29     0.30     0.37           0.49    0.56
B21         16.27   10.80    3.97          39.25   38.17   22.51          44.32   30.52            0.32     0.22     0.14            0.37     0.29     0.64           0.70    0.80
B22         33.05   28.25   17.23          60.11   21.86   12.59          25.24   29.92            0.45     0.42     0.48            0.38     0.20     0.92           0.87    1.01
C1           6.15    6.05    3.39          29.53    3.48    9.49          10.11   69.87            0.06     0.06     0.08            0.14     0.27     0.44           0.47    0.53
C2           6.43    5.95    2.02          29.27    7.62   19.97          21.37   69.11            0.08     0.08     0.07            0.20     0.20     0.45           0.46    0.53
C3           6.91    5.95    1.09          29.27   12.58   30.80          33.27   67.79            0.09     0.10     0.04            0.24     0.23     0.33           0.41    0.47
C4           7.47    5.90    0.26          29.15   18.53   45.38          49.02   67.79            0.11     0.11     0.01            0.28     0.26     0.37           0.42    0.53
C5          23.37   22.84   11.54          54.90    6.11   18.46          19.44   71.67            0.45     0.46     0.32            0.48     0.21     0.46           0.63    0.70
C6          25.16   22.65    6.49          54.71   14.70   36.24          39.11   67.91            0.41     0.38     0.18            0.40     0.20     0.42           0.55    0.61
C7          27.29   22.90    3.18          54.96   22.37   54.80          59.20   67.79            0.44     0.39     0.10            0.40     0.20     0.40           0.53    0.60
C8          31.15   23.36    0.56          55.44   35.15   84.99          91.97   67.53            0.38     0.30     0.01            0.31     0.25     0.38           0.45    0.55
C9          40.80   41.61   29.26          70.60    2.12    7.75           8.04   74.66            0.74     0.80     0.89            0.55     0.36     0.71           0.88    0.97
C10         42.00   41.98   25.31          70.86    4.64   14.88          15.59   72.66            0.65     0.67     0.63            0.47     0.27     0.60           0.73    0.81
C11         43.38   42.01   20.46          70.87    8.66   24.14          25.65   70.25            0.58     0.60     0.43            0.41     0.27     0.51           0.62    0.71
C12         48.14   41.30    7.60          70.39   24.31   58.64          63.47   67.48            0.21     0.27     0.16            0.19     0.23     0.46           0.46    0.55
C13         53.33   62.17   63.61          83.00  -16.30  -12.68          20.65   217.88            0.17     0.14     0.05            0.08     0.13     0.16           0.17    0.22
C14         60.58   53.37   57.58          78.10   22.66  -15.16          27.26   326.22            0.24     0.33     0.14            0.19     0.31     0.22           0.31    0.43
C15         67.90   71.12   34.48          87.54   -1.47   29.00          29.04   92.91            0.31     0.30     0.44            0.15     0.11     0.44           0.40    0.48
C16         45.53   47.74   40.20          74.65   -1.43   -1.06           1.92   211.58            1.01     1.06     1.23            0.67     0.28     0.94           1.02    1.18
C17         56.62   50.73   36.48          76.51   19.93    7.15          21.20   19.71            0.56     0.64     1.03            0.39     0.38     1.03           0.96    1.16
C18         50.47   60.07   38.76          81.88  -18.92   13.30          23.13   144.92            0.33     0.28     0.56            0.15     0.25     0.61           0.57    0.67
C19         48.74   50.28   58.55          76.24    0.70  -19.35          19.36   272.06            0.48     0.58     0.18            0.36     0.36     0.45           0.54    0.68
C20         11.66    8.59    1.11          35.17   26.69   40.68          48.65   56.73            0.17     0.14     0.04            0.28     0.18     0.52           0.51    0.61
C21         21.30   19.94   11.20          51.77   10.14   14.07          17.35   54.19            0.37     0.38     0.31            0.43     0.28     0.68           0.73    0.85
C22         26.85   22.79   10.76          54.86   21.07   20.75          29.57   44.55            0.43     0.39     0.29            0.40     0.20     0.79           0.80    0.91
D1           4.05    4.33    2.35          24.73   -1.76    9.17           9.35   100.91            0.05     0.06     0.06            0.19     0.25     0.29           0.37    0.43
D2           3.96    4.24    1.49          24.45   -1.82   17.28          17.38   96.01            0.06     0.07     0.05            0.23     0.28     0.29           0.40    0.46
D3           3.95    4.23    0.82          24.41   -1.89   26.64          26.71   94.06            0.06     0.09     0.03            0.27     0.32     0.15           0.40    0.45
D4           3.98    4.30    0.29          24.63   -2.40   36.91          36.99   93.72            0.08     0.09     0.00            0.30     0.14     0.44           0.43    0.55
D5          17.22   18.24    9.35          49.78   -2.00   16.66          16.78   96.86            0.25     0.26     0.22            0.31     0.13     0.37           0.44    0.50
D6          17.11   18.14    5.05          49.66   -2.08   34.38          34.44   93.47            0.22     0.23     0.12            0.28     0.17     0.39           0.46    0.51
D7          16.84   17.99    2.38          49.48   -2.75   51.55          51.63   93.06            0.20     0.21     0.06            0.26     0.23     0.22           0.37    0.41
D8          16.92   18.24    0.72          49.79   -3.63   72.20          72.29   92.88            0.24     0.24     0.01            0.29     0.30     0.37           0.45    0.56
D9          46.52   49.22   26.13          75.59   -2.63   21.60          21.76   96.94            0.66     0.66     0.51            0.41     0.22     0.61           0.69    0.77
D10         45.76   48.53   14.43          75.16   -2.93   45.34          45.43   93.70            0.56     0.58     0.32            0.37     0.26     0.41           0.53    0.61
D11         45.66   48.61    7.18          75.21   -3.41   68.64          68.72   92.84            0.48     0.47     0.17            0.30     0.29     0.37           0.47    0.55
D12         45.34   48.44    2.93          75.10   -3.87   91.34          91.42   92.42            0.35     0.29     0.06            0.18     0.34     0.22           0.37    0.44
D13         47.50   57.79   62.73          80.62  -21.57  -15.94          26.82   216.46            0.27     0.22     0.06            0.12     0.21     0.17           0.21    0.30
D14         54.39   44.33   53.66          72.45   31.88  -20.78          38.05   326.91            0.29     0.38     0.16            0.25     0.38     0.28           0.43    0.54
D15         66.42   69.54   25.00          86.77   -1.40   42.87          42.89   91.87            0.17     0.17     0.11            0.08     0.10     0.21           0.21    0.25
D16         34.08   35.88   30.28          66.43   -1.78   -1.07           2.24   207.40            0.40     0.43     0.76            0.33     0.37     0.99           0.97    1.11
D17         48.45   40.16   26.00          69.58   28.61   11.47          30.84   21.84            0.36     0.42     0.66            0.30     0.36     0.92           0.88    1.03
D18         42.80   53.98   29.50          78.45  -25.68   20.90          33.11   140.86            0.32     0.27     0.32            0.16     0.30     0.35           0.43    0.49
D19         38.87   39.66   54.86          69.23    1.99  -27.61          27.69   274.12            0.48     0.63     0.28            0.45     0.54     0.50           0.73    0.86
D20          2.91    2.93    1.09          19.77    1.39   14.46          14.52   84.50            0.05     0.06     0.04            0.23     0.17     0.29           0.36    0.41
D21         30.35   28.05    1.50          59.93   12.82   78.34          79.38   80.71            0.46     0.47     0.04            0.42     0.19     0.53           0.59    0.70
D22         39.17   43.27   56.70          71.73   -7.86  -25.22          26.41   252.69            0.53     0.62     0.26            0.42     0.22     0.47           0.51    0.67
E1           5.43    6.22    3.52          29.95   -6.46    9.37          11.39   124.62            0.06     0.08     0.09            0.19     0.28     0.36           0.43    0.49
E2           4.87    6.05    2.20          29.53  -11.45   18.78          21.99   121.36            0.06     0.09     0.05            0.23     0.30     0.20           0.36    0.42
E3           4.49    6.07    1.30          29.59  -16.69   28.43          32.97   120.41            0.06     0.09     0.04            0.23     0.22     0.23           0.35    0.39
E4           4.01    6.16    0.47          29.80  -24.23   42.56          48.97   119.65            0.08     0.14     0.01            0.34     0.27     0.48           0.53    0.65
E5          24.42   28.00   15.18          59.88  -10.74   17.10          20.19   122.13            0.35     0.41     0.30            0.37     0.18     0.22           0.41    0.47
E6          22.23   27.93    9.30          59.82  -20.24   34.14          39.69   120.67            0.30     0.37     0.19            0.34     0.19     0.33           0.44    0.51
E7          20.35   28.12    5.33          60.00  -29.89   50.80          58.94   120.47            0.22     0.27     0.11            0.24     0.23     0.35           0.43    0.48
E8          18.63   27.96    2.71          59.85  -37.88   66.71          76.71   119.59            0.19     0.23     0.05            0.21     0.16     0.13           0.24    0.30
E9          44.84   49.27   34.49          75.62   -7.54    8.44          11.33   131.88            0.59     0.59     0.72            0.36     0.22     0.78           0.75    0.89
E10         42.34   48.77   26.28          75.31  -13.52   20.85          24.86   122.97            0.54     0.59     0.57            0.37     0.21     0.54           0.62    0.69
E11         40.34   48.62   20.59          75.21  -19.20   31.36          36.77   121.49            0.55     0.56     0.34            0.35     0.28     0.41           0.51    0.60
E12         37.31   48.08   13.42          74.87  -27.34   47.52          54.83   119.91            0.37     0.33     0.17            0.21     0.33     0.33           0.44    0.51
E13         42.74   53.94   61.81          78.43  -25.79  -18.83          31.93   216.13            0.31     0.27     0.09            0.16     0.25     0.20           0.28    0.36
E14         48.63   36.59   49.76          66.97   40.36  -25.91          47.97   327.30            0.19     0.22     0.14            0.16     0.21     0.14           0.24    0.30
E15         65.38   68.12   18.57          86.07   -0.69   54.32          54.33   90.73            0.14     0.11     0.07            0.05     0.11     0.19           0.19    0.23
E16         24.67   25.90   21.94          57.94   -1.28   -1.11           1.79   218.20            0.30     0.30     0.51            0.28     0.30     0.69           0.72    0.80
E17         41.26   31.48   17.88          62.91   36.66   15.93          39.97   23.48            0.26     0.29     0.43            0.24     0.26     0.76           0.73    0.84
E18         36.58   48.61   22.30          75.21  -31.19   27.95          41.88   138.13            0.25     0.22     0.19            0.14     0.29     0.19           0.32    0.38
E19         30.38   30.28   50.87          61.90    4.47  -35.91          36.19   277.09            0.33     0.44     0.24            0.38     0.45     0.41           0.59    0.72
E20          6.80    8.12    1.32          34.23   -9.91   36.23          37.56   105.29            0.08     0.11     0.04            0.22     0.22     0.39           0.41    0.50
E21         23.88   28.67    6.23          60.49  -15.68   47.36          49.89   108.32            0.22     0.26     0.14            0.23     0.27     0.48           0.53    0.60
E22          8.92   18.82   13.39          50.47  -60.39    5.53          60.65   174.77            0.10     0.18     0.27            0.21     0.19     0.49           0.49    0.57
F1           3.54    4.39    3.09          24.93  -10.30    3.66          10.93   160.46            0.04     0.05     0.06            0.15     0.17     0.30           0.33    0.37
F2           2.87    4.33    2.68          24.72  -20.63    6.41          21.60   162.73            0.04     0.05     0.07            0.17     0.14     0.30           0.33    0.38
F3           2.38    4.31    2.30          24.66  -29.73    9.44          31.19   162.38            0.05     0.08     0.08            0.26     0.23     0.33           0.44    0.48
F4           1.54    4.30    1.53          24.64  -49.23   17.13          52.13   160.81            0.02     0.07     0.05            0.23     0.35     0.23           0.41    0.48
F5          11.25   14.29    9.98          44.65  -17.13    5.66          18.04   161.72            0.14     0.17     0.20            0.24     0.05     0.30           0.34    0.39
F6           9.23   14.50    8.35          44.94  -33.98   11.89          36.01   160.72            0.11     0.17     0.20            0.24     0.12     0.47           0.47    0.54
F7           7.52   14.55    6.96          45.01  -49.35   17.47          52.36   160.50            0.10     0.18     0.20            0.25     0.18     0.48           0.51    0.57
F8           5.65   14.43    5.73          44.85  -68.06   22.71          71.75   161.55            0.05     0.09     0.12            0.13     0.04     0.36           0.32    0.39
F9          30.02   34.96   27.36          65.72  -13.35    2.46          13.59   169.59            0.41     0.45     0.51            0.35     0.23     0.71           0.74    0.83
F10         26.91   34.87   24.70          65.65  -25.21    6.99          26.16   164.52            0.37     0.44     0.43            0.34     0.14     0.66           0.67    0.76
F11         23.99   34.47   22.33          65.33  -36.10   10.88          37.70   163.23            0.37     0.47     0.37            0.37     0.12     0.58           0.63    0.70
F12         20.42   33.96   19.22          64.93  -50.82   16.49          53.43   162.03            0.16     0.18     0.24            0.14     0.17     0.43           0.43    0.49
F13         38.48   50.33   60.88          76.27  -29.60  -21.64          36.66   216.17            0.29     0.28     0.11            0.17     0.18     0.19           0.21    0.31
F14         43.50   30.25   45.97          61.87   47.81  -30.30          56.60   327.64            0.22     0.25     0.20            0.21     0.27     0.15           0.28    0.38
F15         64.58   66.78   13.94          85.39    0.42   64.25          64.25   89.62            0.17     0.16     0.09            0.08     0.07     0.16           0.17    0.19
F16         17.12   18.02   15.37          49.52   -1.40   -1.25           1.91   220.86            0.21     0.22     0.32            0.27     0.17     0.41           0.44    0.52
F17         35.18   24.65   11.90          56.73   43.78   20.52          48.35   25.11            0.21     0.21     0.28            0.21     0.21     0.54           0.54    0.62
F18         31.11   43.57   16.89          71.94  -36.13   33.76          49.45   136.94            0.24     0.22     0.19            0.15     0.25     0.23           0.30    0.37
F19         23.49   22.78   46.99          54.85    6.91  -43.62          44.17   278.99            0.19     0.26     0.19            0.27     0.39     0.26           0.44    0.55
