targets/wolf_faust/transmissive/V050505.it8
IT8.7/1
ORIGINATOR "Wolf Faust"
DESCRIPTOR "Velvia (RVP 50), Type 3, L* a* b* (light D50, viewing angle 2)"
MANUFACTURER "Wolf Faust - http://www.coloraid.de"
CREATED "May 10, 2005"
PROD_DATE "2005:05"
DIFFUSE_GEOMETRY "opal"
SERIAL "V050505 Batch Average Data"
MATERIAL "Fujichrome Velvia (RVP 50)"
KEYWORD "MEAN_DE" # Mean Delta E of samples compared to batch average
NUMBER_OF_FIELDS 17
BEGIN_DATA_FORMAT
SAMPLE_ID   XYZ_X   XYZ_Y   XYZ_Z          LAB_L   LAB_A   LAB_B          LAB_C   LAB_H          STDEV_X  STDEV_Y  STDEV_Z          STDEV_L  STDEV_A  STDEV_B        MEAN_DE  STDEV_DE
END_DATA_FORMAT
NUMBER_OF_SETS 288
BEGIN_DATA
A1           2.04    1.74    1.23          14.04    8.72    2.52           9.08   16.14            0.06     0.06     0.04            0.32     0.30     0.29           0.48    0.53
A2           2.55    1.76    1.03          14.15   18.95    5.57          19.75   16.37            0.08     0.05     0.03            0.29     0.33     0.28           0.47    0.52 
A3           3.08    1.76    0.85          14.14   28.78    8.41          29.99   16.29            0.09     0.05     0.03            0.29     0.32     0.27           0.46    0.50
A4           4.21    1.80    0.63          14.40   45.08   12.97          46.91   16.05            0.09     0.04     0.02            0.22     0.37     0.24           0.44    0.50 
A5           9.22    7.93    5.84          33.84   13.77    3.20          14.15   13.12            0.21     0.19     0.15            0.40     0.46     0.46           0.70    0.77
A6          11.13    7.97    4.97          33.91   28.33    7.69          29.36   15.19            0.27     0.20     0.13            0.41     0.39     0.45           0.67    0.73 
A7          13.23    7.97    4.14          33.92   42.67   12.29          44.41   16.07            0.28     0.18     0.11            0.37     0.37     0.37           0.59    0.64
A8          16.46    8.17    3.41          34.33   60.40   17.66          62.93   16.30            0.13     0.08     0.10            0.17     0.03     0.56           0.50    0.58 
A9          27.84   27.17   21.54          59.13    6.64    1.72           6.88   14.50            0.51     0.53     0.47            0.49     0.23     0.66           0.76    0.86
A10         29.79   27.06   20.79          59.03   14.60    3.04          14.93   11.79            0.54     0.54     0.47            0.50     0.33     0.75           0.83    0.96
A11         31.88   27.10   19.39          59.06   22.18    6.01          22.99   15.17            0.58     0.54     0.44            0.50     0.31     0.72           0.82    0.93
A12         37.25   27.27   17.21          59.22   39.92   11.11          41.44   15.54            0.49     0.50     0.47            0.46     0.38     0.74           0.84    0.95 
A13         68.30   72.17   62.62          88.05   -2.78   -3.03           4.11   227.48            0.53     0.47     0.17            0.22     0.21     0.24           0.34    0.39
A14         74.91   75.74   62.69          89.74    3.87   -0.19           3.87   277.39            0.30     0.43     0.18            0.20     0.26     0.19           0.31    0.38 
A15         74.73   76.01   60.08          89.87    2.95    2.60           3.94   41.45            0.35     0.47     0.38            0.22     0.24     0.16           0.31    0.36
A16         70.98   73.89   61.36          88.87   -0.57   -0.38           0.70   211.17            0.44     0.42     0.23            0.20     0.10     0.21           0.26    0.31
A17         74.73   75.57   62.38          89.66    3.85   -0.02           3.85   199.87            0.27     0.40     0.17            0.18     0.24     0.17           0.27    0.35
A18         66.66   71.11   58.50          87.54   -4.17    0.17           4.19   177.39            0.69     0.60     0.27            0.29     0.26     0.33           0.41    0.51 
A19         67.79   69.87   61.59          86.93    0.92   -3.94           4.05   283.11            0.48     0.55     0.20            0.27     0.15     0.29           0.33    0.42
A20          5.89    2.76    1.79          19.06   45.78    4.72          46.02    5.88            0.14     0.06     0.04            0.27     0.38     0.22           0.42    0.51 
A21         25.67   17.98   14.47          49.47   39.42    0.94          39.44    1.36            0.41     0.32     0.27            0.39     0.25     0.50           0.59    0.69
A22         52.62   47.86   31.94          74.73   17.50   10.69          20.51   31.41            0.65     0.77     0.49            0.49     0.45     0.68           0.82    0.95
B1           2.98    2.67    1.52          18.66    7.51    6.94          10.23   42.76            0.09     0.08     0.04            0.35     0.32     0.34           0.52    0.58
B2           3.60    2.72    0.96          18.90   16.73   14.83          22.36   41.55            0.10     0.07     0.03            0.31     0.30     0.29           0.47    0.52
B3           4.08    2.69    0.56          18.74   24.52   21.74          32.77   41.57            0.11     0.07     0.02            0.31     0.34     0.33           0.49    0.56
B4           5.00    2.71    0.07          18.84   36.29   31.24          47.89   40.72            0.12     0.06     0.00            0.27     0.32     0.43           0.50    0.60
B5          11.89   10.63    6.24          38.95   11.95   10.19          15.71   40.44            0.27     0.25     0.17            0.43     0.43     0.50           0.72    0.78
B6          13.79   10.67    4.01          39.02   24.33   21.90          32.74   42.00            0.31     0.26     0.11            0.44     0.39     0.40           0.64    0.71
B7          15.92   10.63    2.46          38.95   37.47   32.70          49.74   41.11            0.34     0.24     0.06            0.41     0.36     0.37           0.58    0.66
B8          20.04   10.85    0.98          39.33   57.68   49.84          76.23   40.83            0.13     0.11     0.03            0.18     0.13     0.33           0.35    0.40
B9          32.89   32.79   24.87          63.99    4.56    3.83           5.98   39.82            0.56     0.60     0.49            0.49     0.28     0.63           0.74    0.85
B10         34.78   32.80   22.29          64.00   11.09    8.64          14.07   37.91            0.61     0.63     0.47            0.51     0.26     0.60           0.72    0.83
B11         36.50   33.15   20.21          64.28   15.66   13.29          20.55   40.29            0.64     0.64     0.42            0.52     0.24     0.61           0.71    0.83
B12         41.70   33.31   14.49          64.41   31.51   26.65          41.28   40.23            0.50     0.56     0.35            0.45     0.41     0.59           0.74    0.85
B13         58.97   64.13   58.78          84.03   -6.76   -6.14           9.14   222.23            0.64     0.66     0.28            0.34     0.13     0.42           0.46    0.56
B14         62.62   61.07   56.63          82.41    8.80   -6.73          11.08   322.63            0.73     0.90     0.33            0.48     0.42     0.57           0.66    0.85
B15         64.36   67.12   47.90          85.56   -0.81    8.28           8.32   95.57            0.72     0.79     0.64            0.40     0.11     0.52           0.55    0.66
B16         55.72   58.17   49.44          80.83   -0.92   -1.65           1.96   237.13            0.87     0.98     0.72            0.54     0.23     0.84           0.81    1.03
B17         61.26   60.30   48.07          82.00    7.43    1.93           7.72   14.75            0.99     1.20     0.51            0.65     0.52     0.73           0.90    1.11
B18         57.53   63.28   49.25          83.59   -8.34    3.32           9.00   158.33            0.86     0.87     0.43            0.45     0.16     0.57           0.61    0.75
B19         56.84   58.79   57.25          81.17    0.39   -9.51           9.53   272.26            0.73     0.86     0.29            0.48     0.30     0.58           0.64    0.81
B20          4.51    2.72    0.90          18.89   29.70   15.78          33.63   27.98            0.12     0.07     0.02            0.31     0.30     0.27           0.41    0.50
B21         16.02   10.66    3.93          39.00   37.81   22.36          43.92   30.60            0.36     0.26     0.10            0.45     0.30     0.41           0.56    0.68
B22         32.35   27.37   16.71          59.31   22.81   12.41          25.97   28.55            0.56     0.53     0.31            0.48     0.29     0.60           0.69    0.83
C1           5.82    5.73    3.18          28.73    3.27    9.57          10.12   71.06            0.16     0.16     0.08            0.43     0.42     0.46           0.68    0.75
C2           6.19    5.73    1.94          28.71    7.47   19.78          21.15   69.30            0.16     0.16     0.05            0.42     0.45     0.45           0.68    0.76
C3           6.58    5.64    1.03          28.48   12.52   30.31          32.80   67.55            0.17     0.16     0.03            0.42     0.45     0.47           0.70    0.77
C4           7.27    5.69    0.21          28.61   18.90   45.39          49.17   67.39            0.18     0.16     0.01            0.41     0.42     0.61           0.73    0.84
C5          22.92   22.15   11.38          54.18    7.22   17.67          19.09   67.76            0.52     0.51     0.27            0.54     0.37     0.61           0.80    0.89
C6          24.51   22.08    6.22          54.10   14.54   36.38          39.18   68.20            0.54     0.52     0.14            0.55     0.36     0.53           0.73    0.85
C7          26.53   22.08    2.99          54.11   23.01   54.69          59.33   67.18            0.55     0.50     0.07            0.53     0.33     0.51           0.69    0.81
C8          29.63   21.99    0.47          54.01   35.60   84.20          91.41   67.08            0.55     0.48     0.01            0.51     0.31     0.64           0.74    0.88
C9          39.02   39.76   27.92          69.29    2.18    7.70           8.01   74.07            0.65     0.73     0.57            0.52     0.28     0.63           0.75    0.87
C10         40.05   39.71   23.54          69.26    5.55   15.35          16.32   70.10            0.71     0.79     0.52            0.57     0.31     0.60           0.77    0.88
C11         41.63   39.84   19.37          69.35   10.00   23.80          25.82   67.20            0.63     0.70     0.42            0.50     0.29     0.58           0.70    0.82
C12         46.30   39.99    8.43          69.46   23.19   53.85          58.63   66.70            0.51     0.62     0.19            0.44     0.47     0.42           0.65    0.77
C13         51.05   58.96   58.62          81.27  -14.77  -10.75          18.26   216.04            0.62     0.61     0.31            0.34     0.20     0.39           0.46    0.55
C14         55.55   48.86   52.28          75.36   22.23  -14.25          26.41   327.35            0.77     0.93     0.39            0.58     0.57     0.59           0.77    1.00
C15         61.93   65.09   32.74          84.53   -1.90   26.36          26.43   94.13            0.67     0.73     0.58            0.38     0.12     0.44           0.51    0.59
C16         41.51   43.17   36.58          71.67   -0.36   -1.34           1.44   247.41            0.74     0.82     0.62            0.55     0.21     0.85           0.87    1.04
C17         52.19   46.76   33.65          74.03   19.41    6.93          20.63   19.64            0.73     0.87     0.68            0.56     0.51     0.85           0.99    1.14
C18         47.50   56.35   35.93          79.81  -18.11   13.61          22.66   143.06            0.84     0.80     0.55            0.45     0.41     0.44           0.62    0.75
C19         44.32   44.88   53.35          72.81    3.05  -19.81          20.05   278.74            0.82     0.95     0.37            0.63     0.37     0.70           0.79    1.01
C20         11.50    8.42    1.08          34.84   26.98   40.51          48.67   56.33            0.28     0.20     0.02            0.41     0.42     0.40           0.58    0.71
C21         20.91   19.52   11.07          51.29   10.36   13.63          17.12   52.73            0.48     0.46     0.26            0.53     0.31     0.56           0.71    0.83
C22         26.58   22.40   10.78          54.45   21.74   20.00          29.54   42.61            0.56     0.51     0.25            0.53     0.25     0.50           0.65    0.77
D1           3.79    4.03    2.25          23.77   -1.36    8.38           8.50   99.10            0.10     0.11     0.05            0.35     0.45     0.38           0.62    0.68
D2           3.76    4.01    1.38          23.70   -1.64   17.30          17.38   95.39            0.09     0.11     0.03            0.37     0.49     0.47           0.70    0.77
D3           3.68    3.94    0.74          23.46   -1.74   26.45          26.51   93.76            0.10     0.12     0.02            0.41     0.44     0.47           0.68    0.77
D4           3.71    4.02    0.24          23.72   -2.47   36.39          36.48   93.88            0.11     0.13     0.01            0.44     0.53     0.62           0.83    0.93
D5          16.83   17.74    9.14          49.18   -1.54   16.34          16.42   95.36            0.41     0.44     0.23            0.54     0.45     0.55           0.80    0.89
D6          16.61   17.69    4.88          49.11   -2.49   34.36          34.45   94.15            0.41     0.45     0.12            0.55     0.42     0.46           0.74    0.83
D7          16.36   17.54    2.30          48.93   -3.11   51.32          51.42   93.46            0.41     0.45     0.06            0.55     0.39     0.56           0.76    0.88
D8          16.20   17.52    0.64          48.91   -3.86   72.23          72.34   93.06            0.37     0.41     0.01            0.50     0.30     0.61           0.71    0.84
D9          44.76   47.14   24.45          74.28   -1.98   22.33          22.42   95.08            0.67     0.74     0.47            0.48     0.21     0.50           0.63    0.72
D10         44.44   47.12   13.83          74.27   -2.88   45.37          45.47   93.63            0.62     0.69     0.26            0.44     0.23     0.50           0.60    0.70
D11         44.57   47.63    6.86          74.59   -3.89   68.93          69.04   93.23            0.52     0.56     0.11            0.35     0.16     0.31           0.42    0.50
D12         44.41   47.44    3.72          74.47   -3.82   84.83          84.92   92.58            0.48     0.42     0.06            0.27     0.30     0.25           0.37    0.47
D13         45.26   54.77   58.22          78.91  -20.53  -14.41          25.08   215.05            0.58     0.56     0.23            0.32     0.29     0.40           0.47    0.59
D14         49.62   39.94   48.26          69.43   32.47  -19.97          38.12   328.41            0.65     0.73     0.36            0.52     0.50     0.50           0.68    0.88
D15         60.43   63.41   23.37          83.66   -1.68   40.49          40.52   92.37            0.52     0.57     0.35            0.30     0.10     0.40           0.45    0.51
D16         31.08   32.50   27.51          63.75   -0.95   -1.18           1.61   226.03            0.59     0.64     0.42            0.53     0.21     0.72           0.76    0.91
D17         45.19   37.29   23.74          67.49   28.50   11.92          30.90   22.70            0.53     0.59     0.48            0.44     0.38     0.58           0.69    0.82
D18         40.12   50.57   27.06          76.42  -25.09   21.43          33.00   139.50            0.55     0.51     0.47            0.31     0.41     0.51           0.63    0.72
D19         34.62   34.49   49.61          65.35    4.74  -28.55          28.94   279.43            0.66     0.74     0.36            0.58     0.33     0.61           0.73    0.90
D20          2.65    2.68    1.03          18.73    1.26   13.48          13.54   84.67            0.06     0.06     0.02            0.26     0.29     0.30           0.39    0.49
D21         29.70   27.46    1.43          59.39   12.68   78.26          79.28   80.80            0.64     0.62     0.03            0.57     0.29     0.60           0.73    0.87
D22         40.83   42.67   52.85          71.33   -0.95  -21.83          21.85   267.48            0.83     0.96     0.35            0.65     0.33     0.75           0.81    1.05
E1           5.06    5.83    3.23          28.98   -6.69    9.62          11.72   124.80            0.12     0.14     0.06            0.37     0.52     0.47           0.70    0.79
E2           4.64    5.79    2.05          28.87  -11.52   18.96          22.18   121.27            0.11     0.15     0.04            0.38     0.47     0.48           0.68    0.77
E3           4.20    5.67    1.16          28.56  -16.17   28.62          32.87   119.46            0.12     0.17     0.03            0.44     0.46     0.53           0.75    0.83
E4           3.73    5.85    0.40          29.02  -25.02   42.47          49.29   120.50            0.10     0.17     0.01            0.44     0.51     0.58           0.78    0.89
E5          23.81   27.28   14.87          59.23  -10.55   16.75          19.80   122.22            0.51     0.57     0.33            0.52     0.35     0.57           0.75    0.85
E6          21.77   27.37    9.14          59.31  -20.18   33.82          39.38   120.82            0.47     0.56     0.19            0.51     0.23     0.46           0.60    0.72
E7          19.84   27.48    4.96          59.41  -29.88   51.69          59.70   120.03            0.41     0.51     0.09            0.47     0.16     0.39           0.51    0.63
E8          18.39   27.29    3.07          59.24  -36.53   62.94          72.77   120.13            0.31     0.34     0.05            0.31     0.30     0.22           0.37    0.48
E9          42.91   47.08   31.73          74.24   -7.22   10.16          12.47   125.44            0.75     0.84     0.62            0.54     0.21     0.57           0.71    0.81
E10         40.69   46.89   25.21          74.12  -13.42   20.69          24.66   122.97            0.69     0.77     0.50            0.49     0.18     0.49           0.63    0.72
E11         39.10   47.50   19.66          74.50  -20.01   32.06          37.79   121.98            0.58     0.63     0.34            0.40     0.19     0.45           0.55    0.63
E12         37.20   47.16   14.97          74.29  -25.20   42.46          49.38   120.69            0.53     0.50     0.30            0.32     0.40     0.39           0.57    0.65
E13         40.78   51.29   57.73          76.85  -24.92  -17.45          30.42   215.01            0.55     0.52     0.23            0.31     0.35     0.36           0.47    0.59
E14         44.22   32.65   44.25          63.87   41.31  -24.77          48.17   329.05            0.57     0.60     0.36            0.49     0.47     0.42           0.63    0.80
E15         59.90   62.47   17.38          83.16   -0.79   51.98          51.99   90.87            0.59     0.64     0.29            0.34     0.13     0.34           0.45    0.50
E16         22.64   23.66   20.23          55.74   -0.80   -1.47           1.74   238.60            0.47     0.48     0.36            0.49     0.26     0.63           0.70    0.84
E17         38.94   29.50   16.44          61.22   36.73   16.33          40.20   23.97            0.40     0.42     0.37            0.37     0.32     0.57           0.66    0.76
E18         34.62   45.83   20.58          73.43  -30.14   28.31          41.35   136.79            0.50     0.46     0.39            0.30     0.44     0.44           0.62    0.69
E19         26.90   26.08   45.75          58.11    7.25  -36.52          37.23   281.22            0.57     0.63     0.37            0.60     0.35     0.59           0.76    0.91
E20          6.62    7.92    1.24          33.82  -10.00   36.49          37.84   105.32            0.14     0.18     0.02            0.38     0.43     0.36           0.59    0.67
E21         23.67   28.58    6.24          60.41  -16.28   47.18          49.91   109.04            0.51     0.60     0.11            0.54     0.17     0.52           0.64    0.77
E22          8.48   18.10   13.22          49.61  -60.47    4.51          60.64   175.74            0.15     0.26     0.29            0.31     0.09     0.37           0.45    0.49
F1           3.29    4.11    2.95          24.03  -10.47    3.16          10.94   163.23            0.08     0.10     0.06            0.34     0.49     0.41           0.62    0.72
F2           2.64    3.97    2.48          23.57  -19.83    6.09          20.75   162.96            0.06     0.10     0.05            0.34     0.45     0.48           0.68    0.74
F3           2.19    3.98    2.07          23.61  -29.17    9.79          30.77   161.44            0.06     0.11     0.04            0.36     0.43     0.46           0.66    0.73
F4           1.52    4.24    1.48          24.46  -49.02   17.43          52.03   160.42            0.04     0.10     0.03            0.32     0.41     0.40           0.59    0.66
F5          10.96   13.95   10.04          44.16  -17.09    4.62          17.71   164.90            0.24     0.31     0.24            0.45     0.46     0.57           0.80    0.86
F6           8.76   13.91    8.18          44.11  -34.34   11.09          36.09   162.11            0.18     0.28     0.19            0.41     0.34     0.45           0.64    0.70
F7           7.13   14.03    6.64          44.28  -49.95   17.57          52.95   160.62            0.15     0.28     0.14            0.40     0.32     0.41           0.58    0.65
F8           5.70   14.07    5.52          44.33  -65.27   22.85          69.15   160.70            0.08     0.15     0.11            0.22     0.06     0.21           0.27    0.31
F9          28.60   33.18   25.41          64.30  -12.70    3.40          13.16   165.04            0.56     0.66     0.50            0.53     0.32     0.65           0.78    0.90
F10         25.54   33.09   23.20          64.23  -24.74    7.31          25.80   163.54            0.49     0.61     0.45            0.50     0.23     0.52           0.66    0.76
F11         23.01   33.26   21.21          64.37  -36.29   11.42          38.05   162.53            0.40     0.51     0.40            0.41     0.16     0.43           0.56    0.62
F12         20.40   33.13   19.22          64.26  -48.05   15.34          50.44   162.30            0.29     0.32     0.40            0.26     0.29     0.51           0.57    0.64
F13         37.11   48.23   57.15          74.97  -28.40  -20.11          34.80   215.30            0.46     0.44     0.20            0.28     0.32     0.30           0.42    0.52
F14         39.52   26.92   40.48          58.90   48.56  -28.60          56.35   329.50            0.44     0.44     0.31            0.41     0.37     0.31           0.50    0.63
F15         59.17   61.09   12.88          82.43    0.63   62.02          62.02   89.41            0.42     0.47     0.22            0.25     0.16     0.27           0.37    0.41
F16         16.03   16.75   14.13          47.94   -0.66   -0.81           1.16   226.78            0.32     0.34     0.28            0.43     0.27     0.52           0.62    0.73
F17         33.44   23.31   10.91          55.39   43.55   21.20          48.44   25.95            0.32     0.32     0.25            0.33     0.29     0.52           0.60    0.68
F18         30.07   41.53   15.43          70.54  -33.99   34.86          48.69   134.28            0.41     0.40     0.28            0.27     0.38     0.34           0.52    0.58
F19         20.92   19.62   42.00          51.40    9.91  -43.47          44.58   282.84            0.41     0.46     0.33            0.52     0.35     0.48           0.65    0.79
