targets/wolf_faust/transmissive/V050712.it8
IT8.7/1
ORIGINATOR "Wolf Faust"
DESCRIPTOR "Velvia (RVP 50), Type 3, L* a* b* (light D50, viewing angle 2)"
MANUFACTURER "Wolf Faust - http://www.coloraid.de"
CREATED "July 17, 2005"
PROD_DATE "2005:07"
DIFFUSE_GEOMETRY "opal"
SERIAL "V050712 Batch Average Data"
MATERIAL "Fujichrome Velvia (RVP 50)"
KEYWORD "MEAN_DE" # Mean Delta E of samples compared to batch average
NUMBER_OF_FIELDS 18
BEGIN_DATA_FORMAT
SAMPLE_ID  XYZ_X   XYZ_Y   XYZ_Z          LAB_L   LAB_A   LAB_B          LAB_C   LAB_H          D_RED  D_GREEN  D_BLUE  D_VIS          STDEV_X STDEV_Y STDEV_Z        MEAN_DE  STDEV_DE
END_DATA_FORMAT
NUMBER_OF_SETS 288
BEGIN_DATA
A1          2.33    2.03    1.41          15.63    8.17    3.03           8.71   20.38           1.49    1.84    1.88    1.67            0.07    0.06    0.04           0.34     0.38
A2          2.82    1.94    1.18          15.15   19.66    5.24          20.35   14.93           1.30    2.05    1.93    1.64            0.09    0.06    0.04           0.37     0.43 
A3          3.35    1.90    0.95          14.97   29.57    8.25          30.70   15.58           1.15    2.32    2.00    1.61            0.10    0.06    0.03           0.38     0.45
A4          4.51    1.92    0.71          15.08   46.16   12.57          47.85   15.24           0.92    3.45    2.03    1.54            0.11    0.05    0.02           0.41     0.48 
A5         10.10    8.80    6.46          35.60   13.24    3.44          13.68   14.55           0.86    1.18    1.17    1.03            0.26    0.23    0.16           0.51     0.57
A6         11.99    8.72    5.50          35.44   27.77    7.60          28.79   15.31           0.69    1.32    1.23    1.00            0.31    0.24    0.14           0.54     0.60 
A7         14.31    8.72    4.67          35.44   43.03   11.89          44.64   15.45           0.54    1.53    1.28    0.97            0.33    0.21    0.13           0.51     0.56
A8         17.21    8.69    3.95          35.38   60.04   15.97          62.13   14.90           0.39    1.91    1.32    0.93            0.16    0.10    0.12           0.45     0.50 
A9         29.94   29.46   23.43          61.18    5.90    1.63           6.13   15.47           0.46    0.57    0.58    0.52            0.64    0.69    0.51           0.64     0.73
A10        31.70   29.18   22.39          60.93   13.47    3.17          13.84   13.24           0.39    0.61    0.59    0.52            0.67    0.67    0.47           0.65     0.73
A11        34.08   29.25   21.14          61.00   21.62    5.73          22.37   14.85           0.32    0.65    0.62    0.50            0.67    0.66    0.48           0.68     0.75
A12        39.32   29.27   18.99          61.02   38.81   10.24          40.14   14.78           0.18    0.76    0.66    0.48            0.43    0.49    0.40           0.66     0.74 
A13        70.03   73.79   63.87          88.82   -2.38   -2.90           3.75  230.78           0.15    0.12    0.12    0.14            0.31    0.22    0.12           0.25     0.28
A14        75.36   76.34   63.79          90.02    3.61   -0.77           3.69  348.03           0.09    0.12    0.12    0.11            0.12    0.17    0.13           0.15     0.17 
A15        75.86   77.66   61.95          90.62    1.98    2.07           2.87   46.12           0.08    0.11    0.13    0.11            0.10    0.10    0.20           0.14     0.15
A16        73.01   75.81   62.35          89.77   -0.18    0.20           0.29  127.06           0.11    0.12    0.13    0.12            0.20    0.14    0.15           0.14     0.16
A17        74.73   75.64   62.15          89.69    3.72    0.26           3.73    3.94           0.09    0.13    0.13    0.12            0.16    0.22    0.20           0.16     0.18
A18        69.78   73.66   58.27          88.76   -2.65    2.53           3.67  136.36           0.14    0.12    0.16    0.13            0.27    0.20    0.26           0.22     0.25 
A19        70.38   72.33   63.02          88.13    1.36   -3.28           3.55  292.58           0.13    0.14    0.12    0.14            0.30    0.30    0.15           0.22     0.24
A20         6.27    2.93    1.86          19.76   46.94    5.15          47.22    6.26           0.81    2.66    1.63    1.39            0.12    0.06    0.04           0.38     0.43 
A21        27.38   19.48   15.36          51.25   38.77    1.75          38.81    2.59           0.33    0.98    0.74    0.65            0.40    0.34    0.32           0.55     0.59
A22        53.99   49.69   33.27          75.87   16.10   10.65          19.30   33.50           0.15    0.37    0.42    0.28            0.50    0.61    0.50           0.57     0.64
B1          3.40    3.08    1.79          20.36    7.20    6.96          10.02   43.99           1.33    1.63    1.79    1.49            0.10    0.09    0.05           0.40     0.46
B2          4.00    3.07    1.09          20.32   16.57   15.42          22.64   42.94           1.18    1.75    2.04    1.45            0.11    0.09    0.03           0.38     0.44
B3          4.58    3.04    0.66          20.20   25.00   22.41          33.57   41.87           1.06    1.90    2.28    1.43            0.13    0.09    0.02           0.43     0.49
B4          5.62    3.06    0.07          20.27   37.48   33.66          50.38   41.92           0.90    2.24    3.61    1.39            0.16    0.09    0.00           0.62     0.74
B5         12.89   11.72    6.88          40.76   10.99   10.51          15.21   43.72           0.76    1.03    1.16    0.91            0.33    0.31    0.18           0.54     0.59
B6         14.86   11.53    4.38          40.45   24.76   22.17          33.24   41.84           0.61    1.15    1.38    0.88            0.36    0.30    0.11           0.55     0.62
B7         17.45   11.72    2.71          40.76   38.17   33.80          50.99   41.53           0.47    1.28    1.62    0.85            0.37    0.27    0.07           0.52     0.58
B8         20.76   11.45    1.11          40.32   56.91   49.60          75.49   41.07           0.32    1.60    2.05    0.82            0.18    0.14    0.03           0.30     0.33
B9         34.97   35.28   26.86          65.96    3.28    3.75           4.99   48.84           0.41    0.48    0.52    0.45            0.64    0.71    0.50           0.60     0.68
B10        36.89   35.38   23.75          66.04    9.36    9.40          13.27   45.12           0.34    0.50    0.58    0.44            0.64    0.68    0.48           0.64     0.71
B11        38.57   35.27   21.23          65.96   15.13   14.11          20.69   43.02           0.29    0.53    0.63    0.43            0.59    0.63    0.40           0.64     0.70
B12        43.69   35.30   15.19          65.98   30.68   27.57          41.24   41.95           0.16    0.62    0.79    0.40            0.41    0.52    0.32           0.61     0.72
B13        61.18   66.78   60.59          85.39   -7.39   -5.62           9.28  217.24           0.24    0.15    0.14    0.19            0.37    0.33    0.19           0.24     0.28
B14        66.53   64.29   58.33          84.12   10.27   -5.54          11.67  331.69           0.12    0.22    0.15    0.18            0.41    0.53    0.25           0.42     0.50
B15        68.08   70.58   46.38          87.28    0.06   13.03          13.03   89.76           0.12    0.15    0.27    0.15            0.32    0.31    0.38           0.25     0.29
B16        57.88   60.58   49.79          82.15   -1.29    0.23           1.32  170.02           0.22    0.21    0.23    0.22            0.45    0.48    0.39           0.33     0.37
B17        64.58   62.96   47.99          83.42    8.92    4.48           9.98   26.67           0.12    0.23    0.25    0.19            0.44    0.56    0.43           0.42     0.46
B18        59.39   65.61   48.62          84.80   -9.05    6.11          10.92  145.95           0.24    0.16    0.25    0.19            0.34    0.29    0.34           0.31     0.34
B19        59.54   61.76   59.06          82.78   -0.01   -8.58           8.59  269.92           0.22    0.21    0.15    0.21            0.41    0.44    0.24           0.36     0.38
B20         5.07    3.08    1.01          20.35   30.67   16.65          34.90   28.49           0.98    2.01    2.02    1.41            0.10    0.06    0.02           0.35     0.38
B21        17.21   11.60    4.27          40.57   37.69   23.01          44.16   31.41           0.49    1.28    1.37    0.86            0.28    0.21    0.09           0.46     0.48
B22        34.18   29.54   17.82          61.26   20.86   13.22          24.70   32.38           0.31    0.65    0.71    0.50            0.47    0.50    0.34           0.58     0.66
C1          6.52    6.48    3.58          30.60    2.81   10.08          10.46   74.39           1.10    1.25    1.48    1.18            0.16    0.16    0.09           0.45     0.50
C2          6.88    6.36    2.15          30.30    7.80   20.58          22.01   69.24           1.02    1.29    1.76    1.17            0.18    0.17    0.06           0.43     0.50
C3          7.34    6.38    1.16          30.36   12.02   31.68          33.88   69.21           0.97    1.33    2.13    1.15            0.19    0.17    0.03           0.46     0.52
C4          7.94    6.30    0.23          30.14   18.61   47.62          51.13   68.65           0.91    1.40    3.39    1.14            0.21    0.17    0.01           0.66     0.78
C5         24.33   23.75   12.28          55.83    6.31   17.87          18.96   70.54           0.52    0.68    0.90    0.61            0.55    0.57    0.29           0.66     0.72
C6         25.97   23.57    6.70          55.65   14.05   36.93          39.52   69.16           0.43    0.72    1.23    0.59            0.55    0.55    0.14           0.66     0.75
C7         28.52   24.17    3.32          56.26   21.69   56.05          60.10   68.85           0.36    0.76    1.66    0.57            0.54    0.53    0.08           0.63     0.72
C8         31.72   24.04    0.53          56.13   34.24   86.76          93.27   68.46           0.28    0.85    3.25    0.55            0.53    0.48    0.01           0.67     0.78
C9         41.06   41.89   29.39          70.79    2.05    7.87           8.14   75.35           0.34    0.40    0.48    0.37            0.63    0.72    0.50           0.56     0.63
C10        41.88   41.86   25.21          70.77    4.63   14.91          15.62   72.75           0.30    0.41    0.56    0.37            0.62    0.68    0.43           0.57     0.62
C11        43.37   42.00   20.89          70.87    8.64   23.27          24.83   69.62           0.26    0.42    0.66    0.36            0.60    0.67    0.35           0.56     0.64
C12        48.22   41.90    8.03          70.80   22.73   57.66          61.98   68.49           0.13    0.49    1.19    0.33            0.40    0.55    0.15           0.58     0.70
C13        52.83   60.99   60.23          82.37  -14.89  -10.46          18.20  215.10           0.37    0.16    0.14    0.24            0.38    0.32    0.18           0.29     0.34
C14        59.21   52.44   54.12          77.54   21.77  -12.48          25.09  330.18           0.13    0.36    0.17    0.26            0.48    0.64    0.30           0.59     0.73
C15        65.87   68.72   32.90          86.36   -0.86   29.29          29.30   91.67           0.12    0.17    0.45    0.15            0.28    0.30    0.34           0.30     0.35
C16        44.47   46.61   38.60          73.94   -1.37   -0.19           1.40  188.86           0.34    0.33    0.35    0.33            0.52    0.60    0.48           0.47     0.53
C17        55.34   49.78   35.11          75.93   19.26    8.09          20.89   22.78           0.13    0.38    0.39    0.28            0.46    0.60    0.49           0.58     0.65
C18        49.40   58.42   36.78          80.97  -17.91   14.42          22.99  141.17           0.35    0.18    0.40    0.25            0.37    0.30    0.40           0.41     0.47
C19        47.58   48.87   55.51          75.37    1.29  -17.71          17.76  274.15           0.34    0.31    0.17    0.32            0.50    0.61    0.28           0.56     0.64
C20        12.46    9.22    1.15          36.41   26.88   42.19          50.03   57.49           0.66    1.29    2.14    0.96            0.21    0.18    0.03           0.40     0.44
C21        22.48   21.21   11.75          53.17    9.56   14.82          17.65   57.17           0.54    0.74    0.92    0.65            0.34    0.35    0.23           0.55     0.60
C22        28.02   24.02   11.30          56.11   20.37   21.25          29.44   46.22           0.38    0.75    0.93    0.58            0.43    0.43    0.24           0.53     0.59
D1          4.32    4.66    2.58          25.75   -2.33    8.97           9.27  104.57           1.32    1.35    1.65    1.33            0.12    0.13    0.08           0.44     0.49
D2          4.26    4.58    1.52          25.50   -2.09   18.68          18.80   96.38           1.31    1.36    1.96    1.33            0.12    0.13    0.04           0.39     0.47
D3          4.18    4.49    0.86          25.23   -2.09   27.46          27.54   94.35           1.32    1.36    2.33    1.33            0.12    0.13    0.03           0.39     0.47
D4          4.16    4.51    0.26          25.29   -2.64   38.68          38.77   93.91           1.37    1.35    3.36    1.33            0.12    0.13    0.01           0.58     0.71
D5         17.86   18.97    9.84          50.65   -2.28   16.46          16.62   97.87           0.70    0.73    1.02    0.72            0.47    0.51    0.24           0.64     0.73
D6         17.65   18.84    5.15          50.50   -2.75   35.31          35.42   94.45           0.69    0.74    1.40    0.71            0.41    0.45    0.11           0.65     0.73
D7         17.72   19.29    2.51          51.02   -4.63   53.14          53.34   94.98           0.70    0.71    1.90    0.70            0.38    0.41    0.06           0.56     0.64
D8         17.77   19.24    0.70          50.96   -4.13   74.73          74.84   93.16           0.74    0.72    3.16    0.69            0.38    0.40    0.01           0.65     0.75
D9         47.08   49.78   26.01          75.93   -2.53   22.39          22.53   96.44           0.28    0.30    0.56    0.30            0.61    0.67    0.38           0.48     0.52
D10        46.42   49.27   14.64          75.61   -3.03   45.58          45.69   93.80           0.26    0.31    0.88    0.29            0.55    0.60    0.21           0.46     0.50
D11        46.07   49.17    7.15          75.55   -3.73   69.34          69.44   93.08           0.27    0.31    1.33    0.29            0.46    0.48    0.09           0.36     0.38
D12        46.06   49.19    3.94          75.57   -3.82   85.31          85.39   92.56           0.27    0.31    1.80    0.29            0.36    0.29    0.05           0.33     0.36
D13        46.71   56.37   59.65          79.82  -20.33  -14.28          24.85  215.09           0.48    0.18    0.15    0.28            0.39    0.33    0.16           0.32     0.39
D14        52.85   43.19   50.07          71.68   31.24  -18.15          36.13  329.85           0.15    0.49    0.20    0.34            0.49    0.62    0.34           0.65     0.78
D15        64.42   67.13   24.07          85.57   -0.71   42.48          42.49   90.96           0.11    0.18    0.62    0.16            0.25    0.28    0.28           0.30     0.36
D16        33.68   35.38   29.43          66.04   -1.51   -0.37           1.58  194.83           0.46    0.45    0.47    0.45            0.44    0.51    0.41           0.48     0.55
D17        47.42   39.44   25.12          69.06   28.02   12.13          30.53   23.42           0.15    0.54    0.54    0.37            0.42    0.52    0.41           0.55     0.64
D18        42.11   52.62   28.22          77.65  -24.31   21.61          32.52  138.37           0.45    0.21    0.53    0.29            0.31    0.28    0.37           0.41     0.47
D19        37.64   38.10   51.69          68.09    2.96  -26.14          26.31  276.45           0.47    0.42    0.19    0.43            0.45    0.55    0.27           0.60     0.69
D20         3.09    3.14    1.13          20.60    0.98   15.28          15.31   86.35           1.42    1.55    2.08    1.49            0.06    0.06    0.02           0.31     0.33
D21        31.81   29.68    1.54          61.37   11.99   80.36          81.25   81.51           0.37    0.60    2.39    0.49            0.39    0.41    0.03           0.54     0.59
D22        41.59   44.97   54.86          72.87   -5.28  -21.32          21.97  256.08           0.46    0.32    0.17    0.37            0.40    0.50    0.23           0.53     0.60
E1          5.56    6.40    3.68          30.41   -6.84    9.08          11.36  127.01           1.26    1.18    1.48    1.20            0.15    0.17    0.09           0.45     0.52
E2          5.03    6.29    2.31          30.12  -11.93   18.83          22.29  122.35           1.34    1.15    1.77    1.21            0.14    0.18    0.06           0.45     0.53
E3          4.73    6.45    1.31          30.52  -17.47   29.95          34.67  120.26           1.43    1.10    2.18    1.21            0.13    0.18    0.04           0.42     0.52
E4          4.24    6.63    0.44          30.94  -25.81   44.98          51.86  119.85           1.66    1.03    3.26    1.20            0.12    0.19    0.01           0.60     0.76
E5         25.05   28.72   15.72          60.53  -10.84   16.89          20.07  122.70           0.61    0.51    0.80    0.55            0.59    0.68    0.36           0.66     0.75
E6         23.01   29.11    9.83          60.87  -21.21   34.14          40.20  121.85           0.69    0.47    1.08    0.55            0.47    0.58    0.20           0.54     0.62
E7         21.13   29.17    5.32          60.93  -30.16   52.45          60.51  119.90           0.79    0.43    1.50    0.55            0.38    0.46    0.10           0.44     0.50
E8         19.68   28.79    3.28          60.60  -35.78   63.81          73.16  119.28           0.88    0.42    1.90    0.56            0.29    0.29    0.06           0.38     0.44
E9         45.08   49.37   33.60          75.68   -7.12    9.83          12.14  125.93           0.34    0.29    0.43    0.31            0.63    0.71    0.44           0.48     0.54
E10        42.68   49.10   26.69          75.51  -13.40   20.50          24.49  123.16           0.38    0.27    0.55    0.31            0.53    0.58    0.37           0.42     0.46
E11        40.71   49.06   20.75          75.48  -19.25   31.51          36.92  121.42           0.42    0.26    0.69    0.32            0.47    0.49    0.28           0.41     0.44
E12        38.80   48.85   15.66          75.36  -24.67   42.58          49.21  120.09           0.46    0.24    0.86    0.32            0.37    0.33    0.21           0.39     0.44
E13        41.81   52.43   59.03          77.54  -24.73  -17.60          30.35  215.44           0.58    0.19    0.15    0.32            0.34    0.29    0.13           0.31     0.39
E14        47.06   35.50   46.05          66.13   39.62  -23.04          45.83  329.82           0.17    0.63    0.23    0.42            0.47    0.56    0.34           0.64     0.77
E15        63.40   65.74   18.16          84.86    0.02   53.16          53.16   89.98           0.11    0.19    0.78    0.16            0.26    0.29    0.24           0.29     0.36
E16        24.60   25.97   21.86          58.01   -1.88   -0.85           2.09  204.84           0.60    0.59    0.61    0.59            0.43    0.48    0.39           0.56     0.63
E17        40.65   31.21   17.64          62.68   35.77   16.07          39.22   24.20           0.18    0.71    0.70    0.45            0.36    0.41    0.31           0.54     0.60
E18        36.21   47.56   21.88          74.55  -29.55   27.64          40.46  136.91           0.54    0.24    0.67    0.34            0.27    0.24    0.29           0.38     0.44
E19        29.35   29.17   47.84          60.93    4.72  -34.12          34.45  277.87           0.61    0.54    0.22    0.56            0.37    0.44    0.25           0.58     0.67
E20         7.33    8.82    1.41          35.62  -10.71   37.49          38.99  105.94           1.15    1.01    2.16    1.05            0.12    0.16    0.03           0.41     0.45
E21        25.17   30.44    6.59          62.03  -16.80   48.42          51.25  109.13           0.61    0.47    1.33    0.52            0.35    0.43    0.11           0.45     0.51
E22         9.13   19.17   14.43          50.89  -60.44    3.49          60.55  176.69           1.82    0.50    0.87    0.80            0.10    0.15    0.24           0.36     0.42
F1          3.64    4.52    3.35          25.30  -10.39    2.50          10.69  166.49           1.51    1.31    1.51    1.37            0.11    0.13    0.08           0.44     0.51
F2          2.89    4.36    2.68          24.81  -20.55    6.54          21.57  162.35           1.74    1.26    1.66    1.40            0.09    0.13    0.08           0.42     0.48
F3          2.39    4.42    2.35          25.03  -31.11    9.68          32.58  162.72           2.02    1.19    1.77    1.41            0.07    0.12    0.06           0.41     0.49
F4          1.65    4.68    1.68          25.81  -51.26   17.52          54.18  161.13           2.79    1.06    2.08    1.42            0.04    0.11    0.04           0.49     0.58
F5         11.60   14.77   10.72          45.32  -17.50    4.42          18.05  165.82           1.04    0.77    0.97    0.86            0.29    0.37    0.25           0.56     0.63
F6          9.64   15.24    9.00          45.95  -35.02   11.25          36.78  162.19           1.30    0.68    1.09    0.86            0.24    0.37    0.21           0.56     0.63
F7          7.87   15.49    7.41          46.30  -51.64   17.88          54.65  160.91           1.63    0.61    1.23    0.87            0.16    0.28    0.15           0.48     0.52
F8          6.19   15.02    6.11          45.66  -65.55   22.32          69.25  161.19           2.07    0.58    1.38    0.90            0.08    0.13    0.11           0.29     0.32
F9         30.09   34.85   26.99          65.63  -12.73    2.95          13.07  166.94           0.57    0.42    0.53    0.47            0.58    0.68    0.48           0.55     0.63
F10        27.14   35.16   24.57          65.87  -25.21    7.61          26.34  163.21           0.70    0.37    0.58    0.48            0.50    0.60    0.41           0.54     0.59
F11        24.21   34.73   22.24          65.54  -36.02   11.40          37.78  162.43           0.83    0.34    0.65    0.50            0.41    0.50    0.35           0.43     0.47
F12        21.73   34.68   20.36          65.50  -47.03   15.07          49.39  162.23           0.98    0.31    0.70    0.51            0.29    0.29    0.29           0.40     0.49
F13        37.92   49.12   58.36          75.53  -28.18  -20.38          34.78  215.87           0.67    0.21    0.16    0.35            0.30    0.26    0.12           0.29     0.37
F14        41.85   29.20   42.10          60.96   46.85  -27.12          54.13  329.93           0.19    0.78    0.26    0.49            0.36    0.39    0.27           0.46     0.59
F15        62.55   64.34   13.77          84.14    1.19   62.56          62.57   88.91           0.11    0.21    0.94    0.17            0.25    0.29    0.18           0.25     0.31
F16        17.38   18.40   15.42          49.97   -1.92   -0.59           2.03  197.60           0.75    0.74    0.77    0.74            0.32    0.35    0.29           0.54     0.59
F17        34.60   24.44   11.77          56.53   42.67   20.55          47.36   25.72           0.20    0.89    0.89    0.54            0.32    0.34    0.23           0.51     0.58
