targets/wolf_faust/transmissive/V050729.it8
IT8.7/1
ORIGINATOR "Wolf Faust"
DESCRIPTOR "Velvia (RVP 50), Type 3, L* a* b* (light D50, viewing angle 2)"
MANUFACTURER "Wolf Faust - http://www.coloraid.de"
CREATED "March 20, 2006"
PROD_DATE "2005:07"
DIFFUSE_GEOMETRY "opal"
SERIAL "V050729 Batch Average Data"
MATERIAL "Fujichrome Velvia (RVP 50)"
KEYWORD "MEAN_DE" # Mean Delta E of samples compared to batch average
NUMBER_OF_FIELDS 18
BEGIN_DATA_FORMAT
SAMPLE_ID  XYZ_X   XYZ_Y   XYZ_Z          LAB_L   LAB_A   LAB_B          LAB_C   LAB_H          D_RED  D_GREEN  D_BLUE  D_VIS          STDEV_X STDEV_Y STDEV_Z        MEAN_DE  STDEV_DE
END_DATA_FORMAT
NUMBER_OF_SETS 288
BEGIN_DATA
A1          2.09    1.79    1.29          14.32    8.78    2.27           9.07   14.49           1.53    1.91    1.91    1.72            0.05    0.05    0.04           0.30     0.35
A2          2.63    1.81    1.06          14.47   19.11    5.68          19.94   16.54           1.33    2.09    1.98    1.67            0.07    0.05    0.03           0.29     0.34 
A3          3.12    1.78    0.90          14.30   28.65    7.90          29.72   15.42           1.18    2.35    2.02    1.64            0.07    0.04    0.03           0.29     0.34
A4          4.22    1.81    0.65          14.44   44.92   12.66          46.67   15.75           0.95    3.44    2.07    1.57            0.07    0.03    0.02           0.29     0.34 
A5          9.28    8.14    5.97          34.27   12.46    3.33          12.90   14.98           0.90    1.22    1.20    1.06            0.20    0.18    0.18           0.46     0.52
A6         11.10    8.10    5.07          34.19   26.85    7.64          27.91   15.88           0.73    1.36    1.26    1.03            0.23    0.18    0.16           0.47     0.53 
A7         13.43    8.22    4.40          34.43   41.76   11.68          43.37   15.63           0.57    1.55    1.31    0.99            0.26    0.17    0.14           0.42     0.49
A8         16.99    8.56    3.61          35.11   59.97   17.69          62.52   16.43           0.39    1.94    1.36    0.93            0.15    0.10    0.12           0.41     0.51 
A9         28.05   27.75   22.32          59.66    5.16    1.12           5.29   12.34           0.50    0.59    0.60    0.55            0.53    0.58    0.54           0.68     0.77
A10        30.30   27.94   21.16          59.83   13.03    3.70          13.55   15.87           0.42    0.63    0.62    0.54            0.61    0.62    0.54           0.62     0.71
A11        32.56   27.91   19.97          59.80   21.43    6.07          22.28   15.81           0.34    0.68    0.64    0.52            0.61    0.60    0.48           0.64     0.73
A12        38.46   28.40   17.67          60.25   39.38   11.82          41.12   16.70           0.19    0.78    0.69    0.49            0.42    0.46    0.44           0.64     0.73 
A13        68.31   72.56   63.18          88.24   -3.57   -3.24           4.82  222.33           0.17    0.12    0.12    0.14            0.37    0.27    0.16           0.29     0.35
A14        74.91   75.90   63.12          89.81    3.56   -0.47           3.59  352.46           0.09    0.13    0.12    0.12            0.20    0.27    0.20           0.18     0.21 
A15        75.52   77.39   61.34          90.50    1.83    2.45           3.06   53.11           0.09    0.11    0.14    0.11            0.16    0.20    0.24           0.21     0.24
A16        72.68   75.53   62.85          89.64   -0.31   -0.50           0.61  240.62           0.12    0.12    0.12    0.12            0.36    0.30    0.26           0.22     0.26
A17        74.22   75.13   61.41          89.45    3.71    0.57           3.75    8.73           0.09    0.13    0.13    0.12            0.24    0.30    0.30           0.22     0.24
A18        69.13   73.17   57.52          88.53   -3.05    2.89           4.20  136.40           0.15    0.12    0.17    0.14            0.40    0.30    0.39           0.33     0.39 
A19        68.81   70.87   62.11          87.42    1.04   -3.61           3.76  286.17           0.14    0.15    0.13    0.15            0.47    0.47    0.23           0.29     0.34
A20         5.97    2.82    1.80          19.31   45.64    4.95          45.91    6.19           0.84    2.64    1.64    1.41            0.14    0.07    0.06           0.46     0.53 
A21        25.92   18.40   14.51          49.98   38.30    1.71          38.34    2.55           0.36    1.01    0.76    0.68            0.54    0.44    0.43           0.59     0.67
A22        52.98   48.70   31.93          75.26   16.15   11.62          19.89   35.73           0.16    0.38    0.44    0.29            0.63    0.68    0.61           0.58     0.66
B1          3.13    2.87    1.68          19.51    6.49    6.59           9.25   45.44           1.38    1.66    1.81    1.52            0.08    0.07    0.05           0.35     0.40
B2          3.68    2.83    1.01          19.34   16.02   14.84          21.84   42.81           1.22    1.79    2.07    1.49            0.09    0.07    0.03           0.34     0.38
B3          4.19    2.79    0.59          19.17   24.16   21.87          32.59   42.15           1.10    1.94    2.33    1.47            0.09    0.07    0.02           0.31     0.37
B4          5.12    2.78    0.07          19.14   36.45   31.68          48.30   40.99           0.94    2.29    3.53    1.43            0.11    0.06    0.00           0.42     0.53
B5         11.96   10.90    6.36          39.40   10.56   10.42          14.83   44.61           0.80    1.06    1.19    0.94            0.23    0.23    0.18           0.48     0.54
B6         13.82   10.83    4.17          39.29   23.33   21.39          31.65   42.52           0.65    1.17    1.40    0.91            0.27    0.24    0.12           0.49     0.54
B7         16.18   10.87    2.50          39.37   37.11   33.15          49.77   41.78           0.51    1.32    1.65    0.88            0.30    0.23    0.07           0.45     0.52
B8         20.48   11.24    1.01          39.98   57.06   50.42          76.14   41.46           0.33    1.62    2.09    0.82            0.19    0.15    0.03           0.28     0.33
B9         33.27   33.55   25.46          64.60    3.26    3.83           5.04   49.56           0.43    0.50    0.54    0.47            0.58    0.66    0.57           0.64     0.71
B10        35.13   33.78   22.75          64.79    8.89    9.12          12.74   45.74           0.37    0.52    0.60    0.46            0.63    0.70    0.54           0.64     0.73
B11        37.01   34.05   20.47          65.00   14.23   14.00          19.97   44.54           0.31    0.55    0.65    0.44            0.63    0.69    0.48           0.62     0.73
B12        43.03   34.56   14.46          65.41   31.21   28.45          42.24   42.36           0.16    0.63    0.82    0.41            0.48    0.58    0.37           0.65     0.79
B13        59.83   65.76   59.92          84.87   -8.34   -5.84          10.18  214.98           0.26    0.15    0.15    0.19            0.46    0.42    0.29           0.28     0.34
B14        65.48   62.98   57.31          83.43   10.90   -5.67          12.29  332.51           0.12    0.24    0.16    0.19            0.58    0.72    0.40           0.50     0.59
B15        67.66   70.16   45.87          87.08    0.01   13.27          13.27   89.97           0.12    0.16    0.28    0.15            0.44    0.45    0.55           0.35     0.40
B16        56.36   59.11   49.12          81.35   -1.56   -0.39           1.62  194.13           0.24    0.22    0.24    0.23            0.62    0.69    0.57           0.41     0.46
B17        63.53   61.61   47.12          82.70    9.62    4.26          10.52   23.89           0.12    0.25    0.26    0.20            0.56    0.69    0.62           0.44     0.52
B18        58.15   64.69   48.19          84.32   -9.99    5.79          11.55  149.90           0.25    0.16    0.26    0.20            0.54    0.47    0.58           0.42     0.48
B19        58.07   60.39   58.19          82.05   -0.39   -8.96           8.97  267.46           0.24    0.21    0.15    0.22            0.66    0.73    0.38           0.49     0.57
B20         4.68    2.87    0.95          19.51   29.24   16.01          33.34   28.71           1.02    2.03    2.04    1.44            0.12    0.08    0.03           0.39     0.47
B21        16.42   11.09    4.06          39.73   36.91   22.83          43.40   31.73           0.51    1.30    1.39    0.88            0.37    0.27    0.13           0.51     0.58
B22        32.77   28.20   17.10          60.06   21.05   12.81          24.65   31.32           0.33    0.67    0.72    0.52            0.68    0.65    0.51           0.70     0.78
C1          5.99    6.01    3.37          29.43    2.20    9.46           9.72   76.91           1.15    1.28    1.51    1.21            0.13    0.14    0.10           0.44     0.48
C2          6.39    5.98    2.07          29.36    6.79   19.65          20.79   70.93           1.07    1.32    1.77    1.19            0.14    0.14    0.06           0.41     0.47
C3          6.73    5.91    1.12          29.19   11.01   30.19          32.13   69.96           1.01    1.36    2.14    1.19            0.15    0.14    0.03           0.39     0.49
C4          7.28    5.76    0.22          28.80   18.22   45.56          49.07   68.20           0.95    1.45    3.34    1.17            0.16    0.14    0.01           0.52     0.65
C5         22.83   22.49   11.64          54.54    5.27   17.53          18.31   73.27           0.55    0.70    0.93    0.63            0.45    0.50    0.31           0.58     0.67
C6         24.69   22.49    6.39          54.54   13.43   36.39          38.79   69.75           0.46    0.74    1.26    0.61            0.49    0.52    0.18           0.60     0.71
C7         26.49   22.47    3.08          54.51   21.09   54.74          58.67   68.93           0.39    0.79    1.70    0.60            0.52    0.52    0.09           0.63     0.75
C8         29.84   22.39    0.49          54.44   34.57   84.62          91.41   67.78           0.30    0.90    3.25    0.58            0.52    0.48    0.01           0.71     0.84
C9         39.17   40.14   28.48          69.57    1.47    7.25           7.40   78.50           0.36    0.41    0.50    0.39            0.61    0.70    0.58           0.61     0.67
C10        40.37   40.32   24.31          69.69    4.67   14.67          15.40   72.35           0.32    0.43    0.58    0.38            0.64    0.73    0.53           0.62     0.70
C11        41.88   40.54   20.15          69.85    8.63   23.01          24.58   69.45           0.27    0.44    0.67    0.37            0.65    0.73    0.46           0.59     0.67
C12        47.25   40.69    7.85          69.96   23.70   56.90          61.64   67.39           0.14    0.51    1.19    0.34            0.46    0.61    0.19           0.60     0.74
C13        51.24   59.74   59.47          81.70  -16.12  -10.87          19.44  214.00           0.39    0.17    0.15    0.25            0.44    0.39    0.31           0.29     0.37
C14        58.14   51.18   52.98          76.79   22.46  -12.56          25.73  330.79           0.14    0.37    0.18    0.27            0.64    0.80    0.44           0.63     0.83
C15        65.33   68.19   32.31          86.10   -0.94   29.73          29.75   91.81           0.12    0.17    0.46    0.16            0.42    0.45    0.51           0.44     0.51
C16        42.83   45.09   37.77          72.95   -1.91   -0.77           2.08  201.96           0.36    0.34    0.36    0.35            0.68    0.77    0.67           0.57     0.64
C17        54.22   48.43   34.01          75.09   20.05    8.22          21.67   22.30           0.14    0.40    0.40    0.29            0.58    0.72    0.64           0.63     0.74
C18        47.96   57.33   36.25          80.37  -19.22   14.12          23.85  143.71           0.37    0.19    0.40    0.25            0.50    0.43    0.58           0.54     0.63
C19        45.70   47.12   54.38          74.26    0.77  -18.41          18.43  272.38           0.37    0.32    0.18    0.34            0.71    0.82    0.42           0.68     0.80
C20        11.66    8.63    1.11          35.26   26.28   40.83          48.55   57.23           0.69    1.32    2.15    0.99            0.29    0.23    0.03           0.53     0.64
C21        21.10   19.97   11.23          51.80    9.05   14.04          16.71   57.21           0.57    0.77    0.94    0.68            0.53    0.53    0.36           0.67     0.75
C22        26.90   23.11   10.99          55.18   19.88   20.61          28.64   46.03           0.40    0.76    0.95    0.60            0.63    0.60    0.37           0.67     0.75
D1          3.95    4.20    2.33          24.33   -1.54    8.63           8.77  100.08           1.36    1.41    1.69    1.37            0.08    0.10    0.06           0.41     0.45
D2          3.88    4.21    1.49          24.35   -2.56   17.11          17.30   98.51           1.36    1.39    1.96    1.37            0.09    0.10    0.04           0.40     0.45
D3          3.84    4.16    0.84          24.19   -2.43   26.02          26.13   95.33           1.37    1.39    2.33    1.37            0.09    0.10    0.02           0.39     0.45
D4          3.79    4.12    0.25          24.05   -2.71   36.80          36.90   94.21           1.41    1.39    3.31    1.37            0.09    0.11    0.01           0.48     0.61
D5         16.65   17.79    9.34          49.24   -2.79   15.75          15.99  100.03           0.74    0.76    1.04    0.75            0.33    0.38    0.24           0.56     0.63
D6         16.61   17.85    4.92          49.31   -3.29   34.49          34.64   95.44           0.72    0.76    1.42    0.74            0.36    0.44    0.13           0.63     0.77
D7         16.40   17.81    2.31          49.26   -4.27   51.81          51.99   94.71           0.74    0.75    1.93    0.73            0.33    0.40    0.06           0.61     0.72
D8         16.50   18.01    0.66          49.51   -4.78   72.85          73.01   93.75           0.78    0.74    3.15    0.72            0.33    0.40    0.02           0.66     0.79
D9         44.96   47.65   25.17          74.60   -2.82   21.58          21.77   97.43           0.30    0.32    0.57    0.32            0.62    0.74    0.52           0.57     0.63
D10        44.90   47.79   14.18          74.69   -3.37   45.18          45.30   94.27           0.28    0.32    0.90    0.31            0.58    0.69    0.32           0.53     0.58
D11        44.76   48.07    6.99          74.87   -4.53   68.85          68.99   93.76           0.28    0.32    1.35    0.30            0.53    0.61    0.13           0.41     0.48
D12        44.84   48.44    3.95          75.10   -5.31   84.47          84.64   93.60           0.29    0.31    1.79    0.30            0.39    0.36    0.06           0.28     0.34
D13        45.24   55.18   58.92          79.15  -21.58  -14.71          26.12  214.28           0.50    0.18    0.15    0.29            0.38    0.33    0.26           0.29     0.36
D14        51.53   41.67   48.65          70.64   32.30  -18.32          37.14  330.44           0.15    0.52    0.21    0.35            0.56    0.66    0.45           0.61     0.78
D15        63.82   66.55   23.25          85.28   -0.78   43.50          43.50   91.03           0.12    0.18    0.64    0.16            0.43    0.46    0.42           0.44     0.52
D16        31.77   33.54   27.96          64.59   -2.05   -0.48           2.14  193.61           0.49    0.48    0.50    0.48            0.57    0.64    0.61           0.64     0.71
D17        46.25   38.09   23.72          68.09   28.96   13.00          31.75   24.16           0.16    0.56    0.57    0.38            0.49    0.58    0.55           0.66     0.76
D18        40.71   51.52   27.32          76.99  -25.73   21.97          33.84  139.51           0.47    0.21    0.55    0.30            0.42    0.37    0.46           0.53     0.62
D19        35.89   36.44   50.49          66.85    2.54  -26.95          27.07  275.37           0.50    0.44    0.20    0.46            0.57    0.67    0.35           0.72     0.84
D20         2.82    2.87    1.02          19.50    1.01   14.96          15.00   86.15           1.47    1.60    2.12    1.53            0.08    0.08    0.03           0.40     0.46
D21        30.07   28.05    1.43          59.93   11.76   79.15          80.02   81.55           0.40    0.63    2.43    0.51            0.64    0.67    0.04           0.75     0.89
D22        40.50   43.82   53.87          72.10   -5.32  -21.60          22.24  256.15           0.47    0.33    0.18    0.38            0.61    0.73    0.33           0.69     0.80
E1          5.25    6.07    3.47          29.58   -7.00    9.03          11.43  127.80           1.29    1.20    1.51    1.23            0.11    0.13    0.09           0.44     0.49
E2          4.69    5.85    2.11          29.02  -11.58   18.74          22.03  121.70           1.37    1.19    1.81    1.24            0.12    0.15    0.05           0.50     0.58
E3          4.33    5.86    1.25          29.06  -16.59   28.20          32.72  120.47           1.46    1.15    2.18    1.25            0.11    0.15    0.03           0.44     0.57
E4          3.85    6.00    0.41          29.42  -24.86   42.97          49.64  120.06           1.71    1.07    3.24    1.24            0.10    0.16    0.01           0.56     0.74
E5         23.67   27.38   15.00          59.32  -11.58   16.58          20.23  124.91           0.64    0.53    0.82    0.57            0.52    0.63    0.41           0.66     0.74
E6         21.67   27.49    9.37          59.42  -21.13   33.21          39.36  122.47           0.72    0.49    1.10    0.57            0.43    0.56    0.24           0.58     0.67
E7         19.70   27.59    5.10          59.51  -31.02   51.10          59.77  121.26           0.84    0.45    1.52    0.58            0.33    0.44    0.10           0.45     0.53
E8         18.76   28.06    3.31          59.94  -37.60   62.46          72.90  121.05           0.93    0.42    1.88    0.57            0.25    0.29    0.06           0.27     0.35
E9         43.28   47.67   32.98          74.61   -7.75    8.91          11.82  131.02           0.37    0.30    0.43    0.33            0.64    0.74    0.61           0.52     0.59
E10        41.06   47.44   25.56          74.47  -13.79   20.67          24.84  123.71           0.40    0.29    0.57    0.33            0.54    0.64    0.51           0.49     0.54
E11        39.23   47.62   20.13          74.59  -19.95   31.23          37.06  122.57           0.44    0.27    0.71    0.33            0.46    0.53    0.37           0.43     0.48
E12        37.43   47.78   15.27          74.69  -26.16   42.40          49.82  121.67           0.49    0.25    0.88    0.33            0.33    0.33    0.27           0.40     0.45
E13        40.71   51.50   58.32          76.98  -25.68  -17.83          31.26  214.77           0.60    0.20    0.16    0.33            0.33    0.30    0.25           0.28     0.35
E14        46.03   34.41   44.76          65.28   40.41  -22.96          46.48  330.40           0.18    0.65    0.24    0.43            0.49    0.54    0.39           0.59     0.71
E15        62.86   65.22   17.57          84.60   -0.05   54.03          54.03   90.06           0.11    0.20    0.80    0.17            0.39    0.41    0.31           0.38     0.45
E16        23.25   24.60   20.50          56.68   -2.09   -0.41           2.16  191.54           0.63    0.61    0.64    0.61            0.47    0.53    0.52           0.65     0.72
E17        39.71   30.20   16.50          61.83   36.54   17.24          40.40   25.25           0.18    0.73    0.73    0.46            0.44    0.48    0.42           0.66     0.74
E18        35.13   46.67   21.06          73.97  -30.71   28.27          41.74  137.37           0.56    0.24    0.69    0.35            0.39    0.36    0.39           0.52     0.60
E19        27.97   27.79   46.58          59.70    4.68  -34.78          35.09  277.65           0.64    0.56    0.23    0.58            0.47    0.56    0.37           0.69     0.81
E20         6.87    8.37    1.32          34.73  -11.44   37.13          38.85  107.12           1.19    1.03    2.20    1.08            0.17    0.22    0.03           0.58     0.69
E21        24.00   29.20    6.37          60.95  -17.21   47.52          50.54  109.90           0.64    0.48    1.35    0.54            0.49    0.60    0.16           0.60     0.69
E22         8.66   18.50   13.60          50.10  -61.00    4.30          61.15  175.97           1.86    0.51    0.90    0.81            0.16    0.26    0.36           0.51     0.59
F1          3.40    4.24    3.07          24.45  -10.37    2.99          10.79  163.90           1.55    1.33    1.55    1.40            0.08    0.10    0.09           0.42     0.46
F2          2.67    4.02    2.51          23.72  -19.86    6.06          20.76  163.04           1.78    1.29    1.69    1.44            0.07    0.10    0.06           0.44     0.51
F3          2.28    4.08    2.18          23.92  -28.51    9.27          29.98  161.98           2.00    1.23    1.79    1.45            0.07    0.11    0.06           0.44     0.53
F4          1.51    4.27    1.51          24.54  -49.56   17.20          52.46  160.86           2.80    1.10    2.13    1.46            0.04    0.10    0.05           0.48     0.60
F5         10.96   14.04   10.16          44.29  -17.68    4.44          18.23  165.92           1.08    0.79    0.99    0.88            0.23    0.32    0.27           0.60     0.66
F6          8.93   14.22    8.52          44.55  -34.76   10.56          36.33  163.10           1.35    0.71    1.12    0.89            0.18    0.28    0.22           0.58     0.62
F7          7.14   14.06    6.96          44.31  -50.04   16.27          52.62  161.99           1.68    0.66    1.26    0.92            0.12    0.24    0.16           0.49     0.54
F8          5.87   14.49    5.75          44.93  -65.92   22.74          69.74  160.97           2.12    0.59    1.42    0.92            0.07    0.13    0.12           0.34     0.37
F9         28.70   33.47   26.00          64.53  -13.29    2.77          13.58  168.24           0.60    0.43    0.54    0.49            0.44    0.54    0.54           0.60     0.65
F10        25.64   33.51   23.59          64.57  -25.78    7.17          26.76  164.45           0.73    0.39    0.60    0.50            0.42    0.54    0.52           0.56     0.62
F11        23.10   33.54   21.76          64.59  -36.88   10.71          38.40  163.81           0.87    0.36    0.66    0.51            0.37    0.49    0.50           0.50     0.55
F12        20.66   33.63   19.66          64.66  -48.52   15.08          50.81  162.73           1.03    0.32    0.72    0.52            0.28    0.31    0.41           0.55     0.62
F13        36.91   48.24   57.65          74.98  -29.11  -20.60          35.66  215.29           0.70    0.21    0.16    0.36            0.29    0.26    0.21           0.26     0.34
F14        41.03   28.40   40.92          60.24   47.45  -26.85          54.52  330.50           0.20    0.80    0.27    0.50            0.40    0.43    0.33           0.52     0.66
F15        62.15   63.95   13.35          83.94    1.12   63.33          63.34   88.98           0.11    0.21    0.96    0.17            0.21    0.25    0.18           0.30     0.35
F16        16.40   17.40   14.42          48.76   -2.13   -0.14           2.16  184.46           0.78    0.77    0.81    0.76            0.35    0.38    0.39           0.63     0.69
F17        33.81   23.65   10.99          55.74   43.36   21.56          48.42   26.43           0.21    0.92    0.92    0.55            0.34    0.36    0.30           0.65     0.72
