targets/wolf_faust/transmissive/V050727.it8
IT8.7/1
ORIGINATOR "Wolf Faust"
DESCRIPTOR "Velvia (RVP 50), Type 3, L* a* b* (light D50, viewing angle 2)"
MANUFACTURER "Wolf Faust - http://www.coloraid.de"
CREATED "November 13, 2006"
PROD_DATE "2005:07"
DIFFUSE_GEOMETRY "opal"
SERIAL "V050727 Batch Average Data"
MATERIAL "Fujichrome Velvia (RVP 50)"
KEYWORD "MEAN_DE" # Mean Delta E of samples compared to batch average
NUMBER_OF_FIELDS 18
BEGIN_DATA_FORMAT
SAMPLE_ID  XYZ_X   XYZ_Y   XYZ_Z          LAB_L   LAB_A   LAB_B          LAB_C   LAB_H          D_RED  D_GREEN  D_BLUE  D_VIS          STDEV_X STDEV_Y STDEV_Z        MEAN_DE  STDEV_DE
END_DATA_FORMAT
NUMBER_OF_SETS 288
BEGIN_DATA
A1          2.34    2.06    1.43          15.77    7.78    3.02           8.35   21.17           1.50    1.83    1.87    1.66            0.08    0.08    0.05           0.45     0.51
A2          2.79    1.95    1.18          15.22   19.01    5.30          19.74   15.56           1.31    2.04    1.93    1.64            0.09    0.07    0.04           0.44     0.51 
A3          3.53    2.03    0.97          15.66   29.51    9.06          30.87   17.06           1.13    2.28    1.99    1.59            0.11    0.07    0.03           0.43     0.51
A4          4.52    1.93    0.69          15.13   46.16   13.09          47.98   15.83           0.91    3.54    2.04    1.54            0.10    0.04    0.02           0.38     0.46 
A5         10.13    8.98    6.41          35.94   12.06    4.24          12.79   19.37           0.87    1.17    1.17    1.02            0.29    0.28    0.15           0.61     0.69
A6         12.08    8.88    5.45          35.74   27.11    8.38          28.38   17.17           0.69    1.31    1.23    0.99            0.36    0.28    0.14           0.58     0.67 
A7         14.43    8.91    4.64          35.81   42.12   12.70          44.00   16.78           0.54    1.50    1.29    0.96            0.38    0.25    0.11           0.55     0.65
A8         17.41    8.85    3.79          35.69   59.84   17.51          62.35   16.31           0.38    1.90    1.34    0.92            0.18    0.12    0.09           0.29     0.34 
A9         30.11   29.84   23.07          61.51    5.09    2.88           5.86   29.53           0.46    0.56    0.59    0.52            0.68    0.73    0.41           0.73     0.82
A10        32.02   29.75   21.88          61.44   12.45    5.03          13.44   22.01           0.39    0.60    0.61    0.51            0.66    0.70    0.43           0.68     0.76
A11        34.60   30.03   21.08          61.68   20.49    7.03          21.66   18.95           0.32    0.63    0.62    0.49            0.67    0.70    0.44           0.71     0.78
A12        39.82   29.93   18.86          61.59   37.90   11.50          39.61   16.88           0.18    0.74    0.66    0.47            0.42    0.49    0.36           0.55     0.69 
A13        69.86   73.79   63.39          88.82   -2.74   -2.44           3.67  221.78           0.15    0.12    0.12    0.14            0.27    0.24    0.12           0.26     0.31
A14        75.79   77.28   63.53          90.45    2.60    0.23           2.62    5.32           0.09    0.12    0.12    0.11            0.26    0.34    0.18           0.27     0.31 
A15        75.57   77.61   60.29          90.60    1.49    3.67           3.97   67.70           0.09    0.11    0.15    0.11            0.17    0.27    0.12           0.29     0.34
A16        72.83   75.80   61.88          89.77   -0.54    0.65           0.85  129.02           0.12    0.12    0.13    0.12            0.34    0.37    0.24           0.28     0.32
A17        74.58   75.60   61.60          89.67    3.48    0.77           3.57   12.50           0.09    0.13    0.13    0.12            0.22    0.30    0.16           0.25     0.30
A18        69.63   73.69   58.06          88.78   -3.04    2.77           4.12  137.68           0.14    0.12    0.16    0.13            0.32    0.29    0.23           0.28     0.36 
A19        70.15   72.26   62.46          88.09    1.01   -2.80           2.98  289.87           0.13    0.14    0.12    0.14            0.28    0.30    0.13           0.22     0.25
A20         6.35    2.99    1.90          20.01   46.73    5.18          47.01    6.33           0.81    2.63    1.62    1.38            0.15    0.07    0.06           0.42     0.49 
A21        27.56   19.69   15.15          51.48   38.46    2.68          38.55    3.99           0.33    0.97    0.75    0.65            0.50    0.44    0.37           0.58     0.66
A22        54.29   50.45   32.56          76.34   14.85   12.53          19.43   40.16           0.15    0.36    0.43    0.28            0.57    0.69    0.61           0.57     0.67
B1          3.49    3.21    1.74          20.87    6.50    8.35          10.58   52.10           1.33    1.60    1.81    1.47            0.12    0.11    0.05           0.49     0.56
B2          4.10    3.20    1.07          20.84   15.68   16.51          22.77   46.47           1.18    1.72    2.05    1.44            0.13    0.11    0.03           0.46     0.55
B3          4.58    3.07    0.67          20.33   24.42   22.40          33.14   42.54           1.06    1.89    2.27    1.43            0.14    0.10    0.02           0.42     0.52
B4          5.70    3.13    0.07          20.54   37.28   34.03          50.48   42.39           0.89    2.22    3.54    1.38            0.16    0.09    0.00           0.61     0.74
B5         13.05   11.89    6.67          41.03   10.87   11.88          16.10   47.53           0.76    1.03    1.17    0.90            0.36    0.36    0.14           0.65     0.74
B6         15.24   12.06    4.49          41.31   23.31   23.02          32.76   44.63           0.61    1.12    1.37    0.87            0.44    0.38    0.11           0.69     0.79
B7         17.71   12.08    2.70          41.33   37.09   34.89          50.92   43.25           0.47    1.26    1.62    0.84            0.48    0.37    0.08           0.64     0.76
B8         21.32   11.90    1.13          41.05   56.45   50.49          75.73   41.81           0.32    1.56    2.04    0.80            0.24    0.19    0.04           0.33     0.39
B9         35.49   36.07   26.57          66.57    2.44    5.27           5.82   65.14           0.40    0.46    0.53    0.44            0.75    0.81    0.45           0.68     0.76
B10        37.47   36.16   23.75          66.64    8.67   10.44          13.57   50.31           0.34    0.49    0.58    0.43            0.80    0.84    0.46           0.70     0.79
B11        39.23   36.24   21.14          66.70   14.02   15.56          20.95   47.99           0.29    0.52    0.64    0.42            0.74    0.81    0.43           0.72     0.82
B12        44.35   36.16   15.22          66.64   29.73   28.65          41.29   43.95           0.15    0.60    0.80    0.39            0.46    0.58    0.32           0.66     0.78
B13        61.48   67.02   60.02          85.52   -7.21   -4.84           8.69  213.85           0.24    0.15    0.15    0.18            0.40    0.38    0.29           0.31     0.35
B14        66.67   64.79   57.91          84.37    9.48   -4.67          10.57  333.80           0.12    0.22    0.15    0.18            0.49    0.63    0.32           0.47     0.55
B15        68.09   70.71   46.33          87.34   -0.19   13.19          13.19   90.82           0.12    0.15    0.28    0.15            0.30    0.35    0.37           0.33     0.39
B16        58.34   61.19   49.34          82.48   -1.59    1.31           2.07  140.60           0.22    0.21    0.24    0.21            0.49    0.54    0.46           0.39     0.43
B17        64.66   63.37   47.55          83.64    8.18    5.37           9.78   33.28           0.12    0.23    0.25    0.19            0.46    0.59    0.52           0.41     0.49
B18        59.80   65.98   48.38          84.99   -8.90    6.73          11.16  142.91           0.23    0.15    0.25    0.19            0.43    0.38    0.41           0.34     0.42
B19        59.89   62.24   58.53          83.04   -0.28   -7.60           7.61  267.84           0.22    0.20    0.15    0.21            0.59    0.63    0.28           0.42     0.49
B20         5.01    3.07    1.00          20.32   30.02   16.75          34.37   29.17           0.99    2.00    2.02    1.41            0.15    0.10    0.04           0.43     0.49
B21        17.72   12.03    4.30          41.26   37.42   24.03          44.47   32.70           0.48    1.26    1.36    0.84            0.38    0.30    0.13           0.56     0.62
B22        34.76   30.20   17.54          61.83   20.40   14.83          25.22   36.02           0.31    0.63    0.72    0.49            0.72    0.73    0.46           0.69     0.78
C1          6.62    6.72    3.57          31.15    1.44   11.08          11.18   82.62           1.11    1.22    1.49    1.16            0.23    0.23    0.10           0.63     0.70
C2          7.03    6.67    2.22          31.03    6.14   21.15          22.02   73.81           1.03    1.26    1.75    1.15            0.21    0.21    0.05           0.56     0.66
C3          7.41    6.57    1.15          30.81   10.79   32.55          34.30   71.65           0.97    1.30    2.14    1.14            0.22    0.21    0.04           0.58     0.67
C4          8.22    6.61    0.24          30.91   17.87   48.77          51.94   69.87           0.90    1.37    3.36    1.12            0.25    0.21    0.01           0.74     0.89
C5         24.82   24.38   12.22          56.46    5.70   19.13          19.96   73.40           0.51    0.66    0.91    0.60            0.56    0.61    0.25           0.68     0.76
C6         26.77   24.53    6.70          56.61   13.18   38.60          40.79   71.14           0.43    0.70    1.24    0.58            0.62    0.62    0.15           0.71     0.80
C7         29.13   24.83    3.28          56.91   21.25   57.42          61.22   69.69           0.35    0.74    1.67    0.56            0.68    0.65    0.08           0.74     0.87
C8         32.49   24.68    0.53          56.76   34.31   87.78          94.25   68.65           0.27    0.84    3.26    0.54            0.62    0.55    0.02           0.76     0.87
C9         41.48   42.72   29.51          71.36    0.88    8.66           8.71   84.18           0.34    0.38    0.48    0.36            0.73    0.79    0.45           0.62     0.68
C10        42.79   43.01   25.06          71.56    3.97   16.54          17.01   76.51           0.30    0.39    0.57    0.35            0.75    0.84    0.42           0.64     0.73
C11        43.77   42.92   20.56          71.50    7.12   25.02          26.02   74.11           0.26    0.41    0.67    0.35            0.71    0.80    0.37           0.66     0.72
C12        48.87   42.81    8.14          71.42   21.83   58.33          62.29   69.48           0.13    0.48    1.18    0.32            0.48    0.66    0.15           0.70     0.83
C13        52.55   60.91   59.77          82.33  -15.41  -10.08          18.42  213.18           0.37    0.16    0.15    0.24            0.48    0.42    0.22           0.37     0.43
C14        59.79   53.49   53.92          78.16   20.50  -11.20          23.36  331.35           0.13    0.35    0.18    0.26            0.51    0.67    0.34           0.60     0.74
C15        65.83   68.82   33.16          86.41   -1.15   28.98          29.01   92.28           0.12    0.17    0.45    0.15            0.30    0.34    0.41           0.42     0.51
C16        44.48   47.19   38.74          74.31   -2.96    0.28           2.97  174.53           0.35    0.32    0.35    0.33            0.63    0.72    0.61           0.47     0.55
C17        55.86   50.67   35.14          76.48   18.20    8.97          20.29   26.24           0.13    0.37    0.39    0.27            0.51    0.65    0.60           0.55     0.66
C18        48.94   58.22   37.01          80.86  -18.67   13.92          23.29  143.30           0.36    0.18    0.39    0.25            0.49    0.41    0.51           0.49     0.60
C19        47.27   49.07   54.97          75.49   -0.12  -16.91          16.92  269.56           0.35    0.30    0.17    0.32            0.62    0.75    0.36           0.64     0.76
C20        12.76    9.54    1.19          37.00   26.35   42.71          50.19   58.33           0.66    1.27    2.12    0.95            0.32    0.27    0.05           0.56     0.63
C21        22.66   21.50   11.61          53.49    9.02   15.80          18.20   60.28           0.54    0.74    0.92    0.65            0.48    0.52    0.28           0.66     0.76
C22        28.75   24.76   11.38          56.84   20.05   22.28          29.97   48.01           0.37    0.73    0.93    0.57            0.51    0.52    0.29           0.60     0.67
D1          4.38    4.78    2.58          26.10   -3.01    9.58          10.05  107.47           1.33    1.34    1.65    1.32            0.15    0.17    0.07           0.52     0.61
D2          4.30    4.70    1.50          25.85   -3.13   19.59          19.84   99.08           1.32    1.34    1.97    1.32            0.14    0.16    0.05           0.48     0.56
D3          4.30    4.72    0.92          25.93   -3.47   27.68          27.89   97.14           1.33    1.33    2.30    1.31            0.13    0.14    0.03           0.46     0.53
D4          4.28    4.71    0.27          25.90   -3.65   39.54          39.71   95.27           1.37    1.32    3.31    1.31            0.13    0.15    0.01           0.67     0.77
D5         18.10   19.28    9.64          51.01   -2.58   17.78          17.97   98.24           0.70    0.73    1.03    0.71            0.47    0.53    0.20           0.70     0.79
D6         18.01   19.51    5.13          51.27   -4.15   36.75          36.98   96.44           0.69    0.71    1.40    0.70            0.49    0.55    0.11           0.77     0.87
D7         18.17   19.88    2.56          51.69   -5.12   53.87          54.11   95.43           0.70    0.70    1.88    0.69            0.52    0.57    0.08           0.76     0.88
D8         18.10   19.85    0.71          51.66   -5.36   75.61          75.80   94.05           0.74    0.70    3.15    0.68            0.48    0.49    0.02           0.76     0.90
D9         47.39   50.15   25.49          76.16   -2.65   23.70          23.85   96.37           0.28    0.30    0.57    0.29            0.72    0.79    0.43           0.53     0.58
D10        47.02   50.22   14.57          76.20   -3.87   46.77          46.93   94.73           0.26    0.30    0.89    0.29            0.67    0.73    0.24           0.54     0.59
D11        46.59   50.04    7.23          76.09   -4.59   69.96          70.12   93.76           0.27    0.30    1.33    0.28            0.60    0.61    0.11           0.47     0.51
D12        46.62   49.93    4.05          76.03   -4.24   85.43          85.53   92.84           0.27    0.30    1.78    0.28            0.49    0.39    0.07           0.43     0.50
D13        46.56   56.38   59.21          79.83  -20.79  -13.83          24.97  213.63           0.48    0.18    0.15    0.28            0.46    0.39    0.19           0.38     0.47
D14        53.22   43.83   49.75          72.11   30.33  -17.03          34.78  330.69           0.15    0.48    0.20    0.33            0.55    0.71    0.39           0.73     0.91
D15        64.36   67.22   23.93          85.61   -1.03   42.82          42.83   91.38           0.12    0.18    0.63    0.16            0.31    0.36    0.35           0.43     0.50
D16        33.81   35.94   29.15          66.47   -2.91    0.82           3.03  164.24           0.47    0.44    0.48    0.45            0.61    0.70    0.59           0.57     0.65
D17        47.90   40.17   24.89          69.59   27.07   13.44          30.22   26.40           0.15    0.53    0.55    0.36            0.49    0.60    0.49           0.58     0.69
D18        41.77   52.51   28.01          77.58  -25.05   21.83          33.23  138.93           0.46    0.21    0.54    0.30            0.50    0.42    0.49           0.58     0.70
D19        37.21   37.99   51.05          68.01    1.90  -25.56          25.63  274.24           0.48    0.42    0.20    0.44            0.61    0.76    0.38           0.86     0.95
D20         3.08    3.17    1.14          20.72    0.44   15.28          15.28   88.36           1.43    1.55    2.07    1.48            0.10    0.11    0.05           0.45     0.52
D21        32.19   30.23    1.53          61.85   11.29   81.30          82.08   82.09           0.37    0.59    2.40    0.48            0.61    0.64    0.05           0.67     0.77
D22        42.01   45.64   54.52          73.31   -5.94  -20.20          21.06  253.61           0.45    0.31    0.18    0.36            0.71    0.82    0.35           0.66     0.82
E1          5.83    6.78    3.69          31.29   -7.61   10.52          12.99  125.87           1.25    1.15    1.49    1.18            0.18    0.21    0.09           0.57     0.64
E2          5.17    6.47    2.28          30.56  -12.14   19.79          23.22  121.54           1.33    1.14    1.78    1.20            0.16    0.20    0.05           0.57     0.65
E3          4.84    6.68    1.37          31.07  -18.47   30.09          35.31  121.54           1.43    1.08    2.15    1.19            0.16    0.21    0.04           0.53     0.63
E4          4.29    6.80    0.45          31.35  -26.95   45.51          52.89  120.63           1.68    1.01    3.23    1.19            0.13    0.19    0.01           0.66     0.77
E5         25.39   29.53   15.71          61.24  -12.49   18.12          22.01  124.57           0.61    0.50    0.80    0.54            0.57    0.66    0.33           0.58     0.66
E6         23.47   29.99    9.83          61.64  -22.51   35.48          42.02  122.40           0.69    0.45    1.09    0.53            0.51    0.62    0.17           0.59     0.69
E7         21.21   29.61    5.36          61.31  -31.41   52.89          61.51  120.71           0.80    0.42    1.50    0.54            0.47    0.55    0.09           0.58     0.66
E8         19.82   29.12    3.28          60.89  -36.33   64.30          73.86  119.47           0.89    0.41    1.90    0.55            0.38    0.38    0.07           0.55     0.62
E9         45.61   50.28   33.51          76.24   -8.01   10.93          13.55  126.26           0.34    0.28    0.43    0.30            0.73    0.81    0.47           0.53     0.58
E10        43.07   49.89   26.08          76.00  -14.37   22.40          26.61  122.69           0.38    0.26    0.57    0.31            0.69    0.73    0.44           0.51     0.56
E11        40.99   49.64   20.62          75.85  -19.93   32.38          38.03  121.61           0.42    0.25    0.70    0.31            0.62    0.64    0.35           0.50     0.55
E12        39.12   49.29   15.58          75.63  -24.82   43.26          49.88  119.84           0.46    0.24    0.87    0.32            0.53    0.46    0.27           0.52     0.60
E13        41.74   52.51   58.59          77.58  -25.13  -17.07          30.38  214.19           0.58    0.19    0.16    0.32            0.48    0.42    0.24           0.39     0.50
E14        47.40   36.05   45.70          66.56   38.74  -21.89          44.50  330.53           0.17    0.62    0.23    0.41            0.57    0.67    0.43           0.76     0.91
E15        63.38   65.87   18.04          84.93   -0.31   53.54          53.54   90.33           0.11    0.19    0.78    0.16            0.32    0.39    0.31           0.44     0.52
E16        24.81   26.50   21.59          58.51   -3.17    0.55           3.23  170.32           0.60    0.58    0.62    0.58            0.59    0.67    0.52           0.68     0.78
E17        41.03   31.76   17.38          63.14   34.94   17.46          39.06   26.55           0.17    0.69    0.71    0.45            0.50    0.56    0.44           0.66     0.78
E18        35.98   47.52   21.61          74.52  -30.24   28.11          41.29  137.08           0.55    0.24    0.68    0.34            0.50    0.45    0.41           0.59     0.69
E19        29.28   29.38   47.34          61.11    3.69  -33.23          33.44  276.34           0.62    0.54    0.23    0.55            0.56    0.66    0.38           0.80     0.95
E20         7.43    9.10    1.42          36.16  -12.07   38.27          40.13  107.51           1.16    0.99    2.16    1.04            0.21    0.27    0.05           0.62     0.72
E21        25.65   31.39    6.56          62.83  -18.24   49.95          53.17  110.06           0.62    0.45    1.34    0.50            0.46    0.57    0.13           0.62     0.70
E22         9.06   19.21   14.25          50.93  -61.19    4.04          61.32  176.23           1.84    0.50    0.88    0.80            0.14    0.22    0.28           0.44     0.50
F1          3.72    4.74    3.28          25.96  -12.00    4.08          12.68  161.25           1.52    1.28    1.53    1.35            0.14    0.18    0.09           0.56     0.67
F2          2.98    4.52    2.73          25.32  -21.19    7.07          22.34  161.56           1.74    1.24    1.65    1.39            0.11    0.16    0.08           0.53     0.62
F3          2.59    4.74    2.38          25.97  -31.23   11.00          33.11  160.60           1.98    1.16    1.76    1.38            0.09    0.16    0.07           0.54     0.64
F4          1.70    4.81    1.64          26.19  -51.85   18.54          55.07  160.32           2.79    1.05    2.10    1.41            0.04    0.12    0.05           0.49     0.56
F5         11.86   15.23   10.68          45.95  -18.40    5.65          19.25  162.95           1.04    0.75    0.97    0.84            0.34    0.43    0.24           0.61     0.69
F6          9.68   15.51    8.90          46.32  -36.25   12.25          38.26  161.33           1.32    0.67    1.10    0.86            0.25    0.38    0.18           0.59     0.65
F7          7.84   15.51    7.43          46.33  -52.07   17.81          55.03  161.12           1.65    0.61    1.23    0.87            0.19    0.33    0.15           0.48     0.54
F8          6.23   15.16    6.03          45.85  -66.02   23.06          69.93  160.75           2.07    0.57    1.39    0.90            0.10    0.16    0.08           0.30     0.34
F9         30.63   35.90   26.62          66.44  -14.20    4.99          15.05  160.64           0.57    0.40    0.54    0.46            0.71    0.81    0.51           0.61     0.69
F10        27.29   35.64   24.46          66.24  -26.21    8.45          27.54  162.13           0.70    0.36    0.59    0.47            0.58    0.69    0.45           0.55     0.61
F11        24.24   35.06   21.91          65.79  -37.02   12.48          39.07  161.37           0.84    0.34    0.66    0.49            0.46    0.56    0.41           0.51     0.56
F12        21.71   34.82   20.24          65.61  -47.59   15.52          50.06  161.94           0.99    0.31    0.71    0.50            0.37    0.39    0.35           0.50     0.60
F13        37.85   49.21   57.95          75.58  -28.63  -19.88          34.86  214.77           0.68    0.21    0.16    0.35            0.43    0.38    0.19           0.41     0.51
F14        42.13   29.63   41.71          61.33   46.07  -25.98          52.89  330.58           0.19    0.77    0.26    0.48            0.50    0.54    0.42           0.60     0.76
F15        62.63   64.57   13.69          84.26    0.85   62.97          62.97   89.23           0.11    0.20    0.95    0.17            0.30    0.36    0.22           0.36     0.43
F16        17.59   18.87   15.24          50.53   -3.21    0.81           3.32  165.86           0.75    0.73    0.78    0.73            0.46    0.52    0.43           0.64     0.73
F17        35.05   24.98   11.68          57.06   41.94   21.75          47.24   27.41           0.20    0.87    0.89    0.53            0.42    0.45    0.27           0.56     0.67
