targets/wolf_faust/transmissive/V050728.it8
IT8.7/1
ORIGINATOR "Wolf Faust"
DESCRIPTOR "Velvia (RVP 50), Type 3, L* a* b* (light D50, viewing angle 2)"
MANUFACTURER "Wolf Faust - http://www.coloraid.de"
CREATED "November 04, 2005"
PROD_DATE "2005:07"
DIFFUSE_GEOMETRY "opal"
SERIAL "V050728 Batch Average Data"
MATERIAL "Fujichrome Velvia (RVP 50)"
KEYWORD "MEAN_DE" # Mean Delta E of samples compared to batch average
NUMBER_OF_FIELDS 18
BEGIN_DATA_FORMAT
SAMPLE_ID  XYZ_X   XYZ_Y   XYZ_Z          LAB_L   LAB_A   LAB_B          LAB_C   LAB_H          D_RED  D_GREEN  D_BLUE  D_VIS          STDEV_X STDEV_Y STDEV_Z        MEAN_DE  STDEV_DE
END_DATA_FORMAT
NUMBER_OF_SETS 288
BEGIN_DATA
A1          2.17    1.89    1.34          14.89    8.02    2.60           8.43   17.93           1.52    1.87    1.90    1.70            0.05    0.05    0.04           0.34     0.39
A2          2.72    1.90    1.16          14.93   18.87    5.08          19.54   15.07           1.32    2.05    1.94    1.65            0.06    0.04    0.03           0.29     0.34 
A3          3.13    1.80    0.91          14.38   28.62    7.80          29.66   15.24           1.18    2.34    2.02    1.64            0.08    0.05    0.03           0.29     0.35
A4          4.25    1.82    0.67          14.51   45.15   12.42          46.82   15.39           0.94    3.40    2.06    1.57            0.07    0.03    0.01           0.27     0.34 
A5          9.54    8.37    6.08          34.75   12.48    3.64          13.00   16.26           0.88    1.20    1.20    1.05            0.22    0.20    0.14           0.47     0.54
A6         11.25    8.22    5.17          34.43   26.95    7.55          27.99   15.65           0.72    1.35    1.26    1.03            0.25    0.20    0.13           0.41     0.50 
A7         13.57    8.32    4.40          34.64   41.81   12.01          43.50   16.03           0.56    1.54    1.31    0.99            0.28    0.19    0.13           0.42     0.49
A8         16.96    8.55    3.72          35.10   59.91   16.90          62.25   15.76           0.39    1.93    1.35    0.93            0.15    0.10    0.11           0.38     0.45 
A9         28.67   28.20   22.24          60.07    5.83    1.96           6.16   18.60           0.48    0.59    0.60    0.54            0.55    0.55    0.41           0.54     0.62
A10        30.76   28.27   21.32          60.13   13.48    3.89          14.04   16.09           0.41    0.63    0.62    0.53            0.56    0.57    0.40           0.57     0.66
A11        33.04   28.46   20.16          60.30   21.03    6.51          22.01   17.21           0.33    0.66    0.64    0.52            0.55    0.53    0.39           0.55     0.61
A12        38.78   28.78   18.27          60.58   38.97   11.06          40.51   15.85           0.19    0.77    0.68    0.48            0.34    0.39    0.29           0.48     0.57 
A13        69.27   73.22   63.37          88.55   -2.85   -2.88           4.06  225.38           0.16    0.12    0.12    0.14            0.30    0.22    0.11           0.28     0.32
A14        75.50   76.78   63.48          90.22    2.99   -0.12           3.00  325.07           0.09    0.12    0.12    0.11            0.14    0.18    0.15           0.15     0.17 
A15        75.28   77.17   60.07          90.40    1.78    3.53           3.96   63.18           0.09    0.12    0.15    0.11            0.14    0.15    0.25           0.20     0.24
A16        72.53   75.42   61.87          89.59   -0.40    0.35           0.55  135.91           0.12    0.12    0.13    0.12            0.28    0.22    0.19           0.23     0.26
A17        75.23   76.51   62.73          90.09    2.99    0.39           3.02    7.53           0.09    0.12    0.12    0.11            0.19    0.24    0.23           0.19     0.21
A18        68.16   72.51   56.44          88.21   -3.78    3.46           5.13  137.49           0.16    0.13    0.18    0.14            0.35    0.25    0.26           0.32     0.37 
A19        69.80   71.65   62.37          87.80    1.55   -3.22           3.57  295.76           0.13    0.15    0.12    0.15            0.39    0.40    0.16           0.27     0.31
A20         6.21    2.95    1.90          19.83   45.97    4.91          46.23    6.10           0.82    2.59    1.62    1.39            0.13    0.06    0.06           0.39     0.45 
A21        26.51   18.91   14.57          50.57   38.18    2.58          38.26    3.87           0.35    0.99    0.77    0.66            0.50    0.41    0.37           0.49     0.57
A22        53.05   48.84   32.03          75.35   15.94   11.62          19.73   36.09           0.16    0.38    0.44    0.29            0.51    0.60    0.43           0.48     0.54
B1          3.15    2.87    1.68          19.50    6.87    6.64           9.55   44.03           1.37    1.66    1.82    1.52            0.07    0.07    0.05           0.36     0.41
B2          3.69    2.86    1.09          19.46   15.66   13.81          20.88   41.40           1.22    1.77    2.03    1.49            0.09    0.07    0.03           0.33     0.40
B3          4.27    2.84    0.62          19.38   24.36   21.67          32.60   41.66           1.09    1.93    2.31    1.46            0.10    0.07    0.02           0.33     0.41
B4          5.19    2.84    0.07          19.38   36.23   32.00          48.34   41.45           0.93    2.26    3.51    1.42            0.11    0.07    0.00           0.41     0.55
B5         12.25   11.22    6.51          39.94   10.18   10.70          14.78   46.43           0.79    1.05    1.18    0.93            0.28    0.28    0.16           0.49     0.59
B6         14.09   11.12    4.26          39.79   22.91   21.72          31.57   43.47           0.64    1.15    1.39    0.90            0.31    0.27    0.11           0.46     0.56
B7         16.49   11.10    2.63          39.74   37.24   32.73          49.57   41.31           0.50    1.30    1.63    0.87            0.33    0.25    0.07           0.40     0.51
B8         20.62   11.35    1.07          40.17   56.86   49.90          75.65   41.27           0.33    1.60    2.07    0.82            0.18    0.14    0.03           0.28     0.32
B9         33.80   34.14   25.45          65.07    3.10    4.66           5.61   56.25           0.42    0.49    0.54    0.46            0.63    0.66    0.42           0.59     0.68
B10        35.30   33.84   22.75          64.83    9.27    9.20          13.07   44.79           0.36    0.52    0.60    0.46            0.62    0.66    0.40           0.56     0.65
B11        37.25   34.28   20.53          65.18   14.20   14.19          20.08   44.97           0.31    0.54    0.65    0.44            0.66    0.67    0.41           0.58     0.67
B12        43.14   34.73   14.74          65.54   30.94   27.96          41.71   42.11           0.16    0.62    0.81    0.41            0.40    0.49    0.27           0.52     0.64
B13        60.35   65.93   59.91          84.96   -7.50   -5.68           9.41  217.15           0.25    0.15    0.15    0.19            0.41    0.38    0.23           0.28     0.31
B14        65.47   63.20   57.44          83.55   10.38   -5.61          11.80  331.62           0.13    0.23    0.16    0.19            0.52    0.63    0.36           0.43     0.52
B15        67.33   69.65   45.94          86.82    0.38   12.76          12.76   88.29           0.12    0.16    0.28    0.15            0.39    0.41    0.38           0.28     0.30
B16        56.74   59.44   48.94          81.53   -1.41    0.13           1.43  175.35           0.23    0.22    0.24    0.23            0.61    0.65    0.49           0.39     0.43
B17        63.51   61.79   47.06          82.80    9.17    4.49          10.21   26.13           0.12    0.24    0.26    0.20            0.52    0.64    0.48           0.46     0.51
B18        58.73   64.89   48.27          84.43   -9.05    5.89          10.80  146.94           0.24    0.16    0.25    0.19            0.51    0.44    0.37           0.34     0.39
B19        58.75   60.98   58.34          82.37   -0.11   -8.57           8.57  269.22           0.23    0.21    0.15    0.22            0.61    0.67    0.30           0.46     0.52
B20         4.79    2.91    0.98          19.66   30.01   15.82          33.93   27.80           1.01    2.03    2.03    1.44            0.12    0.08    0.04           0.35     0.41
B21        16.69   11.31    4.15          40.09   36.85   22.89          43.38   31.84           0.50    1.28    1.38    0.87            0.34    0.25    0.12           0.41     0.48
B22        33.24   28.68   17.15          60.50   20.86   13.43          24.81   32.77           0.32    0.66    0.72    0.51            0.60    0.60    0.39           0.52     0.61
C1          6.26    6.22    3.44          29.95    2.92    9.89          10.31   73.56           1.12    1.26    1.50    1.19            0.16    0.16    0.10           0.46     0.52
C2          6.56    6.15    2.09          29.79    6.77   20.21          21.31   71.49           1.05    1.30    1.77    1.18            0.16    0.15    0.06           0.42     0.49
C3          6.80    5.95    1.12          29.27   11.47   30.33          32.43   69.29           1.00    1.36    2.14    1.18            0.17    0.15    0.03           0.36     0.47
C4          7.44    5.88    0.22          29.11   18.41   45.95          49.50   68.17           0.94    1.43    3.33    1.17            0.17    0.15    0.01           0.50     0.69
C5         23.08   22.69   11.61          54.74    5.53   17.96          18.80   72.88           0.54    0.69    0.93    0.63            0.47    0.50    0.24           0.53     0.66
C6         24.95   22.65    6.45          54.71   13.82   36.42          38.96   69.22           0.45    0.74    1.25    0.61            0.47    0.48    0.15           0.52     0.66
C7         27.10   22.89    3.14          54.96   21.63   55.11          59.21   68.57           0.38    0.78    1.69    0.59            0.51    0.50    0.08           0.52     0.68
C8         30.51   22.89    0.51          54.96   34.85   85.22          92.07   67.76           0.29    0.88    3.21    0.57            0.53    0.46    0.01           0.62     0.79
C9         39.73   40.72   28.40          69.98    1.48    8.08           8.22   79.61           0.35    0.41    0.50    0.39            0.56    0.61    0.39           0.54     0.60
C10        40.67   40.64   24.13          69.92    4.61   15.39          16.07   73.34           0.32    0.42    0.58    0.38            0.61    0.65    0.38           0.52     0.59
C11        42.16   40.81   19.97          70.04    8.62   23.71          25.23   70.01           0.27    0.44    0.68    0.37            0.59    0.63    0.34           0.50     0.58
C12        47.58   41.14    7.98          70.28   23.22   56.95          61.51   67.82           0.14    0.50    1.18    0.34            0.38    0.52    0.13           0.54     0.67
C13        52.05   60.28   59.60          81.99  -15.25  -10.49          18.51  214.53           0.38    0.17    0.15    0.24            0.36    0.32    0.19           0.27     0.34
C14        58.29   51.55   53.32          77.01   21.86  -12.54          25.20  330.17           0.14    0.37    0.18    0.27            0.59    0.73    0.44           0.59     0.73
C15        65.09   67.77   32.42          85.89   -0.58   29.19          29.20   91.14           0.12    0.17    0.46    0.16            0.34    0.36    0.30           0.32     0.36
C16        43.45   45.72   37.69          73.36   -1.86    0.06           1.88  178.72           0.35    0.34    0.36    0.34            0.65    0.72    0.54           0.53     0.59
C17        54.43   48.86   34.04          75.36   19.41    8.64          21.25   24.01           0.14    0.39    0.40    0.29            0.51    0.62    0.49           0.53     0.61
C18        48.52   57.64   36.10          80.54  -18.42   14.62          23.52  141.56           0.36    0.19    0.40    0.25            0.43    0.36    0.32           0.38     0.45
C19        46.32   47.68   54.61          74.62    0.96  -18.04          18.06  273.04           0.36    0.32    0.18    0.33            0.65    0.71    0.36           0.53     0.65
C20        11.91    8.86    1.12          35.70   26.10   41.44          48.97   57.79           0.68    1.30    2.15    0.98            0.28    0.22    0.04           0.47     0.56
C21        21.49   20.30   11.27          52.17    9.28   14.55          17.26   57.46           0.56    0.76    0.93    0.67            0.46    0.47    0.29           0.55     0.61
C22        27.26   23.33   10.84          55.40   20.36   21.45          29.58   46.49           0.39    0.76    0.95    0.59            0.55    0.53    0.28           0.51     0.59
D1          4.05    4.36    2.41          24.82   -2.12    8.78           9.03  103.56           1.35    1.38    1.68    1.36            0.10    0.11    0.07           0.39     0.45
D2          3.97    4.26    1.49          24.51   -2.00   17.44          17.55   96.54           1.34    1.39    1.96    1.36            0.09    0.10    0.04           0.37     0.42
D3          4.00    4.30    0.84          24.64   -2.06   26.71          26.79   94.42           1.34    1.38    2.33    1.35            0.10    0.11    0.03           0.37     0.46
D4          3.87    4.20    0.25          24.30   -2.54   37.11          37.20   93.92           1.40    1.38    3.30    1.36            0.09    0.10    0.01           0.44     0.60
D5         17.21   18.35    9.52          49.92   -2.62   16.28          16.49   99.15           0.72    0.75    1.03    0.73            0.34    0.36    0.19           0.44     0.56
D6         16.90   18.11    5.04          49.63   -3.07   34.40          34.53   95.10           0.71    0.75    1.40    0.73            0.32    0.35    0.10           0.44     0.58
D7         17.01   18.36    2.43          49.92   -3.75   51.89          52.02   94.14           0.72    0.74    1.90    0.72            0.35    0.37    0.05           0.45     0.60
D8         16.91   18.33    0.67          49.89   -4.14   73.34          73.45   93.23           0.77    0.74    3.12    0.72            0.34    0.34    0.01           0.50     0.68
D9         45.93   48.58   25.05          75.19   -2.56   22.82          22.96   96.39           0.29    0.32    0.58    0.31            0.52    0.56    0.28           0.45     0.51
D10        45.47   48.43   14.24          75.09   -3.45   45.72          45.85   94.32           0.28    0.32    0.89    0.30            0.50    0.54    0.20           0.41     0.46
D11        45.20   48.46    7.08          75.11   -4.33   68.87          69.01   93.59           0.28    0.31    1.34    0.30            0.51    0.53    0.10           0.35     0.43
D12        45.50   48.86    4.03          75.36   -4.55   84.40          84.53   93.08           0.28    0.31    1.77    0.29            0.41    0.35    0.04           0.28     0.38
D13        46.00   55.76   59.08          79.48  -20.85  -14.30          25.29  214.45           0.49    0.18    0.15    0.28            0.34    0.30    0.19           0.26     0.35
D14        51.91   42.24   49.31          71.03   31.62  -18.40          36.58  329.80           0.15    0.50    0.21    0.35            0.49    0.59    0.34           0.56     0.71
D15        63.76   66.35   23.69          85.17   -0.49   42.50          42.50   90.65           0.12    0.19    0.63    0.16            0.24    0.25    0.18           0.25     0.28
D16        32.66   34.48   28.38          65.34   -2.06    0.11           2.09  177.43           0.48    0.46    0.49    0.47            0.54    0.57    0.42           0.56     0.63
D17        46.61   38.62   24.14          68.48   28.29   12.89          31.09   24.50           0.16    0.55    0.56    0.37            0.44    0.52    0.41           0.55     0.63
D18        41.23   51.87   27.45          77.21  -25.06   22.12          33.42  138.56           0.46    0.21    0.55    0.30            0.34    0.29    0.25           0.36     0.42
D19        36.35   36.82   50.77          67.14    2.81  -26.76          26.90  275.99           0.49    0.44    0.20    0.45            0.53    0.58    0.28           0.62     0.71
D20         2.89    2.95    1.08          19.85    0.76   14.72          14.74   87.04           1.45    1.58    2.10    1.51            0.07    0.08    0.04           0.39     0.43
D21        30.50   28.46    1.50          60.30   11.81   78.92          79.80   81.49           0.39    0.62    2.38    0.51            0.58    0.60    0.04           0.66     0.76
D22        40.90   43.92   53.99          72.18   -4.38  -21.60          22.04  258.52           0.46    0.33    0.18    0.38            0.54    0.65    0.30           0.59     0.68
E1          5.39    6.25    3.47          30.02   -7.19    9.81          12.16  126.24           1.27    1.19    1.51    1.21            0.11    0.13    0.09           0.39     0.44
E2          4.78    5.96    2.14          29.31  -11.67   18.89          22.20  121.72           1.36    1.18    1.81    1.24            0.10    0.12    0.05           0.35     0.40
E3          4.42    6.04    1.27          29.51  -17.18   28.76          33.51  120.85           1.46    1.13    2.18    1.23            0.10    0.13    0.04           0.34     0.42
E4          3.95    6.16    0.42          29.81  -25.12   43.41          50.15  120.06           1.69    1.06    3.21    1.23            0.09    0.14    0.01           0.43     0.59
E5         24.19   27.79   15.23          59.70  -10.94   16.65          19.92  123.31           0.63    0.53    0.81    0.56            0.42    0.47    0.29           0.42     0.50
E6         22.36   28.22    9.47          60.09  -20.78   34.00          39.84  121.43           0.70    0.48    1.10    0.56            0.38    0.46    0.17           0.42     0.52
E7         20.37   28.38    5.21          60.23  -30.79   51.80          60.26  120.73           0.82    0.44    1.51    0.56            0.31    0.38    0.09           0.35     0.46
E8         19.25   28.48    3.30          60.32  -36.75   63.16          73.07  120.19           0.91    0.42    1.88    0.56            0.25    0.27    0.05           0.27     0.37
E9         43.70   48.09   32.59          74.88   -7.65    9.95          12.55  127.57           0.36    0.30    0.44    0.32            0.53    0.59    0.39           0.45     0.52
E10        41.70   48.08   25.73          74.88  -13.58   21.07          25.07  122.81           0.39    0.28    0.57    0.32            0.48    0.53    0.32           0.40     0.45
E11        39.78   48.05   19.95          74.86  -19.39   32.06          37.47  121.16           0.43    0.26    0.71    0.33            0.43    0.45    0.27           0.36     0.42
E12        38.35   48.49   15.49          75.13  -25.12   42.61          49.46  120.52           0.47    0.24    0.87    0.32            0.34    0.31    0.21           0.37     0.42
E13        41.14   51.86   58.44          77.20  -25.30  -17.58          30.81  214.80           0.59    0.20    0.16    0.32            0.32    0.29    0.20           0.28     0.34
E14        46.04   34.47   45.20          65.33   40.23  -23.40          46.54  329.81           0.17    0.65    0.24    0.43            0.44    0.50    0.32           0.52     0.67
E15        62.79   65.01   17.67          84.49    0.23   53.61          53.61   89.75           0.11    0.20    0.79    0.17            0.26    0.27    0.15           0.22     0.24
E16        23.56   24.97   20.68          57.04   -2.25   -0.17           2.27  184.49           0.62    0.61    0.64    0.61            0.47    0.52    0.39           0.56     0.64
E17        39.75   30.30   16.63          61.91   36.28   17.08          40.11   25.21           0.18    0.72    0.73    0.46            0.40    0.44    0.35           0.51     0.62
E18        35.31   46.75   20.96          74.03  -30.36   28.56          41.68  136.75           0.56    0.24    0.69    0.35            0.41    0.39    0.29           0.45     0.51
E19        28.21   28.02   46.94          59.90    4.75  -34.85          35.17  277.75           0.63    0.56    0.23    0.58            0.52    0.58    0.33           0.66     0.79
E20         7.03    8.53    1.34          35.05  -11.22   37.38          39.03  106.70           1.18    1.02    2.19    1.07            0.18    0.22    0.04           0.54     0.61
E21        24.25   29.41    6.34          61.14  -16.92   47.96          50.86  109.43           0.63    0.48    1.35    0.53            0.46    0.56    0.14           0.55     0.61
E22         8.96   18.99   13.71          50.68  -60.97    5.01          61.17  175.31           1.83    0.50    0.90    0.80            0.15    0.24    0.29           0.41     0.46
F1          3.50    4.40    3.15          24.94  -10.96    3.23          11.42  163.57           1.53    1.31    1.54    1.38            0.08    0.10    0.09           0.41     0.46
F2          2.73    4.07    2.54          23.89  -19.50    6.13          20.44  162.54           1.76    1.29    1.68    1.43            0.06    0.09    0.07           0.38     0.44
F3          2.33    4.18    2.20          24.27  -29.13    9.72          30.71  161.55           1.99    1.22    1.79    1.44            0.06    0.10    0.05           0.34     0.40
F4          1.60    4.52    1.58          25.31  -50.48   17.69          53.49  160.69           2.78    1.08    2.11    1.43            0.03    0.09    0.04           0.40     0.51
F5         11.29   14.34   10.11          44.71  -17.13    5.33          17.94  162.70           1.05    0.78    1.00    0.87            0.22    0.28    0.22           0.41     0.49
F6          9.23   14.68    8.65          45.18  -35.02   11.18          36.76  162.29           1.33    0.70    1.11    0.88            0.17    0.26    0.17           0.38     0.46
F7          7.45   14.62    7.08          45.11  -50.48   17.15          53.31  161.23           1.66    0.64    1.25    0.90            0.12    0.21    0.12           0.32     0.41
F8          6.08   14.84    5.81          45.41  -65.72   23.31          69.73  160.47           2.08    0.58    1.41    0.91            0.10    0.18    0.11           0.30     0.34
F9         29.17   33.91   25.91          64.89  -13.01    3.54          13.49  164.78           0.59    0.43    0.55    0.48            0.46    0.53    0.45           0.44     0.51
F10        26.14   33.93   23.53          64.90  -25.13    7.86          26.33  162.64           0.71    0.39    0.61    0.50            0.40    0.49    0.39           0.41     0.47
F11        23.66   34.18   21.68          65.10  -36.58   11.75          38.42  162.19           0.85    0.35    0.66    0.50            0.35    0.43    0.37           0.36     0.43
F12        21.44   34.44   19.86          65.31  -47.58   15.79          50.13  161.64           0.99    0.31    0.72    0.51            0.29    0.30    0.28           0.43     0.52
F13        37.46   48.75   57.84          75.30  -28.68  -20.25          35.11  215.22           0.69    0.21    0.16    0.36            0.32    0.29    0.16           0.32     0.39
F14        40.96   28.36   41.34          60.21   47.36  -27.44          54.74  329.91           0.20    0.80    0.27    0.50            0.39    0.41    0.31           0.46     0.61
F15        61.93   63.61   13.34          83.76    1.40   63.06          63.07   88.73           0.11    0.21    0.96    0.18            0.27    0.31    0.16           0.27     0.31
F16        16.69   17.68   14.47          49.10   -1.98    0.31           2.01  170.99           0.77    0.76    0.80    0.76            0.37    0.41    0.35           0.53     0.61
F17        33.79   23.69   11.04          55.77   43.15   21.45          48.19   26.43           0.21    0.91    0.92    0.55            0.32    0.33    0.27           0.48     0.57
