targets/wolf_faust/transmissive/V070218.it8
IT8.7/1
ORIGINATOR "Wolf Faust"
DESCRIPTOR "Velvia (RVP 50), Type 3, L* a* b* (light D50, viewing angle 2)"
MANUFACTURER "Wolf Faust - http://www.coloraid.de"
CREATED "March 09, 2007"
PROD_DATE "2007:02"
DIFFUSE_GEOMETRY "opal"
SERIAL "V070218 Batch Average Data"
MATERIAL "Fujichrome Velvia (RVP 50)"
KEYWORD "MEAN_DE" # Mean Delta E of samples compared to batch average
NUMBER_OF_FIELDS 18
BEGIN_DATA_FORMAT
SAMPLE_ID  XYZ_X   XYZ_Y   XYZ_Z          LAB_L   LAB_A   LAB_B          LAB_C   LAB_H          D_RED  D_GREEN  D_BLUE  D_VIS          STDEV_X STDEV_Y STDEV_Z        MEAN_DE  STDEV_DE
END_DATA_FORMAT
NUMBER_OF_SETS 288
BEGIN_DATA
A1          2.19    1.85    1.36          14.70    9.35    2.07           9.58   12.47           1.50    1.90    1.88    1.70            0.06    0.06    0.04           0.44     0.48
A2          2.69    1.84    1.16          14.62   19.68    4.57          20.20   13.07           1.32    2.09    1.93    1.66            0.08    0.06    0.04           0.41     0.45 
A3          3.25    1.86    0.96          14.75   29.05    7.71          30.06   14.86           1.16    2.33    1.99    1.62            0.09    0.06    0.03           0.43     0.48
A4          4.31    1.83    0.66          14.59   45.60   12.73          47.35   15.60           0.93    3.65    2.06    1.56            0.10    0.04    0.02           0.46     0.50 
A5          9.67    8.46    6.16          34.92   12.83    3.58          13.32   15.60           0.88    1.20    1.19    1.05            0.31    0.28    0.21           0.65     0.71
A6         11.59    8.47    5.24          34.94   27.17    8.03          28.33   16.46           0.71    1.33    1.25    1.01            0.36    0.28    0.18           0.63     0.70 
A7         13.60    8.29    4.53          34.57   42.27   11.18          43.73   14.81           0.56    1.55    1.29    0.99            0.38    0.25    0.16           0.60     0.67
A8         17.27    8.62    3.66          35.24   60.98   17.53          63.45   16.03           0.38    1.95    1.35    0.93            0.13    0.08    0.11           0.37     0.47 
A9         28.97   28.72   22.05          60.53    4.98    3.13           5.90   32.28           0.48    0.58    0.61    0.53            0.78    0.80    0.63           0.76     0.85
A10        31.09   28.74   21.31          60.55   12.91    4.63          13.72   19.76           0.40    0.62    0.62    0.52            0.75    0.73    0.58           0.72     0.80
A11        32.96   28.53   20.24          60.36   20.46    6.48          21.47   17.57           0.34    0.66    0.64    0.52            0.72    0.69    0.55           0.64     0.73
A12        39.09   28.72   18.26          60.53   40.17   10.99          41.65   15.29           0.18    0.78    0.67    0.48            0.42    0.47    0.49           0.67     0.75 
A13        72.34   76.06   65.90          89.89   -2.09   -2.99           3.65  235.16           0.14    0.11    0.10    0.12            0.39    0.27    0.10           0.32     0.38
A14        77.37   78.59   65.90          91.05    3.19   -0.99           3.34  342.86           0.08    0.11    0.10    0.10            0.15    0.21    0.14           0.19     0.21 
A15        77.27   79.32   61.88          91.38    1.60    3.43           3.79   64.88           0.08    0.10    0.13    0.10            0.12    0.12    0.28           0.20     0.23
A16        75.10   77.95   64.73          90.76   -0.13   -0.38           0.43  253.84           0.10    0.10    0.11    0.11            0.28    0.21    0.21           0.19     0.22
A17        76.72   77.85   64.33          90.71    3.37   -0.09           3.37  230.04           0.08    0.11    0.11    0.11            0.18    0.25    0.23           0.22     0.25
A18        73.25   76.72   61.06          90.19   -1.49    2.20           2.66  124.02           0.12    0.11    0.14    0.12            0.31    0.23    0.32           0.27     0.30 
A19        74.36   76.12   65.30          89.92    1.98   -2.38           3.10  309.83           0.10    0.12    0.10    0.12            0.33    0.34    0.19           0.22     0.25
A20         6.07    2.87    1.86          19.53   45.76    4.76          46.01    5.94           0.83    2.62    1.63    1.40            0.15    0.07    0.06           0.43     0.52 
A21        25.92   18.36   14.26          49.92   38.51    2.27          38.58    3.37           0.35    1.01    0.77    0.68            0.50    0.39    0.41           0.61     0.67
A22        53.70   49.59   32.30          75.81   15.62   12.00          19.70   37.55           0.15    0.37    0.43    0.28            0.65    0.71    0.63           0.59     0.66
B1          3.31    3.01    1.77          20.09    6.92    6.70           9.64   44.05           1.35    1.64    1.79    1.50            0.10    0.10    0.06           0.53     0.58
B2          3.87    2.97    1.06          19.90   16.37   15.04          22.24   42.57           1.19    1.77    2.04    1.47            0.11    0.09    0.04           0.48     0.53
B3          4.45    2.94    0.66          19.78   25.07   21.65          33.12   40.81           1.07    1.92    2.27    1.44            0.12    0.08    0.02           0.50     0.55
B4          5.40    2.93    0.07          19.75   37.22   32.78          49.59   41.37           0.91    2.27    3.63    1.40            0.16    0.09    0.00           0.70     0.78
B5         12.43   11.26    6.64          40.00   11.14   10.22          15.12   42.54           0.78    1.05    1.17    0.92            0.38    0.35    0.22           0.69     0.77
B6         14.35   11.15    4.35          39.83   24.29   21.31          32.31   41.26           0.63    1.16    1.38    0.90            0.43    0.34    0.14           0.73     0.80
B7         16.67   11.24    2.64          39.98   37.24   33.07          49.81   41.60           0.50    1.30    1.63    0.87            0.45    0.31    0.09           0.70     0.77
B8         20.89   11.35    1.07          40.17   58.21   49.82          76.62   40.56           0.32    1.63    2.05    0.82            0.19    0.14    0.03           0.33     0.38
B9         34.10   34.61   25.69          65.44    2.54    4.87           5.51   62.47           0.42    0.48    0.54    0.46            0.83    0.87    0.66           0.72     0.81
B10        36.09   34.72   23.01          65.52    8.92    9.90          13.34   48.00           0.35    0.51    0.59    0.44            0.81    0.83    0.57           0.69     0.79
B11        37.66   34.66   20.67          65.48   14.25   14.42          20.28   45.35           0.30    0.54    0.64    0.44            0.82    0.82    0.55           0.64     0.76
B12        43.62   34.85   14.53          65.63   32.00   28.64          42.94   41.83           0.15    0.63    0.81    0.41            0.52    0.64    0.40           0.78     0.88
B13        63.88   69.83   63.76          86.91   -7.71   -6.09           9.83  218.27           0.23    0.13    0.12    0.17            0.54    0.44    0.22           0.39     0.45
B14        69.08   65.85   60.79          84.92   12.40   -6.63          14.06  331.89           0.10    0.22    0.13    0.17            0.47    0.67    0.31           0.62     0.70
B15        72.01   74.48   46.12          89.15    0.40   16.55          16.56   88.61           0.09    0.13    0.28    0.12            0.31    0.33    0.47           0.34     0.39
B16        59.74   62.66   51.72          83.26   -1.61   -0.02           1.62  181.30           0.21    0.20    0.21    0.21            0.68    0.70    0.53           0.44     0.48
B17        66.64   64.20   48.93          84.07   10.74    4.51          11.65   22.78           0.10    0.23    0.24    0.18            0.47    0.61    0.58           0.46     0.52
B18        61.49   68.19   49.86          86.10   -9.70    6.96          11.94  144.37           0.22    0.14    0.24    0.17            0.48    0.39    0.48           0.40     0.45
B19        61.82   64.11   61.71          84.02    0.00   -9.08           9.09  269.99           0.21    0.19    0.13    0.20            0.61    0.65    0.29           0.50     0.57
B20         4.74    2.87    0.97          19.53   30.03   15.80          33.94   27.75           1.01    2.04    2.03    1.44            0.13    0.08    0.03           0.49     0.55
B21        16.39   11.02    4.05          39.62   37.21   22.68          43.58   31.37           0.51    1.30    1.39    0.88            0.36    0.25    0.11           0.52     0.58
B22        33.00   28.52   16.76          60.35   20.63   14.08          24.98   34.32           0.33    0.66    0.74    0.51            0.58    0.54    0.41           0.60     0.66
C1          6.33    6.32    3.60          30.20    2.56    9.27           9.62   74.53           1.12    1.25    1.47    1.19            0.18    0.18    0.12           0.59     0.65
C2          6.64    6.21    2.22          29.94    6.87   19.30          20.49   70.39           1.05    1.30    1.74    1.18            0.18    0.18    0.06           0.59     0.66
C3          7.08    6.18    1.18          29.85   11.75   30.52          32.71   68.94           0.98    1.34    2.11    1.17            0.20    0.18    0.04           0.61     0.66
C4          7.83    6.12    0.22          29.70   19.54   47.10          51.00   67.47           0.91    1.43    3.42    1.15            0.23    0.18    0.01           0.79     0.87
C5         23.68   23.28   11.78          55.35    5.53   18.51          19.33   73.36           0.53    0.68    0.92    0.62            0.67    0.69    0.38           0.81     0.89
C6         25.35   23.14    6.56          55.21   13.36   36.76          39.12   70.03           0.45    0.73    1.24    0.60            0.69    0.66    0.21           0.82     0.90
C7         27.16   22.97    3.25          55.04   21.54   54.40          58.51   68.40           0.38    0.78    1.66    0.59            0.70    0.62    0.10           0.85     0.94
C8         30.43   22.72    0.48          54.78   35.32   85.31          92.34   67.51           0.29    0.89    3.32    0.57            0.65    0.55    0.01           0.87     0.97
C9         40.44   41.55   29.36          70.56    1.14    7.53           7.63   81.35           0.35    0.40    0.48    0.38            0.92    0.99    0.65           0.74     0.83
C10        41.42   41.40   24.58          70.45    4.63   15.49          16.18   73.35           0.31    0.41    0.57    0.37            0.86    0.91    0.59           0.66     0.75
C11        42.88   41.72   20.34          70.67    8.04   24.04          25.35   71.49           0.27    0.43    0.67    0.36            0.84    0.90    0.51           0.69     0.78
C12        48.56   41.82    7.76          70.75   23.89   58.63          63.31   67.83           0.13    0.50    1.20    0.33            0.50    0.68    0.18           0.80     0.92
C13        55.90   64.17   63.14          84.05  -14.35  -10.42          17.74  215.99           0.34    0.14    0.12    0.21            0.58    0.47    0.24           0.48     0.55
C14        60.65   53.06   56.12          77.91   23.64  -13.97          27.46  329.42           0.12    0.36    0.15    0.26            0.53    0.74    0.39           0.80     0.90
C15        69.24   72.03   31.96          87.98   -0.47   33.50          33.51   90.80           0.09    0.15    0.47    0.13            0.25    0.29    0.32           0.32     0.37
C16        45.90   48.33   40.28          75.03   -1.98   -0.52           2.07  195.11           0.33    0.31    0.33    0.32            0.76    0.82    0.62           0.59     0.65
C17        56.17   49.95   35.58          76.04   20.87    7.60          22.21   20.02           0.12    0.39    0.38    0.28            0.55    0.70    0.67           0.64     0.73
C18        51.58   60.84   37.78          82.29  -17.78   15.33          23.48  139.24           0.33    0.16    0.38    0.23            0.57    0.47    0.53           0.54     0.59
C19        49.41   50.73   57.81          76.51    1.34  -18.13          18.18  274.23           0.33    0.29    0.15    0.30            0.77    0.86    0.36           0.75     0.85
C20        11.99    8.87    1.13          35.72   26.63   41.26          49.11   57.16           0.68    1.31    2.14    0.98            0.30    0.23    0.04           0.59     0.66
C21        21.49   20.31   11.18          52.18    9.25   14.84          17.49   58.07           0.56    0.76    0.94    0.67            0.50    0.47    0.32           0.63     0.70
C22        27.14   23.16   10.84          55.23   20.65   21.15          29.56   45.69           0.40    0.77    0.95    0.60            0.56    0.50    0.30           0.61     0.67
D1          4.10    4.37    2.43          24.87   -1.61    8.68           8.84  100.46           1.34    1.39    1.67    1.36            0.13    0.14    0.08           0.58     0.65
D2          4.07    4.42    1.56          25.01   -2.65   17.46          17.66   98.62           1.34    1.37    1.93    1.35            0.12    0.14    0.05           0.60     0.67
D3          4.12    4.45    0.89          25.12   -2.39   26.74          26.85   95.10           1.33    1.36    2.30    1.34            0.13    0.14    0.03           0.59     0.65
D4          4.02    4.32    0.25          24.69   -2.05   37.87          37.92   93.10           1.38    1.37    3.38    1.34            0.12    0.13    0.01           0.67     0.76
D5         17.38   18.53    9.53          50.13   -2.60   16.62          16.82   98.89           0.72    0.74    1.03    0.73            0.50    0.54    0.30           0.77     0.84
D6         17.38   18.69    5.15          50.32   -3.45   35.01          35.18   95.62           0.70    0.74    1.39    0.72            0.48    0.53    0.15           0.85     0.94
D7         17.23   18.44    2.50          50.02   -2.96   51.47          51.56   93.29           0.71    0.74    1.87    0.72            0.49    0.52    0.07           0.86     0.95
D8         16.59   17.87    0.64          49.33   -3.53   72.93          73.02   92.77           0.77    0.75    3.21    0.73            0.45    0.47    0.02           0.87     0.97
D9         46.60   49.13   25.24          75.53   -2.14   23.07          23.17   95.31           0.28    0.31    0.57    0.30            0.85    0.92    0.55           0.62     0.68
D10        45.93   48.82   14.20          75.34   -3.22   46.25          46.36   93.99           0.27    0.31    0.90    0.30            0.81    0.89    0.32           0.65     0.71
D11        45.42   48.39    7.09          75.07   -3.48   68.77          68.86   92.90           0.27    0.32    1.33    0.30            0.71    0.75    0.13           0.63     0.69
D12        44.90   48.01    3.34          74.83   -3.97   87.94          88.03   92.59           0.29    0.32    1.93    0.30            0.56    0.43    0.05           0.57     0.62
D13        50.12   59.80   62.40          81.73  -19.23  -13.71          23.62  215.49           0.43    0.16    0.13    0.25            0.60    0.50    0.22           0.55     0.61
D14        53.61   43.26   51.64          71.73   33.00  -19.82          38.49  329.02           0.14    0.50    0.18    0.34            0.70    0.83    0.58           0.86     1.00
D15        67.32   69.92   22.77          86.96   -0.20   47.30          47.30   90.25           0.09    0.16    0.66    0.14            0.23    0.28    0.29           0.33     0.40
D16        34.37   36.39   29.85          66.82   -2.48    0.30           2.51  173.47           0.46    0.44    0.47    0.44            0.73    0.77    0.65           0.68     0.74
D17        47.78   39.38   24.76          69.02   29.18   12.71          31.83   23.54           0.14    0.55    0.55    0.37            0.48    0.59    0.56           0.70     0.77
D18        44.33   54.96   28.40          79.02  -23.67   23.67          33.47  135.00           0.42    0.19    0.53    0.27            0.53    0.46    0.46           0.58     0.63
D19        39.07   39.51   53.77          69.11    3.10  -26.64          26.82  276.64           0.45    0.41    0.18    0.42            0.74    0.82    0.36           0.84     0.96
D20         2.92    2.93    1.11          19.77    1.64   14.16          14.25   83.38           1.44    1.59    2.07    1.52            0.08    0.08    0.04           0.49     0.55
D21        30.43   28.23    1.52          60.09   12.42   78.39          79.37   81.00           0.39    0.63    2.36    0.51            0.61    0.60    0.05           0.72     0.80
D22        41.02   44.67   56.54          72.67   -6.15  -23.44          24.24  255.27           0.48    0.32    0.16    0.37            0.68    0.78    0.30           0.79     0.88
E1          5.52    6.37    3.61          30.31   -6.94    9.39          11.68  126.47           1.27    1.18    1.49    1.20            0.18    0.21    0.13           0.65     0.74
E2          5.04    6.38    2.33          30.35  -12.79   19.04          22.93  123.89           1.35    1.14    1.76    1.21            0.15    0.20    0.08           0.64     0.73
E3          4.57    6.22    1.37          29.97  -17.23   28.25          33.09  121.38           1.44    1.12    2.13    1.22            0.14    0.19    0.04           0.63     0.72
E4          3.82    5.93    0.41          29.24  -24.52   42.75          49.29  119.84           1.71    1.08    3.27    1.25            0.12    0.17    0.01           0.67     0.78
E5         24.54   28.45   15.45          60.29  -11.97   17.11          20.89  124.98           0.63    0.51    0.81    0.55            0.67    0.78    0.50           0.78     0.88
E6         22.18   27.81    9.52          59.71  -20.03   33.18          38.75  121.12           0.71    0.49    1.09    0.57            0.61    0.75    0.28           0.79     0.89
E7         20.23   27.82    5.22          59.72  -29.30   50.86          58.70  119.95           0.81    0.46    1.50    0.57            0.51    0.63    0.13           0.76     0.86
E8         18.72   27.85    2.97          59.75  -37.02   64.56          74.42  119.84           0.93    0.42    1.97    0.57            0.39    0.41    0.06           0.60     0.67
E9         44.64   49.23   32.84          75.59   -8.01   10.81          13.46  126.52           0.35    0.29    0.44    0.31            0.88    0.96    0.66           0.64     0.71
E10        42.33   48.59   25.53          75.20  -13.09   21.97          25.57  120.78           0.38    0.28    0.57    0.32            0.83    0.90    0.54           0.65     0.71
E11        40.32   48.47   20.01          75.12  -18.87   32.39          37.49  120.22           0.42    0.26    0.71    0.32            0.73    0.82    0.44           0.59     0.64
E12        37.38   47.91   13.86          74.77  -26.67   46.16          53.31  120.02           0.49    0.24    0.93    0.33            0.55    0.49    0.24           0.55     0.61
E13        45.44   56.09   61.69          79.67  -23.28  -16.58          28.58  215.46           0.52    0.17    0.13    0.29            0.59    0.50    0.22           0.58     0.63
E14        47.76   35.64   47.62          66.24   41.10  -24.71          47.96  328.98           0.16    0.64    0.21    0.41            0.49    0.60    0.35           0.80     0.89
E15        66.06   68.23   17.21          86.12    0.60   57.47          57.47   89.40           0.09    0.18    0.81    0.15            0.23    0.27    0.23           0.33     0.38
E16        25.00   26.61   21.72          58.61   -2.79    0.46           2.83  170.88           0.60    0.58    0.62    0.58            0.65    0.70    0.57           0.72     0.79
E17        40.95   31.23   17.17          62.70   36.60   17.19          40.44   25.16           0.17    0.71    0.71    0.45            0.41    0.46    0.46           0.69     0.75
E18        38.52   49.93   21.88          76.03  -28.42   30.18          41.46  133.27           0.50    0.22    0.67    0.32            0.51    0.46    0.38           0.57     0.62
E19        30.52   30.19   49.74          61.81    5.33  -34.77          35.18  278.72           0.59    0.53    0.20    0.54            0.63    0.69    0.33           0.85     0.96
E20         7.14    8.58    1.44          35.16  -10.57   36.39          37.89  106.19           1.16    1.03    2.13    1.06            0.20    0.23    0.05           0.65     0.72
E21        24.35   29.15    6.41          60.91  -15.47   47.25          49.72  108.13           0.62    0.49    1.34    0.53            0.56    0.64    0.15           0.80     0.86
E22         8.86   18.68   13.42          50.31  -60.15    5.15          60.38  175.11           1.82    0.51    0.91    0.81            0.16    0.28    0.30           0.55     0.63
F1          3.60    4.52    3.23          25.32  -10.95    3.32          11.44  163.14           1.52    1.30    1.53    1.37            0.12    0.15    0.12           0.58     0.66
F2          2.94    4.44    2.71          25.08  -20.82    6.78          21.90  161.98           1.75    1.25    1.65    1.39            0.09    0.14    0.08           0.59     0.70
F3          2.51    4.53    2.39          25.34  -29.94    9.88          31.53  161.74           1.98    1.18    1.75    1.40            0.09    0.15    0.09           0.65     0.74
F4          1.59    4.56    1.59          25.43  -51.23   17.76          54.22  160.88           2.84    1.07    2.10    1.43            0.04    0.12    0.04           0.61     0.72
F5         11.50   14.76   10.46          45.29  -18.11    5.21          18.85  163.97           1.05    0.76    0.98    0.86            0.34    0.43    0.33           0.73     0.80
F6          9.35   14.79    8.69          45.34  -34.71   11.35          36.52  161.90           1.32    0.69    1.11    0.88            0.27    0.40    0.27           0.74     0.84
F7          7.38   14.28    7.12          44.63  -49.06   16.15          51.65  161.79           1.65    0.65    1.24    0.91            0.20    0.36    0.21           0.71     0.81
F8          5.91   14.69    5.70          45.21  -66.72   23.45          70.72  160.64           2.14    0.58    1.43    0.91            0.09    0.16    0.11           0.40     0.49
F9         29.52   34.36   25.93          65.24  -13.20    4.11          13.82  162.72           0.58    0.42    0.55    0.48            0.82    0.95    0.69           0.82     0.91
F10        26.32   34.13   23.80          65.06  -25.08    7.62          26.21  163.11           0.71    0.39    0.60    0.49            0.68    0.83    0.62           0.71     0.78
F11        23.75   33.95   21.22          64.92  -35.41   12.35          37.51  160.77           0.83    0.35    0.67    0.50            0.58    0.75    0.55           0.68     0.73
F12        20.55   33.90   19.02          64.88  -49.95   16.83          52.71  161.38           1.04    0.31    0.74    0.52            0.39    0.44    0.40           0.60     0.66
F13        41.33   52.68   60.93          77.69  -26.83  -19.24          33.01  215.65           0.61    0.18    0.14    0.32            0.57    0.51    0.20           0.59     0.65
F14        42.09   28.87   43.27          60.67   48.82  -29.09          56.83  329.21           0.19    0.80    0.24    0.49            0.45    0.50    0.36           0.72     0.81
F15        64.97   66.57   13.18          85.29    1.77   66.13          66.15   88.47           0.09    0.19    0.97    0.15            0.19    0.24    0.17           0.29     0.34
F16        17.40   18.48   15.29          50.07   -2.28   -0.08           2.30  182.55           0.75    0.74    0.78    0.74            0.48    0.50    0.45           0.67     0.73
F17        34.63   24.17   11.35          56.26   43.95   21.36          48.87   25.92           0.20    0.91    0.90    0.55            0.35    0.38    0.32           0.63     0.71
