targets/wolf_faust/transmissive/V071010.it8
IT8.7/1
ORIGINATOR "Wolf Faust"
DESCRIPTOR "Velvia (RVP 50), Type 3, L* a* b* (light D50, viewing angle 2)"
MANUFACTURER "Wolf Faust - http://www.coloraid.de"
CREATED "November 29, 2007"
PROD_DATE "2007:02"
DIFFUSE_GEOMETRY "opal"
SERIAL "V071010 Batch Average Data"
MATERIAL "Fujichrome Velvia (RVP 50)"
KEYWORD "MEAN_DE" # Mean Delta E of samples compared to batch average
NUMBER_OF_FIELDS 18
BEGIN_DATA_FORMAT
SAMPLE_ID  XYZ_X   XYZ_Y   XYZ_Z          LAB_L   LAB_A   LAB_B          LAB_C   LAB_H          D_RED  D_GREEN  D_BLUE  D_VIS          STDEV_X STDEV_Y STDEV_Z        MEAN_DE  STDEV_DE
END_DATA_FORMAT
NUMBER_OF_SETS 288
BEGIN_DATA
A1          2.22    1.90    1.30          14.96    8.69    3.28           9.29   20.67           1.50    1.88    1.91    1.69            0.06    0.05    0.04           0.40     0.48
A2          2.86    1.99    1.21          15.43   19.25    5.29          19.97   15.35           1.29    2.03    1.92    1.63            0.05    0.04    0.02           0.39     0.46 
A3          3.41    1.95    0.98          15.23   29.60    8.17          30.71   15.43           1.14    2.31    1.98    1.60            0.06    0.04    0.02           0.36     0.41
A4          4.48    1.90    0.67          14.97   46.23   13.10          48.05   15.82           0.92    3.54    2.05    1.54            0.09    0.04    0.01           0.37     0.48 
A5         10.02    8.85    6.17          35.69   12.32    4.87          13.25   21.58           0.86    1.17    1.19    1.03            0.16    0.15    0.10           0.50     0.58
A6         11.98    8.80    5.40          35.59   27.14    8.34          28.39   17.09           0.69    1.31    1.24    1.00            0.20    0.16    0.10           0.47     0.54 
A7         14.30    8.87    4.64          35.73   41.69   12.55          43.54   16.76           0.54    1.49    1.29    0.96            0.22    0.14    0.08           0.44     0.49
A8         17.50    8.75    3.71          35.49   61.15   17.68          63.65   16.12           0.37    1.94    1.35    0.92            0.13    0.08    0.07           0.35     0.43 
A9         29.83   29.64   22.94          61.33    4.79    2.81           5.57   30.50           0.47    0.56    0.59    0.52            0.74    0.75    0.54           0.71     0.82
A10        31.84   29.70   21.17          61.39   12.00    6.35          13.59   27.92           0.39    0.60    0.63    0.51            0.55    0.56    0.35           0.67     0.75
A11        34.12   29.74   20.46          61.42   19.93    7.85          21.42   21.50           0.32    0.64    0.64    0.50            0.54    0.52    0.35           0.66     0.73
A12        39.73   29.55   18.26          61.26   39.02   12.24          40.90   17.41           0.17    0.75    0.68    0.47            0.37    0.41    0.27           0.54     0.65 
A13        72.74   76.59   65.15          90.13   -2.29   -1.86           2.95  219.13           0.13    0.10    0.11    0.12            0.38    0.31    0.13           0.25     0.34
A14        77.57   79.03   65.26          91.25    2.75   -0.04           2.76  195.63           0.08    0.11    0.11    0.10            0.24    0.30    0.14           0.18     0.22 
A15        77.56   79.79   61.49          91.59    1.26    4.18           4.36   73.22           0.07    0.10    0.14    0.10            0.21    0.22    0.28           0.20     0.22
A16        75.39   78.41   64.18          90.97   -0.42    0.50           0.68  133.14           0.10    0.10    0.12    0.11            0.27    0.22    0.27           0.26     0.30
A17        76.97   78.32   63.76          90.92    2.93    0.83           3.06   15.86           0.08    0.11    0.12    0.10            0.20    0.25    0.23           0.23     0.27
A18        73.76   77.34   60.64          90.48   -1.68    3.11           3.54  118.39           0.11    0.10    0.14    0.11            0.32    0.25    0.31           0.24     0.27 
A19        75.41   77.33   64.89          90.47    1.71   -1.03           2.00  329.34           0.09    0.11    0.11    0.11            0.26    0.28    0.15           0.21     0.25
A20         6.44    3.06    1.92          20.30   46.43    5.46          46.75    6.71           0.80    2.57    1.62    1.37            0.12    0.06    0.04           0.44     0.52 
A21        26.71   19.06   14.75          50.75   38.18    2.44          38.26    3.66           0.34    0.98    0.76    0.66            0.47    0.37    0.36           0.58     0.65
A22        54.54   50.73   32.54          76.51   14.75   12.85          19.57   41.06           0.15    0.36    0.43    0.27            0.62    0.71    0.57           0.57     0.65
B1          3.48    3.22    1.80          20.89    6.15    7.71           9.87   51.40           1.33    1.60    1.79    1.47            0.09    0.08    0.06           0.45     0.52
B2          4.07    3.19    1.20          20.80   15.49   14.70          21.35   43.49           1.18    1.71    1.99    1.44            0.11    0.08    0.04           0.43     0.50
B3          4.57    3.07    0.70          20.33   24.31   21.87          32.70   41.97           1.06    1.88    2.25    1.43            0.08    0.06    0.02           0.37     0.44
B4          5.55    3.03    0.08          20.15   37.22   33.29          49.93   41.81           0.90    2.23    3.52    1.39            0.09    0.05    0.00           0.39     0.46
B5         12.84   11.76    6.62          40.84   10.35   11.74          15.66   48.60           0.76    1.02    1.18    0.90            0.21    0.20    0.12           0.53     0.61
B6         14.83   11.65    4.26          40.65   23.70   23.21          33.18   44.41           0.61    1.13    1.40    0.88            0.23    0.20    0.06           0.57     0.63
B7         17.11   11.58    2.65          40.53   37.26   33.88          50.36   42.28           0.48    1.28    1.63    0.85            0.27    0.20    0.05           0.52     0.58
B8         21.34   11.66    1.04          40.67   58.18   51.09          77.43   41.29           0.31    1.60    2.08    0.81            0.19    0.14    0.03           0.32     0.38
B9         35.58   36.30   25.87          66.75    1.96    6.81           7.10   73.89           0.40    0.46    0.54    0.44            0.73    0.75    0.54           0.67     0.77
B10        37.06   36.03   23.25          66.54    7.73   11.21          13.63   55.41           0.35    0.49    0.59    0.43            0.60    0.67    0.34           0.68     0.78
B11        39.06   36.26   21.00          66.71   13.44   15.87          20.80   49.74           0.29    0.51    0.64    0.42            0.75    0.74    0.41           0.69     0.77
B12        44.60   36.14   14.73          66.63   30.53   29.84          42.69   44.35           0.15    0.60    0.81    0.39            0.44    0.53    0.28           0.60     0.72
B13        64.25   70.33   63.05          87.16   -7.93   -4.98           9.37  212.12           0.22    0.12    0.12    0.16            0.52    0.43    0.28           0.41     0.48
B14        69.23   66.25   60.18          85.12   11.84   -5.67          13.13  334.41           0.10    0.21    0.14    0.17            0.37    0.47    0.30           0.41     0.48
B15        72.38   75.02   45.98          89.40    0.11   17.15          17.15   89.64           0.09    0.13    0.28    0.12            0.35    0.36    0.45           0.31     0.36
B16        60.24   63.28   51.34          83.59   -1.84    0.97           2.09  151.92           0.21    0.19    0.22    0.20            0.66    0.65    0.46           0.44     0.48
B17        66.93   64.74   48.63          84.35   10.17    5.33          11.48   27.69           0.10    0.22    0.24    0.18            0.50    0.65    0.54           0.44     0.52
B18        62.22   68.96   49.59          86.48   -9.67    7.93          12.51  140.66           0.22    0.13    0.25    0.17            0.57    0.48    0.51           0.42     0.49
B19        62.34   64.77   61.06          84.37   -0.27   -7.86           7.87  267.95           0.20    0.18    0.13    0.19            0.75    0.80    0.40           0.60     0.67
B20         5.05    3.12    1.03          20.51   29.67   16.61          34.01   29.24           0.99    1.98    2.01    1.41            0.12    0.07    0.02           0.51     0.58
B21        17.11   11.64    4.21          40.64   36.83   23.46          43.67   32.49           0.49    1.27    1.38    0.86            0.34    0.25    0.08           0.55     0.61
B22        33.86   29.47   17.14          61.19   20.02   14.64          24.81   36.19           0.32    0.64    0.73    0.50            0.60    0.59    0.43           0.70     0.78
C1          6.58    6.63    3.63          30.96    1.90   10.34          10.52   79.55           1.10    1.23    1.48    1.17            0.15    0.14    0.10           0.48     0.55
C2          6.98    6.62    2.27          30.93    6.10   20.59          21.48   73.50           1.03    1.26    1.74    1.15            0.16    0.15    0.07           0.52     0.59
C3          7.41    6.54    1.22          30.72   11.13   31.43          33.34   70.49           0.97    1.31    2.10    1.14            0.14    0.13    0.02           0.47     0.55
C4          8.18    6.47    0.24          30.57   18.94   48.16          51.75   68.54           0.89    1.39    3.34    1.12            0.15    0.13    0.00           0.49     0.60
C5         24.31   24.14   11.69          56.23    4.55   20.29          20.79   77.35           0.52    0.66    0.93    0.60            0.38    0.43    0.20           0.65     0.76
C6         26.15   24.15    6.73          56.23   12.28   37.79          39.74   71.99           0.44    0.70    1.24    0.58            0.42    0.44    0.12           0.68     0.78
C7         28.22   23.93    3.19          56.01   21.55   56.55          60.52   69.14           0.36    0.76    1.69    0.57            0.41    0.40    0.05           0.61     0.71
C8         31.71   23.96    0.53          56.05   34.57   86.64          93.28   68.24           0.28    0.86    3.24    0.55            0.42    0.39    0.01           0.60     0.70
C9         41.44   42.65   29.05          71.31    0.97    9.31           9.37   84.04           0.34    0.38    0.49    0.37            0.55    0.59    0.37           0.56     0.64
C10        42.47   42.87   25.01          71.46    3.43   16.47          16.82   78.23           0.30    0.39    0.57    0.36            0.53    0.56    0.33           0.54     0.60
C11        43.58   42.64   20.28          71.31    7.36   25.27          26.32   73.77           0.26    0.41    0.68    0.35            0.52    0.56    0.24           0.53     0.60
C12        49.41   43.05    7.87          71.58   22.58   59.62          63.76   69.25           0.13    0.48    1.20    0.32            0.38    0.50    0.10           0.61     0.72
C13        56.28   64.67   62.32          84.31  -14.53   -9.18          17.19  212.28           0.33    0.14    0.13    0.21            0.50    0.40    0.19           0.40     0.51
C14        60.93   53.69   55.62          78.28   22.69  -12.81          26.06  330.56           0.12    0.35    0.16    0.25            0.41    0.55    0.28           0.55     0.67
C15        69.57   72.53   31.56          88.22   -0.78   34.52          34.53   91.29           0.09    0.14    0.48    0.13            0.24    0.26    0.32           0.36     0.41
C16        46.52   49.28   39.46          75.63   -2.78    1.58           3.20  150.32           0.32    0.30    0.34    0.31            0.65    0.67    0.47           0.58     0.63
C17        56.52   50.66   34.81          76.47   19.88    9.43          22.01   25.38           0.12    0.38    0.39    0.27            0.51    0.65    0.57           0.62     0.71
C18        52.19   61.49   36.97          82.64  -17.71   17.04          24.58  136.11           0.32    0.16    0.40    0.22            0.50    0.41    0.55           0.51     0.63
C19        50.08   51.72   57.30          77.11    0.58  -16.57          16.58  271.99           0.32    0.28    0.16    0.30            0.67    0.77    0.30           0.70     0.81
C20        12.39    9.24    1.24          36.44   26.26   41.12          48.79   57.44           0.67    1.28    2.10    0.96            0.31    0.23    0.03           0.61     0.69
C21        22.21   21.26   11.37          53.23    8.07   16.07          17.99   63.31           0.55    0.74    0.94    0.65            0.47    0.46    0.24           0.67     0.75
C22        27.65   23.77   11.11          55.85   19.97   21.39          29.27   46.96           0.39    0.75    0.94    0.59            0.65    0.58    0.33           0.65     0.73
D1          4.38    4.77    2.60          26.08   -3.02    9.35           9.83  107.90           1.32    1.34    1.64    1.32            0.10    0.11    0.07           0.48     0.54
D2          4.38    4.82    1.62          26.20   -3.53   18.76          19.09  100.67           1.31    1.32    1.93    1.31            0.12    0.12    0.05           0.47     0.53
D3          4.37    4.74    0.93          25.97   -2.61   27.59          27.71   95.42           1.31    1.33    2.29    1.31            0.11    0.11    0.03           0.39     0.46
D4          4.17    4.64    0.28          25.68   -4.23   38.99          39.22   96.19           1.38    1.32    3.29    1.32            0.08    0.09    0.01           0.42     0.50
D5         18.12   19.62    9.55          51.40   -4.10   18.75          19.20  102.32           0.70    0.71    1.04    0.70            0.29    0.34    0.16           0.65     0.71
D6         17.95   19.33    5.16          51.06   -3.58   36.25          36.43   95.64           0.69    0.72    1.40    0.70            0.28    0.31    0.08           0.63     0.69
D7         17.89   19.44    2.58          51.19   -4.47   52.84          53.03   94.83           0.70    0.71    1.87    0.70            0.29    0.32    0.04           0.61     0.72
D8         17.60   19.07    0.69          50.77   -4.17   74.43          74.54   93.21           0.75    0.72    3.13    0.70            0.29    0.32    0.01           0.57     0.67
D9         47.34   50.12   25.29          76.14   -2.72   24.01          24.17   96.44           0.28    0.30    0.58    0.29            0.47    0.51    0.27           0.49     0.55
D10        46.97   49.95   14.46          76.04   -3.31   46.77          46.89   94.05           0.26    0.30    0.89    0.29            0.51    0.54    0.15           0.54     0.60
D11        46.35   49.62    7.16          75.84   -4.16   69.81          69.93   93.41           0.27    0.30    1.34    0.29            0.48    0.48    0.07           0.49     0.56
D12        45.58   48.76    3.40          75.30   -4.05   88.37          88.46   92.62           0.28    0.31    1.92    0.29            0.40    0.31    0.03           0.37     0.46
D13        50.47   60.29   61.56          81.99  -19.45  -12.44          23.08  212.59           0.43    0.15    0.13    0.25            0.46    0.38    0.15           0.40     0.49
D14        53.90   43.82   51.28          72.11   32.10  -18.76          37.19  329.70           0.14    0.49    0.19    0.33            0.44    0.55    0.29           0.59     0.71
D15        67.82   70.60   23.22          87.29   -0.55   47.03          47.03   90.68           0.09    0.16    0.65    0.14            0.33    0.36    0.28           0.32     0.37
D16        35.07   37.30   30.02          67.50   -3.02    1.19           3.25  158.49           0.45    0.43    0.47    0.43            0.56    0.58    0.45           0.59     0.64
D17        48.17   39.96   24.95          69.44   28.45   13.09          31.32   24.70           0.14    0.54    0.55    0.36            0.39    0.47    0.41           0.57     0.65
D18        45.07   55.77   28.67          79.48  -23.53   24.03          33.63  134.40           0.41    0.19    0.53    0.27            0.48    0.42    0.43           0.50     0.60
D19        39.63   40.30   53.28          69.68    2.43  -25.14          25.26  275.51           0.45    0.40    0.18    0.41            0.62    0.71    0.32           0.73     0.87
D20         3.16    3.22    1.16          20.92    0.81   15.38          15.40   86.99           1.41    1.54    2.06    1.48            0.08    0.08    0.03           0.46     0.52
D21        31.17   29.06    1.57          60.84   11.97   79.10          80.01   81.39           0.38    0.61    2.35    0.50            0.54    0.56    0.04           0.69     0.78
D22        41.41   45.20   55.86          73.02   -6.50  -22.12          23.05  253.61           0.47    0.31    0.17    0.37            0.61    0.70    0.30           0.56     0.73
E1          5.79    6.76    3.65          31.26   -7.97   10.74          13.37  126.58           1.25    1.15    1.49    1.18            0.13    0.14    0.10           0.49     0.57
E2          5.30    6.77    2.33          31.28  -13.67   20.63          24.75  123.54           1.33    1.11    1.78    1.18            0.13    0.15    0.06           0.48     0.55
E3          4.79    6.59    1.42          30.86  -18.16   29.13          34.33  121.95           1.43    1.09    2.12    1.20            0.09    0.12    0.03           0.52     0.57
E4          4.31    6.66    0.45          31.03  -25.33   45.01          51.65  119.37           1.65    1.03    3.21    1.20            0.08    0.12    0.01           0.45     0.53
E5         25.36   29.44   15.38          61.16  -12.25   18.79          22.43  123.10           0.61    0.50    0.82    0.54            0.46    0.50    0.32           0.59     0.67
E6         23.13   29.04    9.70          60.81  -20.40   34.47          40.05  120.62           0.69    0.47    1.09    0.55            0.34    0.42    0.16           0.60     0.66
E7         20.94   28.84    5.27          60.64  -29.81   52.20          60.12  119.73           0.80    0.44    1.50    0.55            0.29    0.36    0.07           0.54     0.61
E8         19.45   28.69    3.00          60.50  -36.51   65.62          75.09  119.09           0.91    0.41    1.97    0.56            0.20    0.20    0.04           0.32     0.38
E9         45.24   49.87   33.15          75.99   -7.98   11.04          13.62  125.84           0.34    0.28    0.44    0.31            0.46    0.48    0.34           0.45     0.49
E10        43.30   49.97   25.84          76.05  -13.88   22.89          26.77  121.22           0.37    0.26    0.57    0.31            0.42    0.42    0.22           0.43     0.49
E11        41.18   49.66   20.24          75.86  -19.42   33.20          38.47  120.33           0.41    0.25    0.71    0.31            0.45    0.43    0.22           0.44     0.50
E12        38.18   48.72   13.81          75.28  -26.29   47.16          53.99  119.13           0.48    0.24    0.94    0.32            0.40    0.35    0.14           0.39     0.46
E13        46.18   56.90   60.90          80.12  -23.14  -15.01          27.58  212.97           0.51    0.17    0.14    0.28            0.46    0.38    0.18           0.40     0.53
E14        48.02   36.15   47.24          66.63   40.15  -23.60          46.57  329.55           0.16    0.63    0.22    0.41            0.35    0.41    0.24           0.50     0.62
E15        66.48   68.83   17.36          86.42    0.25   57.64          57.64   89.75           0.09    0.17    0.81    0.14            0.23    0.27    0.19           0.28     0.32
E16        25.76   27.48   21.56          59.41   -3.05    2.17           3.75  144.63           0.58    0.56    0.62    0.56            0.48    0.48    0.41           0.67     0.73
E17        41.52   31.97   17.26          63.32   35.67   18.05          39.97   26.84           0.16    0.69    0.72    0.44            0.34    0.39    0.33           0.50     0.57
E18        39.39   50.81   21.80          76.56  -27.98   31.26          41.95  131.83           0.49    0.21    0.68    0.31            0.36    0.32    0.29           0.45     0.52
E19        31.31   31.15   49.39          62.63    4.71  -32.97          33.31  278.12           0.57    0.51    0.21    0.53            0.46    0.53    0.31           0.69     0.78
E20         7.32    8.94    1.49          35.86  -11.82   37.00          38.84  107.72           1.16    1.00    2.12    1.05            0.14    0.16    0.03           0.53     0.58
E21        24.95   30.26    6.51          61.87  -17.06   48.51          51.43  109.38           0.62    0.47    1.34    0.52            0.45    0.54    0.12           0.71     0.77
E22         9.07   19.13   13.40          50.84  -60.69    6.12          61.00  174.25           1.81    0.50    0.92    0.80            0.14    0.24    0.31           0.52     0.62
F1          3.72    4.69    3.31          25.82  -11.38    3.65          11.96  162.25           1.51    1.28    1.52    1.35            0.09    0.11    0.09           0.51     0.57
F2          3.12    4.77    2.77          26.07  -22.05    8.03          23.47  160.01           1.72    1.21    1.65    1.36            0.05    0.06    0.05           0.45     0.53
F3          2.59    4.81    2.39          26.19  -32.02   11.31          33.96  160.54           1.98    1.15    1.77    1.38            0.06    0.10    0.06           0.44     0.50
F4          1.63    4.68    1.63          25.79  -51.74   17.94          54.76  160.87           2.81    1.06    2.10    1.42            0.02    0.07    0.03           0.42     0.47
F5         12.13   15.57   10.48          46.40  -18.43    7.07          19.74  159.02           1.02    0.74    0.99    0.83            0.24    0.29    0.23           0.65     0.72
F6          9.66   15.25    8.65          45.97  -34.89   12.57          37.08  160.19           1.30    0.68    1.11    0.86            0.10    0.17    0.14           0.61     0.67
F7          7.75   15.00    7.17          45.63  -49.91   17.69          52.95  160.49           1.62    0.63    1.25    0.89            0.10    0.16    0.13           0.42     0.47
F8          6.09   15.09    5.73          45.75  -67.07   24.26          71.33  160.11           2.12    0.57    1.43    0.90            0.05    0.08    0.08           0.28     0.31
F9         30.53   35.51   26.07          66.15  -13.31    5.42          14.37  157.82           0.56    0.41    0.55    0.46            0.45    0.52    0.42           0.54     0.60
F10        27.01   34.96   23.51          65.72  -25.06    9.30          26.73  159.64           0.69    0.38    0.61    0.48            0.35    0.40    0.36           0.55     0.61
F11        24.32   34.81   21.44          65.60  -35.81   13.07          38.12  159.95           0.82    0.34    0.67    0.49            0.32    0.39    0.34           0.46     0.52
F12        20.94   34.46   18.98          65.32  -49.97   17.67          53.00  160.53           1.03    0.31    0.75    0.51            0.24    0.27    0.31           0.40     0.48
F13        41.84   53.33   60.15          78.07  -26.93  -17.81          32.28  213.48           0.60    0.18    0.15    0.31            0.42    0.37    0.17           0.40     0.49
F14        42.51   29.49   43.13          61.21   47.75  -27.97          55.34  329.64           0.18    0.78    0.25    0.49            0.28    0.31    0.23           0.43     0.51
F15        65.35   67.13   13.31          85.57    1.38   66.26          66.28   88.80           0.09    0.19    0.97    0.15            0.26    0.30    0.19           0.28     0.34
F16        18.14   19.37   15.28          51.12   -2.85    1.75           3.35  148.47           0.73    0.72    0.78    0.72            0.43    0.43    0.40           0.61     0.68
F17        35.40   25.04   11.54          57.11   42.87   22.26          48.31   27.43           0.19    0.88    0.90    0.53            0.28    0.30    0.25           0.51     0.57
