targets/wolf_faust/transmissive/V080513.it8
IT8.7/1
ORIGINATOR "Wolf Faust"
DESCRIPTOR "Velvia (RVP 50), Type 3, L* a* b* (light D50, viewing angle 2)"
MANUFACTURER "Wolf Faust - http://www.coloraid.de"
CREATED "May 15, 2008"
PROD_DATE "2007:02"
DIFFUSE_GEOMETRY "opal"
SERIAL "V080513 Batch Average Data"
MATERIAL "Fujichrome Velvia (RVP 50)"
KEYWORD "MEAN_DE" # Mean Delta E of samples compared to batch average
NUMBER_OF_FIELDS 18
BEGIN_DATA_FORMAT
SAMPLE_ID  XYZ_X   XYZ_Y   XYZ_Z          LAB_L   LAB_A   LAB_B          LAB_C   LAB_H          D_RED  D_GREEN  D_BLUE  D_VIS          STDEV_X STDEV_Y STDEV_Z        MEAN_DE  STDEV_DE
END_DATA_FORMAT
NUMBER_OF_SETS 288
BEGIN_DATA
A1          2.35    2.00    1.41          15.49    9.27    2.76           9.68   16.57           1.47    1.86    1.87    1.67            0.06    0.06    0.03           0.44     0.50
A2          2.90    1.99    1.12          15.41   20.14    6.39          21.13   17.61           1.28    2.05    1.96    1.63            0.09    0.06    0.03           0.46     0.54 
A3          3.50    2.01    1.00          15.54   29.57    8.51          30.77   16.05           1.13    2.29    1.98    1.59            0.10    0.06    0.02           0.48     0.57
A4          4.62    1.98    0.69          15.36   46.46   13.47          48.38   16.16           0.90    3.41    2.04    1.53            0.12    0.05    0.01           0.51     0.60 
A5         10.47    9.14    6.35          36.24   13.32    5.02          14.25   20.65           0.84    1.17    1.18    1.01            0.25    0.23    0.14           0.61     0.67
A6         12.48    9.08    5.54          36.14   28.15    8.64          29.45   17.05           0.67    1.31    1.23    0.98            0.31    0.23    0.13           0.61     0.66 
A7         14.59    8.89    4.68          35.78   43.27   12.43          45.02   16.03           0.53    1.52    1.28    0.96            0.35    0.23    0.14           0.60     0.64
A8         17.67    8.88    3.88          35.75   60.94   17.02          63.27   15.61           0.37    1.92    1.33    0.92            0.17    0.11    0.11           0.41     0.49 
A9         30.58   29.98   23.06          61.63    6.34    3.11           7.08   26.04           0.45    0.56    0.59    0.51            0.73    0.77    0.63           0.85     0.93
A10        32.68   30.04   21.88          61.69   13.73    5.45          14.79   21.65           0.38    0.60    0.61    0.50            0.65    0.66    0.52           0.84     0.91
A11        34.69   29.89   20.59          61.56   21.31    7.81          22.71   20.13           0.31    0.64    0.63    0.49            0.75    0.71    0.59           0.84     0.91
A12        39.78   29.51   18.20          61.23   39.36   12.31          41.24   17.37           0.17    0.76    0.68    0.47            0.43    0.47    0.45           0.72     0.80 
A13        73.17   76.77   65.26          90.22   -1.77   -1.82           2.54  226.03           0.13    0.10    0.11    0.12            0.42    0.33    0.18           0.26     0.29
A14        77.51   79.02   65.29          91.24    2.66   -0.08           2.67  328.36           0.08    0.11    0.11    0.10            0.20    0.24    0.17           0.15     0.17 
A15        77.60   79.70   62.75          91.55    1.52    2.87           3.25   62.15           0.08    0.10    0.13    0.10            0.13    0.12    0.21           0.14     0.15
A16        75.59   78.45   64.15          90.99   -0.11    0.57           0.61  100.81           0.10    0.10    0.12    0.11            0.33    0.26    0.21           0.22     0.24
A17        77.04   78.47   63.84          90.99    2.79    0.87           2.92   17.38           0.08    0.11    0.12    0.10            0.26    0.31    0.25           0.18     0.20
A18        73.20   76.87   60.40          90.26   -1.92    2.97           3.54  122.71           0.12    0.11    0.15    0.12            0.41    0.30    0.35           0.32     0.35 
A19        75.06   77.08   64.92          90.36    1.51   -1.25           1.96  320.43           0.10    0.11    0.11    0.11            0.38    0.38    0.20           0.21     0.23
A20         6.67    3.16    1.92          20.66   47.20    6.07          47.59    7.33           0.79    2.58    1.61    1.36            0.15    0.07    0.06           0.50     0.55 
A21        27.49   19.51   15.13          51.27   39.10    2.37          39.17    3.46           0.33    0.98    0.75    0.65            0.59    0.48    0.41           0.73     0.79
A22        55.17   50.87   32.98          76.60   15.96   12.33          20.17   37.68           0.14    0.36    0.42    0.27            0.76    0.86    0.65           0.72     0.79
B1          3.43    3.06    1.78          20.27    8.06    6.88          10.60   40.45           1.32    1.64    1.79    1.49            0.08    0.07    0.03           0.40     0.46
B2          4.15    3.17    1.18          20.72   16.87   14.78          22.43   41.22           1.16    1.74    1.99    1.44            0.10    0.08    0.02           0.45     0.53
B3          4.82    3.17    0.65          20.72   25.92   23.39          34.91   42.06           1.03    1.89    2.29    1.41            0.12    0.08    0.01           0.45     0.53
B4          5.86    3.14    0.07          20.60   38.84   34.17          51.74   41.34           0.87    2.27    3.59    1.37            0.15    0.08    0.00           0.54     0.69
B5         13.32   11.99    6.57          41.19   11.97   12.58          17.37   46.42           0.74    1.03    1.18    0.89            0.40    0.37    0.18           0.70     0.78
B6         15.44   11.98    4.39          41.17   25.04   23.38          34.26   43.04           0.59    1.13    1.38    0.87            0.37    0.31    0.08           0.63     0.73
B7         17.77   12.02    2.78          41.25   37.76   34.11          50.89   42.09           0.47    1.26    1.61    0.84            0.40    0.30    0.06           0.62     0.72
B8         21.33   11.68    1.05          40.70   58.01   51.03          77.26   41.34           0.31    1.60    2.08    0.81            0.21    0.16    0.03           0.29     0.33
B9         36.32   36.57   26.57          66.95    3.54    5.94           6.93   58.99           0.39    0.46    0.53    0.43            0.79    0.87    0.62           0.88     0.94
B10        38.08   36.55   23.55          66.94    9.34   11.32          14.69   50.44           0.33    0.49    0.58    0.42            0.76    0.80    0.55           0.85     0.90
B11        39.51   36.16   20.89          66.64   15.16   15.98          22.03   46.48           0.28    0.52    0.64    0.42            0.84    0.87    0.58           0.89     0.95
B12        44.42   35.74   14.82          66.32   31.34   29.10          42.77   42.88           0.15    0.61    0.81    0.40            0.53    0.65    0.39           0.88     0.96
B13        64.95   70.83   63.03          87.40   -7.41   -4.54           8.68  211.49           0.21    0.12    0.12    0.16            0.63    0.52    0.31           0.39     0.45
B14        69.33   66.24   59.98          85.12   12.08   -5.48          13.27  335.63           0.09    0.22    0.14    0.17            0.51    0.73    0.30           0.64     0.73
B15        72.69   75.36   46.57          89.56    0.04   16.73          16.73   89.85           0.09    0.13    0.28    0.12            0.41    0.42    0.62           0.42     0.49
B16        60.99   63.58   51.91          83.74   -0.74    0.60           0.97  142.46           0.20    0.19    0.21    0.20            0.81    0.85    0.63           0.48     0.52
B17        67.24   64.88   49.41          84.42   10.54    4.57          11.49   23.46           0.09    0.22    0.23    0.18            0.57    0.74    0.68           0.54     0.60
B18        62.69   69.29   50.07          86.65   -9.28    7.66          12.04  140.46           0.21    0.13    0.24    0.17            0.72    0.56    0.62           0.58     0.62
B19        63.04   65.09   61.06          84.53    0.64   -7.56           7.59  274.82           0.19    0.18    0.13    0.19            0.75    0.81    0.31           0.56     0.61
B20         5.14    3.11    1.01          20.49   30.93   16.77          35.19   28.46           0.97    2.01    2.01    1.41            0.12    0.08    0.02           0.43     0.49
B21        17.61   11.82    4.28          40.93   38.25   23.56          44.93   31.63           0.48    1.28    1.36    0.85            0.44    0.32    0.13           0.66     0.74
B22        34.66   29.78   17.66          61.45   21.62   13.93          25.72   32.78           0.30    0.65    0.71    0.49            0.78    0.75    0.51           0.82     0.89
C1          6.69    6.64    3.52          30.96    3.07   11.07          11.49   74.50           1.09    1.24    1.49    1.16            0.17    0.17    0.08           0.51     0.60
C2          7.23    6.66    2.17          31.02    8.11   21.62          23.09   69.43           1.00    1.28    1.76    1.15            0.19    0.18    0.03           0.56     0.66
C3          7.69    6.70    1.23          31.10   12.17   31.97          34.21   69.16           0.95    1.31    2.10    1.13            0.19    0.18    0.02           0.63     0.72
C4          8.56    6.71    0.24          31.13   19.87   49.17          53.03   67.99           0.87    1.38    3.39    1.11            0.22    0.19    0.01           0.74     0.85
C5         25.33   24.84   12.20          56.91    5.92   19.95          20.81   73.45           0.50    0.65    0.91    0.59            0.63    0.66    0.31           0.81     0.89
C6         27.02   24.53    6.81          56.61   14.19   38.13          40.69   69.58           0.42    0.71    1.23    0.57            0.64    0.64    0.15           0.79     0.91
C7         29.20   24.82    3.32          56.90   21.54   57.17          61.10   69.35           0.35    0.74    1.67    0.56            0.66    0.64    0.08           0.76     0.90
C8         32.56   24.42    0.53          56.50   35.67   87.44          94.44   67.80           0.26    0.86    3.26    0.54            0.62    0.56    0.01           0.83     0.97
C9         42.04   42.93   29.09          71.50    1.97    9.59           9.80   78.35           0.33    0.38    0.49    0.36            0.79    0.87    0.59           0.78     0.84
C10        43.32   43.24   25.06          71.72    4.86   16.81          17.50   73.85           0.29    0.40    0.57    0.35            0.85    0.93    0.59           0.87     0.93
C11        44.84   43.58   20.75          71.94    8.31   25.39          26.72   71.87           0.24    0.41    0.66    0.34            0.82    0.89    0.53           0.84     0.91
C12        49.57   43.09    7.86          71.62   22.87   59.72          63.95   69.04           0.12    0.48    1.20    0.32            0.58    0.76    0.20           0.85     0.97
C13        57.47   65.53   62.49          84.75  -13.51   -8.59          16.01  212.45           0.31    0.14    0.13    0.20            0.73    0.58    0.25           0.56     0.65
C14        61.40   54.14   55.61          78.54   22.66  -12.35          25.81  331.42           0.11    0.35    0.16    0.25            0.76    1.04    0.50           0.99     1.16
C15        69.73   72.72   31.61          88.31   -0.83   34.60          34.61   91.38           0.09    0.14    0.48    0.13            0.40    0.42    0.54           0.46     0.57
C16        47.36   49.45   39.83          75.73   -0.89    1.28           1.57  125.91           0.31    0.31    0.34    0.31            1.01    1.08    0.81           0.75     0.81
C17        57.01   51.05   35.49          76.71   20.05    8.88          21.94   23.89           0.12    0.38    0.38    0.27            0.70    0.89    0.80           0.89     0.97
C18        53.05   62.11   37.26          82.97  -16.89   17.20          24.11  134.47           0.31    0.16    0.39    0.22            0.78    0.62    0.60           0.70     0.76
C19        51.07   52.07   57.24          77.32    2.30  -16.14          16.30  278.08           0.30    0.29    0.16    0.29            0.93    1.04    0.40           0.84     0.94
C20        13.01    9.64    1.26          37.18   27.19   42.09          50.11   57.14           0.64    1.27    2.09    0.94            0.36    0.29    0.03           0.68     0.78
C21        22.68   21.28   11.51          53.25   10.11   15.70          18.67   57.19           0.53    0.75    0.93    0.65            0.65    0.64    0.38           0.87     0.93
C22        28.42   24.31   11.18          56.39   20.70   22.10          30.28   46.87           0.38    0.74    0.94    0.58            0.74    0.69    0.37           0.82     0.88
D1          4.39    4.67    2.61          25.76   -1.51    8.75           8.88   99.77           1.31    1.36    1.64    1.33            0.10    0.11    0.05           0.45     0.52
D2          4.38    4.74    1.62          25.99   -2.56   18.46          18.64   97.91           1.31    1.34    1.92    1.32            0.09    0.11    0.02           0.51     0.58
D3          4.43    4.78    0.93          26.08   -2.36   27.69          27.79   94.87           1.30    1.33    2.29    1.31            0.11    0.13    0.01           0.51     0.63
D4          4.39    4.73    0.27          25.96   -2.38   39.59          39.66   93.43           1.34    1.33    3.32    1.30            0.12    0.13    0.00           0.63     0.76
D5         18.83   20.01    9.88          51.85   -2.36   18.42          18.58   97.31           0.68    0.71    1.02    0.69            0.47    0.51    0.23           0.79     0.87
D6         18.70   19.84    5.31          51.66   -2.22   36.49          36.56   93.49           0.66    0.72    1.38    0.69            0.43    0.47    0.11           0.72     0.80
D7         18.67   19.92    2.63          51.74   -2.73   53.42          53.49   92.93           0.67    0.71    1.86    0.68            0.42    0.47    0.05           0.71     0.81
D8         18.38   19.80    0.71          51.60   -3.66   75.61          75.70   92.77           0.72    0.71    3.16    0.68            0.44    0.47    0.01           0.78     0.93
D9         48.03   50.54   25.73          76.40   -1.93   23.70          23.78   94.65           0.27    0.30    0.57    0.29            0.75    0.84    0.50           0.79     0.85
D10        47.84   50.73   14.92          76.52   -2.96   46.43          46.53   93.65           0.25    0.30    0.87    0.28            0.67    0.75    0.29           0.70     0.75
D11        47.29   50.27    7.32          76.23   -3.28   69.85          69.93   92.69           0.25    0.30    1.32    0.28            0.65    0.67    0.12           0.56     0.63
D12        46.72   49.63    3.44          75.84   -3.15   89.01          89.07   92.03           0.27    0.31    1.92    0.28            0.50    0.39    0.04           0.47     0.55
D13        51.77   61.24   61.81          82.51  -18.21  -11.80          21.69  212.94           0.40    0.15    0.13    0.24            0.74    0.59    0.24           0.64     0.74
D14        54.34   44.19   51.28          72.35   32.15  -18.33          37.00  330.31           0.13    0.49    0.19    0.33            0.73    0.94    0.51           1.01     1.18
D15        67.88   70.66   23.17          87.32   -0.53   47.16          47.17   90.64           0.09    0.16    0.65    0.14            0.33    0.36    0.37           0.38     0.50
D16        36.05   37.68   30.53          67.78   -0.93    0.88           1.31  139.83           0.43    0.43    0.46    0.43            0.92    1.00    0.75           0.90     0.96
D17        48.76   40.48   25.52          69.81   28.47   12.71          31.18   24.06           0.14    0.53    0.53    0.35            0.61    0.75    0.61           0.94     1.01
D18        45.94   56.37   28.86          79.82  -22.54   24.31          33.15  132.82           0.39    0.19    0.53    0.26            0.71    0.59    0.45           0.72     0.79
D19        40.71   40.79   53.31          70.02    4.30  -24.57          24.95  279.92           0.42    0.40    0.18    0.40            0.89    0.99    0.43           0.98     1.08
D20         3.14    3.14    1.16          20.60    1.89   14.84          14.96   82.75           1.41    1.56    2.06    1.48            0.10    0.10    0.03           0.51     0.59
D21        32.18   29.81    1.60          61.48   12.82   79.84          80.86   80.88           0.36    0.61    2.34    0.48            0.81    0.81    0.04           0.95     1.06
D22        42.04   45.78   56.03          73.40   -6.22  -21.65          22.53  253.94           0.46    0.31    0.16    0.36            0.93    1.11    0.46           1.01     1.12
E1          5.85    6.74    3.68          31.19   -6.93   10.43          12.52  123.59           1.23    1.16    1.49    1.18            0.14    0.17    0.08           0.51     0.59
E2          5.38    6.73    2.38          31.17  -12.24   19.97          23.42  121.51           1.31    1.12    1.76    1.18            0.14    0.18    0.04           0.54     0.64
E3          4.92    6.69    1.44          31.08  -17.55   29.32          34.17  120.90           1.41    1.09    2.11    1.19            0.13    0.17    0.03           0.60     0.69
E4          4.45    6.87    0.46          31.50  -25.35   45.69          52.25  119.02           1.63    1.02    3.24    1.18            0.12    0.18    0.01           0.63     0.76
E5         26.27   29.93   15.92          61.59  -10.34   18.23          20.96  119.58           0.58    0.50    0.80    0.53            0.61    0.68    0.35           0.78     0.87
E6         23.83   29.53    9.82          61.24  -19.18   34.81          39.74  118.85           0.66    0.47    1.08    0.54            0.57    0.68    0.22           0.70     0.79
E7         21.54   29.46    5.42          61.18  -29.29   52.40          60.03  119.20           0.78    0.43    1.49    0.54            0.43    0.55    0.09           0.61     0.71
E8         19.75   28.99    3.07          60.77  -36.18   65.60          74.91  118.88           0.89    0.41    1.96    0.56            0.36    0.37    0.04           0.53     0.61
E9         46.39   50.76   33.79          76.53   -7.07   11.02          13.10  122.70           0.33    0.28    0.43    0.30            0.79    0.88    0.64           0.75     0.81
E10        44.02   50.46   26.45          76.35  -13.07   22.34          25.89  120.33           0.36    0.26    0.56    0.30            0.72    0.80    0.55           0.71     0.76
E11        41.99   50.13   20.75          76.15  -18.20   32.64          37.37  119.16           0.40    0.25    0.70    0.31            0.70    0.76    0.44           0.67     0.71
E12        39.04   49.44   14.13          75.72  -25.47   47.10          53.55  118.40           0.46    0.23    0.93    0.31            0.56    0.49    0.25           0.63     0.70
E13        46.88   57.38   61.09          80.39  -22.33  -14.73          26.75  213.41           0.49    0.16    0.14    0.27            0.72    0.60    0.22           0.69     0.78
E14        48.18   36.15   47.09          66.63   40.57  -23.41          46.84  330.01           0.16    0.63    0.22    0.41            0.62    0.74    0.46           0.88     1.02
E15        66.52   68.85   17.47          86.43    0.31   57.39          57.39   89.69           0.09    0.17    0.81    0.14            0.27    0.30    0.27           0.34     0.44
E16        26.40   27.59   22.41          59.51   -0.82    0.68           1.13  145.86           0.56    0.57    0.60    0.56            0.74    0.79    0.64           0.88     0.96
E17        41.57   31.85   17.63          63.22   36.26   17.04          40.06   25.17           0.16    0.70    0.70    0.44            0.57    0.64    0.47           0.88     0.95
E18        40.25   51.49   22.29          76.98  -27.10   31.03          41.20  131.12           0.47    0.21    0.67    0.30            0.64    0.55    0.39           0.68     0.75
E19        31.91   31.20   49.25          62.67    6.71  -32.75          33.43  281.57           0.55    0.52    0.21    0.52            0.74    0.82    0.43           0.94     1.04
E20         7.63    9.15    1.50          36.26  -10.57   37.47          38.93  105.75           1.13    1.00    2.12    1.04            0.24    0.29    0.04           0.71     0.80
E21        26.04   31.02    6.67          62.52  -15.29   48.88          51.22  107.37           0.59    0.47    1.33    0.51            0.69    0.81    0.15           0.85     0.95
E22         9.14   19.18   14.01          50.90  -60.36    4.61          60.54  175.64           1.80    0.50    0.89    0.80            0.21    0.36    0.35           0.51     0.57
F1          3.77    4.72    3.35          25.92  -10.96    3.57          11.53  161.96           1.50    1.28    1.52    1.35            0.09    0.12    0.07           0.49     0.58
F2          3.15    4.79    2.88          26.14  -21.73    7.26          22.92  161.53           1.72    1.21    1.63    1.36            0.08    0.12    0.06           0.50     0.57
F3          2.65    4.78    2.39          26.11  -30.60   11.18          32.58  159.93           1.95    1.16    1.76    1.38            0.06    0.12    0.03           0.56     0.66
F4          1.67    4.78    1.67          26.10  -52.08   18.13          55.15  160.81           2.80    1.05    2.09    1.41            0.04    0.11    0.03           0.52     0.62
F5         12.29   15.57   10.63          46.40  -17.36    6.60          18.58  159.19           1.01    0.75    0.98    0.83            0.35    0.44    0.29           0.71     0.80
F6          9.82   15.31    8.78          46.06  -34.02   12.22          36.15  160.25           1.28    0.68    1.11    0.86            0.25    0.37    0.22           0.64     0.71
F7          7.81   15.14    7.29          45.83  -50.13   17.51          53.11  160.74           1.62    0.63    1.24    0.88            0.19    0.35    0.18           0.57     0.66
F8          6.08   15.06    6.06          45.72  -67.02   22.66          70.75  161.32           2.11    0.57    1.39    0.90            0.08    0.15    0.10           0.26     0.31
F9         31.33   36.06   26.81          66.56  -12.16    4.86          13.10  158.23           0.55    0.41    0.53    0.46            0.78    0.91    0.73           0.85     0.91
F10        27.94   35.62   24.31          66.22  -23.57    8.69          25.12  159.78           0.67    0.37    0.59    0.47            0.67    0.83    0.66           0.78     0.86
F11        25.04   35.56   22.16          66.18  -35.25   12.66          37.46  160.24           0.80    0.34    0.65    0.48            0.58    0.76    0.59           0.67     0.74
F12        21.32   34.77   19.30          65.56  -49.24   17.40          52.22  160.54           1.01    0.30    0.74    0.51            0.41    0.45    0.43           0.61     0.69
F13        42.70   53.94   60.38          78.42  -25.90  -17.43          31.22  213.93           0.58    0.18    0.14    0.31            0.67    0.59    0.26           0.66     0.73
F14        42.87   29.76   43.11          61.44   47.82  -27.56          55.19  330.04           0.18    0.78    0.25    0.48            0.50    0.55    0.40           0.70     0.81
F15        65.47   67.20   13.39          85.61    1.51   66.11          66.12   88.69           0.09    0.19    0.97    0.15            0.21    0.25    0.18           0.33     0.38
F16        18.58   19.52   15.60          51.28   -1.27    1.24           1.80  137.12           0.71    0.72    0.77    0.71            0.54    0.57    0.51           0.74     0.80
F17        35.61   25.17   11.70          57.23   43.05   21.98          48.33   27.04           0.19    0.88    0.89    0.53            0.40    0.43    0.32           0.71     0.80
