targets/wolf_faust/transmissive/V090721.it8
IT8.7/1
ORIGINATOR "Wolf Faust"
DESCRIPTOR "Velvia (RVP 50), Type 3, L* a* b* (light D50, viewing angle 2)"
MANUFACTURER "Wolf Faust - http://www.coloraid.de"
CREATED "July 21, 2009"
PROD_DATE "2008:02"
DIFFUSE_GEOMETRY "opal"
SERIAL "V090721 Batch Average Data"
MATERIAL "Fujichrome Velvia (RVP 50)"
KEYWORD "MEAN_DE" # Mean Delta E of samples compared to batch average
NUMBER_OF_FIELDS 18
BEGIN_DATA_FORMAT
SAMPLE_ID  XYZ_X   XYZ_Y   XYZ_Z          LAB_L   LAB_A   LAB_B          LAB_C   LAB_H          D_RED  D_GREEN  D_BLUE  D_VIS          STDEV_X STDEV_Y STDEV_Z        MEAN_DE  STDEV_DE
END_DATA_FORMAT
NUMBER_OF_SETS 288
BEGIN_DATA
A1          2.06    1.76    1.21          14.17    8.59    3.13           9.14   19.99           1.53    1.91    1.95    1.72            0.07    0.05    0.03           0.44     0.50
A2          2.54    1.74    0.99          14.05   19.18    6.02          20.10   17.42           1.34    2.11    2.01    1.69            0.09    0.06    0.03           0.45     0.53 
A3          3.09    1.75    0.83          14.09   29.06    8.72          30.34   16.71           1.18    2.37    2.06    1.65            0.10    0.06    0.03           0.47     0.57
A4          4.19    1.79    0.62          14.34   45.04   13.09          46.90   16.20           0.95    3.46    2.09    1.57            0.10    0.04    0.02           0.44     0.51 
A5          9.31    8.13    5.57          34.25   12.78    5.21          13.80   22.17           0.89    1.22    1.24    1.06            0.29    0.25    0.20           0.57     0.66
A6         11.10    8.06    4.78          34.10   27.31    9.01          28.76   18.26           0.72    1.36    1.30    1.03            0.28    0.21    0.15           0.55     0.63 
A7         13.21    8.02    3.98          34.01   42.15   13.42          44.24   17.66           0.57    1.57    1.36    1.00            0.31    0.21    0.14           0.56     0.62
A8         17.06    8.47    3.21          34.94   61.11   20.03          64.31   18.15           0.38    1.98    1.42    0.93            0.15    0.10    0.12           0.47     0.57 
A9         27.39   26.82   19.50          58.81    6.23    5.35           8.23   40.75           0.49    0.62    0.67    0.56            0.63    0.67    0.55           0.82     0.95
A10        28.99   26.33   18.70          58.34   14.53    6.26          15.82   23.35           0.42    0.67    0.68    0.56            0.62    0.64    0.52           0.87     0.98
A11        31.16   26.53   17.76          58.53   21.84    8.66          23.50   21.65           0.35    0.70    0.70    0.54            0.64    0.63    0.51           0.83     0.92
A12        37.87   27.46   15.42          59.39   41.19   15.66          44.07   20.81           0.18    0.81    0.76    0.50            0.50    0.54    0.54           0.87     1.02 
A13        72.60   76.60   64.50          90.14   -2.62   -1.23           2.90  205.13           0.13    0.10    0.11    0.12            0.29    0.28    0.11           0.26     0.29
A14        77.41   78.78   64.33          91.14    2.92    0.65           3.00   12.53           0.07    0.11    0.11    0.10            0.29    0.35    0.22           0.23     0.27 
A15        77.44   79.75   60.00          91.57    1.10    5.63           5.74   78.92           0.07    0.10    0.15    0.10            0.26    0.30    0.34           0.28     0.33
A16        75.17   78.38   63.07          90.95   -0.83    1.55           1.76  118.12           0.10    0.10    0.13    0.11            0.31    0.29    0.13           0.26     0.27
A17        76.66   77.87   62.51          90.72    3.19    1.69           3.61   27.95           0.08    0.12    0.13    0.11            0.27    0.35    0.22           0.25     0.28
A18        72.55   76.62   58.72          90.15   -2.77    4.46           5.25  121.79           0.12    0.11    0.16    0.12            0.41    0.39    0.32           0.34     0.37 
A19        74.93   76.89   63.97          90.27    1.61   -0.49           1.70  343.08           0.10    0.12    0.12    0.11            0.45    0.44    0.17           0.28     0.34
A20         5.82    2.76    1.67          19.04   45.12    5.91          45.51    7.46           0.85    2.63    1.68    1.41            0.17    0.08    0.06           0.61     0.70 
A21        24.88   17.51   12.60          48.89   38.59    4.99          38.92    7.37           0.36    1.04    0.83    0.69            0.60    0.45    0.46           0.73     0.86
A22        52.16   47.70   29.20          74.63   16.74   14.82          22.36   41.50           0.16    0.40    0.48    0.30            0.78    0.88    0.79           0.83     0.92
B1          3.10    2.84    1.65          19.39    6.46    6.78           9.36   46.38           1.38    1.66    1.83    1.52            0.10    0.09    0.05           0.51     0.57
B2          3.61    2.79    1.02          19.19   15.47   14.50          21.21   43.15           1.23    1.78    2.07    1.50            0.12    0.09    0.03           0.54     0.60
B3          4.24    2.84    0.62          19.39   23.87   21.73          32.28   42.31           1.09    1.91    2.31    1.46            0.14    0.10    0.02           0.52     0.61
B4          5.15    2.79    0.07          19.17   36.68   31.76          48.52   40.88           0.93    2.29    3.57    1.42            0.16    0.09    0.00           0.62     0.79
B5         11.80   10.67    5.97          39.01   11.08   11.53          16.00   46.13           0.79    1.08    1.23    0.95            0.34    0.33    0.19           0.59     0.71
B6         13.55   10.55    3.98          38.81   23.71   21.68          32.13   42.43           0.65    1.19    1.43    0.92            0.38    0.32    0.13           0.60     0.69
B7         16.04   10.80    2.53          39.24   36.86   32.68          49.27   41.56           0.51    1.31    1.65    0.88            0.39    0.29    0.08           0.62     0.71
B8         20.57   11.07    0.93          39.70   58.67   51.14          77.83   41.07           0.32    1.66    2.13    0.83            0.20    0.16    0.04           0.40     0.44
B9         32.43   32.47   22.99          63.73    4.06    6.84           7.98   59.32           0.43    0.52    0.59    0.48            0.78    0.85    0.67           0.83     0.96
B10        33.75   32.00   19.67          63.34   10.37   12.80          16.48   50.99           0.37    0.56    0.67    0.48            0.84    0.84    0.63           0.84     0.96
B11        35.65   32.40   17.86          63.66   15.46   17.30          23.20   48.20           0.31    0.58    0.72    0.46            0.87    0.84    0.64           0.81     0.92
B12        42.15   32.99   12.68          64.15   34.02   31.08          46.08   42.42           0.16    0.67    0.88    0.43            0.58    0.68    0.44           0.92     1.06
B13        64.19   70.40   62.09          87.19   -8.21   -3.99           9.13  205.91           0.22    0.12    0.13    0.16            0.41    0.36    0.16           0.31     0.36
B14        67.94   64.24   58.42          84.09   13.51   -5.69          14.66  337.18           0.10    0.24    0.15    0.18            0.44    0.60    0.26           0.51     0.60
B15        71.89   74.54   43.57          89.18    0.04   19.70          19.70   89.89           0.09    0.13    0.31    0.12            0.31    0.35    0.40           0.37     0.43
B16        59.06   61.68   49.16          82.74   -0.99    1.97           2.21  116.56           0.21    0.21    0.24    0.21            0.68    0.70    0.48           0.49     0.54
B17        65.33   62.42   46.13          83.13   11.86    6.16          13.37   27.46           0.10    0.25    0.27    0.19            0.54    0.70    0.58           0.57     0.63
B18        61.87   68.77   47.70          86.39  -10.09    9.94          14.16  135.43           0.22    0.13    0.27    0.17            0.54    0.45    0.47           0.43     0.48
B19        61.33   63.30   59.56          83.60    0.68   -7.68           7.72  275.06           0.21    0.20    0.14    0.20            0.58    0.64    0.37           0.50     0.58
B20         4.56    2.75    0.93          19.02   29.82   15.60          33.65   27.62           1.02    2.07    2.05    1.46            0.14    0.08    0.03           0.56     0.64
B21        16.02   10.72    3.82          39.09   37.40   23.15          43.99   31.76           0.51    1.32    1.42    0.89            0.41    0.29    0.12           0.68     0.74
B22        31.60   26.97   15.05          58.94   21.69   15.82          26.85   36.11           0.34    0.70    0.79    0.53            0.72    0.67    0.50           0.82     0.89
C1          6.03    6.03    3.20          29.49    2.38   10.76          11.02   77.56           1.13    1.27    1.54    1.21            0.18    0.17    0.08           0.59     0.65
C2          6.45    6.04    2.01          29.52    6.76   20.47          21.56   71.73           1.06    1.31    1.80    1.19            0.18    0.16    0.04           0.61     0.68
C3          6.91    6.02    1.11          29.46   11.69   30.86          33.01   69.25           0.99    1.35    2.15    1.18            0.20    0.17    0.03           0.58     0.64
C4          7.52    5.98    0.22          29.35   18.12   46.36          49.78   68.65           0.93    1.42    3.38    1.16            0.22    0.18    0.01           0.71     0.86
C5         22.60   22.07   10.57          54.10    6.12   20.05          20.96   73.01           0.55    0.71    0.98    0.64            0.63    0.61    0.35           0.71     0.85
C6         24.32   22.03    6.03          54.06   13.91   37.17          39.68   69.49           0.46    0.75    1.29    0.62            0.63    0.58    0.19           0.68     0.79
C7         26.47   22.36    3.14          54.41   21.45   54.15          58.25   68.39           0.39    0.79    1.68    0.60            0.57    0.54    0.08           0.74     0.87
C8         29.56   21.86    0.47          53.87   35.95   84.01          91.38   66.83           0.30    0.92    3.30    0.58            0.58    0.50    0.01           0.78     0.93
C9         38.25   38.92   25.03          68.69    2.33   11.64          11.88   78.64           0.36    0.43    0.56    0.40            0.86    0.96    0.72           0.84     0.97
C10        39.37   38.90   21.59          68.67    5.96   18.09          19.05   71.76           0.32    0.45    0.64    0.40            0.91    1.00    0.64           0.85     0.98
C11        40.43   38.96   17.58          68.71    9.08   26.62          28.13   71.16           0.28    0.46    0.75    0.39            0.97    0.99    0.61           0.82     0.93
C12        47.06   39.68    7.06          69.24   26.25   58.86          64.45   65.96           0.13    0.54    1.25    0.35            0.59    0.77    0.24           0.91     1.03
C13        56.74   65.10   61.54          84.54  -14.37   -8.03          16.46  209.21           0.32    0.14    0.14    0.20            0.63    0.56    0.32           0.43     0.52
C14        59.52   51.55   53.79          77.01   24.82  -13.05          28.04  332.28           0.12    0.38    0.18    0.27            0.56    0.74    0.37           0.73     0.85
C15        69.01   71.87   29.67          87.91   -0.63   36.94          36.95   90.97           0.09    0.15    0.51    0.13            0.44    0.50    0.59           0.62     0.76
C16        44.43   46.35   36.72          73.77   -0.76    2.08           2.24  109.10           0.33    0.34    0.38    0.33            0.95    1.00    0.85           0.76     0.85
C17        54.72   48.13   32.44          74.91   22.12   10.23          24.37   24.82           0.12    0.41    0.43    0.29            0.65    0.81    0.78           0.84     0.93
C18        52.04   61.40   35.60          82.59  -17.88   18.87          25.99  133.46           0.32    0.16    0.42    0.22            0.67    0.56    0.67           0.63     0.76
C19        48.53   49.27   55.49          75.62    2.81  -17.25          17.48  279.23           0.32    0.31    0.17    0.32            0.90    1.00    0.39           0.86     1.00
C20        11.53    8.54    1.13          35.08   26.17   40.27          48.03   56.99           0.69    1.32    2.14    1.00            0.34    0.25    0.03           0.70     0.80
C21        20.95   19.58   10.32          51.35   10.28   16.13          19.13   57.50           0.56    0.79    0.98    0.69            0.57    0.54    0.37           0.74     0.81
C22        26.19   22.16    9.82          54.20   21.21   22.68          31.05   46.91           0.40    0.79    1.00    0.61            0.63    0.57    0.35           0.76     0.83
D1          4.01    4.30    2.30          24.64   -1.94    9.47           9.67  101.59           1.35    1.39    1.70    1.36            0.12    0.12    0.05           0.52     0.57
D2          3.84    4.18    1.39          24.24   -2.66   18.17          18.36   98.35           1.36    1.39    2.00    1.37            0.11    0.11    0.03           0.54     0.59
D3          3.95    4.30    0.87          24.64   -2.86   26.19          26.35   96.23           1.35    1.37    2.31    1.35            0.12    0.12    0.02           0.55     0.61
D4          3.83    4.20    0.25          24.32   -3.14   37.12          37.26   94.84           1.41    1.37    3.32    1.36            0.12    0.12    0.01           0.62     0.74
D5         16.82   17.79    8.70          49.24   -1.87   18.00          18.10   95.91           0.72    0.76    1.08    0.74            0.43    0.45    0.25           0.73     0.82
D6         16.95   18.04    4.83          49.54   -2.44   35.37          35.46   93.94           0.71    0.76    1.43    0.73            0.42    0.44    0.13           0.68     0.79
D7         16.55   17.79    2.47          49.24   -3.34   50.42          50.53   93.78           0.72    0.75    1.88    0.73            0.42    0.46    0.07           0.75     0.87
D8         16.16   17.52    0.65          48.90   -4.08   72.14          72.25   93.24           0.79    0.76    3.17    0.74            0.42    0.46    0.02           0.82     0.98
D9         44.18   46.11   22.23          73.61   -0.79   25.35          25.36   91.77           0.29    0.35    0.64    0.33            0.86    0.99    0.61           0.78     0.89
D10        44.27   46.48   12.88          73.85   -1.58   47.25          47.27   91.92           0.28    0.34    0.95    0.32            0.84    0.97    0.35           0.73     0.85
D11        44.11   46.67    6.66          73.98   -2.58   68.71          68.76   92.15           0.28    0.34    1.37    0.31            0.76    0.83    0.15           0.69     0.76
D12        44.02   47.42    3.22          74.45   -4.88   88.10          88.24   93.17           0.30    0.32    1.97    0.30            0.65    0.59    0.08           0.51     0.57
D13        50.84   60.68   60.93          82.21  -19.39  -11.44          22.52  210.55           0.42    0.15    0.14    0.24            0.54    0.44    0.20           0.44     0.54
D14        52.56   41.92   49.46          70.81   34.24  -18.95          39.13  331.04           0.14    0.52    0.20    0.35            0.62    0.79    0.43           0.88     1.02
D15        67.36   69.97   21.61          86.98   -0.24   49.59          49.59   90.27           0.09    0.16    0.69    0.14            0.30    0.35    0.36           0.54     0.60
D16        32.58   34.12   26.67          65.05   -1.13    2.51           2.76  113.75           0.47    0.47    0.52    0.47            0.73    0.75    0.66           0.71     0.82
D17        46.30   37.57   22.20          67.70   30.75   15.21          34.32   26.31           0.15    0.58    0.60    0.38            0.60    0.71    0.71           0.91     1.05
D18        44.28   55.07   26.61          79.08  -24.07   26.78          36.01  131.94           0.42    0.19    0.57    0.27            0.66    0.58    0.64           0.74     0.86
D19        37.62   37.46   51.27          67.62    4.90  -26.49          26.94  280.48           0.46    0.44    0.20    0.44            0.88    0.96    0.45           0.93     1.10
D20         2.86    2.89    1.07          19.59    1.33   14.33          14.39   84.70           1.45    1.59    2.09    1.52            0.10    0.09    0.03           0.52     0.57
D21        28.91   26.78    1.49          58.77   12.38   76.43          77.43   80.80           0.41    0.65    2.36    0.53            0.69    0.68    0.05           0.88     0.97
D22        38.90   42.39   54.11          71.14   -6.14  -23.52          24.31  255.35           0.51    0.34    0.18    0.40            0.85    0.99    0.42           0.92     1.06
E1          5.33    6.14    3.36          29.76   -6.81   10.12          12.20  123.93           1.27    1.20    1.53    1.22            0.14    0.15    0.08           0.45     0.51
E2          4.85    6.12    2.21          29.72  -12.51   18.97          22.72  123.42           1.36    1.16    1.79    1.22            0.12    0.15    0.05           0.51     0.57
E3          4.43    6.11    1.35          29.69  -17.82   28.01          33.20  122.47           1.46    1.12    2.14    1.23            0.12    0.16    0.04           0.59     0.65
E4          3.75    5.95    0.42          29.29  -25.85   42.65          49.88  121.22           1.74    1.07    3.24    1.25            0.11    0.16    0.01           0.60     0.74
E5         23.67   26.98   13.99          58.95   -9.98   18.53          21.05  118.31           0.63    0.55    0.86    0.57            0.62    0.71    0.45           0.76     0.84
E6         21.54   26.90    8.87          58.87  -19.35   34.01          39.13  119.63           0.71    0.51    1.13    0.58            0.48    0.60    0.25           0.69     0.77
E7         19.74   27.22    5.04          59.17  -29.33   50.86          58.71  119.98           0.82    0.47    1.52    0.58            0.44    0.57    0.12           0.64     0.73
E8         18.21   27.45    2.91          59.38  -38.08   64.37          74.79  120.61           0.96    0.43    1.99    0.58            0.28    0.32    0.06           0.41     0.47
E9         42.64   46.55   29.28          73.90   -6.56   13.41          14.93  116.05           0.36    0.32    0.50    0.33            0.87    1.00    0.80           0.76     0.85
E10        40.61   46.57   22.77          73.91  -12.78   24.83          27.93  117.24           0.39    0.30    0.64    0.34            0.82    0.96    0.68           0.76     0.83
E11        38.74   46.47   17.91          73.84  -18.34   34.71          39.26  117.85           0.43    0.28    0.77    0.34            0.76    0.88    0.52           0.67     0.76
E12        36.98   47.59   12.87          74.57  -27.11   48.49          55.56  119.21           0.50    0.25    0.98    0.33            0.62    0.60    0.36           0.61     0.71
E13        46.09   56.92   60.27          80.14  -23.44  -14.36          27.49  211.50           0.51    0.17    0.15    0.28            0.56    0.47    0.22           0.45     0.57
E14        46.49   34.18   45.31          65.10   42.51  -23.94          48.78  330.61           0.16    0.67    0.23    0.43            0.51    0.60    0.37           0.71     0.87
E15        66.01   68.16   16.32          86.08    0.65   59.49          59.50   89.37           0.09    0.18    0.85    0.15            0.34    0.42    0.34           0.60     0.65
E16        23.88   24.98   19.48          57.05   -0.89    2.35           2.52  110.16           0.60    0.61    0.67    0.60            0.68    0.69    0.65           0.83     0.92
E17        39.52   29.55   15.13          61.26   38.39   19.60          43.11   27.05           0.17    0.75    0.78    0.47            0.52    0.57    0.57           0.90     1.05
E18        38.43   49.91   20.15          76.01  -28.64   33.65          44.19  130.40           0.50    0.22    0.72    0.32            0.68    0.63    0.57           0.73     0.86
E19        29.13   28.20   47.14          60.06    7.64  -34.80          35.63  282.38           0.60    0.57    0.23    0.57            0.77    0.84    0.47           0.94     1.14
E20         6.83    8.21    1.35          34.41  -10.44   36.14          37.62  106.11           1.18    1.05    2.17    1.08            0.21    0.25    0.04           0.81     0.88
E21        23.35   27.90    6.00          59.79  -15.07   47.22          49.57  107.70           0.64    0.51    1.38    0.55            0.61    0.72    0.19           0.82     0.91
E22         8.35   17.97   12.52          49.45  -60.92    6.19          61.23  174.20           1.88    0.52    0.95    0.83            0.22    0.38    0.46           0.69     0.76
F1          3.35    4.24    2.99          24.44  -11.19    3.54          11.74  162.46           1.56    1.33    1.57    1.40            0.09    0.11    0.08           0.43     0.49
F2          2.79    4.28    2.56          24.58  -21.40    7.13          22.56  161.57           1.77    1.26    1.69    1.41            0.08    0.11    0.07           0.47     0.52
F3          2.37    4.33    2.19          24.74  -30.26   10.60          32.07  160.70           2.01    1.20    1.80    1.42            0.07    0.12    0.07           0.54     0.59
F4          1.51    4.35    1.47          24.78  -50.74   18.06          53.86  160.40           2.86    1.09    2.16    1.45            0.04    0.11    0.05           0.56     0.64
F5         11.04   14.16    9.40          44.45  -17.79    7.29          19.23  157.73           1.06    0.78    1.04    0.87            0.27    0.33    0.32           0.75     0.81
F6          8.89   14.02    7.84          44.26  -33.85   12.66          36.14  159.51           1.33    0.72    1.16    0.90            0.20    0.31    0.23           0.63     0.70
F7          7.13   13.98    6.68          44.20  -49.59   17.29          52.51  160.78           1.67    0.66    1.28    0.92            0.15    0.27    0.18           0.53     0.59
F8          5.72   14.44    5.42          44.85  -67.33   24.21          71.55  160.22           2.18    0.58    1.46    0.92            0.08    0.15    0.12           0.33     0.37
F9         28.11   32.48   23.33          63.73  -12.16    6.21          13.66  152.96           0.59    0.45    0.60    0.50            0.62    0.74    0.72           0.79     0.87
F10        24.98   32.25   21.15          63.54  -24.13   10.11          26.16  157.27           0.72    0.41    0.66    0.52            0.68    0.84    0.74           0.84     0.92
F11        22.67   32.55   19.31          63.79  -35.37   14.34          38.17  157.94           0.85    0.37    0.72    0.52            0.52    0.67    0.60           0.73     0.81
F12        19.81   33.24   17.47          64.35  -51.31   19.34          54.83  159.35           1.07    0.32    0.79    0.53            0.37    0.43    0.51           0.64     0.77
F13        41.65   53.24   59.51          78.01  -27.28  -17.26          32.28  212.32           0.60    0.18    0.15    0.31            0.52    0.45    0.19           0.48     0.59
F14        41.28   28.07   41.37          59.95   49.46  -27.93          56.80  330.55           0.19    0.82    0.27    0.50            0.61    0.58    0.48           0.64     0.80
F15        64.94   66.45   12.39          85.22    1.96   68.24          68.27   88.35           0.09    0.20    1.01    0.16            0.25    0.33    0.23           0.49     0.55
F16        16.82   17.74   13.64          49.18   -1.56    2.61           3.05  120.92           0.75    0.76    0.84    0.75            0.46    0.46    0.46           0.77     0.87
F17        33.87   23.36    9.97          55.43   44.87   24.31          51.04   28.44           0.20    0.94    0.97    0.56            0.39    0.40    0.37           0.78     0.91
