targets/wolf_faust/transmissive/V090119.it8
IT8.7/1
ORIGINATOR "Wolf Faust"
DESCRIPTOR "Velvia (RVP 50), Type 3, L* a* b* (light D50, viewing angle 2)"
MANUFACTURER "Wolf Faust - http://www.coloraid.de"
CREATED "January 19, 2009"
PROD_DATE "2007:02"
DIFFUSE_GEOMETRY "opal"
SERIAL "V090119 Batch Average Data"
MATERIAL "Fujichrome Velvia (RVP 50)"
KEYWORD "MEAN_DE" # Mean Delta E of samples compared to batch average
NUMBER_OF_FIELDS 18
BEGIN_DATA_FORMAT
SAMPLE_ID  XYZ_X   XYZ_Y   XYZ_Z          LAB_L   LAB_A   LAB_B          LAB_C   LAB_H          D_RED  D_GREEN  D_BLUE  D_VIS          STDEV_X STDEV_Y STDEV_Z        MEAN_DE  STDEV_DE
END_DATA_FORMAT
NUMBER_OF_SETS 288
BEGIN_DATA
A1          2.30    1.95    1.38          15.23    9.32    2.65           9.69   15.88           1.48    1.87    1.88    1.68            0.05    0.05    0.03           0.36     0.40
A2          2.86    1.95    1.18          15.23   20.22    5.26          20.89   14.58           1.29    2.06    1.93    1.64            0.07    0.05    0.03           0.36     0.40 
A3          3.46    1.98    0.99          15.37   29.75    8.37          30.90   15.71           1.13    2.30    1.98    1.60            0.07    0.04    0.02           0.36     0.40
A4          4.57    1.94    0.68          15.17   46.54   13.32          48.41   15.97           0.91    3.54    2.05    1.54            0.10    0.04    0.02           0.44     0.50 
A5         10.41    9.12    6.23          36.22   12.98    5.48          14.09   22.89           0.84    1.16    1.19    1.01            0.21    0.18    0.13           0.65     0.73
A6         12.33    8.97    5.42          35.92   28.10    8.82          29.45   17.43           0.68    1.31    1.24    0.99            0.25    0.18    0.12           0.61     0.69 
A7         14.57    8.91    4.73          35.80   43.02   12.19          44.72   15.82           0.53    1.51    1.28    0.96            0.31    0.19    0.12           0.63     0.71
A8         17.60    8.81    3.82          35.62   61.15   17.21          63.53   15.72           0.37    1.93    1.34    0.92            0.15    0.09    0.10           0.47     0.54 
A9         30.56   30.24   22.67          61.86    5.28    4.24           6.79   38.72           0.45    0.56    0.60    0.51            0.71    0.74    0.56           0.88     0.95
A10        32.20   29.71   21.85          61.40   13.26    5.02          14.19   20.75           0.39    0.60    0.61    0.51            0.75    0.74    0.58           0.83     0.90
A11        34.53   29.76   20.77          61.45   21.25    7.27          22.46   18.89           0.31    0.64    0.63    0.50            0.69    0.64    0.49           0.80     0.88
A12        39.92   29.70   18.40          61.39   39.09   12.17          40.94   17.29           0.17    0.75    0.67    0.47            0.49    0.53    0.48           0.81     0.89 
A13        73.09   76.84   65.04          90.25   -2.08   -1.55           2.59  216.90           0.13    0.10    0.11    0.12            0.47    0.39    0.28           0.31     0.35
A14        77.70   79.19   65.10          91.32    2.69    0.23           2.71    5.01           0.07    0.11    0.11    0.10            0.30    0.34    0.25           0.21     0.23 
A15        77.81   79.97   62.42          91.67    1.40    3.41           3.69   67.69           0.07    0.10    0.13    0.09            0.30    0.33    0.26           0.18     0.20
A16        75.58   78.58   63.92          91.05   -0.40    0.89           0.99  113.76           0.10    0.10    0.12    0.11            0.41    0.37    0.29           0.27     0.29
A17        77.08   78.47   63.55          90.99    2.87    1.15           3.09   21.90           0.08    0.11    0.12    0.10            0.31    0.37    0.29           0.22     0.24
A18        73.29   77.10   60.02          90.37   -2.18    3.54           4.16  121.56           0.12    0.10    0.15    0.11            0.40    0.32    0.32           0.30     0.33 
A19        75.49   77.45   64.73          90.53    1.66   -0.78           1.84  334.97           0.09    0.11    0.11    0.11            0.33    0.32    0.21           0.20     0.22
A20         6.61    3.12    1.88          20.50   47.28    6.24          47.69    7.52           0.79    2.60    1.63    1.36            0.14    0.07    0.05           0.49     0.56 
A21        27.34   19.44   14.87          51.19   38.87    2.90          38.98    4.27           0.33    0.98    0.76    0.65            0.56    0.45    0.39           0.75     0.81
A22        55.10   50.93   32.55          76.63   15.63   13.04          20.36   39.83           0.14    0.36    0.43    0.27            0.72    0.85    0.69           0.80     0.87
B1          3.53    3.22    1.80          20.92    6.88    7.81          10.41   48.57           1.32    1.60    1.79    1.47            0.06    0.06    0.03           0.39     0.44
B2          4.12    3.15    1.16          20.65   16.81   14.86          22.44   41.47           1.16    1.74    2.00    1.44            0.09    0.07    0.02           0.40     0.48
B3          4.75    3.17    0.70          20.71   25.01   22.58          33.70   42.07           1.04    1.87    2.26    1.41            0.09    0.06    0.01           0.42     0.48
B4          5.83    3.15    0.07          20.62   38.40   34.20          51.42   41.68           0.88    2.24    3.62    1.37            0.13    0.07    0.00           0.48     0.60
B5         13.43   12.19    6.71          41.52   11.25   12.54          16.85   48.08           0.74    1.01    1.17    0.89            0.26    0.24    0.15           0.65     0.73
B6         15.26   11.84    4.39          40.96   24.96   22.98          33.93   42.63           0.60    1.14    1.38    0.87            0.30    0.23    0.09           0.63     0.70
B7         17.62   11.90    2.73          41.06   37.79   34.20          50.97   42.15           0.47    1.27    1.62    0.84            0.37    0.25    0.06           0.61     0.71
B8         21.33   11.66    1.11          40.67   58.14   50.10          76.75   40.75           0.31    1.60    2.05    0.81            0.17    0.13    0.03           0.32     0.35
B9         36.04   36.53   26.46          66.92    2.76    6.09           6.70   65.53           0.39    0.46    0.53    0.43            0.75    0.77    0.57           0.79     0.87
B10        37.56   36.05   23.51          66.55    9.31   10.75          14.23   49.08           0.33    0.50    0.58    0.43            0.74    0.76    0.53           0.77     0.86
B11        39.16   36.02   21.23          66.53   14.51   15.11          20.96   46.15           0.28    0.52    0.63    0.42            0.76    0.77    0.50           0.85     0.93
B12        44.67   36.12   15.00          66.61   30.79   29.14          42.39   43.43           0.15    0.60    0.80    0.39            0.54    0.62    0.37           0.87     0.96
B13        64.97   71.01   63.00          87.49   -7.74   -4.35           8.88  209.34           0.21    0.12    0.12    0.16            0.49    0.43    0.26           0.33     0.37
B14        69.60   66.61   60.04          85.30   11.85   -5.22          12.95  336.24           0.09    0.21    0.14    0.17            0.60    0.79    0.43           0.61     0.70
B15        72.74   75.41   46.04          89.58    0.06   17.40          17.40   89.79           0.09    0.13    0.28    0.12            0.40    0.42    0.44           0.33     0.37
B16        60.97   63.92   51.68          83.93   -1.57    1.17           1.97  143.35           0.20    0.19    0.22    0.20            0.72    0.75    0.54           0.43     0.48
B17        67.11   64.79   48.77          84.37   10.44    5.22          11.68   26.57           0.09    0.23    0.24    0.18            0.72    0.90    0.69           0.61     0.68
B18        62.59   69.37   49.79          86.69   -9.69    8.05          12.60  140.28           0.21    0.13    0.24    0.16            0.66    0.56    0.56           0.48     0.54
B19        62.87   65.28   60.97          84.63   -0.17   -7.31           7.31  268.69           0.20    0.18    0.13    0.19            0.75    0.75    0.39           0.50     0.59
B20         5.06    3.05    1.02          20.23   31.00   16.21          34.99   27.60           0.98    2.03    2.01    1.41            0.14    0.08    0.02           0.51     0.58
B21        17.63   11.89    4.22          41.04   37.90   24.09          44.92   32.44           0.48    1.27    1.37    0.84            0.40    0.29    0.12           0.66     0.73
B22        34.77   30.03   17.49          61.68   21.05   14.70          25.68   34.91           0.30    0.64    0.72    0.49            0.70    0.68    0.46           0.98     1.08
C1          6.76    6.77    3.65          31.28    2.34   10.79          11.05   77.72           1.09    1.22    1.47    1.16            0.12    0.13    0.06           0.57     0.63
C2          7.10    6.63    2.25          30.94    7.28   20.76          22.00   70.66           1.01    1.27    1.74    1.15            0.15    0.15    0.05           0.44     0.51
C3          7.70    6.77    1.23          31.27   11.58   32.26          34.28   70.26           0.95    1.29    2.10    1.13            0.17    0.16    0.02           0.52     0.59
C4          8.55    6.75    0.24          31.22   19.40   49.23          52.91   68.49           0.87    1.37    3.37    1.11            0.19    0.15    0.00           0.58     0.68
C5         25.45   24.85   12.15          56.93    6.37   20.15          21.14   72.44           0.49    0.66    0.91    0.59            0.55    0.55    0.31           0.76     0.84
C6         26.84   24.51    6.79          56.60   13.54   38.19          40.52   70.48           0.42    0.70    1.23    0.58            0.49    0.47    0.13           0.68     0.79
C7         28.71   24.43    3.35          56.51   21.33   56.31          60.22   69.26           0.35    0.75    1.66    0.56            0.53    0.50    0.06           0.78     0.86
C8         32.31   24.42    0.54          56.50   34.76   87.29          93.95   68.29           0.27    0.85    3.26    0.54            0.53    0.46    0.01           0.71     0.80
C9         41.98   43.02   29.49          71.57    1.48    9.07           9.19   80.67           0.33    0.38    0.48    0.36            0.78    0.87    0.64           0.79     0.87
C10        43.20   43.33   24.85          71.78    4.24   17.28          17.80   76.21           0.29    0.39    0.57    0.35            0.80    0.85    0.48           0.81     0.90
C11        44.24   43.18   20.61          71.67    7.73   25.22          26.38   72.96           0.25    0.41    0.67    0.35            0.80    0.84    0.51           0.76     0.84
C12        49.91   43.60    8.00          71.96   22.31   59.80          63.83   69.54           0.12    0.47    1.20    0.32            0.52    0.69    0.16           0.78     0.89
C13        57.50   65.71   62.40          84.85  -13.83   -8.33          16.15  211.05           0.32    0.14    0.13    0.20            0.57    0.46    0.26           0.47     0.53
C14        61.40   54.21   55.58          78.58   22.49  -12.24          25.61  331.44           0.11    0.35    0.16    0.25            0.64    0.87    0.46           0.81     0.96
C15        69.82   72.80   31.33          88.35   -0.81   35.10          35.11   91.32           0.09    0.14    0.49    0.13            0.34    0.39    0.35           0.37     0.42
C16        47.56   50.00   39.76          76.07   -1.82    1.95           2.68  133.02           0.31    0.30    0.34    0.30            0.90    0.95    0.65           0.72     0.78
C17        57.05   51.20   35.33          76.80   19.76    9.26          21.82   25.13           0.12    0.37    0.39    0.27            0.64    0.83    0.67           0.81     0.90
C18        53.02   62.23   37.09          83.04  -17.27   17.55          24.62  134.53           0.31    0.16    0.40    0.22            0.66    0.56    0.56           0.60     0.68
C19        50.93   52.27   57.16          77.44    1.41  -15.87          15.93  275.06           0.31    0.28    0.16    0.29            0.90    1.04    0.49           0.89     1.01
C20        12.90    9.51    1.18          36.95   27.44   42.75          50.80   57.30           0.64    1.28    2.13    0.95            0.34    0.27    0.03           0.66     0.76
C21        22.91   21.73   11.55          53.73    9.11   16.40          18.76   60.94           0.53    0.73    0.93    0.64            0.60    0.61    0.40           0.92     1.01
C22        28.50   24.49   11.34          56.57   20.25   21.93          29.86   47.28           0.38    0.74    0.93    0.57            0.62    0.59    0.32           0.89     0.97
D1          4.43    4.78    2.59          26.10   -2.35    9.47           9.75  103.92           1.31    1.34    1.64    1.32            0.10    0.12    0.07           0.52     0.57
D2          4.42    4.79    1.60          26.11   -2.63   18.85          19.04   97.96           1.30    1.34    1.93    1.31            0.09    0.10    0.04           0.50     0.56
D3          4.47    4.85    0.93          26.31   -2.80   28.03          28.17   95.71           1.30    1.32    2.29    1.30            0.09    0.11    0.02           0.48     0.55
D4          4.33    4.77    0.28          26.06   -3.63   39.65          39.82   95.23           1.36    1.31    3.32    1.30            0.10    0.11    0.01           0.58     0.66
D5         18.96   20.13    9.80          51.98   -2.28   18.91          19.05   96.88           0.67    0.71    1.03    0.69            0.43    0.46    0.25           0.73     0.82
D6         18.60   19.88    5.34          51.70   -2.93   36.44          36.56   94.60           0.67    0.71    1.38    0.69            0.40    0.43    0.12           0.74     0.81
D7         18.34   19.60    2.58          51.38   -2.90   53.20          53.28   93.12           0.68    0.71    1.87    0.69            0.37    0.41    0.05           0.71     0.78
D8         17.83   19.30    0.70          51.04   -4.12   74.82          74.93   93.15           0.74    0.71    3.16    0.69            0.34    0.38    0.01           0.69     0.78
D9         47.74   50.43   25.62          76.33   -2.44   23.77          23.90   95.86           0.27    0.30    0.57    0.29            0.76    0.87    0.57           0.78     0.83
D10        47.70   50.67   14.68          76.48   -3.18   46.98          47.09   93.87           0.25    0.30    0.88    0.28            0.71    0.80    0.32           0.65     0.72
D11        47.05   50.16    7.39          76.16   -3.63   69.41          69.51   93.00           0.26    0.30    1.32    0.28            0.63    0.69    0.15           0.56     0.63
D12        46.54   49.57    3.43          75.81   -3.50   89.00          89.07   92.25           0.27    0.31    1.92    0.28            0.54    0.48    0.06           0.47     0.54
D13        51.67   61.36   61.74          82.57  -18.75  -11.62          22.06  211.78           0.41    0.15    0.13    0.24            0.59    0.50    0.26           0.50     0.60
D14        54.33   44.25   51.29          72.39   31.97  -18.28          36.83  330.24           0.13    0.48    0.19    0.33            0.64    0.81    0.51           0.81     0.99
D15        68.05   70.82   22.79          87.40   -0.52   48.03          48.03   90.63           0.09    0.16    0.66    0.13            0.34    0.39    0.28           0.39     0.46
D16        36.04   38.01   30.09          68.02   -2.01    2.00           2.86  135.54           0.43    0.42    0.47    0.42            0.77    0.84    0.63           0.80     0.90
D17        48.52   40.30   24.91          69.68   28.37   13.58          31.45   25.58           0.14    0.53    0.55    0.36            0.60    0.74    0.56           0.84     0.93
D18        45.81   56.44   28.44          79.86  -23.05   25.05          34.05  132.61           0.40    0.18    0.54    0.26            0.62    0.55    0.46           0.61     0.69
D19        40.49   40.90   53.27          70.10    3.28  -24.39          24.61  277.64           0.43    0.39    0.18    0.40            0.73    0.85    0.45           0.85     0.99
D20         3.20    3.25    1.16          21.02    1.19   15.56          15.61   85.62           1.40    1.54    2.06    1.47            0.09    0.09    0.02           0.52     0.57
D21        32.19   29.81    1.59          61.48   12.87   79.98          81.01   80.86           0.36    0.61    2.35    0.48            0.70    0.68    0.03           0.85     0.97
D22        42.09   46.06   56.01          73.58   -6.85  -21.31          22.39  252.17           0.46    0.31    0.17    0.36            0.76    0.92    0.44           0.87     0.98
E1          5.92    6.88    3.71          31.53   -7.65   10.82          13.26  125.30           1.23    1.15    1.49    1.17            0.14    0.17    0.09           0.62     0.69
E2          5.38    6.76    2.36          31.24  -12.63   20.31          23.91  121.88           1.31    1.12    1.77    1.18            0.13    0.16    0.05           0.54     0.62
E3          4.96    6.79    1.44          31.32  -18.00   29.76          34.78  121.17           1.41    1.08    2.12    1.18            0.11    0.15    0.03           0.56     0.63
E4          4.43    6.82    0.45          31.39  -25.23   45.59          52.11  118.95           1.64    1.02    3.25    1.19            0.10    0.14    0.01           0.55     0.64
E5         26.44   30.34   15.58          61.95  -11.17   19.66          22.61  119.61           0.58    0.49    0.81    0.52            0.57    0.67    0.39           0.81     0.91
E6         23.91   29.74    9.66          61.43  -19.60   35.65          40.68  118.81           0.66    0.47    1.09    0.53            0.45    0.56    0.20           0.72     0.80
E7         21.27   29.16    5.31          60.92  -29.43   52.50          60.18  119.27           0.79    0.44    1.50    0.55            0.41    0.53    0.10           0.68     0.76
E8         19.78   29.11    3.05          60.88  -36.48   65.93          75.35  118.96           0.90    0.41    1.96    0.55            0.29    0.31    0.05           0.44     0.50
E9         46.17   50.61   32.96          76.44   -7.28   12.10          14.12  121.06           0.33    0.28    0.44    0.30            0.63    0.70    0.59           0.64     0.70
E10        43.96   50.26   26.15          76.23  -12.71   22.67          25.99  119.29           0.36    0.27    0.57    0.30            0.66    0.73    0.55           0.69     0.75
E11        41.80   50.10   20.51          76.13  -18.70   33.11          38.03  119.46           0.40    0.25    0.70    0.31            0.61    0.64    0.41           0.63     0.68
E12        38.85   49.41   13.99          75.71  -25.99   47.43          54.09  118.72           0.47    0.23    0.93    0.31            0.51    0.48    0.27           0.50     0.58
E13        47.14   57.80   61.09          80.63  -22.61  -14.33          26.77  212.36           0.49    0.16    0.14    0.27            0.56    0.48    0.24           0.48     0.58
E14        48.40   36.50   47.28          66.90   40.05  -23.18          46.27  329.93           0.16    0.62    0.22    0.40            0.55    0.65    0.44           0.70     0.88
E15        66.82   69.19   17.44          86.60    0.23   57.76          57.76   89.77           0.08    0.17    0.81    0.14            0.29    0.34    0.25           0.37     0.47
E16        26.59   28.03   22.22          59.91   -1.77    1.74           2.51  136.15           0.56    0.56    0.61    0.55            0.66    0.69    0.60           0.73     0.84
E17        41.67   32.03   17.60          63.37   35.91   17.36          39.89   25.80           0.16    0.69    0.71    0.44            0.49    0.57    0.41           0.76     0.86
E18        40.24   51.62   22.16          77.05  -27.47   31.40          41.72  131.18           0.47    0.21    0.67    0.30            0.58    0.52    0.35           0.57     0.66
E19        32.00   31.56   49.36          62.97    5.77  -32.35          32.87  280.10           0.55    0.51    0.21    0.52            0.60    0.71    0.41           0.86     1.01
E20         7.63    9.17    1.49          36.31  -10.82   37.77          39.29  105.99           1.13    1.00    2.13    1.04            0.18    0.23    0.04           0.61     0.69
E21        25.72   30.58    6.55          62.15  -15.00   48.81          51.07  107.08           0.59    0.47    1.33    0.51            0.57    0.67    0.15           0.72     0.81
E22         9.19   19.34   13.82          51.08  -60.71    5.41          60.95  174.90           1.81    0.50    0.90    0.79            0.18    0.31    0.32           0.52     0.57
F1          3.79    4.79    3.34          26.12  -11.56    3.94          12.21  161.22           1.50    1.27    1.52    1.34            0.09    0.12    0.08           0.54     0.59
F2          3.12    4.76    2.85          26.05  -21.90    7.38          23.11  161.39           1.73    1.21    1.63    1.37            0.06    0.10    0.07           0.51     0.56
F3          2.66    4.85    2.45          26.29  -31.21   10.99          33.09  160.60           1.96    1.15    1.75    1.37            0.06    0.12    0.06           0.53     0.59
F4          1.68    4.84    1.67          26.27  -52.49   18.41          55.62  160.67           2.83    1.04    2.09    1.41            0.03    0.09    0.03           0.48     0.57
F5         12.34   15.79   10.76          46.69  -18.25    6.69          19.45  159.88           1.01    0.74    0.97    0.83            0.30    0.36    0.28           0.78     0.85
F6          9.94   15.57    9.00          46.40  -34.50   12.02          36.53  160.79           1.28    0.68    1.09    0.85            0.18    0.27    0.22           0.65     0.71
F7          7.99   15.41    7.26          46.19  -50.13   18.27          53.36  159.98           1.61    0.62    1.24    0.87            0.14    0.26    0.15           0.56     0.62
F8          6.17   15.31    6.05          46.06  -67.47   23.31          71.39  160.95           2.13    0.56    1.40    0.90            0.08    0.15    0.10           0.27     0.31
F9         31.32   36.14   26.67          66.62  -12.43    5.21          13.49  157.27           0.55    0.41    0.53    0.45            0.59    0.68    0.59           0.72     0.79
F10        27.77   35.65   24.00          66.25  -24.37    9.31          26.09  159.10           0.68    0.37    0.60    0.47            0.56    0.69    0.53           0.73     0.80
F11        24.79   35.26   21.82          65.95  -35.32   12.93          37.62  159.90           0.81    0.34    0.66    0.49            0.42    0.55    0.43           0.66     0.71
F12        21.46   35.09   19.38          65.82  -49.66   17.67          52.71  160.42           1.01    0.30    0.74    0.50            0.32    0.36    0.32           0.51     0.56
F13        42.77   54.22   60.36          78.59  -26.39  -17.12          31.46  212.97           0.58    0.18    0.14    0.30            0.45    0.40    0.21           0.47     0.55
F14        42.92   29.87   43.21          61.54   47.53  -27.50          54.91  329.94           0.18    0.77    0.25    0.48            0.35    0.39    0.32           0.49     0.61
F15        65.80   67.63   13.57          85.82    1.31   65.98          66.00   88.86           0.08    0.19    0.96    0.15            0.29    0.34    0.18           0.37     0.44
F16        18.67   19.75   15.86          51.55   -1.91    1.06           2.22  152.49           0.71    0.71    0.76    0.71            0.45    0.46    0.44           0.75     0.83
F17        35.77   25.36   12.06          57.42   42.80   21.26          47.79   26.41           0.19    0.87    0.88    0.53            0.34    0.35    0.28           0.67     0.76
