targets/wolf_faust/transmissive/V100201.it8
IT8.7/1
ORIGINATOR "Wolf Faust"
DESCRIPTOR "Velvia (RVP 50), Type 3, L* a* b* (light D50, viewing angle 2)"
MANUFACTURER "Wolf Faust - http://www.coloraid.de"
CREATED "January 20, 2010"
PROD_DATE "2008:02"
DIFFUSE_GEOMETRY "opal"
SERIAL "V100201 Batch Average Data"
MATERIAL "Fujichrome Velvia (RVP 50)"
KEYWORD "MEAN_DE" # Mean Delta E of samples compared to batch average
NUMBER_OF_FIELDS 18
BEGIN_DATA_FORMAT
SAMPLE_ID  XYZ_X   XYZ_Y   XYZ_Z          LAB_L   LAB_A   LAB_B          LAB_C   LAB_H          D_RED  D_GREEN  D_BLUE  D_VIS          STDEV_X STDEV_Y STDEV_Z        MEAN_DE  STDEV_DE
END_DATA_FORMAT
NUMBER_OF_SETS 288
BEGIN_DATA
A1          2.12    1.83    1.31          14.59    8.19    2.50           8.57   17.00           1.53    1.89    1.91    1.71            0.04    0.04    0.03           0.25     0.31
A2          2.57    1.79    1.04          14.33   18.65    5.70          19.50   17.00           1.34    2.08    1.99    1.68            0.05    0.04    0.02           0.32     0.38 
A3          3.17    1.83    0.92          14.56   28.41    8.02          29.52   15.77           1.17    2.32    2.02    1.63            0.05    0.03    0.01           0.27     0.32
A4          4.21    1.80    0.62          14.40   45.09   13.11          46.96   16.21           0.94    3.48    2.09    1.57            0.05    0.02    0.01           0.30     0.35 
A5          9.38    8.27    5.67          34.54   12.14    5.24          13.23   23.34           0.89    1.20    1.23    1.06            0.19    0.19    0.11           0.54     0.62
A6         11.29    8.31    4.96          34.61   26.49    8.91          27.95   18.59           0.72    1.34    1.28    1.02            0.17    0.14    0.09           0.43     0.48 
A7         13.53    8.25    4.16          34.50   42.16   13.18          44.17   17.36           0.56    1.55    1.34    0.99            0.19    0.12    0.07           0.37     0.42
A8         17.23    8.60    3.43          35.21   60.90   19.02          63.80   17.34           0.38    1.96    1.39    0.93            0.11    0.07    0.07           0.26     0.31 
A9         28.25   28.01   20.67          59.90    4.96    4.79           6.91   44.14           0.49    0.59    0.64    0.54            0.40    0.44    0.27           0.66     0.79
A10        30.01   27.52   19.41          59.46   13.59    6.65          15.13   26.08           0.41    0.64    0.66    0.54            0.35    0.34    0.28           0.61     0.70
A11        32.43   27.74   18.27          59.66   21.62    9.45          23.59   23.62           0.33    0.68    0.69    0.52            0.36    0.35    0.26           0.50     0.58
A12        38.45   28.07   16.50          59.95   40.68   13.99          43.02   18.98           0.18    0.79    0.72    0.49            0.30    0.32    0.28           0.48     0.53 
A13        72.23   76.24   64.11          89.97   -2.68   -1.15           2.92  203.23           0.13    0.11    0.12    0.12            0.23    0.19    0.15           0.16     0.19
A14        77.47   79.01   64.20          91.24    2.60    0.95           2.77   20.07           0.08    0.11    0.12    0.10            0.14    0.15    0.11           0.11     0.12 
A15        77.55   79.76   61.33          91.58    1.29    4.32           4.51   73.36           0.07    0.10    0.14    0.10            0.19    0.21    0.18           0.17     0.19
A16        75.48   78.52   63.58          91.02   -0.46    1.16           1.26  111.65           0.10    0.10    0.12    0.11            0.12    0.14    0.13           0.15     0.17
A17        76.87   78.30   62.52          90.92    2.77    2.01           3.43   35.97           0.08    0.11    0.13    0.10            0.18    0.20    0.16           0.12     0.13
A18        72.67   76.62   58.88          90.15   -2.51    4.29           4.97  120.27           0.12    0.11    0.16    0.12            0.17    0.15    0.18           0.22     0.25 
A19        74.59   76.72   63.70          90.19    1.26   -0.37           1.31  343.38           0.10    0.12    0.12    0.11            0.20    0.19    0.15           0.13     0.15
A20         6.14    2.91    1.71          19.67   45.87    6.54          46.34    8.11           0.82    2.61    1.67    1.39            0.08    0.04    0.04           0.32     0.37 
A21        25.30   17.82   13.42          49.27   38.77    3.38          38.91    4.98           0.36    1.03    0.80    0.69            0.31    0.27    0.22           0.52     0.58
A22        52.86   48.39   30.02          75.07   16.68   14.25          21.94   40.50           0.15    0.39    0.47    0.29            0.45    0.58    0.44           0.60     0.71
B1          3.11    2.84    1.67          19.41    6.56    6.57           9.29   45.08           1.38    1.66    1.82    1.52            0.06    0.05    0.02           0.33     0.39
B2          3.76    2.94    1.12          19.81   15.14   14.06          20.66   42.90           1.21    1.75    2.02    1.48            0.08    0.06    0.01           0.38     0.44
B3          4.29    2.85    0.61          19.45   24.32   21.98          32.78   42.11           1.09    1.92    2.32    1.46            0.09    0.06    0.01           0.43     0.52
B4          5.32    2.86    0.07          19.46   37.46   32.32          49.48   40.79           0.91    2.30    3.63    1.41            0.12    0.06    0.00           0.57     0.65
B5         12.24   11.15    5.94          39.84   10.58   13.10          16.84   51.07           0.78    1.05    1.23    0.93            0.20    0.19    0.09           0.53     0.63
B6         14.04   11.02    4.07          39.61   23.37   22.56          32.48   43.99           0.64    1.16    1.42    0.90            0.24    0.21    0.08           0.52     0.59
B7         16.33   11.04    2.52          39.65   36.74   33.43          49.67   42.30           0.51    1.30    1.65    0.87            0.22    0.17    0.05           0.43     0.48
B8         20.82   11.29    0.98          40.07   58.26   51.02          77.44   41.21           0.32    1.64    2.11    0.82            0.10    0.08    0.03           0.21     0.26
B9         33.48   33.75   23.67          64.76    3.32    7.35           8.08   65.66           0.42    0.50    0.58    0.46            0.45    0.49    0.31           0.67     0.78
B10        35.03   33.57   20.93          64.62    9.28   12.40          15.49   53.18           0.36    0.53    0.64    0.46            0.47    0.46    0.34           0.55     0.61
B11        36.98   33.77   18.71          64.78   15.09   17.32          22.98   48.93           0.30    0.55    0.70    0.45            0.45    0.45    0.30           0.56     0.65
B12        42.85   33.93   13.16          64.91   32.83   31.03          45.17   43.38           0.15    0.65    0.87    0.42            0.52    0.53    0.28           0.66     0.75
B13        64.40   70.52   61.79          87.25   -7.99   -3.59           8.76  204.22           0.22    0.12    0.13    0.16            0.37    0.32    0.20           0.23     0.27
B14        68.90   65.69   58.70          84.84   12.36   -4.67          13.22  339.31           0.09    0.22    0.15    0.17            0.26    0.35    0.18           0.27     0.35
B15        72.21   74.93   44.42          89.36   -0.08   18.97          18.97   90.25           0.09    0.13    0.30    0.12            0.37    0.38    0.33           0.31     0.35
B16        60.05   62.68   49.94          83.27   -0.92    1.98           2.20  114.65           0.20    0.20    0.23    0.20            0.47    0.45    0.33           0.38     0.42
B17        66.33   63.79   47.18          83.86   10.97    6.17          12.59   29.39           0.10    0.24    0.26    0.18            0.30    0.41    0.30           0.36     0.45
B18        62.21   68.98   48.42          86.49   -9.74    9.28          13.45  136.39           0.21    0.13    0.26    0.17            0.29    0.22    0.29           0.27     0.33
B19        62.07   64.17   59.65          84.05    0.46   -6.99           7.01  273.79           0.20    0.19    0.14    0.20            0.39    0.39    0.20           0.33     0.37
B20         4.67    2.84    0.94          19.39   29.77   16.09          33.84   28.39           1.02    2.04    2.05    1.45            0.07    0.05    0.02           0.35     0.38
B21        16.47   11.06    3.86          39.68   37.40   23.94          44.41   32.62           0.50    1.31    1.42    0.87            0.23    0.18    0.06           0.43     0.49
B22        32.17   27.66   15.63          59.58   21.00   15.45          26.07   36.34           0.33    0.68    0.77    0.52            0.35    0.37    0.18           0.54     0.61
C1          6.19    6.22    3.25          29.96    2.07   11.21          11.40   79.55           1.13    1.26    1.53    1.19            0.11    0.12    0.05           0.43     0.50
C2          6.57    6.17    2.03          29.82    6.74   20.85          21.91   72.08           1.05    1.30    1.79    1.18            0.12    0.11    0.03           0.51     0.60
C3          7.06    6.22    1.12          29.95   11.12   31.47          33.38   70.54           0.99    1.33    2.15    1.16            0.15    0.13    0.02           0.58     0.67
C4          7.69    6.09    0.22          29.64   18.48   46.90          50.41   68.49           0.92    1.42    3.41    1.15            0.13    0.10    0.01           0.61     0.72
C5         23.06   22.64   10.85          54.70    5.63   20.20          20.97   74.41           0.54    0.69    0.97    0.63            0.34    0.37    0.16           0.61     0.72
C6         24.76   22.53    6.15          54.58   13.56   37.54          39.92   70.15           0.46    0.74    1.28    0.61            0.33    0.33    0.12           0.57     0.65
C7         26.85   22.83    3.07          54.90   20.90   55.50          59.30   69.37           0.39    0.78    1.70    0.59            0.30    0.29    0.05           0.60     0.68
C8         30.02   22.42    0.48          54.47   35.14   84.82          91.81   67.50           0.30    0.90    3.30    0.57            0.25    0.23    0.01           0.47     0.55
C9         39.22   40.24   26.21          69.64    1.32   11.21          11.29   83.29           0.36    0.41    0.54    0.39            0.46    0.51    0.38           0.67     0.76
C10        40.79   40.68   22.07          69.95    4.87   19.33          19.94   75.87           0.31    0.42    0.63    0.38            0.48    0.52    0.34           0.61     0.70
C11        41.98   40.68   18.58          69.95    8.48   26.52          27.84   72.26           0.27    0.44    0.72    0.37            0.49    0.54    0.33           0.55     0.65
C12        47.81   40.70    7.17          69.96   25.20   59.62          64.73   67.09           0.13    0.52    1.25    0.34            0.31    0.41    0.08           0.46     0.56
C13        56.80   65.10   61.25          84.53  -14.19   -7.74          16.17  208.62           0.32    0.14    0.14    0.20            0.39    0.33    0.20           0.27     0.32
C14        60.21   52.57   53.87          77.62   23.82  -12.08          26.71  333.10           0.11    0.37    0.18    0.26            0.32    0.43    0.26           0.39     0.47
C15        69.23   72.13   29.81          88.03   -0.70   36.93          36.93   91.09           0.09    0.15    0.51    0.13            0.17    0.19    0.24           0.27     0.31
C16        45.54   47.69   37.35          74.63   -1.27    2.70           3.00  115.39           0.32    0.32    0.37    0.32            0.52    0.52    0.35           0.54     0.62
C17        55.71   49.50   33.04          75.76   20.92   10.80          23.55   27.30           0.12    0.40    0.42    0.28            0.31    0.41    0.38           0.54     0.64
C18        52.25   61.47   35.71          82.63  -17.51   18.78          25.68  132.99           0.32    0.16    0.42    0.22            0.38    0.31    0.35           0.40     0.45
C19        49.48   50.50   55.67          76.37    2.13  -16.14          16.29  277.50           0.32    0.30    0.17    0.30            0.50    0.56    0.27           0.56     0.63
C20        11.90    8.87    1.18          35.73   25.96   40.59          48.18   57.40           0.68    1.30    2.12    0.98            0.19    0.16    0.02           0.52     0.60
C21        21.21   20.06   10.35          51.90    9.14   16.95          19.26   61.67           0.56    0.77    0.98    0.68            0.38    0.37    0.17           0.63     0.74
C22        26.48   22.50    9.98          54.55   20.89   22.75          30.89   47.44           0.40    0.78    1.00    0.61            0.42    0.42    0.15           0.64     0.72
D1          4.02    4.38    2.44          24.90   -2.91    8.71           9.19  108.47           1.36    1.37    1.67    1.36            0.07    0.08    0.03           0.37     0.44
D2          3.99    4.37    1.52          24.86   -3.26   17.69          17.99  100.45           1.35    1.37    1.95    1.35            0.08    0.09    0.02           0.49     0.57
D3          4.09    4.49    0.89          25.24   -3.45   26.97          27.19   97.29           1.35    1.35    2.31    1.34            0.08    0.08    0.01           0.48     0.54
D4          3.94    4.34    0.26          24.76   -3.51   37.85          38.01   95.30           1.40    1.36    3.34    1.34            0.09    0.10    0.01           0.55     0.69
D5         17.18   18.45    8.90          50.04   -3.29   18.67          18.96   99.99           0.72    0.74    1.07    0.73            0.28    0.31    0.14           0.58     0.69
D6         16.97   18.14    4.85          49.66   -2.85   35.44          35.56   94.60           0.71    0.75    1.43    0.73            0.22    0.26    0.09           0.51     0.59
D7         17.02   18.38    2.49          49.95   -3.81   51.49          51.63   94.23           0.72    0.74    1.88    0.72            0.25    0.30    0.04           0.63     0.74
D8         16.56   18.00    0.65          49.49   -4.34   72.98          73.11   93.40           0.78    0.74    3.17    0.72            0.23    0.26    0.01           0.52     0.64
D9         45.59   47.98   23.17          74.81   -1.89   25.61          25.69   94.23           0.29    0.32    0.62    0.31            0.44    0.52    0.35           0.59     0.66
D10        45.36   47.83   13.07          74.72   -2.16   48.20          48.24   92.56           0.27    0.33    0.94    0.31            0.37    0.44    0.19           0.50     0.56
D11        44.76   47.57    6.69          74.55   -3.18   69.54          69.62   92.62           0.28    0.33    1.37    0.30            0.39    0.38    0.08           0.38     0.44
D12        44.54   47.83    3.32          74.72   -4.51   87.89          88.01   92.94           0.30    0.32    1.94    0.30            0.43    0.38    0.05           0.41     0.47
D13        50.71   60.49   60.52          82.10  -19.25  -11.22          22.28  210.23           0.42    0.15    0.14    0.24            0.40    0.33    0.17           0.32     0.40
D14        53.25   42.86   49.67          71.46   33.24  -18.07          37.83  331.47           0.14    0.51    0.20    0.34            0.36    0.45    0.29           0.44     0.56
D15        67.41   70.02   21.54          87.01   -0.23   49.78          49.79   90.26           0.09    0.16    0.69    0.14            0.21    0.24    0.23           0.30     0.35
D16        33.44   35.31   27.42          65.99   -2.10    2.83           3.55  126.86           0.46    0.45    0.51    0.45            0.57    0.60    0.42           0.69     0.81
D17        47.11   38.61   22.74          68.47   29.72   15.50          33.52   27.54           0.14    0.56    0.59    0.37            0.28    0.35    0.36           0.54     0.63
D18        44.29   54.94   26.87          79.01  -23.74   26.22          35.37  132.16           0.41    0.19    0.57    0.27            0.26    0.30    0.36           0.54     0.60
D19        38.36   38.61   51.51          68.47    3.63  -25.29          25.55  278.16           0.45    0.42    0.20    0.43            0.49    0.55    0.26           0.66     0.75
D20         2.88    2.93    1.08          19.75    1.00   14.52          14.56   86.06           1.45    1.58    2.09    1.52            0.05    0.06    0.03           0.37     0.45
D21        29.77   27.60    1.50          59.52   12.39   77.57          78.56   80.93           0.40    0.64    2.37    0.52            0.45    0.43    0.03           0.64     0.74
D22        40.35   43.96   54.33          72.20   -6.18  -21.92          22.78  254.24           0.48    0.33    0.18    0.38            0.55    0.60    0.27           0.57     0.67
E1          5.47    6.41    3.43          30.41   -7.98   10.72          13.37  126.65           1.27    1.17    1.52    1.20            0.11    0.15    0.06           0.50     0.63
E2          4.94    6.37    2.26          30.32  -13.89   19.58          24.01  125.34           1.37    1.14    1.79    1.21            0.10    0.14    0.03           0.48     0.61
E3          4.59    6.36    1.36          30.29  -18.38   28.89          34.24  122.47           1.45    1.11    2.14    1.21            0.10    0.16    0.03           0.57     0.71
E4          3.80    6.04    0.42          29.50  -25.96   42.99          50.22  121.13           1.73    1.07    3.25    1.24            0.09    0.17    0.01           0.67     0.88
E5         24.08   27.70   14.29          59.61  -11.04   18.88          21.88  120.33           0.63    0.53    0.85    0.56            0.38    0.45    0.18           0.56     0.65
E6         22.14   27.66    8.99          59.58  -19.63   34.79          39.95  119.43           0.70    0.50    1.13    0.57            0.29    0.38    0.13           0.55     0.63
E7         20.05   27.74    5.07          59.65  -29.86   51.54          59.57  120.09           0.82    0.46    1.52    0.57            0.24    0.34    0.07           0.56     0.63
E8         18.45   27.65    2.95          59.57  -37.64   64.40          74.59  120.30           0.94    0.43    1.98    0.58            0.19    0.23    0.04           0.35     0.40
E9         43.54   47.82   30.38          74.71   -7.38   13.06          15.00  119.47           0.35    0.30    0.48    0.32            0.38    0.41    0.29           0.58     0.64
E10        41.32   47.58   23.47          74.56  -13.37   24.62          28.02  118.51           0.39    0.29    0.62    0.33            0.50    0.56    0.32           0.52     0.57
E11        39.31   47.52   18.49          74.52  -19.43   34.59          39.68  119.32           0.43    0.27    0.76    0.33            0.47    0.53    0.28           0.46     0.52
E12        37.28   47.79   12.96          74.69  -26.66   48.47          55.32  118.81           0.49    0.24    0.98    0.33            0.40    0.38    0.20           0.45     0.51
E13        45.74   56.51   59.71          79.90  -23.41  -14.20          27.38  211.25           0.51    0.17    0.15    0.28            0.22    0.21    0.30           0.32     0.39
E14        46.85   34.65   45.28          65.47   41.92  -23.27          47.94  330.97           0.16    0.66    0.23    0.42            0.26    0.32    0.25           0.37     0.46
E15        66.11   68.22   16.24          86.12    0.73   59.73          59.74   89.30           0.09    0.18    0.85    0.15            0.18    0.20    0.14           0.28     0.31
E16        23.94   25.24   19.77          57.31   -1.73    2.18           2.80  127.72           0.60    0.61    0.66    0.60            0.32    0.41    0.25           0.61     0.72
E17        39.96   30.07   15.44          61.71   37.79   19.61          42.58   27.42           0.17    0.74    0.77    0.46            0.28    0.33    0.25           0.50     0.62
E18        38.34   49.75   20.35          75.91  -28.52   33.05          43.65  130.79           0.50    0.22    0.72    0.32            0.33    0.31    0.26           0.42     0.47
E19        29.45   28.80   47.22          60.60    6.53  -33.97          34.59  280.87           0.59    0.56    0.23    0.56            0.37    0.43    0.27           0.62     0.76
E20         7.08    8.55    1.43          35.11  -10.93   36.42          38.03  106.70           1.17    1.03    2.14    1.07            0.13    0.18    0.03           0.50     0.66
E21        24.06   28.81    6.14          60.61  -15.45   48.00          50.43  107.84           0.63    0.50    1.37    0.54            0.34    0.49    0.09           0.64     0.78
E22         8.54   18.31   12.75          49.87  -61.11    6.25          61.42  174.16           1.87    0.52    0.94    0.82            0.10    0.20    0.16           0.31     0.35
F1          3.49    4.47    3.09          25.16  -12.02    4.08          12.69  161.27           1.55    1.30    1.56    1.38            0.05    0.08    0.04           0.39     0.48
F2          2.92    4.54    2.66          25.37  -22.43    7.65          23.70  161.17           1.77    1.23    1.67    1.39            0.06    0.10    0.03           0.45     0.59
F3          2.45    4.52    2.26          25.31  -31.00   10.94          32.88  160.56           2.00    1.18    1.79    1.40            0.04    0.09    0.03           0.51     0.65
F4          1.53    4.40    1.46          24.95  -50.97   18.48          54.22  160.07           2.86    1.08    2.17    1.45            0.02    0.08    0.03           0.45     0.58
F5         11.44   14.74    9.68          45.28  -18.43    7.75          19.99  157.19           1.05    0.76    1.03    0.86            0.19    0.28    0.15           0.53     0.65
F6          9.04   14.35    8.04          44.73  -34.64   12.68          36.88  159.90           1.33    0.71    1.15    0.89            0.16    0.29    0.14           0.58     0.77
F7          7.32   14.40    6.73          44.80  -50.37   18.13          53.53  160.21           1.67    0.65    1.28    0.90            0.11    0.24    0.12           0.48     0.60
F8          5.75   14.49    5.54          44.92  -67.21   23.76          71.28  160.53           2.18    0.58    1.45    0.92            0.05    0.11    0.08           0.25     0.28
F9         28.79   33.50   23.79          64.56  -13.06    6.79          14.73  152.50           0.59    0.44    0.59    0.49            0.36    0.46    0.37           0.67     0.76
F10        25.67   33.31   21.58          64.41  -24.97   10.75          27.19  156.72           0.71    0.40    0.65    0.50            0.29    0.40    0.32           0.60     0.69
F11        22.81   33.11   19.56          64.25  -36.67   14.59          39.47  158.31           0.86    0.36    0.71    0.52            0.26    0.37    0.20           0.45     0.51
F12        20.07   33.46   17.58          64.53  -50.81   19.40          54.38  159.10           1.06    0.32    0.79    0.52            0.24    0.30    0.31           0.41     0.46
F13        41.90   53.36   59.16          78.09  -26.83  -16.78          31.64  212.02           0.59    0.18    0.15    0.31            0.28    0.26    0.12           0.25     0.30
F14        41.68   28.50   41.43          60.34   49.00  -27.34          56.11  330.84           0.19    0.81    0.27    0.50            0.24    0.26    0.24           0.33     0.40
F15        64.96   66.43   12.48          85.22    2.04   67.96          67.99   88.28           0.09    0.20    1.01    0.16            0.15    0.21    0.12           0.25     0.29
F16        17.10   18.11   13.97          49.63   -1.95    2.51           3.19  128.10           0.75    0.75    0.83    0.74            0.24    0.27    0.18           0.54     0.65
F17        34.25   23.75   10.26          55.84   44.45   24.04          50.54   28.41           0.20    0.92    0.95    0.55            0.22    0.24    0.17           0.46     0.52
