targets/wolf_faust/transmissive/V100710.it8
IT8.7/1
ORIGINATOR "Wolf Faust"
DESCRIPTOR "Velvia (RVP 50), Type 3, L* a* b* (light D50, viewing angle 2)"
MANUFACTURER "Wolf Faust - http://www.coloraid.de"
CREATED "September 28, 2010"
PROD_DATE "2009:01"
DIFFUSE_GEOMETRY "opal"
SERIAL "V100710 Batch Average Data"
MATERIAL "Fujichrome Velvia (RVP 50)"
KEYWORD "MEAN_DE" # Mean Delta E of samples compared to batch average
NUMBER_OF_FIELDS 18
BEGIN_DATA_FORMAT
SAMPLE_ID  XYZ_X   XYZ_Y   XYZ_Z          LAB_L   LAB_A   LAB_B          LAB_C   LAB_H          D_RED  D_GREEN  D_BLUE  D_VIS          STDEV_X STDEV_Y STDEV_Z        MEAN_DE  STDEV_DE
END_DATA_FORMAT
NUMBER_OF_SETS 288
BEGIN_DATA
A1          2.14    1.87    1.28          14.76    7.84    3.12           8.44   21.72           1.52    1.88    1.92    1.70            0.09    0.08    0.05           0.52     0.58
A2          2.61    1.80    1.10          14.42   19.00    5.04          19.66   14.86           1.33    2.08    1.96    1.67            0.11    0.08    0.04           0.51     0.61 
A3          3.24    1.85    0.90          14.66   29.20    8.55          30.42   16.31           1.16    2.34    2.03    1.63            0.12    0.07    0.03           0.48     0.55
A4          4.24    1.81    0.65          14.43   45.37   12.68          47.11   15.61           0.94    3.65    2.07    1.57            0.10    0.04    0.02           0.43     0.50 
A5          9.46    8.26    5.79          34.52   12.81    4.61          13.61   19.79           0.88    1.21    1.22    1.06            0.34    0.32    0.19           0.68     0.79
A6         11.50    8.34    4.99          34.68   27.63    8.88          29.02   17.81           0.71    1.35    1.28    1.02            0.40    0.31    0.16           0.69     0.81 
A7         13.36    8.14    4.23          34.26   42.05   12.40          43.84   16.42           0.57    1.56    1.33    0.99            0.38    0.25    0.13           0.56     0.66
A8         17.29    8.60    3.48          35.19   61.29   18.65          64.06   16.93           0.38    1.97    1.38    0.93            0.21    0.14    0.10           0.38     0.43 
A9         28.01   27.45   21.03          59.38    6.19    3.19           6.98   27.24           0.49    0.60    0.63    0.55            0.79    0.83    0.62           0.79     0.92
A10        29.92   27.32   19.77          59.26   14.07    5.55          15.13   21.53           0.41    0.65    0.66    0.54            0.76    0.77    0.55           0.76     0.86
A11        31.92   27.39   18.72          59.33   21.15    7.92          22.59   20.53           0.34    0.68    0.68    0.53            0.77    0.73    0.52           0.73     0.81
A12        38.80   28.28   16.89          60.14   40.93   13.41          43.07   18.14           0.18    0.79    0.71    0.49            0.49    0.54    0.46           0.70     0.81 
A13        72.23   76.62   64.75          90.15   -3.43   -1.46           3.73  203.00           0.14    0.10    0.11    0.12            0.36    0.32    0.19           0.21     0.26
A14        78.21   79.68   64.77          91.54    2.78    0.93           2.93   18.60           0.07    0.10    0.11    0.10            0.27    0.34    0.24           0.22     0.24 
A15        78.44   80.72   61.64          92.01    1.22    4.75           4.90   75.60           0.07    0.09    0.14    0.09            0.22    0.24    0.20           0.16     0.19
A16        75.51   78.90   63.31          91.19   -1.15    1.72           2.07  123.93           0.10    0.10    0.12    0.10            0.27    0.25    0.19           0.18     0.20
A17        77.38   78.69   62.79          91.10    3.02    2.06           3.66   34.36           0.07    0.11    0.13    0.10            0.28    0.37    0.25           0.25     0.28
A18        72.66   76.98   58.75          90.31   -3.24    4.71           5.72  124.53           0.12    0.10    0.16    0.12            0.36    0.33    0.26           0.19     0.23 
A19        73.81   76.03   63.95          89.87    1.03   -1.16           1.55  311.72           0.11    0.12    0.12    0.12            0.41    0.45    0.22           0.27     0.32
A20         6.07    2.87    1.74          19.51   45.85    6.01          46.24    7.47           0.83    2.63    1.66    1.40            0.15    0.07    0.05           0.43     0.51 
A21        25.80   18.31   13.76          49.87   38.28    3.48          38.44    5.20           0.35    1.01    0.79    0.68            0.56    0.45    0.38           0.58     0.65
A22        52.86   48.45   30.71          75.11   16.50   13.22          21.14   38.72           0.16    0.39    0.46    0.29            0.70    0.80    0.63           0.64     0.71
B1          3.16    2.82    1.60          19.30    7.77    7.09          10.52   42.38           1.36    1.68    1.84    1.52            0.12    0.11    0.05           0.54     0.61
B2          3.80    2.92    1.00          19.70   16.20   15.60          22.49   43.92           1.20    1.77    2.08    1.48            0.14    0.11    0.04           0.57     0.63
B3          4.32    2.86    0.60          19.45   24.81   22.18          33.28   41.80           1.08    1.93    2.33    1.46            0.13    0.10    0.03           0.50     0.57
B4          5.18    2.78    0.06          19.15   37.16   31.91          48.99   40.65           0.93    2.31    3.81    1.42            0.18    0.10    0.00           0.79     0.89
B5         12.15   11.03    6.19          39.63   10.85   11.59          15.88   46.89           0.78    1.06    1.21    0.93            0.37    0.37    0.18           0.69     0.79
B6         14.08   10.94    4.00          39.47   24.20   22.70          33.18   43.16           0.63    1.17    1.43    0.90            0.41    0.35    0.10           0.72     0.84
B7         16.33   10.97    2.49          39.52   37.28   33.44          50.08   41.89           0.50    1.31    1.66    0.88            0.45    0.33    0.07           0.67     0.81
B8         20.83   11.25    0.95          40.00   58.61   51.39          77.95   41.25           0.31    1.65    2.13    0.82            0.21    0.16    0.03           0.36     0.41
B9         32.95   33.18   23.99          64.30    3.43    5.97           6.89   60.11           0.43    0.51    0.57    0.47            0.85    0.91    0.63           0.80     0.92
B10        34.87   33.23   21.12          64.34    9.92   11.54          15.22   49.29           0.36    0.54    0.64    0.46            0.80    0.83    0.58           0.83     0.92
B11        36.35   33.10   19.04          64.24   15.34   15.68          21.94   45.63           0.31    0.56    0.69    0.45            0.74    0.78    0.47           0.78     0.86
B12        43.35   34.29   13.56          65.19   33.07   30.44          44.95   42.63           0.15    0.64    0.85    0.41            0.57    0.70    0.42           0.84     0.97
B13        64.08   70.51   62.08          87.24   -8.68   -3.89           9.51  204.13           0.23    0.12    0.13    0.16            0.42    0.37    0.12           0.31     0.36
B14        68.36   64.72   58.54          84.34   13.33   -5.37          14.37  338.09           0.09    0.23    0.15    0.18            0.49    0.71    0.24           0.57     0.75
B15        72.26   75.05   44.00          89.42   -0.23   19.57          19.57   90.68           0.09    0.13    0.31    0.12            0.18    0.22    0.28           0.28     0.31
B16        59.02   61.69   49.25          82.75   -1.11    1.87           2.18  120.85           0.21    0.21    0.24    0.21            0.58    0.63    0.43           0.35     0.41
B17        65.83   62.98   46.37          83.43   11.67    6.40          13.31   28.73           0.10    0.24    0.27    0.19            0.44    0.57    0.46           0.40     0.48
B18        61.65   68.79   47.74          86.40  -10.63    9.91          14.54  137.02           0.22    0.13    0.27    0.17            0.34    0.31    0.34           0.28     0.32
B19        61.07   63.10   59.56          83.50    0.53   -7.86           7.88  273.83           0.21    0.20    0.14    0.20            0.47    0.58    0.20           0.43     0.53
B20         4.59    2.78    0.94          19.15   29.76   15.66          33.63   27.75           1.02    2.06    2.05    1.46            0.13    0.08    0.03           0.43     0.51
B21        16.11   10.82    3.93          39.27   37.16   22.77          43.58   31.50           0.51    1.31    1.40    0.88            0.35    0.26    0.09           0.55     0.66
B22        31.97   27.27   15.86          59.22   21.85   14.28          26.10   33.17           0.33    0.69    0.76    0.53            0.61    0.59    0.38           0.67     0.77
C1          6.28    6.18    3.31          29.85    3.49   10.63          11.20   71.78           1.11    1.27    1.52    1.19            0.21    0.21    0.07           0.72     0.83
C2          6.54    6.09    2.08          29.62    7.22   20.02          21.29   70.15           1.05    1.31    1.78    1.19            0.21    0.20    0.06           0.65     0.75
C3          6.95    6.11    1.14          29.69   11.15   30.77          32.73   70.07           0.99    1.34    2.14    1.17            0.20    0.20    0.05           0.62     0.70
C4          7.68    6.04    0.21          29.50   19.00   46.86          50.56   67.93           0.92    1.43    3.51    1.15            0.25    0.22    0.01           0.86     1.00
C5         23.13   22.42   11.07          54.46    6.92   19.13          20.35   70.09           0.53    0.71    0.96    0.63            0.62    0.65    0.31           0.78     0.90
C6         24.93   22.65    6.20          54.71   13.73   37.53          39.97   69.90           0.45    0.74    1.28    0.61            0.65    0.66    0.17           0.81     0.94
C7         26.65   22.46    3.09          54.51   21.75   54.65          58.82   68.29           0.38    0.79    1.69    0.60            0.66    0.63    0.08           0.84     0.99
C8         30.14   22.50    0.47          54.55   35.23   85.09          92.10   67.51           0.30    0.90    3.41    0.57            0.61    0.54    0.01           0.80     0.95
C9         39.13   39.90   26.66          69.39    2.10   10.00          10.23   78.09           0.35    0.42    0.53    0.39            0.82    0.92    0.61           0.76     0.85
C10        40.15   39.79   22.64          69.32    5.60   17.15          18.04   71.92           0.31    0.44    0.61    0.39            0.84    0.92    0.59           0.81     0.90
C11        41.48   40.08   18.73          69.52    8.81   25.46          26.94   70.91           0.27    0.45    0.71    0.38            0.83    0.90    0.50           0.77     0.86
C12        47.88   40.60    7.03          69.90   25.70   60.11          65.37   66.85           0.13    0.52    1.26    0.34            0.53    0.73    0.20           0.85     0.99
C13        56.22   64.89   61.48          84.42  -15.16   -8.16          17.22  208.30           0.33    0.14    0.14    0.21            0.46    0.38    0.15           0.37     0.45
C14        60.09   52.23   53.97          77.42   24.41  -12.54          27.45  332.82           0.11    0.37    0.18    0.26            0.47    0.67    0.30           0.70     0.85
C15        69.54   72.50   30.11          88.21   -0.80   36.76          36.77   91.25           0.09    0.15    0.51    0.13            0.34    0.39    0.33           0.36     0.40
C16        44.75   47.07   37.36          74.23   -1.82    1.99           2.71  132.64           0.33    0.33    0.37    0.33            0.68    0.75    0.59           0.54     0.63
C17        55.52   49.12   32.81          75.53   21.45   10.75          23.99   26.62           0.12    0.40    0.42    0.28            0.43    0.59    0.53           0.62     0.73
C18        51.75   61.34   35.70          82.56  -18.51   18.67          26.30  134.76           0.33    0.16    0.42    0.22            0.38    0.30    0.40           0.43     0.51
C19        48.27   49.32   55.51          75.65    1.97  -17.23          17.34  276.50           0.33    0.31    0.17    0.32            0.60    0.74    0.23           0.68     0.84
C20        11.68    8.60    1.08          35.19   26.74   41.12          49.05   56.97           0.69    1.33    2.17    0.99            0.24    0.19    0.03           0.44     0.56
C21        20.78   19.45   10.43          51.20   10.08   15.49          18.49   56.95           0.56    0.79    0.97    0.69            0.46    0.46    0.23           0.65     0.75
C22        26.17   22.22   10.12          54.26   20.86   21.79          30.17   46.24           0.41    0.79    0.99    0.61            0.46    0.42    0.22           0.56     0.64
D1          4.01    4.31    2.37          24.65   -2.05    8.88           9.12  102.95           1.35    1.39    1.69    1.36            0.15    0.16    0.07           0.65     0.73
D2          3.97    4.35    1.49          24.78   -3.18   17.88          18.16  100.06           1.35    1.37    1.97    1.36            0.15    0.16    0.05           0.64     0.72
D3          3.99    4.38    0.82          24.88   -3.21   27.51          27.70   96.66           1.35    1.36    2.36    1.35            0.14    0.16    0.04           0.63     0.72
D4          4.06    4.44    0.25          25.07   -3.13   38.48          38.61   94.65           1.38    1.35    3.43    1.33            0.16    0.18    0.01           0.82     1.04
D5         17.17   18.18    8.85          49.70   -1.92   18.28          18.38   95.98           0.71    0.76    1.07    0.73            0.52    0.59    0.25           0.85     0.98
D6         17.17   18.21    4.90          49.74   -2.10   35.33          35.39   93.40           0.70    0.75    1.42    0.73            0.52    0.59    0.13           0.87     1.00
D7         16.75   17.95    2.41          49.43   -3.05   51.23          51.32   93.40           0.72    0.75    1.90    0.73            0.49    0.53    0.06           0.81     0.95
D8         16.88   18.19    0.64          49.73   -3.60   73.60          73.68   92.80           0.76    0.74    3.25    0.72            0.43    0.45    0.01           0.77     0.99
D9         45.12   47.62   23.49          74.58   -2.28   24.62          24.73   95.28           0.29    0.33    0.61    0.31            0.81    0.89    0.55           0.75     0.82
D10        44.79   47.39   13.50          74.44   -2.60   46.54          46.61   93.20           0.28    0.33    0.92    0.31            0.74    0.83    0.31           0.70     0.77
D11        44.68   47.46    6.83          74.48   -3.09   68.83          68.90   92.57           0.28    0.33    1.36    0.30            0.70    0.73    0.14           0.57     0.68
D12        44.76   48.18    3.31          74.94   -4.84   88.34          88.47   93.13           0.30    0.31    1.95    0.30            0.53    0.43    0.05           0.46     0.55
D13        50.83   60.86   60.94          82.30  -19.80  -11.29          22.79  209.68           0.42    0.15    0.14    0.24            0.48    0.42    0.22           0.42     0.51
D14        52.73   41.98   49.49          70.85   34.51  -18.91          39.35  331.28           0.14    0.52    0.20    0.35            0.47    0.64    0.31           0.80     0.95
D15        67.86   70.54   22.10          87.26   -0.36   49.12          49.12   90.42           0.09    0.16    0.68    0.14            0.25    0.28    0.20           0.27     0.32
D16        33.30   34.89   27.97          65.66   -1.17    1.35           1.80  130.74           0.46    0.46    0.50    0.46            0.63    0.70    0.52           0.58     0.67
D17        46.95   38.17   23.13          68.15   30.65   14.19          33.78   24.84           0.14    0.57    0.58    0.38            0.42    0.52    0.49           0.63     0.73
D18        44.62   55.54   27.52          79.35  -24.26   25.72          35.36  133.34           0.42    0.19    0.55    0.27            0.42    0.37    0.45           0.53     0.64
D19        37.76   37.64   51.35          67.75    4.78  -26.34          26.78  280.26           0.46    0.44    0.20    0.44            0.57    0.68    0.28           0.77     0.90
D20         2.86    2.93    1.05          19.74    0.73   14.87          14.88   87.19           1.46    1.58    2.11    1.52            0.07    0.07    0.03           0.37     0.44
D21        29.65   27.25    1.40          59.20   13.34   78.22          79.35   80.32           0.39    0.65    2.43    0.52            0.50    0.50    0.03           0.61     0.76
D22        39.55   43.12   54.36          71.64   -6.24  -22.92          23.76  254.76           0.50    0.34    0.18    0.39            0.59    0.69    0.28           0.73     0.86
E1          5.41    6.28    3.41          30.10   -7.33   10.37          12.71  125.26           1.27    1.19    1.53    1.21            0.18    0.21    0.07           0.69     0.79
E2          5.02    6.28    2.20          30.11  -12.04   19.78          23.16  121.32           1.34    1.15    1.80    1.21            0.17    0.22    0.06           0.68     0.81
E3          4.53    6.23    1.28          29.97  -17.78   29.43          34.38  121.14           1.45    1.12    2.18    1.22            0.16    0.23    0.05           0.72     0.83
E4          3.95    6.17    0.41          29.82  -25.22   43.71          50.46  119.98           1.70    1.06    3.32    1.23            0.15    0.23    0.01           0.83     1.00
E5         23.90   27.34   14.28          59.28  -10.45   18.36          21.13  119.66           0.63    0.54    0.85    0.57            0.65    0.76    0.35           0.76     0.91
E6         22.15   27.64    9.03          59.56  -19.44   34.59          39.68  119.34           0.70    0.50    1.13    0.57            0.53    0.65    0.17           0.75     0.89
E7         20.09   27.79    5.03          59.70  -29.88   51.81          59.81  119.97           0.82    0.46    1.53    0.57            0.43    0.53    0.08           0.65     0.80
E8         18.72   28.05    2.94          59.94  -37.79   65.12          75.30  120.13           0.94    0.42    1.99    0.57            0.39    0.41    0.05           0.59     0.71
E9         43.32   47.52   30.83          74.52   -7.22   12.03          14.03  120.97           0.36    0.31    0.47    0.33            0.89    0.97    0.62           0.73     0.82
E10        41.18   47.39   24.22          74.44  -13.31   23.02          26.59  120.04           0.39    0.29    0.60    0.33            0.81    0.90    0.53           0.72     0.81
E11        39.52   47.69   18.93          74.63  -19.25   33.84          38.93  119.63           0.43    0.27    0.75    0.33            0.77    0.87    0.47           0.65     0.73
E12        37.35   48.18   13.44          74.94  -27.49   47.58          54.95  120.02           0.49    0.24    0.96    0.33            0.54    0.50    0.28           0.57     0.67
E13        46.05   57.08   60.27          80.22  -23.91  -14.21          27.82  210.72           0.51    0.16    0.15    0.28            0.50    0.45    0.19           0.42     0.52
E14        46.93   34.58   45.50          65.42   42.35  -23.61          48.49  330.86           0.16    0.66    0.23    0.42            0.47    0.57    0.37           0.70     0.86
E15        66.58   68.78   16.69          86.39    0.58   59.15          59.15   89.44           0.09    0.18    0.84    0.14            0.20    0.24    0.19           0.29     0.35
E16        23.82   25.06   19.89          57.13   -1.50    1.64           2.23  132.50           0.61    0.61    0.66    0.60            0.44    0.50    0.39           0.55     0.64
E17        40.05   30.03   15.70          61.68   38.21   18.90          42.63   26.32           0.17    0.74    0.76    0.46            0.35    0.42    0.35           0.59     0.67
E18        38.57   50.19   20.74          76.18  -28.95   32.73          43.69  131.49           0.50    0.22    0.71    0.32            0.34    0.28    0.37           0.56     0.65
E19        29.19   28.41   47.24          60.25    7.04  -34.59          35.30  281.50           0.60    0.56    0.23    0.57            0.53    0.64    0.30           0.83     0.97
E20         6.91    8.37    1.33          34.75  -11.01   37.00          38.60  106.58           1.18    1.03    2.19    1.08            0.15    0.19    0.03           0.46     0.57
E21        23.84   28.52    6.04          60.36  -15.31   48.00          50.38  107.69           0.63    0.50    1.38    0.54            0.45    0.51    0.10           0.60     0.73
E22         8.63   18.47   12.89          50.06  -61.11    6.20          61.42  174.21           1.87    0.51    0.94    0.81            0.18    0.32    0.28           0.50     0.57
F1          3.49    4.40    3.09          24.93  -11.08    3.68          11.68  161.66           1.54    1.31    1.56    1.38            0.13    0.16    0.08           0.58     0.68
F2          2.89    4.44    2.61          25.09  -21.87    7.57          23.15  160.92           1.77    1.24    1.68    1.40            0.10    0.14    0.07           0.60     0.70
F3          2.41    4.46    2.25          25.12  -31.11   10.73          32.91  160.98           2.02    1.19    1.79    1.41            0.09    0.17    0.08           0.65     0.76
F4          1.52    4.41    1.52          24.98  -51.20   17.82          54.21  160.81           2.91    1.08    2.14    1.45            0.06    0.18    0.06           0.79     0.95
F5         11.41   14.67    9.75          45.17  -18.20    7.35          19.63  158.03           1.05    0.77    1.02    0.86            0.33    0.43    0.22           0.75     0.87
F6          9.14   14.34    8.31          44.71  -33.72   11.64          35.67  160.96           1.32    0.71    1.13    0.89            0.27    0.42    0.21           0.77     0.89
F7          7.34   14.38    6.78          44.77  -50.07   17.81          53.15  160.42           1.67    0.65    1.28    0.91            0.21    0.36    0.15           0.68     0.78
F8          5.86   14.77    5.59          45.31  -67.65   24.20          71.85  160.32           2.18    0.57    1.44    0.91            0.12    0.22    0.11           0.38     0.42
F9         28.48   33.02   23.96          64.17  -12.63    5.80          13.90  155.36           0.59    0.44    0.59    0.49            0.71    0.79    0.52           0.76     0.86
F10        25.65   33.09   21.62          64.23  -24.29   10.36          26.41  156.91           0.71    0.40    0.65    0.50            0.60    0.74    0.46           0.75     0.85
F11        23.10   33.23   20.25          64.35  -35.81   13.32          38.20  159.60           0.85    0.36    0.70    0.51            0.51    0.64    0.47           0.64     0.71
F12        20.14   33.74   17.90          64.75  -51.43   19.07          54.85  159.66           1.06    0.31    0.78    0.52            0.42    0.48    0.39           0.65     0.73
F13        41.78   53.51   59.49          78.18  -27.57  -16.96          32.37  211.59           0.60    0.18    0.15    0.31            0.41    0.38    0.19           0.38     0.48
F14        41.82   28.54   41.67          60.37   49.28  -27.59          56.48  330.76           0.18    0.81    0.26    0.50            0.38    0.43    0.34           0.60     0.72
F15        65.50   67.08   12.82          85.54    1.86   67.57          67.60   88.43           0.08    0.19    0.99    0.15            0.13    0.15    0.13           0.31     0.36
F16        16.80   17.82   13.98          49.27   -2.10    1.86           2.82  138.81           0.76    0.76    0.82    0.75            0.33    0.37    0.30           0.59     0.68
F17        34.33   23.76   10.36          55.84   44.72   23.75          50.63   27.97           0.20    0.92    0.95    0.55            0.31    0.34    0.27           0.60     0.67
