targets/wolf_faust/transmissive/V100401.it8
IT8.7/1
ORIGINATOR "Wolf Faust"
DESCRIPTOR "Velvia (RVP 50), Type 3, L* a* b* (light D50, viewing angle 2)"
MANUFACTURER "Wolf Faust - http://www.coloraid.de"
CREATED "April 28, 2010"
PROD_DATE "2008:02"
DIFFUSE_GEOMETRY "opal"
SERIAL "V100401 Batch Average Data"
MATERIAL "Fujichrome Velvia (RVP 50)"
KEYWORD "MEAN_DE" # Mean Delta E of samples compared to batch average
NUMBER_OF_FIELDS 18
BEGIN_DATA_FORMAT
SAMPLE_ID  XYZ_X   XYZ_Y   XYZ_Z          LAB_L   LAB_A   LAB_B          LAB_C   LAB_H          D_RED  D_GREEN  D_BLUE  D_VIS          STDEV_X STDEV_Y STDEV_Z        MEAN_DE  STDEV_DE
END_DATA_FORMAT
NUMBER_OF_SETS 288
BEGIN_DATA
A1          1.95    1.68    1.22          13.70    8.18    2.07           8.44   14.21           1.56    1.93    1.94    1.75            0.03    0.03    0.02           0.31     0.35
A2          2.38    1.64    0.97          13.48   18.40    5.33          19.16   16.15           1.37    2.12    2.02    1.71            0.03    0.03    0.02           0.29     0.32 
A3          2.96    1.70    0.86          13.84   27.92    7.72          28.96   15.45           1.20    2.36    2.05    1.66            0.05    0.03    0.02           0.27     0.32
A4          3.99    1.70    0.59          13.85   44.25   12.75          46.05   16.07           0.97    3.50    2.11    1.59            0.06    0.03    0.01           0.28     0.33 
A5          8.83    7.76    5.36          33.47   12.07    4.93          13.05   22.21           0.92    1.23    1.26    1.08            0.16    0.16    0.08           0.49     0.55
A6         10.62    7.77    4.68          33.51   26.28    8.52          27.63   17.96           0.74    1.37    1.30    1.05            0.21    0.16    0.07           0.52     0.57 
A7         12.76    7.76    3.94          33.48   41.49   12.76          43.41   17.09           0.59    1.58    1.36    1.01            0.20    0.12    0.06           0.48     0.52
A8         16.85    8.36    3.19          34.71   60.94   19.78          64.07   17.99           0.39    1.99    1.42    0.94            0.10    0.07    0.05           0.32     0.37 
A9         26.27   25.93   19.25          57.96    5.30    4.41           6.91   39.63           0.52    0.63    0.67    0.58            0.48    0.46    0.36           0.63     0.71
A10        27.89   25.42   18.00          57.48   13.91    6.30          15.27   24.34           0.44    0.68    0.70    0.57            0.49    0.48    0.32           0.66     0.73
A11        30.28   25.71   16.98          57.76   21.91    9.10          23.72   22.55           0.36    0.72    0.72    0.56            0.55    0.53    0.38           0.65     0.73
A12        37.13   26.66   15.35          58.66   41.96   14.56          44.42   19.14           0.19    0.83    0.76    0.51            0.38    0.41    0.38           0.77     0.86 
A13        70.92   75.27   63.69          89.52   -3.50   -1.52           3.82  203.49           0.15    0.11    0.12    0.13            0.28    0.22    0.15           0.25     0.28
A14        76.87   78.25   63.71          90.89    2.87    0.82           2.99   16.04           0.08    0.11    0.12    0.10            0.16    0.22    0.12           0.20     0.22 
A15        77.03   79.22   60.59          91.33    1.29    4.63           4.81   74.36           0.08    0.10    0.15    0.10            0.23    0.25    0.30           0.20     0.23
A16        74.49   77.72   63.13          90.65   -0.92    0.97           1.35  133.79           0.11    0.10    0.12    0.11            0.23    0.19    0.10           0.21     0.23
A17        76.06   77.26   61.81          90.44    3.18    1.88           3.70   30.69           0.08    0.12    0.13    0.11            0.14    0.22    0.15           0.24     0.26
A18        71.42   75.65   57.93          89.70   -3.19    4.48           5.51  125.49           0.13    0.11    0.17    0.12            0.31    0.25    0.21           0.27     0.30 
A19        73.35   75.44   63.05          89.60    1.26   -0.77           1.49  329.03           0.11    0.12    0.12    0.12            0.23    0.23    0.12           0.20     0.22
A20         5.67    2.69    1.59          18.74   44.68    6.25          45.12    7.96           0.86    2.64    1.70    1.43            0.13    0.06    0.04           0.47     0.53 
A21        23.77   16.66   12.42          47.83   38.38    3.66          38.56    5.44           0.38    1.06    0.84    0.72            0.41    0.31    0.28           0.55     0.62
A22        50.55   45.87   28.21          73.46   17.57   14.40          22.72   39.33           0.17    0.42    0.50    0.31            0.53    0.58    0.52           0.53     0.62
B1          2.89    2.63    1.57          18.50    6.57    6.14           9.00   43.04           1.41    1.70    1.85    1.56            0.06    0.06    0.03           0.32     0.38
B2          3.51    2.74    1.05          18.96   15.04   13.53          20.23   41.96           1.24    1.79    2.05    1.51            0.08    0.06    0.03           0.35     0.41
B3          3.99    2.64    0.58          18.54   23.98   21.10          31.95   41.34           1.12    1.96    2.34    1.49            0.07    0.05    0.02           0.32     0.37
B4          4.96    2.66    0.06          18.62   36.70   30.95          48.01   40.14           0.94    2.33    3.63    1.44            0.10    0.05    0.00           0.42     0.49
B5         11.37   10.32    5.58          38.40   10.65   12.31          16.28   49.11           0.81    1.09    1.26    0.96            0.26    0.26    0.13           0.63     0.70
B6         13.10   10.23    3.86          38.25   23.20   21.49          31.63   42.80           0.67    1.20    1.44    0.93            0.23    0.20    0.05           0.55     0.63
B7         15.24   10.28    2.41          38.33   36.13   32.11          48.34   41.63           0.54    1.34    1.67    0.90            0.24    0.18    0.03           0.47     0.55
B8         20.32   10.92    0.91          39.44   58.58   51.06          77.71   41.07           0.32    1.68    2.14    0.83            0.11    0.09    0.02           0.30     0.34
B9         31.19   31.27   22.04          62.73    3.83    6.95           7.94   61.01           0.45    0.54    0.61    0.50            0.58    0.59    0.37           0.69     0.76
B10        32.66   31.09   19.46          62.58    9.81   11.93          15.44   50.55           0.39    0.57    0.67    0.49            0.55    0.54    0.35           0.68     0.75
B11        34.53   31.28   17.39          62.74   15.66   16.74          22.92   46.89           0.33    0.59    0.73    0.48            0.58    0.56    0.35           0.70     0.77
B12        41.60   32.37   12.35          63.65   34.50   31.14          46.48   42.08           0.16    0.68    0.89    0.43            0.37    0.45    0.23           0.74     0.82
B13        62.97   69.28   61.16          86.64   -8.65   -4.02           9.53  204.90           0.23    0.13    0.14    0.17            0.40    0.39    0.32           0.31     0.36
B14        67.07   63.23   57.52          83.56   13.87   -5.67          14.99  337.80           0.10    0.24    0.16    0.19            0.34    0.48    0.22           0.46     0.56
B15        71.32   74.00   43.22          88.92   -0.08   19.68          19.68   90.22           0.09    0.13    0.32    0.12            0.31    0.33    0.35           0.36     0.42
B16        57.82   60.28   48.30          81.99   -0.75    1.65           1.82  115.06           0.22    0.22    0.25    0.22            0.59    0.59    0.48           0.42     0.50
B17        64.52   61.49   45.30          82.64   12.14    6.32          13.69   27.50           0.10    0.26    0.28    0.20            0.32    0.38    0.45           0.44     0.51
B18        60.67   67.73   46.97          85.87  -10.65    9.89          14.53  137.11           0.23    0.14    0.27    0.18            0.45    0.37    0.31           0.37     0.44
B19        60.00   61.87   58.70          82.85    0.80   -8.11           8.15  275.64           0.22    0.21    0.15    0.21            0.52    0.58    0.23           0.46     0.50
B20         4.31    2.62    0.88          18.44   29.05   15.35          32.86   27.84           1.05    2.08    2.08    1.48            0.08    0.05    0.01           0.36     0.39
B21        15.26   10.21    3.62          38.21   36.76   22.94          43.33   31.96           0.54    1.35    1.44    0.91            0.28    0.20    0.07           0.53     0.58
B22        30.24   25.90   14.61          57.94   21.01   15.18          25.92   35.86           0.36    0.71    0.80    0.55            0.58    0.54    0.32           0.64     0.74
C1          5.75    5.75    3.05          28.78    2.28   10.55          10.79   77.80           1.16    1.30    1.56    1.23            0.10    0.11    0.04           0.41     0.45
C2          6.11    5.70    1.92          28.65    6.89   19.89          21.05   70.89           1.08    1.34    1.82    1.21            0.11    0.12    0.03           0.47     0.52
C3          6.56    5.75    1.06          28.77   11.16   30.34          32.33   69.79           1.02    1.37    2.17    1.20            0.13    0.13    0.02           0.46     0.52
C4          7.10    5.61    0.21          28.41   18.11   45.00          48.51   68.08           0.96    1.45    3.39    1.19            0.15    0.12    0.00           0.55     0.64
C5         21.72   21.25   10.27          53.22    5.86   19.48          20.34   73.24           0.57    0.73    0.99    0.65            0.45    0.46    0.21           0.64     0.74
C6         23.12   20.91    5.80          52.85   13.85   36.14          38.70   69.03           0.48    0.78    1.31    0.64            0.38    0.38    0.09           0.62     0.70
C7         25.13   21.25    2.90          53.22   21.04   53.81          57.78   68.64           0.41    0.81    1.73    0.62            0.42    0.39    0.04           0.61     0.70
C8         28.24   20.92    0.45          52.86   35.25   82.64          89.85   66.90           0.32    0.94    3.31    0.60            0.40    0.35    0.01           0.59     0.68
C9         36.70   37.47   24.51          67.63    1.88   10.75          10.92   80.05           0.38    0.45    0.57    0.42            0.62    0.66    0.39           0.69     0.77
C10        38.21   37.85   20.60          67.91    5.56   18.75          19.56   73.46           0.33    0.46    0.66    0.41            0.59    0.59    0.32           0.68     0.76
C11        39.39   37.89   17.32          67.94    9.19   25.86          27.45   70.42           0.29    0.48    0.75    0.40            0.65    0.67    0.30           0.72     0.84
C12        46.14   38.52    6.75          68.40   27.27   58.72          64.75   65.09           0.14    0.56    1.27    0.36            0.40    0.51    0.12           0.65     0.76
C13        55.35   63.90   60.72          83.91  -15.11   -8.29          17.24  208.74           0.34    0.14    0.14    0.21            0.48    0.43    0.19           0.38     0.44
C14        58.45   50.23   52.72          76.21   25.71  -13.27          28.93  332.70           0.12    0.40    0.18    0.28            0.43    0.56    0.33           0.54     0.63
C15        68.50   71.35   28.98          87.66   -0.66   37.62          37.62   91.00           0.09    0.15    0.53    0.13            0.30    0.34    0.23           0.31     0.34
C16        42.97   44.87   35.41          72.81   -0.88    2.26           2.44  111.81           0.35    0.35    0.39    0.35            0.64    0.65    0.50           0.59     0.66
C17        53.83   47.12   31.13          74.26   22.64   11.13          25.23   26.17           0.12    0.43    0.45    0.30            0.45    0.58    0.49           0.62     0.73
C18        50.47   59.99   34.32          81.83  -18.74   19.40          26.97  134.01           0.34    0.17    0.44    0.23            0.48    0.41    0.32           0.51     0.58
C19        46.63   47.27   54.33          74.36    2.97  -18.19          18.44  279.27           0.34    0.33    0.18    0.33            0.58    0.65    0.27           0.58     0.70
C20        10.88    8.09    1.11          34.17   25.38   39.00          46.53   56.94           0.72    1.35    2.14    1.02            0.21    0.17    0.03           0.45     0.52
C21        19.57   18.47    9.65          50.06    9.11   16.09          18.49   60.47           0.59    0.81    1.01    0.71            0.44    0.42    0.22           0.62     0.69
C22        24.79   21.01    9.32          52.96   20.67   22.24          30.37   47.09           0.43    0.82    1.03    0.64            0.44    0.38    0.20           0.54     0.62
D1          3.72    4.04    2.29          23.81   -2.58    8.06           8.47  107.74           1.39    1.41    1.70    1.39            0.06    0.07    0.03           0.34     0.40
D2          3.70    4.04    1.42          23.80   -2.97   16.95          17.21   99.95           1.39    1.41    1.98    1.39            0.06    0.07    0.02           0.39     0.45
D3          3.79    4.14    0.83          24.14   -3.04   26.03          26.21   96.66           1.37    1.39    2.34    1.37            0.06    0.07    0.01           0.35     0.39
D4          3.64    4.00    0.24          23.66   -3.21   36.24          36.38   95.06           1.43    1.39    3.36    1.38            0.06    0.07    0.00           0.43     0.51
D5         15.98   17.11    8.35          48.39   -2.91   17.81          18.05   99.28           0.75    0.78    1.10    0.76            0.26    0.31    0.11           0.63     0.72
D6         15.77   16.81    4.60          48.02   -2.51   33.99          34.08   94.22           0.74    0.79    1.45    0.76            0.28    0.30    0.05           0.55     0.63
D7         15.88   17.11    2.35          48.39   -3.52   49.93          50.05   94.04           0.75    0.77    1.91    0.75            0.27    0.29    0.03           0.57     0.65
D8         15.28   16.60    0.61          47.74   -4.22   70.75          70.88   93.42           0.81    0.78    3.20    0.76            0.23    0.24    0.01           0.47     0.57
D9         43.17   45.22   21.69          73.03   -1.27   25.39          25.42   92.85           0.31    0.35    0.65    0.34            0.59    0.65    0.32           0.70     0.81
D10        42.93   45.11   12.31          72.96   -1.65   47.31          47.34   92.00           0.29    0.36    0.97    0.33            0.59    0.59    0.18           0.61     0.70
D11        42.42   45.08    6.38          72.94   -3.10   68.16          68.23   92.60           0.30    0.35    1.40    0.33            0.49    0.50    0.06           0.52     0.58
D12        42.64   46.24    3.19          73.70   -5.72   87.02          87.21   93.76           0.32    0.33    1.97    0.32            0.46    0.35    0.03           0.46     0.55
D13        49.04   59.11   60.01          81.35  -20.52  -12.01          23.77  210.33           0.45    0.16    0.15    0.26            0.48    0.44    0.23           0.40     0.45
D14        51.41   40.54   48.35          69.85   35.39  -19.33          40.33  331.36           0.14    0.54    0.21    0.36            0.36    0.43    0.26           0.46     0.59
D15        66.69   69.23   20.86          86.62   -0.13   50.46          50.46   90.15           0.09    0.17    0.71    0.14            0.27    0.28    0.13           0.26     0.30
D16        31.11   32.76   25.66          63.96   -1.73    2.38           2.95  126.53           0.49    0.49    0.54    0.49            0.58    0.60    0.40           0.67     0.76
D17        45.41   36.58   21.13          66.96   31.44   16.02          35.29   27.01           0.15    0.60    0.62    0.39            0.34    0.41    0.40           0.63     0.71
D18        42.70   53.62   25.68          78.24  -25.08   26.96          36.82  132.94           0.44    0.20    0.59    0.28            0.47    0.41    0.25           0.56     0.63
D19        35.82   35.72   50.17          66.31    4.65  -27.52          27.91  279.58           0.49    0.46    0.21    0.46            0.52    0.54    0.26           0.57     0.67
D20         2.63    2.66    1.01          18.63    1.13   13.62          13.67   85.24           1.49    1.63    2.12    1.56            0.06    0.06    0.03           0.34     0.38
D21        27.55   25.44    1.40          57.50   12.49   75.36          76.39   80.59           0.43    0.68    2.40    0.55            0.52    0.51    0.03           0.72     0.82
D22        37.68   40.83   52.96          70.06   -5.38  -24.15          24.74  257.45           0.52    0.36    0.19    0.41            0.56    0.62    0.31           0.59     0.71
E1          5.08    5.93    3.23          29.22   -7.54   10.09          12.60  126.75           1.30    1.21    1.55    1.24            0.07    0.10    0.04           0.38     0.43
E2          4.58    5.88    2.12          29.11  -13.35   18.72          22.99  125.49           1.40    1.17    1.81    1.24            0.06    0.09    0.02           0.40     0.47
E3          4.24    5.86    1.28          29.05  -17.71   27.80          32.96  122.50           1.49    1.14    2.17    1.25            0.07    0.10    0.02           0.40     0.45
E4          3.51    5.57    0.39          28.29  -25.24   41.42          48.51  121.35           1.77    1.10    3.28    1.28            0.06    0.10    0.01           0.42     0.50
E5         22.37   25.67   13.36          57.72  -10.52   18.11          20.94  120.17           0.66    0.56    0.88    0.60            0.29    0.37    0.18           0.59     0.66
E6         20.61   25.75    8.47          57.80  -19.17   33.59          38.67  119.71           0.73    0.53    1.16    0.60            0.30    0.39    0.10           0.65     0.72
E7         18.84   26.18    4.83          58.20  -29.69   50.27          58.38  120.57           0.85    0.48    1.55    0.60            0.27    0.35    0.04           0.51     0.58
E8         17.55   26.71    2.86          58.70  -38.61   63.63          74.42  121.25           0.98    0.44    2.00    0.59            0.23    0.26    0.04           0.37     0.44
E9         41.06   44.99   28.64          72.88   -6.97   12.70          14.50  118.79           0.38    0.33    0.51    0.35            0.68    0.70    0.44           0.70     0.79
E10        39.13   45.09   22.05          72.95  -13.23   24.54          27.88  118.34           0.41    0.31    0.65    0.35            0.61    0.67    0.34           0.70     0.79
E11        37.26   45.18   17.40          73.01  -19.48   34.44          39.57  119.50           0.46    0.29    0.79    0.35            0.55    0.58    0.25           0.60     0.68
E12        35.49   46.16   12.38          73.65  -28.09   48.31          55.88  120.17           0.52    0.25    1.00    0.35            0.43    0.40    0.17           0.48     0.53
E13        44.30   55.32   59.30          79.22  -24.64  -14.96          28.83  211.27           0.54    0.17    0.15    0.29            0.42    0.40    0.23           0.36     0.41
E14        45.30   32.82   44.09          64.02   43.80  -24.33          50.11  330.95           0.17    0.70    0.24    0.44            0.28    0.31    0.23           0.44     0.52
E15        65.37   67.39   15.79          85.70    0.87   60.10          60.11   89.17           0.09    0.19    0.87    0.15            0.20    0.23    0.10           0.28     0.37
E16        22.31   23.52   18.51          55.61   -1.71    1.94           2.60  131.92           0.63    0.64    0.69    0.63            0.38    0.40    0.25           0.54     0.61
E17        38.63   28.59   14.32          60.42   39.21   20.20          44.11   27.25           0.18    0.78    0.80    0.48            0.30    0.33    0.27           0.60     0.68
E18        36.73   48.30   19.40          75.01  -29.85   33.48          44.86  131.72           0.53    0.23    0.74    0.33            0.42    0.39    0.17           0.52     0.58
E19        27.39   26.51   45.94          58.52    7.46  -36.05          36.82  281.69           0.63    0.60    0.24    0.60            0.46    0.50    0.30           0.66     0.75
E20         6.46    7.80    1.33          33.57  -10.58   34.90          36.46  106.87           1.21    1.07    2.17    1.11            0.12    0.15    0.03           0.45     0.51
E21        22.36   26.85    5.80          58.83  -15.40   46.48          48.96  108.34           0.66    0.53    1.39    0.57            0.38    0.44    0.07           0.62     0.69
E22         8.08   17.52   11.95          48.91  -60.94    6.88          61.33  173.56           1.90    0.53    0.98    0.84            0.12    0.22    0.17           0.40     0.47
F1          3.22    4.10    2.90          24.00  -11.39    3.48          11.91  163.01           1.58    1.34    1.59    1.41            0.04    0.06    0.04           0.31     0.36
F2          2.70    4.17    2.49          24.22  -21.59    7.05          22.71  161.92           1.80    1.27    1.70    1.42            0.04    0.07    0.03           0.38     0.46
F3          2.27    4.16    2.13          24.19  -30.04   10.17          31.71  161.30           2.04    1.22    1.81    1.44            0.03    0.07    0.03           0.42     0.48
F4          1.43    4.11    1.39          24.02  -49.78   17.78          52.86  160.34           2.88    1.11    2.19    1.48            0.02    0.06    0.02           0.42     0.48
F5         10.69   13.77    9.10          43.90  -17.95    7.36          19.40  157.70           1.08    0.80    1.06    0.89            0.20    0.27    0.17           0.57     0.66
F6          8.48   13.47    7.58          43.45  -33.94   12.25          36.09  160.16           1.36    0.74    1.18    0.92            0.16    0.25    0.10           0.49     0.58
F7          6.89   13.59    6.36          43.64  -49.60   17.71          52.67  160.35           1.70    0.67    1.31    0.93            0.12    0.21    0.06           0.44     0.51
F8          5.60   14.19    5.39          44.51  -67.16   23.78          71.25  160.50           2.20    0.59    1.46    0.93            0.07    0.14    0.04           0.26     0.30
F9         26.85   31.21   22.31          62.68  -12.65    6.34          14.16  153.39           0.62    0.47    0.62    0.52            0.43    0.47    0.34           0.62     0.69
F10        23.97   31.18   20.22          62.66  -24.67   10.47          26.80  157.00           0.75    0.43    0.68    0.53            0.43    0.52    0.34           0.67     0.76
F11        21.49   31.38   18.49          62.82  -36.62   14.42          39.36  158.52           0.89    0.38    0.74    0.54            0.38    0.50    0.30           0.64     0.72
F12        19.10   32.34   16.63          63.62  -51.76   20.03          55.50  158.85           1.09    0.33    0.82    0.54            0.21    0.24    0.22           0.39     0.44
F13        40.26   51.90   58.54          77.22  -28.10  -17.65          33.18  212.12           0.63    0.19    0.16    0.33            0.32    0.30    0.13           0.31     0.36
F14        40.35   27.07   40.33          59.04   50.57  -28.16          57.88  330.89           0.19    0.85    0.28    0.52            0.27    0.30    0.22           0.41     0.50
F15        64.32   65.69   12.09          84.84    2.22   68.44          68.47   88.14           0.09    0.20    1.03    0.16            0.17    0.18    0.09           0.28     0.33
F16        15.85   16.78   13.06          47.98   -1.91    2.15           2.89  132.36           0.78    0.79    0.86    0.78            0.27    0.29    0.16           0.56     0.64
F17        33.24   22.73    9.51          54.79   45.45   24.72          51.74   28.54           0.21    0.96    0.99    0.57            0.20    0.22    0.16           0.50     0.57
