targets/wolf_faust/transmissive/V110202.it8
IT8.7/1
ORIGINATOR "Wolf Faust"
DESCRIPTOR "Velvia (RVP 50), Type 3, L* a* b* (light D50, viewing angle 2)"
MANUFACTURER "Wolf Faust - http://www.coloraid.de"
CREATED "January 31, 2011"
PROD_DATE "2009:01"
DIFFUSE_GEOMETRY "opal"
SERIAL "V110202 Batch Average Data"
MATERIAL "Fujichrome Velvia (RVP 50)"
KEYWORD "MEAN_DE" # Mean Delta E of samples compared to batch average
NUMBER_OF_FIELDS 18
BEGIN_DATA_FORMAT
SAMPLE_ID  XYZ_X   XYZ_Y   XYZ_Z          LAB_L   LAB_A   LAB_B          LAB_C   LAB_H          D_RED  D_GREEN  D_BLUE  D_VIS          STDEV_X STDEV_Y STDEV_Z        MEAN_DE  STDEV_DE
END_DATA_FORMAT
NUMBER_OF_SETS 288
BEGIN_DATA
A1          2.32    2.03    1.38          15.64    7.98    3.45           8.70   23.40           1.49    1.84    1.89    1.66            0.12    0.12    0.07           0.58     0.70
A2          2.77    1.92    1.15          15.03   19.29    5.37          20.02   15.54           1.31    2.05    1.94    1.65            0.12    0.10    0.05           0.58     0.68 
A3          3.48    1.99    0.95          15.43   29.68    9.08          31.04   17.00           1.13    2.30    2.01    1.59            0.13    0.08    0.05           0.51     0.60
A4          4.50    1.92    0.68          15.07   46.03   13.19          47.89   15.99           0.92    3.47    2.05    1.54            0.12    0.06    0.03           0.39     0.45 
A5         10.19    8.90    6.14          35.78   13.17    5.18          14.16   21.48           0.85    1.18    1.20    1.02            0.35    0.31    0.19           0.72     0.79
A6         12.23    8.89    5.26          35.76   28.12    9.38          29.64   18.44           0.68    1.32    1.25    0.99            0.40    0.32    0.16           0.70     0.79 
A7         14.18    8.68    4.46          35.35   42.58   12.90          44.49   16.86           0.54    1.53    1.31    0.97            0.43    0.29    0.14           0.64     0.73
A8         17.61    8.82    3.68          35.63   61.13   18.12          63.76   16.51           0.37    1.94    1.35    0.92            0.20    0.14    0.12           0.39     0.44 
A9         29.66   29.06   22.19          60.83    6.33    3.39           7.18   28.27           0.46    0.58    0.61    0.53            0.85    0.88    0.57           0.86     0.95
A10        31.65   28.97   20.94          60.75   14.08    5.72          15.20   22.13           0.39    0.62    0.63    0.52            0.77    0.77    0.55           0.72     0.82
A11        33.64   28.97   19.81          60.75   21.13    8.05          22.61   20.85           0.32    0.66    0.65    0.51            0.71    0.72    0.55           0.68     0.78
A12        39.74   29.35   17.78          61.09   39.81   13.02          41.88   18.12           0.17    0.76    0.69    0.47            0.52    0.57    0.45           0.74     0.82 
A13        73.01   77.05   64.64          90.34   -2.64   -1.01           2.83  200.91           0.13    0.10    0.11    0.12            0.25    0.24    0.16           0.20     0.23
A14        78.12   79.75   64.67          91.57    2.45    1.08           2.68   23.76           0.07    0.10    0.11    0.10            0.23    0.19    0.18           0.21     0.23 
A15        78.32   80.61   62.00          91.96    1.17    4.32           4.48   74.78           0.07    0.10    0.13    0.09            0.22    0.19    0.16           0.22     0.25
A16        76.06   79.20   63.46          91.32   -0.61    1.80           1.91  108.95           0.10    0.10    0.12    0.10            0.21    0.19    0.11           0.16     0.20
A17        77.55   79.09   63.04          91.28    2.60    2.13           3.36   39.35           0.07    0.11    0.13    0.10            0.18    0.18    0.09           0.22     0.24
A18        73.50   77.48   59.44          90.54   -2.48    4.41           5.05  119.34           0.11    0.10    0.16    0.11            0.15    0.13    0.12           0.15     0.18 
A19        74.54   76.80   64.04          90.23    1.02   -0.64           1.20  328.00           0.10    0.11    0.12    0.11            0.22    0.24    0.17           0.17     0.20
A20         6.51    3.08    1.82          20.37   46.80    6.58          47.26    8.01           0.80    2.59    1.64    1.37            0.15    0.08    0.07           0.39     0.44 
A21        26.97   19.19   14.38          50.90   38.59    3.64          38.77    5.38           0.34    0.99    0.77    0.66            0.57    0.48    0.44           0.59     0.65
A22        54.52   50.30   31.93          76.25   15.82   13.32          20.68   40.11           0.15    0.37    0.44    0.28            0.72    0.85    0.59           0.63     0.71
B1          3.37    3.00    1.69          20.05    7.99    7.46          10.93   43.06           1.33    1.65    1.82    1.49            0.12    0.11    0.05           0.47     0.53
B2          4.04    3.10    1.05          20.44   16.57   16.11          23.11   44.19           1.17    1.75    2.06    1.45            0.14    0.12    0.04           0.51     0.57
B3          4.61    3.05    0.63          20.23   25.24   22.93          34.10   42.26           1.05    1.90    2.31    1.43            0.16    0.11    0.03           0.51     0.58
B4          5.54    2.98    0.06          19.96   37.86   33.25          50.39   41.28           0.90    2.28    3.84    1.39            0.17    0.10    0.00           0.72     0.81
B5         12.89   11.69    6.51          40.71   11.21   11.99          16.42   46.92           0.76    1.04    1.19    0.91            0.40    0.38    0.20           0.66     0.72
B6         14.94   11.61    4.20          40.59   24.63   23.44          34.00   43.57           0.61    1.15    1.40    0.88            0.46    0.38    0.12           0.71     0.79
B7         17.24   11.62    2.61          40.59   37.72   34.32          51.00   42.30           0.48    1.28    1.64    0.85            0.47    0.35    0.07           0.71     0.81
B8         21.31   11.64    1.02          40.63   58.19   51.33          77.60   41.42           0.31    1.61    2.09    0.81            0.21    0.17    0.03           0.34     0.38
B9         34.87   35.12   25.29          65.83    3.49    6.25           7.18   60.83           0.40    0.48    0.55    0.45            0.89    0.94    0.58           0.83     0.93
B10        36.85   35.21   22.31          65.90    9.79   11.91          15.42   50.57           0.34    0.51    0.61    0.44            0.79    0.85    0.55           0.72     0.81
B11        38.50   35.19   20.18          65.89   15.18   16.13          22.16   46.73           0.29    0.54    0.66    0.43            0.84    0.91    0.52           0.77     0.88
B12        44.71   35.94   14.36          66.47   31.52   30.55          43.90   44.11           0.14    0.61    0.83    0.39            0.50    0.65    0.36           0.82     0.91
B13        65.36   71.48   62.41          87.72   -7.85   -3.39           8.55  203.34           0.21    0.12    0.13    0.16            0.33    0.28    0.19           0.26     0.30
B14        69.89   66.79   59.30          85.40   12.07   -4.31          12.82  340.35           0.09    0.21    0.14    0.17            0.48    0.72    0.31           0.69     0.76
B15        73.23   76.04   45.24          89.88   -0.18   18.86          18.86   90.53           0.08    0.12    0.29    0.11            0.22    0.25    0.29           0.20     0.23
B16        60.87   63.55   50.46          83.73   -0.97    2.20           2.40  113.78           0.20    0.20    0.23    0.20            0.61    0.69    0.35           0.41     0.47
B17        67.20   64.73   47.73          84.34   10.79    6.36          12.52   30.56           0.09    0.23    0.25    0.18            0.40    0.56    0.37           0.44     0.49
B18        62.95   69.78   48.85          86.89   -9.73    9.46          13.57  135.78           0.21    0.13    0.26    0.16            0.32    0.28    0.26           0.23     0.27
B19        62.89   65.05   60.14          84.51    0.37   -6.69           6.70  273.15           0.19    0.19    0.14    0.19            0.50    0.56    0.22           0.46     0.52
B20         4.95    3.01    0.99          20.07   30.39   16.41          34.53   28.36           0.99    2.02    2.03    1.42            0.12    0.09    0.04           0.34     0.39
B21        17.12   11.53    4.15          40.46   37.65   23.51          44.39   31.98           0.49    1.28    1.38    0.86            0.37    0.30    0.12           0.53     0.59
B22        33.74   28.86   16.71          60.65   21.93   14.73          26.42   33.89           0.31    0.67    0.74    0.50            0.72    0.72    0.46           0.69     0.79
C1          6.72    6.62    3.49          30.92    3.55   11.21          11.77   72.41           1.08    1.24    1.50    1.16            0.23    0.24    0.09           0.68     0.75
C2          6.93    6.44    2.17          30.50    7.41   20.73          22.02   70.32           1.03    1.29    1.76    1.16            0.22    0.23    0.06           0.66     0.73
C3          7.37    6.47    1.20          30.57   11.41   31.47          33.47   70.06           0.97    1.32    2.11    1.15            0.23    0.22    0.04           0.61     0.67
C4          8.12    6.39    0.22          30.37   19.31   48.15          51.87   68.15           0.90    1.40    3.49    1.13            0.26    0.22    0.01           0.85     0.98
C5         24.42   23.68   11.69          55.76    7.02   19.47          20.70   70.18           0.51    0.68    0.93    0.61            0.69    0.73    0.31           0.88     0.97
C6         26.24   23.88    6.51          55.96   13.81   38.30          40.72   70.17           0.43    0.72    1.25    0.59            0.66    0.67    0.18           0.82     0.90
C7         28.04   23.72    3.25          55.80   21.75   55.76          59.86   68.69           0.36    0.77    1.67    0.57            0.70    0.68    0.09           0.88     0.97
C8         31.61   23.70    0.50          55.78   35.33   86.67          93.60   67.82           0.28    0.87    3.37    0.55            0.75    0.64    0.02           0.96     1.06
C9         41.23   42.07   28.10          70.91    2.05   10.19          10.41   78.58           0.33    0.40    0.51    0.37            0.96    1.01    0.57           0.76     0.87
C10        42.19   41.94   23.93          70.83    5.30   17.34          18.14   72.99           0.29    0.41    0.59    0.36            0.90    0.99    0.59           0.73     0.85
C11        43.65   42.34   19.81          71.10    8.50   25.88          27.24   71.82           0.25    0.42    0.69    0.35            0.93    1.07    0.54           0.80     0.91
C12        49.35   42.53    7.43          71.23   23.93   60.77          65.31   68.51           0.12    0.49    1.24    0.32            0.61    0.84    0.19           0.93     1.04
C13        57.64   65.95   61.81          84.97  -14.03   -7.54          15.93  208.27           0.31    0.13    0.13    0.20            0.43    0.35    0.20           0.35     0.41
C14        61.83   54.54   54.88          78.77   22.65  -11.18          25.26  333.74           0.11    0.35    0.17    0.25            0.60    0.86    0.40           0.92     1.03
C15        70.23   73.24   30.96          88.56   -0.84   36.03          36.04   91.33           0.08    0.14    0.49    0.12            0.26    0.31    0.31           0.28     0.32
C16        46.96   49.33   38.93          75.65   -1.67    2.32           2.86  125.70           0.31    0.31    0.35    0.31            0.90    1.01    0.52           0.71     0.82
C17        57.08   51.07   34.27          76.72   20.18   10.65          22.82   27.84           0.11    0.38    0.40    0.27            0.51    0.68    0.51           0.59     0.68
C18        53.40   62.63   37.04          83.25  -17.19   17.99          24.89  133.70           0.31    0.16    0.40    0.21            0.53    0.43    0.39           0.45     0.49
C19        50.87   52.23   56.49          77.41    1.36  -15.20          15.27  275.08           0.31    0.28    0.16    0.29            0.72    0.87    0.37           0.78     0.89
C20        12.58    9.28    1.16          36.51   27.23   42.32          50.32   57.24           0.66    1.29    2.14    0.96            0.31    0.27    0.04           0.59     0.65
C21        22.27   20.83   11.08          52.76   10.38   16.13          19.18   57.24           0.53    0.76    0.95    0.66            0.54    0.54    0.28           0.63     0.73
C22        27.82   23.70   10.75          55.78   20.96   22.40          30.68   46.90           0.38    0.76    0.96    0.59            0.64    0.60    0.27           0.64     0.73
D1          4.31    4.62    2.50          25.63   -2.03    9.39           9.61  102.18           1.32    1.36    1.66    1.33            0.15    0.17    0.07           0.57     0.63
D2          4.22    4.60    1.55          25.55   -2.96   18.48          18.71   99.10           1.33    1.35    1.95    1.33            0.16    0.17    0.04           0.64     0.70
D3          4.25    4.65    0.86          25.71   -3.25   28.15          28.34   96.57           1.33    1.34    2.34    1.32            0.15    0.18    0.03           0.62     0.70
D4          4.26    4.64    0.26          25.69   -2.92   39.31          39.42   94.26           1.36    1.33    3.40    1.31            0.18    0.19    0.01           0.88     1.03
D5         18.28   19.34    9.37          51.07   -1.92   18.82          18.92   95.83           0.69    0.73    1.05    0.71            0.59    0.67    0.29           0.89     0.97
D6         18.20   19.31    5.14          51.04   -2.15   36.32          36.39   93.38           0.67    0.73    1.40    0.70            0.58    0.64    0.12           0.95     1.06
D7         17.81   19.08    2.54          50.78   -3.12   52.44          52.54   93.40           0.69    0.73    1.88    0.70            0.60    0.66    0.07           0.99     1.09
D8         17.59   18.91    0.67          50.58   -3.43   74.55          74.63   92.63           0.74    0.73    3.21    0.70            0.60    0.63    0.02           1.15     1.26
D9         47.08   49.70   24.62          75.88   -2.33   24.78          24.90   95.36           0.28    0.31    0.59    0.30            0.93    1.00    0.51           0.67     0.77
D10        46.63   49.42   14.19          75.71   -2.86   46.92          47.01   93.49           0.26    0.31    0.90    0.29            0.85    0.95    0.35           0.61     0.69
D11        46.38   49.25    7.11          75.61   -3.10   69.60          69.67   92.55           0.26    0.31    1.34    0.29            0.66    0.76    0.14           0.53     0.59
D12        46.37   49.43    3.44          75.71   -3.60   88.81          88.88   92.32           0.27    0.31    1.92    0.28            0.57    0.47    0.06           0.44     0.49
D13        52.09   61.78   61.26          82.80  -18.62  -10.75          21.50  209.99           0.40    0.15    0.14    0.23            0.47    0.38    0.13           0.43     0.50
D14        54.11   43.70   50.19          72.02   33.00  -17.69          37.45  331.81           0.13    0.50    0.20    0.33            0.55    0.74    0.35           0.90     1.02
D15        68.50   71.26   22.83          87.61   -0.46   48.32          48.32   90.55           0.08    0.16    0.66    0.13            0.19    0.24    0.22           0.24     0.29
D16        34.99   36.60   29.17          66.97   -1.02    1.65           1.95  121.52           0.44    0.44    0.48    0.44            0.91    1.01    0.60           0.80     0.93
D17        48.32   39.79   24.36          69.32   29.39   13.93          32.53   25.36           0.14    0.54    0.56    0.36            0.53    0.67    0.54           0.70     0.83
D18        46.29   56.89   28.74          80.12  -22.79   25.00          33.84  132.35           0.39    0.18    0.53    0.26            0.63    0.53    0.40           0.59     0.65
D19        39.78   39.86   52.13          69.37    4.26  -24.42          24.79  279.87           0.43    0.41    0.19    0.41            0.77    0.90    0.38           0.95     1.10
D20         3.09    3.15    1.12          20.64    0.83   15.48          15.51   86.91           1.43    1.55    2.08    1.49            0.10    0.11    0.04           0.49     0.56
D21        31.32   28.88    1.50          60.67   13.22   79.57          80.66   80.57           0.37    0.62    2.39    0.50            0.67    0.70    0.05           0.77     0.88
D22        41.46   45.30   55.04          73.09   -6.63  -21.15          22.17  252.55           0.47    0.31    0.17    0.37            0.86    1.02    0.37           0.98     1.12
E1          5.73    6.64    3.56          30.97   -7.35   10.84          13.09  124.15           1.25    1.16    1.51    1.19            0.20    0.23    0.09           0.66     0.72
E2          5.32    6.62    2.28          30.93  -11.95   20.47          23.71  120.28           1.31    1.13    1.78    1.19            0.20    0.24    0.06           0.76     0.83
E3          4.78    6.55    1.34          30.74  -17.81   29.98          34.88  120.71           1.43    1.10    2.16    1.20            0.18    0.24    0.04           0.75     0.84
E4          4.17    6.48    0.43          30.58  -25.35   44.64          51.34  119.60           1.68    1.04    3.30    1.21            0.19    0.28    0.01           1.05     1.19
E5         25.34   28.99   15.14          60.77  -10.66   18.73          21.55  119.65           0.60    0.51    0.82    0.54            0.75    0.87    0.42           0.86     0.94
E6         23.20   28.89    9.45          60.68  -19.54   35.08          40.15  119.13           0.68    0.48    1.10    0.55            0.70    0.85    0.24           0.88     0.97
E7         20.85   28.71    5.21          60.52  -29.74   52.32          60.18  119.62           0.80    0.44    1.51    0.56            0.60    0.72    0.10           0.82     0.91
E8         19.21   28.54    3.04          60.37  -37.18   65.12          74.99  119.72           0.92    0.42    1.97    0.56            0.46    0.47    0.06           0.69     0.76
E9         45.36   49.72   32.27          75.89   -7.24   12.19          14.18  120.69           0.34    0.29    0.45    0.31            0.98    1.07    0.58           0.75     0.86
E10        43.06   49.49   25.44          75.75  -13.31   23.08          26.65  119.97           0.37    0.27    0.58    0.31            0.86    0.94    0.53           0.60     0.67
E11        41.46   49.80   19.93          75.94  -18.91   33.98          38.89  119.10           0.41    0.25    0.72    0.31            0.77    0.85    0.46           0.56     0.61
E12        38.51   49.15   13.88          75.54  -26.36   47.44          54.27  119.06           0.47    0.23    0.94    0.32            0.60    0.53    0.26           0.57     0.63
E13        47.25   57.98   60.55          80.73  -22.74  -13.62          26.51  210.92           0.49    0.16    0.14    0.27            0.56    0.48    0.20           0.51     0.58
E14        47.99   35.77   46.04          66.34   41.31  -22.67          47.12  331.24           0.15    0.64    0.23    0.41            0.54    0.67    0.39           0.89     0.99
E15        67.12   69.39   17.20          86.70    0.46   58.49          58.49   89.55           0.08    0.17    0.82    0.14            0.22    0.27    0.20           0.27     0.31
E16        25.42   26.69   21.07          58.68   -1.31    1.88           2.30  124.25           0.58    0.58    0.63    0.58            0.69    0.75    0.55           0.73     0.83
E17        41.24   31.34   16.64          62.79   37.10   18.58          41.49   26.60           0.16    0.71    0.73    0.45            0.53    0.61    0.45           0.73     0.85
E18        40.07   51.48   21.79          76.97  -27.61   31.98          42.24  130.80           0.48    0.21    0.68    0.30            0.59    0.52    0.38           0.60     0.66
E19        31.03   30.45   48.20          62.04    6.26  -32.64          33.24  280.85           0.57    0.53    0.22    0.53            0.72    0.84    0.44           1.03     1.16
E20         7.36    8.90    1.41          35.79  -11.19   37.80          39.43  106.49           1.16    1.01    2.16    1.05            0.23    0.30    0.05           0.69     0.79
E21        25.13   30.02    6.33          61.67  -15.40   48.92          51.28  107.48           0.61    0.48    1.36    0.52            0.61    0.73    0.15           0.71     0.80
E22         8.97   19.01   13.57          50.70  -60.99    5.43          61.23  174.92           1.84    0.50    0.91    0.80            0.22    0.38    0.32           0.46     0.51
F1          3.70    4.65    3.20          25.70  -11.11    4.18          11.88  159.43           1.51    1.29    1.54    1.36            0.15    0.18    0.07           0.64     0.71
F2          3.06    4.68    2.72          25.80  -21.85    7.98          23.26  159.95           1.74    1.22    1.66    1.37            0.12    0.17    0.07           0.64     0.71
F3          2.55    4.67    2.34          25.78  -31.17   11.03          33.06  160.52           1.99    1.17    1.77    1.39            0.12    0.20    0.07           0.74     0.83
F4          1.60    4.62    1.59          25.61  -51.88   18.07          54.94  160.80           2.86    1.06    2.12    1.43            0.06    0.17    0.05           0.76     0.86
F5         11.94   15.29   10.20          46.03  -18.18    7.32          19.60  158.10           1.03    0.75    1.00    0.84            0.43    0.56    0.27           0.88     0.97
F6          9.52   14.85    8.66          45.42  -33.68   11.56          35.61  161.06           1.30    0.70    1.11    0.87            0.33    0.46    0.18           0.75     0.85
F7          7.68   14.96    7.07          45.58  -50.35   18.02          53.48  160.31           1.64    0.63    1.26    0.89            0.27    0.46    0.15           0.76     0.84
F8          6.00   14.97    5.78          45.60  -67.43   23.78          71.50  160.58           2.15    0.57    1.43    0.91            0.15    0.27    0.13           0.35     0.39
F9         30.17   34.90   25.24          65.66  -12.60    6.05          13.98  154.34           0.56    0.42    0.56    0.47            0.93    1.05    0.57           0.90     1.03
F10        27.07   34.82   22.84          65.60  -24.37   10.37          26.49  156.95           0.68    0.38    0.62    0.48            0.76    0.91    0.49           0.78     0.88
F11        24.29   34.74   21.34          65.54  -35.68   13.17          38.03  159.75           0.82    0.35    0.67    0.49            0.60    0.75    0.48           0.63     0.69
F12        20.87   34.48   18.77          65.34  -50.40   18.16          53.57  160.19           1.03    0.30    0.75    0.51            0.43    0.46    0.37           0.58     0.65
F13        43.00   54.47   59.81          78.74  -26.35  -16.32          30.99  211.77           0.57    0.17    0.15    0.30            0.52    0.45    0.22           0.54     0.60
F14        42.67   29.43   42.10          61.15   48.46  -26.78          55.37  331.07           0.18    0.79    0.26    0.48            0.51    0.58    0.44           0.84     0.94
F15        65.97   67.62   13.12          85.82    1.72   67.19          67.21   88.53           0.08    0.19    0.98    0.15            0.20    0.24    0.13           0.21     0.24
F16        17.89   18.94   14.81          50.62   -1.96    2.04           2.84  133.64           0.73    0.73    0.80    0.73            0.48    0.52    0.38           0.68     0.75
F17        35.28   24.72   10.95          56.80   43.82   23.52          49.74   28.22           0.19    0.90    0.92    0.54            0.38    0.42    0.29           0.61     0.68
