targets/wolf_faust/transmissive/V110606.it8
IT8.7/1
ORIGINATOR "Wolf Faust"
DESCRIPTOR "Velvia (RVP 50), Type 3, L* a* b* (light D50, viewing angle 2)"
MANUFACTURER "Wolf Faust - http://www.coloraid.de"
CREATED "June 18, 2011"
PROD_DATE "2009:01"
DIFFUSE_GEOMETRY "opal"
SERIAL "V110606 Batch Average Data"
MATERIAL "Fujichrome Velvia (RVP 50)"
KEYWORD "MEAN_DE" # Mean Delta E of samples compared to batch average
NUMBER_OF_FIELDS 18
BEGIN_DATA_FORMAT
SAMPLE_ID  XYZ_X   XYZ_Y   XYZ_Z          LAB_L   LAB_A   LAB_B          LAB_C   LAB_H          D_RED  D_GREEN  D_BLUE  D_VIS          STDEV_X STDEV_Y STDEV_Z        MEAN_DE  STDEV_DE
END_DATA_FORMAT
NUMBER_OF_SETS 288
BEGIN_DATA
A1          2.28    1.93    1.26          15.09    9.40    3.96          10.20   22.87           1.48    1.88    1.93    1.68            0.05    0.05    0.02           0.39     0.49
A2          2.88    1.95    1.07          15.21   20.65    6.76          21.73   18.12           1.28    2.07    1.98    1.64            0.05    0.04    0.02           0.31     0.36 
A3          3.50    2.00    0.96          15.47   29.93    8.97          31.25   16.67           1.13    2.31    2.00    1.59            0.07    0.04    0.01           0.32     0.38
A4          4.63    1.97    0.68          15.31   46.73   13.52          48.65   16.14           0.90    3.64    2.05    1.53            0.07    0.03    0.01           0.32     0.37 
A5         10.16    8.78    6.12          35.55   13.96    4.87          14.79   19.24           0.85    1.19    1.20    1.03            0.23    0.22    0.18           0.63     0.70
A6         12.16    8.84    5.18          35.67   28.03    9.62          29.64   18.95           0.68    1.32    1.26    0.99            0.25    0.22    0.15           0.52     0.59 
A7         14.55    8.88    4.56          35.76   43.06   13.08          45.01   16.90           0.53    1.52    1.30    0.96            0.18    0.14    0.09           0.33     0.41
A8         17.72    8.88    3.79          35.75   61.21   17.62          63.69   16.06           0.37    1.93    1.34    0.92            0.14    0.09    0.08           0.26     0.34 
A9         29.63   28.90   22.02          60.69    6.84    3.47           7.68   26.98           0.46    0.58    0.61    0.53            0.63    0.69    0.62           0.72     0.82
A10        31.58   28.83   20.85          60.63   14.35    5.68          15.44   21.59           0.39    0.62    0.63    0.52            0.58    0.62    0.58           0.68     0.78
A11        33.84   29.03   19.66          60.81   21.61    8.46          23.21   21.37           0.32    0.66    0.66    0.51            0.64    0.68    0.59           0.75     0.86
A12        39.81   29.45   17.73          61.17   39.67   13.27          41.84   18.49           0.17    0.76    0.69    0.47            0.43    0.50    0.42           0.66     0.83 
A13        73.47   77.44   64.87          90.52   -2.46   -0.92           2.63  200.61           0.13    0.10    0.11    0.11            0.20    0.18    0.17           0.10     0.13
A14        78.27   79.85   64.87          91.62    2.56    0.96           2.73   20.64           0.07    0.10    0.11    0.10            0.19    0.19    0.19           0.15     0.17 
A15        78.43   80.75   61.93          92.02    1.14    4.49           4.63   75.76           0.07    0.09    0.14    0.09            0.17    0.16    0.16           0.11     0.13
A16        76.60   79.62   63.55          91.51   -0.35    2.05           2.08   99.68           0.09    0.10    0.12    0.10            0.23    0.23    0.20           0.10     0.12
A17        77.47   78.86   62.96          91.17    2.87    2.03           3.52   35.28           0.07    0.11    0.13    0.10            0.15    0.11    0.15           0.13     0.17
A18        73.31   77.42   59.29          90.51   -2.76    4.51           5.29  121.50           0.12    0.10    0.16    0.11            0.10    0.11    0.08           0.09     0.10 
A19        75.26   77.43   64.40          90.52    1.22   -0.48           1.31  338.61           0.10    0.11    0.11    0.11            0.18    0.19    0.19           0.13     0.15
A20         6.47    3.06    1.85          20.29   46.79    6.18          47.19    7.52           0.80    2.60    1.64    1.37            0.07    0.04    0.03           0.23     0.28 
A21        26.84   19.05   14.51          50.75   38.74    3.04          38.86    4.49           0.34    0.99    0.77    0.66            0.22    0.21    0.24           0.55     0.64
A22        54.27   50.08   31.67          76.12   15.75   13.49          20.75   40.56           0.15    0.37    0.45    0.28            0.39    0.55    0.41           0.63     0.78
B1          3.46    3.09    1.71          20.41    7.92    7.86          11.16   44.78           1.32    1.64    1.81    1.48            0.08    0.08    0.04           0.31     0.39
B2          4.03    3.07    1.05          20.32   16.94   15.88          23.21   43.15           1.17    1.76    2.06    1.45            0.10    0.08    0.03           0.37     0.45
B3          4.65    3.10    0.69          20.45   24.90   22.31          33.43   41.86           1.05    1.88    2.27    1.42            0.09    0.06    0.02           0.37     0.43
B4          5.59    3.03    0.07          20.14   37.70   33.47          50.42   41.60           0.90    2.26    3.75    1.39            0.08    0.05    0.00           0.38     0.45
B5         13.03   11.77    6.57          40.84   11.58   11.97          16.66   45.95           0.75    1.03    1.18    0.90            0.26    0.25    0.16           0.62     0.72
B6         14.83   11.49    4.23          40.39   24.83   22.96          33.82   42.76           0.61    1.15    1.40    0.88            0.23    0.21    0.12           0.48     0.55
B7         17.23   11.56    2.63          40.51   38.06   33.98          51.02   41.76           0.48    1.29    1.63    0.85            0.29    0.23    0.07           0.44     0.51
B8         21.19   11.53    1.02          40.45   58.41   51.10          77.61   41.18           0.31    1.62    2.10    0.81            0.17    0.13    0.03           0.24     0.29
B9         34.92   35.13   25.12          65.85    3.60    6.59           7.53   61.39           0.40    0.48    0.55    0.45            0.66    0.78    0.66           0.84     0.97
B10        36.60   35.13   22.27          65.85    9.24   11.87          15.06   52.08           0.34    0.51    0.61    0.44            0.65    0.74    0.66           0.83     0.96
B11        38.37   35.04   20.17          65.78   15.28   15.95          22.09   46.24           0.29    0.54    0.66    0.43            0.71    0.81    0.66           0.86     0.97
B12        44.22   35.33   14.09          66.00   32.12   30.44          44.26   43.46           0.14    0.62    0.84    0.40            0.50    0.63    0.47           0.89     1.00
B13        65.24   71.44   62.57          87.70   -8.04   -3.58           8.80  204.03           0.21    0.12    0.13    0.16            0.31    0.30    0.26           0.15     0.19
B14        69.18   65.69   59.04          84.84   12.95   -5.02          13.89  338.83           0.09    0.22    0.15    0.17            0.42    0.62    0.28           0.49     0.64
B15        73.04   75.80   44.49          89.77   -0.10   19.58          19.58   90.29           0.08    0.12    0.30    0.11            0.17    0.25    0.25           0.24     0.29
B16        60.41   63.33   50.05          83.61   -1.52    2.46           2.89  121.59           0.20    0.20    0.23    0.20            0.42    0.53    0.32           0.40     0.46
B17        66.76   64.19   47.01          84.06   11.03    6.73          12.93   31.40           0.09    0.23    0.26    0.18            0.40    0.56    0.41           0.49     0.57
B18        62.71   69.67   48.41          86.84  -10.06    9.88          14.10  135.53           0.21    0.13    0.26    0.16            0.29    0.29    0.27           0.21     0.24
B19        62.53   64.82   60.31          84.39    0.07   -7.06           7.07  270.47           0.20    0.19    0.14    0.19            0.32    0.45    0.22           0.37     0.47
B20         5.02    3.02    0.97          20.12   30.98   16.89          35.28   28.60           0.98    2.03    2.04    1.42            0.09    0.06    0.02           0.25     0.31
B21        17.23   11.59    4.05          40.55   37.84   24.31          44.98   32.71           0.48    1.28    1.40    0.85            0.22    0.20    0.10           0.43     0.50
B22        33.62   28.85   16.40          60.65   21.51   15.45          26.49   35.68           0.31    0.66    0.75    0.50            0.39    0.47    0.36           0.64     0.79
C1          6.66    6.57    3.47          30.81    3.37   11.14          11.64   73.18           1.09    1.24    1.50    1.17            0.11    0.12    0.07           0.44     0.50
C2          6.93    6.44    2.19          30.48    7.48   20.51          21.83   69.95           1.02    1.29    1.75    1.16            0.12    0.12    0.04           0.43     0.49
C3          7.46    6.46    1.21          30.54   12.41   31.29          33.67   68.36           0.96    1.33    2.11    1.14            0.13    0.12    0.03           0.47     0.53
C4          8.24    6.53    0.23          30.71   18.91   48.53          52.08   68.71           0.89    1.39    3.46    1.12            0.15    0.13    0.00           0.51     0.59
C5         24.59   23.90   11.65          55.99    6.77   20.00          21.12   71.31           0.51    0.68    0.93    0.60            0.31    0.38    0.29           0.67     0.77
C6         26.35   23.78    6.49          55.87   14.69   38.22          40.95   68.99           0.42    0.72    1.26    0.59            0.37    0.40    0.16           0.62     0.74
C7         27.98   23.69    3.20          55.78   21.63   56.06          60.09   68.90           0.36    0.77    1.68    0.57            0.41    0.45    0.07           0.61     0.73
C8         31.57   23.74    0.51          55.83   35.03   86.58          93.40   67.97           0.28    0.87    3.35    0.55            0.39    0.36    0.01           0.53     0.68
C9         41.21   41.98   27.85          70.86    2.25   10.52          10.77   77.92           0.33    0.40    0.51    0.37            0.67    0.79    0.70           0.77     0.89
C10        42.05   41.70   23.76          70.66    5.62   17.37          18.26   72.07           0.29    0.42    0.59    0.37            0.66    0.79    0.67           0.83     0.96
C11        43.60   42.19   19.98          71.00    8.75   25.35          26.83   70.95           0.25    0.42    0.68    0.35            0.66    0.77    0.51           0.75     0.93
C12        49.28   42.43    7.50          71.17   24.03   60.38          64.99   68.30           0.12    0.49    1.23    0.33            0.42    0.58    0.17           0.69     0.85
C13        57.98   66.28   62.10          85.14  -13.93   -7.54          15.84  208.42           0.31    0.13    0.13    0.20            0.35    0.32    0.18           0.22     0.26
C14        61.38   53.90   54.85          78.40   23.21  -11.78          26.03  333.09           0.11    0.35    0.17    0.25            0.48    0.71    0.36           0.66     0.85
C15        70.25   73.24   31.07          88.56   -0.78   35.87          35.88   91.24           0.08    0.14    0.49    0.12            0.21    0.28    0.31           0.28     0.35
C16        46.80   49.14   38.92          75.54   -1.64    2.15           2.70  126.76           0.31    0.31    0.35    0.31            0.53    0.65    0.47           0.54     0.66
C17        56.83   50.69   34.35          76.49   20.55   10.14          22.92   26.27           0.11    0.38    0.40    0.27            0.42    0.56    0.44           0.56     0.66
C18        53.46   62.74   37.15          83.31  -17.29   17.93          24.91  133.96           0.31    0.15    0.40    0.21            0.31    0.27    0.30           0.25     0.30
C19        50.63   51.84   56.55          77.19    1.71  -15.66          15.76  276.20           0.31    0.29    0.16    0.29            0.38    0.53    0.21           0.51     0.63
C20        12.67    9.34    1.18          36.63   27.34   42.19          50.27   57.05           0.65    1.29    2.13    0.96            0.15    0.13    0.02           0.29     0.35
C21        22.55   21.25   11.25          53.23    9.66   16.41          19.05   59.51           0.53    0.75    0.94    0.65            0.24    0.28    0.24           0.61     0.71
C22        27.90   23.82   10.69          55.91   20.76   22.79          30.83   47.68           0.38    0.76    0.96    0.58            0.33    0.38    0.19           0.64     0.76
D1          4.28    4.56    2.39          25.43   -1.58    9.98          10.11   98.99           1.32    1.37    1.69    1.34            0.09    0.10    0.05           0.42     0.48
D2          4.33    4.68    1.58          25.79   -2.43   18.59          18.75   97.45           1.31    1.35    1.94    1.32            0.08    0.10    0.03           0.45     0.55
D3          4.24    4.64    0.88          25.69   -3.18   27.88          28.06   96.51           1.33    1.34    2.33    1.32            0.09    0.11    0.03           0.42     0.51
D4          4.35    4.71    0.27          25.90   -2.67   39.54          39.63   93.86           1.35    1.33    3.39    1.31            0.07    0.10    0.00           0.52     0.63
D5         18.45   19.54    9.62          51.31   -2.00   18.36          18.47   96.20           0.68    0.72    1.03    0.70            0.36    0.42    0.28           0.66     0.75
D6         18.18   19.32    5.22          51.05   -2.31   35.94          36.01   93.68           0.67    0.73    1.39    0.70            0.39    0.45    0.14           0.67     0.77
D7         18.04   19.26    2.54          50.99   -2.78   52.83          52.91   93.01           0.68    0.72    1.88    0.70            0.39    0.43    0.06           0.64     0.76
D8         17.78   19.08    0.68          50.78   -3.25   74.68          74.75   92.49           0.74    0.73    3.22    0.70            0.33    0.34    0.02           0.56     0.71
D9         47.11   49.68   24.53          75.87   -2.19   24.92          25.02   95.03           0.27    0.31    0.59    0.30            0.59    0.69    0.63           0.73     0.85
D10        46.58   49.29   14.18          75.63   -2.62   46.80          46.87   93.20           0.26    0.31    0.90    0.29            0.59    0.73    0.42           0.68     0.79
D11        46.42   49.46    7.07          75.74   -3.56   69.99          70.08   92.91           0.26    0.31    1.35    0.29            0.42    0.49    0.14           0.42     0.51
D12        46.06   49.26    3.48          75.61   -4.01   88.31          88.41   92.60           0.28    0.31    1.91    0.29            0.30    0.29    0.05           0.23     0.27
D13        52.10   61.83   61.34          82.82  -18.71  -10.79          21.60  209.98           0.40    0.15    0.14    0.23            0.40    0.35    0.22           0.31     0.37
D14        54.18   43.86   50.41          72.13   32.73  -17.75          37.23  331.52           0.13    0.49    0.20    0.33            0.51    0.69    0.37           0.76     0.92
D15        68.35   71.08   22.77          87.52   -0.40   48.29          48.29   90.47           0.08    0.16    0.66    0.13            0.27    0.37    0.32           0.37     0.43
D16        35.30   36.96   29.23          67.25   -1.15    2.02           2.36  116.79           0.43    0.44    0.48    0.43            0.59    0.68    0.54           0.75     0.94
D17        48.44   39.98   24.57          69.45   29.16   13.78          32.26   25.29           0.14    0.54    0.55    0.36            0.41    0.52    0.49           0.70     0.85
D18        46.42   57.02   28.87          80.19  -22.75   24.93          33.75  132.38           0.39    0.18    0.53    0.26            0.40    0.38    0.50           0.43     0.55
D19        40.21   40.35   52.50          69.72    4.06  -24.22          24.56  279.51           0.42    0.40    0.19    0.41            0.46    0.61    0.32           0.61     0.77
D20         3.09    3.12    1.13          20.51    1.50   15.17          15.24   84.32           1.42    1.56    2.08    1.49            0.06    0.07    0.02           0.41     0.47
D21        31.31   28.98    1.48          60.76   12.80   79.95          80.97   80.91           0.37    0.62    2.41    0.50            0.36    0.44    0.04           0.55     0.64
D22        41.48   45.30   55.18          73.09   -6.55  -21.29          22.28  252.89           0.47    0.31    0.17    0.37            0.49    0.63    0.31           0.62     0.72
E1          5.67    6.49    3.54          30.62   -6.52   10.38          12.26  122.10           1.24    1.18    1.51    1.19            0.12    0.16    0.09           0.51     0.63
E2          5.31    6.62    2.31          30.92  -11.99   20.16          23.46  120.73           1.31    1.13    1.78    1.19            0.12    0.16    0.05           0.51     0.62
E3          4.76    6.52    1.36          30.70  -17.82   29.63          34.58  121.02           1.43    1.10    2.15    1.20            0.09    0.14    0.03           0.50     0.59
E4          4.22    6.58    0.44          30.83  -25.64   44.85          51.66  119.75           1.67    1.03    3.29    1.20            0.08    0.14    0.01           0.56     0.69
E5         25.50   29.24   15.10          60.99  -10.91   19.19          22.08  119.61           0.60    0.51    0.83    0.54            0.46    0.58    0.46           0.75     0.84
E6         23.45   29.26    9.42          61.01  -19.84   35.77          40.90  119.01           0.67    0.47    1.11    0.54            0.42    0.50    0.21           0.55     0.63
E7         21.16   29.07    5.31          60.84  -29.65   52.37          60.18  119.52           0.79    0.44    1.50    0.55            0.36    0.43    0.11           0.47     0.54
E8         19.20   28.49    3.01          60.33  -37.02   65.25          75.02  119.57           0.92    0.42    1.97    0.56            0.26    0.30    0.05           0.24     0.33
E9         45.48   49.78   32.23          75.93   -7.04   12.32          14.19  119.72           0.33    0.29    0.45    0.31            0.66    0.75    0.70           0.66     0.77
E10        43.01   49.42   24.90          75.71  -13.26   23.99          27.41  118.94           0.37    0.27    0.59    0.31            0.54    0.70    0.58           0.64     0.73
E11        41.15   49.37   19.68          75.68  -18.74   34.05          38.86  118.83           0.41    0.26    0.73    0.31            0.55    0.69    0.50           0.62     0.70
E12        38.78   49.36   13.83          75.67  -26.06   47.80          54.44  118.60           0.47    0.23    0.94    0.32            0.34    0.34    0.24           0.31     0.41
E13        47.23   58.02   60.68          80.75  -22.90  -13.71          26.69  210.90           0.49    0.16    0.14    0.27            0.38    0.34    0.18           0.31     0.39
E14        48.22   36.12   46.37          66.61   40.79  -22.61          46.63  331.00           0.15    0.63    0.23    0.41            0.35    0.46    0.26           0.57     0.76
E15        67.03   69.30   17.14          86.65    0.46   58.54          58.54   89.55           0.08    0.17    0.82    0.14            0.19    0.27    0.19           0.25     0.31
E16        25.58   27.03   21.05          59.00   -2.02    2.47           3.21  128.88           0.58    0.57    0.64    0.57            0.39    0.45    0.45           0.65     0.77
E17        41.57   31.79   16.70          63.17   36.48   19.08          41.18   27.61           0.16    0.70    0.73    0.44            0.36    0.44    0.41           0.73     0.86
E18        39.84   51.31   21.71          76.87  -27.89   31.97          42.43  131.10           0.48    0.21    0.68    0.30            0.39    0.37    0.47           0.51     0.66
E19        31.30   30.94   48.62          62.45    5.46  -32.40          32.86  279.56           0.57    0.52    0.22    0.53            0.48    0.58    0.35           0.60     0.79
E20         7.30    8.83    1.42          35.65  -11.13   37.48          39.09  106.54           1.16    1.01    2.16    1.05            0.12    0.17    0.03           0.41     0.54
E21        25.51   30.56    6.47          62.13  -15.80   49.11          51.59  107.83           0.60    0.47    1.35    0.51            0.32    0.43    0.14           0.50     0.58
E22         8.99   19.05   13.60          50.75  -61.02    5.43          61.26  174.91           1.83    0.50    0.91    0.80            0.14    0.24    0.27           0.42     0.49
F1          3.69    4.64    3.19          25.68  -11.13    4.25          11.91  159.08           1.51    1.29    1.55    1.36            0.08    0.10    0.07           0.42     0.49
F2          3.03    4.63    2.74          25.64  -21.64    7.52          22.91  160.84           1.74    1.23    1.66    1.38            0.08    0.13    0.07           0.51     0.63
F3          2.59    4.75    2.39          26.00  -31.23   11.00          33.11  160.60           1.98    1.16    1.77    1.38            0.06    0.11    0.05           0.45     0.52
F4          1.58    4.56    1.62          25.44  -51.75   17.50          54.63  161.31           2.88    1.07    2.10    1.43            0.04    0.10    0.05           0.42     0.51
F5         12.05   15.35   10.25          46.10  -17.69    7.30          19.14  157.56           1.02    0.75    1.00    0.84            0.26    0.35    0.32           0.55     0.65
F6          9.78   15.42    8.72          46.20  -34.92   12.68          37.15  160.05           1.29    0.68    1.11    0.86            0.22    0.33    0.22           0.46     0.56
F7          7.76   15.14    7.06          45.82  -50.62   18.46          53.88  159.96           1.63    0.63    1.26    0.88            0.18    0.30    0.18           0.36     0.46
F8          5.95   14.89    5.82          45.48  -67.47   23.39          71.41  160.88           2.16    0.57    1.42    0.91            0.10    0.19    0.11           0.25     0.29
F9         30.21   35.01   25.33          65.75  -12.79    6.04          14.15  154.71           0.56    0.42    0.56    0.47            0.63    0.72    0.70           0.69     0.82
F10        26.99   34.73   23.31          65.53  -24.37    9.35          26.10  159.01           0.69    0.38    0.61    0.48            0.58    0.68    0.65           0.69     0.82
F11        24.38   35.03   21.58          65.77  -36.29   13.09          38.58  160.17           0.83    0.34    0.67    0.49            0.43    0.50    0.47           0.52     0.64
F12        21.08   34.73   18.94          65.53  -50.25   18.12          53.42  160.17           1.02    0.30    0.75    0.51            0.29    0.34    0.33           0.35     0.46
F13        42.90   54.45   59.95          78.73  -26.59  -16.48          31.28  211.78           0.58    0.17    0.15    0.30            0.31    0.29    0.21           0.29     0.34
F14        42.80   29.62   42.35          61.33   48.10  -26.80          55.06  330.88           0.18    0.78    0.26    0.48            0.32    0.37    0.26           0.49     0.61
F15        65.93   67.60   13.14          85.80    1.68   67.12          67.14   88.57           0.08    0.19    0.98    0.15            0.16    0.26    0.15           0.24     0.31
F16        17.96   18.94   14.80          50.62   -1.58    2.07           2.62  126.45           0.73    0.73    0.80    0.72            0.29    0.34    0.31           0.62     0.78
F17        35.29   24.75   11.05          56.83   43.75   23.24          49.54   27.98           0.19    0.89    0.92    0.53            0.32    0.36    0.27           0.69     0.82
