targets/wolf_faust/transmissive/V110902.it8
IT8.7/1
ORIGINATOR "Wolf Faust"
DESCRIPTOR "Velvia (RVP 50), Type 3, L* a* b* (light D50, viewing angle 2)"
MANUFACTURER "Wolf Faust - http://www.coloraid.de"
CREATED "September 08, 2011"
PROD_DATE "2009:01"
DIFFUSE_GEOMETRY "opal"
SERIAL "V110902 Batch Average Data"
MATERIAL "Fujichrome Velvia (RVP 50)"
KEYWORD "MEAN_DE" # Mean Delta E of samples compared to batch average
NUMBER_OF_FIELDS 18
BEGIN_DATA_FORMAT
SAMPLE_ID  XYZ_X   XYZ_Y   XYZ_Z          LAB_L   LAB_A   LAB_B          LAB_C   LAB_H          D_RED  D_GREEN  D_BLUE  D_VIS          STDEV_X STDEV_Y STDEV_Z        MEAN_DE  STDEV_DE
END_DATA_FORMAT
NUMBER_OF_SETS 288
BEGIN_DATA
A1          2.08    1.77    1.22          14.23    8.90    3.06           9.42   18.99           1.52    1.92    1.95    1.72            0.06    0.06    0.02           0.40     0.46
A2          2.64    1.79    1.04          14.35   19.94    5.80          20.76   16.21           1.31    2.10    1.99    1.67            0.08    0.06    0.03           0.38     0.43 
A3          3.23    1.84    0.93          14.62   29.15    8.04          30.24   15.41           1.16    2.33    2.02    1.63            0.08    0.05    0.03           0.31     0.35
A4          4.33    1.85    0.67          14.67   45.55   12.68          47.29   15.55           0.93    3.45    2.06    1.56            0.07    0.03    0.02           0.33     0.37 
A5          9.45    8.18    5.80          34.34   13.52    4.26          14.18   17.50           0.88    1.22    1.22    1.06            0.27    0.27    0.20           0.56     0.65
A6         11.33    8.22    4.92          34.43   27.53    8.83          28.91   17.79           0.71    1.36    1.28    1.02            0.29    0.26    0.15           0.57     0.66 
A7         13.54    8.25    4.29          34.49   42.23   12.43          44.02   16.40           0.56    1.55    1.32    0.99            0.33    0.23    0.14           0.50     0.59
A8         17.20    8.57    3.55          35.14   61.07   18.10          63.69   16.51           0.38    1.96    1.37    0.93            0.14    0.09    0.09           0.32     0.37 
A9         28.21   27.60   21.17          59.52    6.40    3.15           7.14   26.25           0.48    0.60    0.63    0.55            0.74    0.72    0.60           0.67     0.86
A10        30.01   27.42   19.98          59.35   14.03    5.28          15.00   20.61           0.41    0.64    0.65    0.54            0.65    0.57    0.60           0.67     0.83
A11        32.01   27.34   18.51          59.28   21.69    8.29          23.22   20.91           0.34    0.69    0.68    0.53            0.47    0.53    0.42           0.64     0.75
A12        38.39   28.00   16.56          59.89   40.72   13.77          42.98   18.68           0.18    0.80    0.73    0.49            0.38    0.42    0.38           0.54     0.63 
A13        72.54   76.73   64.48          90.20   -3.00   -1.11           3.20  200.29           0.13    0.10    0.11    0.12            0.15    0.11    0.09           0.12     0.14
A14        77.75   79.21   64.36          91.33    2.76    0.95           2.92   18.95           0.07    0.11    0.11    0.10            0.16    0.19    0.09           0.14     0.17 
A15        78.07   80.43   61.21          91.88    1.04    4.96           5.06   78.20           0.07    0.10    0.14    0.09            0.16    0.17    0.15           0.11     0.13
A16        75.91   79.10   62.98          91.28   -0.73    2.19           2.31  108.42           0.10    0.10    0.13    0.10            0.17    0.15    0.14           0.13     0.16
A17        76.94   78.25   62.46          90.89    3.01    2.04           3.63   34.08           0.07    0.11    0.13    0.10            0.17    0.21    0.20           0.14     0.17
A18        72.38   76.69   58.41          90.18   -3.24    4.82           5.81  123.89           0.12    0.10    0.16    0.12            0.19    0.20    0.13           0.16     0.19 
A19        74.35   76.50   63.86          90.09    1.22   -0.71           1.41  329.97           0.10    0.12    0.12    0.12            0.20    0.24    0.15           0.19     0.22
A20         6.08    2.88    1.77          19.55   45.79    5.74          46.15    7.14           0.83    2.60    1.66    1.40            0.10    0.05    0.04           0.37     0.43 
A21        25.43   17.94   13.53          49.42   38.66    3.34          38.81    4.94           0.36    1.02    0.80    0.68            0.41    0.36    0.33           0.59     0.66
A22        52.25   47.87   30.08          74.74   16.50   13.58          21.38   39.47           0.16    0.39    0.47    0.30            0.59    0.77    0.48           0.68     0.80
B1          3.20    2.88    1.66          19.57    7.35    6.94          10.11   43.35           1.35    1.66    1.83    1.51            0.09    0.09    0.05           0.46     0.52
B2          3.72    2.85    1.02          19.43   16.23   14.77          21.95   42.30           1.21    1.78    2.07    1.49            0.11    0.10    0.04           0.49     0.56
B3          4.35    2.90    0.67          19.65   24.36   21.27          32.34   41.13           1.08    1.91    2.27    1.45            0.12    0.09    0.03           0.41     0.47
B4          5.22    2.82    0.07          19.30   36.92   31.92          48.81   40.84           0.92    2.28    3.55    1.42            0.11    0.07    0.00           0.52     0.59
B5         12.11   10.93    6.21          39.45   11.39   11.15          15.94   44.41           0.78    1.07    1.21    0.93            0.31    0.33    0.18           0.60     0.72
B6         14.05   10.92    4.13          39.44   24.13   21.88          32.58   42.20           0.63    1.17    1.41    0.91            0.32    0.29    0.16           0.54     0.67
B7         16.42   11.02    2.58          39.61   37.45   32.89          49.85   41.29           0.50    1.31    1.64    0.87            0.31    0.25    0.08           0.39     0.50
B8         20.76   11.24    1.01          39.98   58.42   50.43          77.17   40.80           0.32    1.64    2.09    0.82            0.16    0.13    0.03           0.22     0.30
B9         33.29   33.50   24.13          64.56    3.51    6.16           7.11   60.24           0.42    0.50    0.57    0.47            0.71    0.71    0.65           0.66     0.80
B10        34.91   33.46   21.37          64.53    9.24   11.36          14.66   50.86           0.36    0.53    0.63    0.46            0.74    0.77    0.66           0.82     0.96
B11        36.39   33.07   18.95          64.21   15.56   15.83          22.20   45.52           0.31    0.57    0.69    0.45            0.52    0.62    0.42           0.68     0.81
B12        42.95   33.93   13.33          64.90   33.13   30.58          45.09   42.71           0.15    0.65    0.86    0.42            0.40    0.51    0.29           0.66     0.75
B13        63.90   70.31   62.01          87.15   -8.68   -3.99           9.55  204.69           0.23    0.12    0.13    0.16            0.33    0.28    0.20           0.23     0.26
B14        68.07   64.37   58.42          84.16   13.51   -5.57          14.61  337.61           0.09    0.24    0.15    0.18            0.33    0.47    0.23           0.38     0.52
B15        71.92   74.65   43.17          89.23   -0.13   20.28          20.28   90.38           0.09    0.13    0.32    0.12            0.32    0.37    0.38           0.23     0.29
B16        58.84   61.67   48.95          82.74   -1.50    2.20           2.67  124.18           0.21    0.21    0.24    0.21            0.40    0.43    0.41           0.32     0.38
B17        65.29   62.37   45.57          83.11   11.86    6.80          13.67   29.84           0.10    0.25    0.27    0.19            0.29    0.44    0.30           0.44     0.51
B18        61.40   68.55   47.18          86.28  -10.70   10.35          14.89  135.96           0.22    0.13    0.27    0.17            0.31    0.26    0.26           0.24     0.29
B19        61.07   63.29   59.69          83.59    0.12   -7.82           7.83  270.85           0.21    0.20    0.14    0.20            0.37    0.50    0.34           0.43     0.53
B20         4.74    2.85    0.96          19.43   30.44   15.79          34.29   27.41           1.01    2.06    2.04    1.44            0.08    0.05    0.02           0.32     0.38
B21        16.38   10.99    3.88          39.57   37.40   23.62          44.23   32.27           0.50    1.31    1.42    0.88            0.32    0.24    0.11           0.62     0.71
B22        31.97   27.28   15.49          59.23   21.79   15.20          26.57   34.91           0.33    0.69    0.78    0.53            0.58    0.57    0.34           0.73     0.82
C1          6.24    6.20    3.37          29.92    2.79   10.30          10.67   74.85           1.12    1.27    1.51    1.19            0.18    0.20    0.10           0.56     0.63
C2          6.49    6.07    2.13          29.57    6.96   19.51          20.71   70.36           1.05    1.31    1.77    1.19            0.17    0.19    0.07           0.54     0.61
C3          7.06    6.13    1.18          29.74   12.03   30.29          32.60   68.34           0.98    1.35    2.12    1.17            0.16    0.15    0.03           0.41     0.53
C4          7.78    6.15    0.24          29.79   18.63   46.89          50.46   68.33           0.91    1.41    3.34    1.15            0.19    0.17    0.01           0.52     0.71
C5         23.38   22.83   11.34          54.89    6.21   19.03          20.03   71.92           0.53    0.69    0.95    0.62            0.53    0.59    0.40           0.67     0.85
C6         25.13   22.76    6.35          54.82   14.14   37.05          39.66   69.11           0.44    0.74    1.27    0.61            0.48    0.52    0.18           0.58     0.75
C7         26.78   22.69    3.12          54.75   21.23   54.89          58.86   68.85           0.38    0.78    1.70    0.59            0.48    0.52    0.08           0.61     0.83
C8         30.20   22.58    0.51          54.64   35.09   84.66          91.65   67.49           0.29    0.89    3.24    0.57            0.40    0.38    0.01           0.59     0.75
C9         39.11   39.82   26.50          69.34    2.28   10.18          10.44   77.35           0.35    0.42    0.54    0.39            0.77    0.88    0.55           0.70     0.79
C10        40.01   39.64   22.55          69.21    5.65   17.13          18.04   71.75           0.31    0.44    0.62    0.39            0.68    0.79    0.49           0.70     0.80
C11        41.30   39.68   18.65          69.24    9.48   25.15          26.88   69.36           0.27    0.46    0.72    0.38            0.68    0.81    0.47           0.77     0.89
C12        47.85   40.70    7.24          69.96   25.34   59.33          64.52   66.87           0.13    0.52    1.25    0.34            0.32    0.47    0.17           0.60     0.77
C13        56.54   65.06   61.51          84.52  -14.75   -8.04          16.80  208.59           0.33    0.14    0.14    0.21            0.29    0.26    0.21           0.17     0.22
C14        59.90   52.08   53.96          77.33   24.35  -12.68          27.45  332.49           0.11    0.37    0.18    0.26            0.49    0.69    0.38           0.58     0.84
C15        69.45   72.40   30.46          88.16   -0.77   36.12          36.13   91.22           0.09    0.15    0.50    0.13            0.29    0.30    0.35           0.31     0.37
C16        44.98   47.21   37.64          74.32   -1.55    1.78           2.38  130.94           0.33    0.33    0.37    0.33            0.47    0.54    0.53           0.41     0.52
C17        55.40   49.02   33.14          75.46   21.43   10.15          23.71   25.34           0.12    0.40    0.42    0.28            0.49    0.61    0.55           0.56     0.68
C18        51.91   61.40   35.88          82.59  -18.22   18.48          25.95  134.60           0.32    0.16    0.41    0.22            0.38    0.32    0.37           0.33     0.42
C19        48.76   49.83   55.72          75.96    1.94  -16.90          17.02  276.52           0.33    0.30    0.17    0.31            0.50    0.65    0.32           0.68     0.83
C20        11.97    8.81    1.16          35.61   26.97   40.68          48.81   56.46           0.67    1.31    2.13    0.98            0.19    0.16    0.03           0.51     0.60
C21        21.12   19.83   10.52          51.64    9.84   15.96          18.76   58.35           0.56    0.78    0.97    0.68            0.51    0.52    0.28           0.87     0.98
C22        26.30   22.32   10.02          54.37   20.95   22.30          30.60   46.79           0.40    0.79    1.00    0.61            0.58    0.53    0.25           0.76     0.87
D1          3.98    4.27    2.32          24.55   -1.96    9.10           9.31  102.14           1.35    1.39    1.70    1.37            0.12    0.14    0.06           0.60     0.69
D2          4.00    4.34    1.52          24.75   -2.59   17.40          17.60   98.45           1.34    1.38    1.95    1.36            0.11    0.14    0.05           0.52     0.62
D3          3.95    4.33    0.85          24.73   -3.15   26.70          26.88   96.72           1.35    1.37    2.33    1.35            0.13    0.15    0.03           0.51     0.59
D4          4.06    4.42    0.27          25.00   -2.74   38.00          38.10   94.12           1.37    1.35    3.27    1.34            0.12    0.14    0.01           0.59     0.79
D5         17.49   18.60    9.32          50.22   -2.39   17.50          17.66   97.76           0.71    0.74    1.05    0.72            0.45    0.51    0.28           0.68     0.84
D6         17.15   18.22    5.05          49.76   -2.27   34.58          34.65   93.75           0.70    0.75    1.41    0.73            0.41    0.49    0.14           0.63     0.85
D7         17.03   18.18    2.45          49.70   -2.69   51.38          51.45   93.00           0.71    0.75    1.89    0.72            0.41    0.48    0.07           0.63     0.85
D8         16.83   18.03    0.67          49.53   -3.06   72.74          72.80   92.41           0.76    0.75    3.10    0.72            0.35    0.39    0.01           0.62     0.81
D9         45.37   47.91   23.69          74.77   -2.33   24.56          24.67   95.42           0.29    0.32    0.61    0.31            0.61    0.71    0.47           0.53     0.64
D10        44.99   47.61   13.77          74.58   -2.60   46.07          46.14   93.22           0.28    0.33    0.92    0.31            0.52    0.64    0.30           0.54     0.66
D11        44.82   47.74    6.90          74.66   -3.48   68.85          68.94   92.90           0.28    0.32    1.36    0.30            0.43    0.48    0.12           0.33     0.41
D12        44.49   47.91    3.40          74.77   -4.89   87.44          87.58   93.20           0.30    0.32    1.92    0.30            0.30    0.29    0.06           0.19     0.22
D13        50.96   60.85   60.93          82.30  -19.46  -11.28          22.49  210.10           0.42    0.15    0.14    0.24            0.29    0.27    0.23           0.21     0.24
D14        52.99   42.46   49.74          71.18   33.76  -18.63          38.56  331.11           0.14    0.51    0.20    0.34            0.44    0.58    0.36           0.53     0.78
D15        67.59   70.26   22.25          87.12   -0.35   48.59          48.59   90.41           0.09    0.16    0.67    0.14            0.20    0.26    0.28           0.33     0.40
D16        33.38   34.97   27.82          65.72   -1.17    1.71           2.08  124.19           0.46    0.46    0.51    0.46            0.73    0.80    0.75           0.62     0.80
D17        47.08   38.48   23.45          68.37   30.06   13.97          33.15   24.93           0.14    0.56    0.58    0.37            0.46    0.56    0.49           0.54     0.74
D18        44.74   55.53   27.56          79.35  -23.87   25.63          35.03  132.96           0.41    0.19    0.55    0.27            0.45    0.37    0.37           0.42     0.53
D19        38.43   38.43   51.63          68.33    4.45  -25.66          26.04  279.84           0.45    0.43    0.20    0.43            0.41    0.52    0.27           0.62     0.80
D20         2.91    2.94    1.12          19.80    1.44   14.09          14.17   84.18           1.44    1.59    2.07    1.52            0.05    0.06    0.02           0.36     0.43
D21        29.76   27.42    1.43          59.36   13.05   78.14          79.22   80.52           0.39    0.65    2.41    0.52            0.43    0.39    0.04           0.69     0.80
D22        39.70   43.22   54.33          71.70   -6.07  -22.77          23.57  255.06           0.49    0.34    0.18    0.39            0.50    0.56    0.27           0.56     0.69
E1          5.33    6.12    3.43          29.70   -6.49    9.52          11.53  124.28           1.27    1.20    1.52    1.22            0.17    0.20    0.11           0.61     0.71
E2          4.96    6.19    2.23          29.88  -11.84   19.06          22.44  121.85           1.34    1.16    1.79    1.22            0.16    0.19    0.06           0.57     0.69
E3          4.48    6.15    1.33          29.78  -17.62   28.40          33.42  121.81           1.45    1.12    2.15    1.23            0.13    0.17    0.05           0.47     0.59
E4          3.96    6.19    0.44          29.89  -25.34   43.29          50.16  120.35           1.70    1.06    3.17    1.23            0.13    0.20    0.02           0.62     0.83
E5         24.20   27.87   14.57          59.77  -11.23   18.44          21.59  121.34           0.62    0.53    0.84    0.56            0.63    0.74    0.50           0.72     0.86
E6         22.21   27.78    9.07          59.69  -19.78   34.71          39.95  119.67           0.70    0.50    1.13    0.56            0.53    0.68    0.25           0.67     0.85
E7         20.18   27.84    5.17          59.74  -29.62   51.17          59.13  120.06           0.81    0.46    1.51    0.57            0.41    0.52    0.09           0.50     0.66
E8         18.61   27.86    2.97          59.76  -37.57   64.55          74.69  120.20           0.94    0.42    1.98    0.57            0.29    0.31    0.05           0.35     0.48
E9         43.76   47.95   31.15          74.79   -7.13   12.00          13.96  120.71           0.35    0.30    0.47    0.32            0.66    0.75    0.65           0.57     0.68
E10        41.48   47.69   24.17          74.63  -13.21   23.44          26.91  119.40           0.39    0.29    0.61    0.33            0.51    0.60    0.48           0.51     0.61
E11        39.86   47.93   19.14          74.78  -18.82   33.63          38.54  119.23           0.42    0.27    0.74    0.33            0.50    0.56    0.44           0.49     0.58
E12        37.60   48.27   13.51          75.00  -26.95   47.48          54.59  119.58           0.49    0.24    0.96    0.33            0.38    0.37    0.27           0.43     0.49
E13        45.95   56.89   60.25          80.12  -23.77  -14.37          27.77  211.16           0.51    0.16    0.15    0.28            0.32    0.28    0.22           0.30     0.34
E14        47.40   35.27   45.93          65.96   41.35  -23.20          47.41  330.70           0.16    0.65    0.23    0.42            0.39    0.49    0.36           0.54     0.76
E15        66.36   68.57   16.82          86.29    0.54   58.66          58.66   89.47           0.09    0.18    0.83    0.14            0.27    0.32    0.20           0.26     0.32
E16        24.10   25.52   19.93          57.57   -2.20    2.30           3.20  133.40           0.60    0.60    0.66    0.60            0.48    0.53    0.46           0.67     0.76
E17        40.35   30.55   15.74          62.13   37.25   19.58          42.08   27.73           0.17    0.73    0.76    0.46            0.41    0.50    0.36           0.73     0.82
E18        38.33   49.92   20.83          76.02  -28.99   32.26          43.38  131.95           0.50    0.22    0.71    0.32            0.45    0.41    0.31           0.42     0.52
E19        29.80   29.33   47.78          61.07    5.87  -33.82          34.32  279.84           0.59    0.55    0.22    0.55            0.43    0.48    0.26           0.59     0.73
E20         6.93    8.42    1.41          34.84  -11.22   36.16          37.86  107.24           1.18    1.03    2.15    1.07            0.10    0.12    0.03           0.36     0.42
E21        24.15   28.97    6.25          60.75  -15.64   47.70          50.20  108.15           0.63    0.49    1.36    0.54            0.34    0.39    0.14           0.42     0.49
E22         8.59   18.36   12.87          49.93  -60.89    6.02          61.19  174.36           1.85    0.52    0.94    0.82            0.17    0.28    0.31           0.34     0.47
F1          3.50    4.42    3.12          25.03  -11.28    3.65          11.86  162.04           1.53    1.31    1.56    1.38            0.10    0.12    0.10           0.60     0.69
F2          2.88    4.41    2.68          24.98  -21.56    6.84          22.62  162.40           1.76    1.25    1.66    1.40            0.09    0.13    0.08           0.59     0.68
F3          2.42    4.45    2.33          25.11  -30.75    9.95          32.32  162.08           2.00    1.19    1.77    1.41            0.08    0.14    0.08           0.53     0.65
F4          1.50    4.33    1.59          24.73  -50.77   16.63          53.42  161.86           2.85    1.09    2.10    1.46            0.04    0.12    0.06           0.51     0.68
F5         11.43   14.62    9.92          45.10  -17.73    6.66          18.95  159.41           1.04    0.77    1.02    0.86            0.36    0.44    0.37           0.73     0.86
F6          9.26   14.64    8.42          45.13  -34.51   11.93          36.52  160.93           1.31    0.70    1.13    0.88            0.28    0.42    0.31           0.72     0.88
F7          7.31   14.32    6.73          44.68  -49.96   17.91          53.07  160.27           1.66    0.65    1.29    0.91            0.24    0.41    0.19           0.66     0.76
F8          5.78   14.56    5.68          45.03  -67.35   23.28          71.26  160.93           2.17    0.58    1.44    0.92            0.11    0.21    0.14           0.32     0.40
F9         28.82   33.50   24.39          64.56  -12.94    5.69          14.14  156.30           0.58    0.44    0.58    0.49            0.56    0.64    0.65           0.78     0.89
F10        25.77   33.32   22.40          64.41  -24.53    9.16          26.19  159.54           0.71    0.40    0.63    0.50            0.45    0.56    0.55           0.63     0.74
F11        23.28   33.58   20.63          64.63  -36.21   13.03          38.48  160.21           0.85    0.36    0.69    0.51            0.37    0.48    0.55           0.66     0.74
F12        20.29   33.81   18.29          64.81  -50.96   18.31          54.15  160.24           1.05    0.31    0.77    0.52            0.29    0.32    0.43           0.63     0.72
F13        41.48   53.16   59.42          77.97  -27.59  -17.24          32.54  212.00           0.60    0.18    0.15    0.31            0.32    0.29    0.24           0.30     0.36
F14        41.98   28.80   41.91          60.60   48.78  -27.49          55.99  330.60           0.18    0.80    0.26    0.49            0.35    0.41    0.31           0.49     0.69
F15        65.32   66.93   12.91          85.47    1.78   67.18          67.20   88.48           0.09    0.19    0.99    0.15            0.24    0.31    0.18           0.27     0.37
F16        17.11   18.13   14.25          49.65   -2.00    1.81           2.71  138.22           0.75    0.75    0.82    0.74            0.45    0.49    0.50           0.71     0.82
F17        34.49   24.01   10.66          56.09   44.20   23.21          49.92   27.70           0.20    0.91    0.94    0.55            0.34    0.37    0.31           0.54     0.69
