targets/wolf_faust/transmissive/V111010.it8
IT8.7/1
ORIGINATOR "Wolf Faust"
DESCRIPTOR "Velvia (RVP 50), Type 3, L* a* b* (light D50, viewing angle 2)"
MANUFACTURER "Wolf Faust - http://www.coloraid.de"
CREATED "November 09, 2011"
PROD_DATE "2011:09"
DIFFUSE_GEOMETRY "opal"
SERIAL "V111010 Batch Average Data"
MATERIAL "Fujichrome Velvia (RVP 50)"
KEYWORD "MEAN_DE" # Mean Delta E of samples compared to batch average
NUMBER_OF_FIELDS 18
BEGIN_DATA_FORMAT
SAMPLE_ID  XYZ_X   XYZ_Y   XYZ_Z          LAB_L   LAB_A   LAB_B          LAB_C   LAB_H          D_RED  D_GREEN  D_BLUE  D_VIS          STDEV_X STDEV_Y STDEV_Z        MEAN_DE  STDEV_DE
END_DATA_FORMAT
NUMBER_OF_SETS 288
BEGIN_DATA
A1          2.24    1.90    1.37          14.95    9.26    2.34           9.55   14.17           1.49    1.88    1.88    1.69            0.03    0.03    0.02           0.24     0.26
A2          2.74    1.90    1.13          14.95   19.23    5.56          20.02   16.12           1.31    2.05    1.95    1.65            0.04    0.03    0.02           0.19     0.21 
A3          3.26    1.85    0.94          14.70   29.32    8.01          30.39   15.28           1.16    2.33    2.00    1.62            0.03    0.02    0.01           0.17     0.19
A4          4.19    1.85    0.72          14.65   43.61   11.60          45.13   14.90           0.96    3.21    2.04    1.57            0.05    0.02    0.01           0.23     0.28 
A5          9.67    8.36    5.99          34.72   13.65    4.04          14.24   16.47           0.87    1.21    1.20    1.05            0.09    0.09    0.09           0.32     0.37
A6         11.57    8.39    5.11          34.78   27.75    8.41          29.00   16.86           0.70    1.35    1.26    1.02            0.13    0.10    0.08           0.37     0.43 
A7         13.87    8.48    4.46          34.96   42.33   12.24          44.06   16.13           0.55    1.54    1.30    0.98            0.18    0.12    0.07           0.32     0.36
A8         17.33    8.70    3.60          35.39   60.63   18.18          63.29   16.69           0.38    1.93    1.36    0.92            0.11    0.07    0.05           0.19     0.22 
A9         28.33   27.61   21.33          59.54    6.79    2.83           7.36   22.66           0.48    0.60    0.62    0.55            0.33    0.34    0.28           0.38     0.42
A10        30.66   27.93   20.69          59.82   14.46    4.61          15.18   17.69           0.40    0.64    0.63    0.53            0.31    0.32    0.30           0.33     0.39
A11        32.95   28.10   19.48          59.98   22.06    7.40          23.27   18.54           0.33    0.67    0.66    0.52            0.28    0.29    0.28           0.38     0.44
A12        38.67   27.96   17.08          59.86   41.77   12.48          43.60   16.64           0.17    0.80    0.71    0.49            0.24    0.27    0.26           0.43     0.50 
A13        72.99   77.03   66.37          90.34   -2.65   -2.65           3.75  225.00           0.13    0.10    0.10    0.12            0.23    0.19    0.15           0.14     0.16
A14        78.29   79.19   65.99          91.32    3.88   -0.61           3.92  351.13           0.07    0.11    0.10    0.10            0.25    0.31    0.26           0.20     0.24 
A15        79.06   81.11   63.14          92.18    1.68    3.60           3.97   65.00           0.07    0.09    0.13    0.09            0.16    0.17    0.28           0.15     0.18
A16        76.19   79.30   65.33          91.37   -0.55    0.11           0.57  170.21           0.10    0.10    0.11    0.10            0.24    0.20    0.27           0.16     0.18
A17        77.79   78.78   63.68          91.13    3.68    1.27           3.90   19.05           0.07    0.11    0.12    0.10            0.22    0.26    0.31           0.21     0.24
A18        74.79   78.31   60.64          90.92   -1.47    3.87           4.14  110.79           0.10    0.10    0.15    0.11            0.38    0.34    0.36           0.22     0.25 
A19        72.88   75.41   65.53          89.58    0.34   -3.16           3.18  276.14           0.12    0.12    0.10    0.12            0.35    0.35    0.18           0.25     0.27
A20         6.19    2.94    1.88          19.78   45.92    5.04          46.20    6.27           0.82    2.58    1.63    1.39            0.07    0.04    0.03           0.21     0.24 
A21        26.22   18.42   14.05          50.01   39.41    2.95          39.52    4.28           0.34    1.01    0.78    0.67            0.21    0.18    0.18           0.32     0.38
A22        53.06   48.54   31.49          75.16   16.78   12.12          20.70   35.84           0.15    0.39    0.45    0.29            0.29    0.37    0.30           0.36     0.44
B1          3.33    3.00    1.73          20.06    7.33    7.01          10.14   43.73           1.34    1.64    1.80    1.50            0.05    0.04    0.03           0.24     0.28
B2          3.86    2.95    1.07          19.83   16.68   14.81          22.31   41.60           1.19    1.77    2.04    1.47            0.05    0.04    0.02           0.26     0.29
B3          4.36    2.85    0.67          19.44   25.29   20.87          32.79   39.52           1.07    1.94    2.26    1.46            0.05    0.03    0.01           0.28     0.31
B4          5.42    2.93    0.10          19.77   37.38   32.15          49.30   40.70           0.91    2.26    3.29    1.40            0.06    0.03    0.00           0.25     0.31
B5         12.25   10.98    6.30          39.55   11.94   10.92          16.18   42.44           0.77    1.07    1.20    0.93            0.13    0.13    0.10           0.38     0.45
B6         14.35   11.10    4.17          39.75   24.69   22.21          33.21   41.97           0.62    1.17    1.40    0.90            0.16    0.14    0.07           0.39     0.45
B7         16.59   11.19    2.62          39.89   37.14   33.05          49.72   41.67           0.50    1.30    1.63    0.87            0.16    0.11    0.04           0.29     0.34
B8         20.98   11.44    1.03          40.32   57.97   50.70          77.02   41.17           0.31    1.62    2.08    0.81            0.09    0.07    0.02           0.22     0.25
B9         33.85   33.89   24.79          64.88    4.09    5.50           6.86   53.31           0.41    0.50    0.56    0.46            0.26    0.26    0.24           0.34     0.38
B10        35.63   33.82   22.07          64.82   10.42   10.49          14.79   45.18           0.35    0.53    0.61    0.45            0.31    0.34    0.29           0.39     0.46
B11        37.50   34.01   19.97          64.97   15.98   14.97          21.90   43.12           0.29    0.55    0.66    0.44            0.27    0.29    0.24           0.36     0.41
B12        43.44   34.13   13.41          65.07   33.89   30.64          45.69   42.12           0.15    0.65    0.85    0.41            0.23    0.29    0.21           0.41     0.47
B13        65.09   70.96   63.00          87.46   -7.36   -4.40           8.58  210.87           0.21    0.12    0.12    0.16            0.26    0.22    0.31           0.22     0.24
B14        68.33   64.89   59.21          84.43   12.91   -5.90          14.20  335.44           0.10    0.23    0.14    0.18            0.30    0.39    0.32           0.29     0.36
B15        71.03   73.75   44.42          88.80   -0.16   18.00          18.01   90.51           0.10    0.14    0.30    0.13            0.51    0.53    0.55           0.35     0.40
B16        58.13   60.42   49.31          82.07   -0.32    0.62           0.72  116.54           0.21    0.22    0.24    0.22            0.33    0.39    0.36           0.32     0.37
B17        65.41   62.56   46.55          83.21   11.70    5.80          13.06   26.40           0.10    0.25    0.26    0.19            0.29    0.41    0.37           0.33     0.41
B18        62.10   68.68   48.66          86.35   -9.36    8.75          12.81  136.95           0.21    0.14    0.26    0.17            0.36    0.31    0.37           0.26     0.32
B19        61.18   62.98   60.46          83.43    1.06   -8.86           8.93  276.84           0.21    0.20    0.14    0.20            0.37    0.44    0.37           0.28     0.33
B20         4.82    2.90    0.96          19.62   30.63   16.10          34.60   27.73           1.00    2.05    2.03    1.44            0.05    0.03    0.01           0.19     0.22
B21        16.58   11.07    4.00          39.70   37.95   23.10          44.43   31.32           0.50    1.31    1.39    0.87            0.12    0.10    0.06           0.28     0.32
B22        32.95   28.03   16.25          59.91   22.37   14.54          26.68   33.03           0.32    0.68    0.75    0.52            0.33    0.32    0.23           0.37     0.43
C1          6.35    6.23    3.46          29.99    3.62    9.83          10.48   69.77           1.10    1.27    1.49    1.19            0.12    0.12    0.08           0.29     0.36
C2          6.63    6.17    2.09          29.85    7.22   20.28          21.53   70.40           1.04    1.30    1.77    1.18            0.08    0.09    0.04           0.27     0.31
C3          7.10    6.15    1.13          29.79   12.20   31.07          33.38   68.56           0.98    1.34    2.13    1.17            0.08    0.08    0.02           0.29     0.32
C4          7.78    6.17    0.29          29.84   18.51   46.03          49.61   68.10           0.91    1.41    3.15    1.15            0.10    0.08    0.00           0.36     0.43
C5         23.43   22.73   11.30          54.79    6.87   18.97          20.18   70.10           0.53    0.70    0.94    0.62            0.29    0.30    0.20           0.44     0.54
C6         25.25   22.70    6.41          54.76   14.90   36.66          39.57   67.89           0.44    0.75    1.25    0.61            0.25    0.25    0.10           0.39     0.46
C7         26.97   22.62    3.10          54.68   22.36   54.91          59.28   67.84           0.38    0.79    1.69    0.59            0.29    0.26    0.05           0.41     0.46
C8         30.46   22.72    0.56          54.79   35.40   83.93          91.09   67.13           0.29    0.89    3.11    0.57            0.27    0.24    0.01           0.33     0.42
C9         40.04   40.63   27.85          69.91    2.72    8.88           9.29   72.95           0.34    0.41    0.51    0.38            0.36    0.39    0.37           0.40     0.45
C10        40.93   40.54   23.49          69.85    5.72   16.46          17.42   70.84           0.31    0.43    0.59    0.38            0.35    0.38    0.31           0.39     0.44
C11        42.01   40.44   19.47          69.78    9.29   24.31          26.03   69.09           0.27    0.45    0.69    0.37            0.35    0.39    0.27           0.37     0.44
C12        48.29   40.71    6.57          69.97   26.50   62.19          67.60   66.92           0.12    0.53    1.30    0.34            0.29    0.37    0.10           0.38     0.46
C13        58.29   66.11   62.53          85.05  -12.79   -8.11          15.14  212.36           0.30    0.14    0.13    0.20            0.22    0.19    0.29           0.24     0.26
C14        61.40   54.16   55.19          78.55   22.61  -11.88          25.54  332.29           0.11    0.35    0.17    0.25            0.39    0.46    0.42           0.36     0.42
C15        68.41   71.22   32.27          87.59   -0.55   32.35          32.36   90.97           0.10    0.15    0.47    0.14            0.39    0.40    0.37           0.36     0.41
C16        45.18   47.17   38.63          74.29   -0.86    0.39           0.97  156.60           0.33    0.33    0.35    0.33            0.33    0.39    0.33           0.33     0.39
C17        56.81   50.74   34.48          76.52   20.36   10.00          22.69   26.17           0.11    0.38    0.40    0.27            0.33    0.44    0.28           0.40     0.50
C18        53.39   62.12   37.98          82.98  -16.04   16.23          22.83  134.67           0.30    0.16    0.38    0.22            0.27    0.24    0.31           0.30     0.35
C19        49.62   50.64   56.85          76.46    2.14  -17.22          17.35  277.09           0.32    0.30    0.16    0.30            0.33    0.42    0.26           0.34     0.42
C20        12.03    8.88    1.19          35.75   26.77   40.53          48.57   56.55           0.68    1.31    2.10    0.98            0.09    0.08    0.02           0.29     0.34
C21        21.78   20.39   10.99          52.27   10.24   15.58          18.64   56.68           0.54    0.77    0.95    0.67            0.20    0.22    0.15           0.37     0.44
C22        27.02   22.88   10.49          54.95   21.37   21.75          30.50   45.51           0.39    0.78    0.97    0.60            0.31    0.31    0.18           0.39     0.45
D1          4.14    4.38    2.43          24.90   -1.15    8.76           8.84   97.46           1.33    1.39    1.67    1.35            0.08    0.09    0.05           0.33     0.39
D2          4.14    4.43    1.51          25.04   -1.82   18.08          18.17   95.76           1.32    1.37    1.95    1.34            0.05    0.06    0.03           0.30     0.33
D3          4.12    4.40    0.86          24.97   -1.79   27.02          27.08   93.80           1.32    1.37    2.32    1.34            0.06    0.07    0.02           0.33     0.37
D4          4.12    4.43    0.32          25.03   -2.02   37.07          37.13   93.11           1.35    1.36    3.10    1.33            0.06    0.07    0.01           0.35     0.43
D5         17.15   18.14    9.11          49.66   -1.86   17.26          17.37   96.15           0.71    0.76    1.06    0.73            0.19    0.25    0.19           0.40     0.51
D6         17.14   18.21    4.93          49.75   -2.29   35.20          35.28   93.73           0.70    0.75    1.41    0.73            0.20    0.23    0.09           0.45     0.51
D7         16.99   18.06    2.43          49.57   -2.29   51.27          51.32   92.56           0.71    0.75    1.89    0.72            0.18    0.20    0.03           0.46     0.50
D8         16.79   18.08    0.74          49.59   -3.49   71.52          71.60   92.79           0.76    0.74    3.01    0.72            0.17    0.18    0.01           0.38     0.42
D9         45.49   47.53   23.73          74.52   -0.96   24.07          24.09   92.29           0.28    0.33    0.61    0.31            0.46    0.54    0.35           0.41     0.51
D10        45.39   47.83   13.64          74.72   -2.08   46.65          46.69   92.55           0.27    0.33    0.92    0.31            0.27    0.30    0.15           0.36     0.41
D11        45.02   47.70    6.84          74.64   -2.80   69.06          69.11   92.32           0.27    0.33    1.36    0.30            0.24    0.23    0.07           0.29     0.33
D12        44.86   47.96    3.37          74.80   -3.96   87.66          87.75   92.59           0.29    0.32    1.92    0.30            0.18    0.15    0.04           0.25     0.29
D13        52.48   61.77   61.98          82.79  -17.59  -11.47          21.00  213.10           0.39    0.15    0.13    0.23            0.21    0.17    0.17           0.29     0.32
D14        54.72   44.57   50.95          72.61   32.04  -17.54          36.52  331.31           0.13    0.48    0.19    0.32            0.24    0.31    0.23           0.33     0.41
D15        66.76   69.28   23.91          86.64   -0.09   44.63          44.63   90.12           0.09    0.17    0.63    0.14            0.36    0.36    0.34           0.37     0.46
D16        33.74   35.23   28.93          65.93   -0.79    0.23           0.86  162.40           0.45    0.46    0.48    0.45            0.25    0.28    0.23           0.33     0.37
D17        48.83   40.40   24.57          69.75   28.92   14.29          32.26   26.30           0.13    0.53    0.55    0.35            0.17    0.21    0.24           0.25     0.33
D18        46.03   56.11   29.02          79.68  -21.62   23.79          32.15  132.27           0.39    0.19    0.52    0.26            0.29    0.28    0.29           0.32     0.38
D19        39.13   39.22   52.78          68.91    4.21  -25.93          26.27  279.21           0.44    0.41    0.18    0.42            0.21    0.26    0.22           0.29     0.35
D20         2.97    2.97    1.08          19.93    1.91   14.89          15.02   82.68           1.43    1.58    2.09    1.51            0.03    0.03    0.02           0.22     0.26
D21        30.63   28.25    1.52          60.12   13.08   78.39          79.47   80.53           0.38    0.63    2.36    0.51            0.22    0.21    0.02           0.41     0.44
D22        40.47   43.83   55.86          72.12   -5.47  -23.68          24.31  256.98           0.48    0.33    0.17    0.38            0.17    0.24    0.13           0.31     0.35
E1          5.40    6.13    3.45          29.73   -5.79    9.44          11.08  121.52           1.26    1.21    1.51    1.22            0.06    0.08    0.05           0.29     0.35
E2          4.94    6.14    2.24          29.76  -11.51   18.81          22.06  121.47           1.34    1.17    1.78    1.22            0.07    0.08    0.03           0.27     0.33
E3          4.51    6.13    1.32          29.74  -17.00   28.44          33.14  120.87           1.44    1.13    2.15    1.23            0.05    0.08    0.02           0.27     0.31
E4          4.00    6.10    0.49          29.66  -23.68   41.82          48.05  119.52           1.64    1.07    3.05    1.24            0.05    0.07    0.01           0.32     0.37
E5         24.32   27.84   14.76          59.74  -10.56   17.92          20.80  120.52           0.62    0.53    0.83    0.56            0.23    0.25    0.20           0.47     0.58
E6         22.27   27.83    9.19          59.74  -19.71   34.36          39.61  119.84           0.70    0.49    1.11    0.56            0.27    0.35    0.16           0.46     0.51
E7         20.29   27.86    5.08          59.76  -29.18   51.66          59.33  119.46           0.80    0.46    1.52    0.57            0.22    0.27    0.06           0.37     0.41
E8         19.15   28.16    3.12          60.03  -36.01   63.94          73.39  119.39           0.90    0.42    1.92    0.57            0.19    0.20    0.04           0.35     0.39
E9         43.76   47.82   31.84          74.71   -6.76   10.81          12.75  122.03           0.35    0.30    0.45    0.32            0.30    0.33    0.20           0.38     0.43
E10        41.64   47.76   24.58          74.67  -12.92   22.76          26.18  119.59           0.39    0.29    0.60    0.32            0.30    0.33    0.21           0.39     0.43
E11        39.95   48.00   19.43          74.83  -18.75   33.11          38.05  119.52           0.42    0.27    0.73    0.32            0.39    0.41    0.23           0.42     0.47
E12        37.91   47.97   14.33          74.81  -25.11   44.98          51.52  119.17           0.47    0.25    0.91    0.33            0.35    0.32    0.18           0.40     0.45
E13        47.41   57.80   61.38          80.63  -21.86  -14.62          26.30  213.77           0.48    0.16    0.14    0.27            0.26    0.23    0.14           0.31     0.36
E14        48.74   36.73   46.80          67.08   40.21  -22.31          45.98  330.98           0.15    0.62    0.22    0.40            0.25    0.30    0.21           0.36     0.46
E15        65.34   67.32   17.76          85.67    0.97   55.43          55.44   89.00           0.09    0.19    0.80    0.15            0.31    0.34    0.24           0.31     0.39
E16        24.46   25.64   20.77          57.69   -1.09    0.77           1.34  145.15           0.59    0.60    0.64    0.59            0.19    0.21    0.16           0.29     0.34
E17        41.82   31.99   16.77          63.33   36.53   19.19          41.26   27.71           0.16    0.70    0.73    0.44            0.30    0.27    0.19           0.34     0.39
E18        39.77   50.61   21.78          76.44  -26.26   31.10          40.71  130.18           0.47    0.22    0.68    0.31            0.21    0.21    0.20           0.27     0.33
E19        30.29   29.68   48.55          61.38    6.36  -34.18          34.77  280.54           0.58    0.54    0.22    0.55            0.22    0.27    0.26           0.32     0.38
E20         7.05    8.40    1.37          34.80   -9.91   36.50          37.82  105.20           1.16    1.04    2.16    1.07            0.06    0.08    0.02           0.31     0.35
E21        24.07   28.93    6.26          60.72  -15.85   47.59          50.16  108.42           0.63    0.49    1.35    0.54            0.19    0.23    0.08           0.35     0.40
E22         8.60   18.33   12.96          49.89  -60.57    5.69          60.83  174.63           1.82    0.52    0.93    0.82            0.04    0.07    0.14           0.31     0.37
F1          3.58    4.45    3.18          25.11  -10.43    3.32          10.95  162.36           1.51    1.31    1.54    1.37            0.05    0.06    0.05           0.30     0.36
F2          3.00    4.51    2.68          25.29  -20.76    7.39          22.03  160.41           1.72    1.24    1.66    1.39            0.04    0.07    0.05           0.33     0.37
F3          2.44    4.39    2.28          24.91  -29.66   10.05          31.32  161.29           1.97    1.20    1.77    1.42            0.04    0.07    0.05           0.30     0.36
F4          1.55    4.37    1.52          24.86  -49.92   17.63          52.94  160.55           2.77    1.09    2.13    1.45            0.02    0.06    0.02           0.31     0.35
F5         11.37   14.32    9.83          44.68  -16.39    6.23          17.54  159.20           1.03    0.78    1.01    0.87            0.13    0.15    0.15           0.44     0.53
F6          9.10   14.32    8.27          44.68  -33.96   11.74          35.93  160.93           1.31    0.71    1.13    0.89            0.09    0.15    0.12           0.37     0.44
F7          7.30   14.11    6.84          44.38  -48.80   16.90          51.65  160.90           1.63    0.66    1.27    0.91            0.06    0.11    0.09           0.35     0.40
F8          5.93   14.48    5.72          44.91  -65.17   22.87          69.07  160.67           2.07    0.59    1.42    0.92            0.05    0.10    0.08           0.29     0.35
F9         29.33   33.89   25.46          64.87  -12.32    4.29          13.05  160.83           0.58    0.43    0.56    0.48            0.29    0.34    0.21           0.49     0.54
F10        26.03   33.70   22.68          64.72  -24.82    9.14          26.45  159.78           0.71    0.39    0.63    0.50            0.19    0.23    0.18           0.42     0.46
F11        23.66   33.98   20.94          64.95  -35.91   12.95          38.18  160.17           0.83    0.35    0.68    0.50            0.27    0.34    0.27           0.42     0.47
F12        20.94   33.94   18.89          64.92  -48.25   17.17          51.22  160.42           1.00    0.32    0.75    0.52            0.20    0.22    0.26           0.46     0.51
F13        43.04   54.20   60.75          78.58  -25.55  -17.53          30.99  214.45           0.57    0.18    0.14    0.30            0.32    0.30    0.17           0.32     0.36
F14        43.42   30.36   42.82          61.96   47.20  -26.29          54.03  330.88           0.17    0.76    0.25    0.47            0.22    0.23    0.22           0.29     0.36
F15        64.35   65.68   13.52          84.83    2.33   64.42          64.46   87.93           0.09    0.20    0.96    0.16            0.32    0.36    0.18           0.27     0.34
F16        17.39   18.33   14.64          49.89   -1.54    1.23           1.99  141.87           0.74    0.75    0.80    0.74            0.22    0.23    0.16           0.37     0.45
F17        36.16   25.64   11.35          57.69   42.92   23.82          49.09   29.03           0.19    0.87    0.91    0.52            0.19    0.20    0.15           0.29     0.35
