targets/wolf_faust/transmissive/V120913.it8
IT8.7/1
ORIGINATOR "Wolf Faust"
DESCRIPTOR "Velvia (RVP 50), Type 3, L* a* b* (light D50, viewing angle 2)"
MANUFACTURER "Wolf Faust - http://www.coloraid.de"
CREATED "October 02, 2012"
PROD_DATE "2012:08"
DIFFUSE_GEOMETRY "opal"
SERIAL "V120913 Batch Average Data"
MATERIAL "Fujichrome Velvia (RVP 50)"
KEYWORD "MEAN_DE" # Mean Delta E of samples compared to batch average
NUMBER_OF_FIELDS 18
BEGIN_DATA_FORMAT
SAMPLE_ID  XYZ_X   XYZ_Y   XYZ_Z          LAB_L   LAB_A   LAB_B          LAB_C   LAB_H          D_RED  D_GREEN  D_BLUE  D_VIS          STDEV_X STDEV_Y STDEV_Z        MEAN_DE  STDEV_DE
END_DATA_FORMAT
NUMBER_OF_SETS 288
BEGIN_DATA
A1          2.14    1.83    1.27          14.56    8.85    2.98           9.34   18.63           1.51    1.90    1.92    1.71            0.04    0.03    0.02           0.28     0.31
A2          2.64    1.80    1.05          14.41   19.58    5.76          20.41   16.40           1.32    2.09    1.98    1.67            0.05    0.03    0.02           0.30     0.35 
A3          3.17    1.79    0.89          14.36   29.22    8.24          30.36   15.75           1.17    2.36    2.03    1.64            0.05    0.03    0.02           0.26     0.30
A4          4.22    1.85    0.67          14.69   43.94   12.77          45.76   16.20           0.95    3.33    2.07    1.56            0.06    0.03    0.01           0.26     0.32 
A5          9.55    8.32    5.79          34.65   13.04    4.83          13.91   20.32           0.88    1.21    1.22    1.05            0.16    0.12    0.09           0.40     0.46
A6         11.48    8.31    5.01          34.62   27.78    8.68          29.10   17.34           0.71    1.35    1.27    1.02            0.16    0.11    0.07           0.35     0.41 
A7         13.79    8.41    4.32          34.83   42.41   12.82          44.31   16.82           0.55    1.54    1.32    0.98            0.19    0.11    0.06           0.32     0.40
A8         17.38    8.70    3.56          35.41   60.83   18.52          63.59   16.93           0.38    1.94    1.37    0.92            0.09    0.06    0.05           0.22     0.25 
A9         28.30   27.58   21.01          59.51    6.80    3.42           7.62   26.67           0.48    0.60    0.63    0.55            0.38    0.35    0.22           0.51     0.58
A10        30.32   27.68   20.10          59.60   14.15    5.45          15.16   21.07           0.41    0.64    0.65    0.54            0.40    0.39    0.19           0.49     0.57
A11        32.83   27.95   19.10          59.84   22.21    7.96          23.60   19.72           0.33    0.68    0.67    0.52            0.36    0.36    0.14           0.49     0.58
A12        38.74   28.03   16.79          59.92   41.73   13.27          43.79   17.65           0.17    0.80    0.71    0.49            0.26    0.27    0.24           0.40     0.46 
A13        72.82   76.92   65.62          90.28   -2.79   -2.05           3.46  216.26           0.13    0.10    0.11    0.12            0.24    0.20    0.09           0.15     0.19
A14        78.50   79.62   65.49          91.51    3.46    0.20           3.47    3.25           0.07    0.11    0.11    0.10            0.17    0.17    0.12           0.13     0.14 
A15        79.17   81.16   63.94          92.20    1.82    2.86           3.39   57.53           0.07    0.09    0.12    0.09            0.15    0.14    0.11           0.13     0.15
A16        76.67   79.60   64.80          91.50   -0.15    0.83           0.85  101.25           0.09    0.10    0.11    0.10            0.21    0.17    0.17           0.21     0.24
A17        78.26   79.55   64.02          91.48    3.10    1.54           3.47   26.41           0.07    0.11    0.12    0.10            0.13    0.15    0.18           0.17     0.19
A18        74.66   78.21   60.27          90.88   -1.55    4.16           4.44  110.46           0.10    0.10    0.15    0.11            0.16    0.14    0.19           0.21     0.23 
A19        72.48   75.04   64.67          89.41    0.26   -2.65           2.67  275.51           0.12    0.12    0.11    0.13            0.13    0.16    0.12           0.20     0.23
A20         6.28    2.96    1.78          19.89   46.47    6.26          46.89    7.68           0.81    2.62    1.65    1.38            0.07    0.03    0.03           0.21     0.26 
A21        26.18   18.45   13.89          50.04   39.13    3.42          39.28    5.00           0.35    1.01    0.79    0.67            0.26    0.21    0.19           0.33     0.39
A22        52.81   48.35   30.71          75.04   16.65   13.12          21.20   38.24           0.16    0.39    0.46    0.29            0.42    0.50    0.38           0.43     0.48
B1          3.23    2.89    1.60          19.60    7.69    7.61          10.82   44.68           1.35    1.66    1.84    1.51            0.05    0.04    0.03           0.33     0.37
B2          3.73    2.86    1.01          19.48   16.23   15.01          22.10   42.77           1.21    1.78    2.07    1.48            0.06    0.04    0.02           0.30     0.34
B3          4.34    2.90    0.62          19.62   24.26   22.16          32.86   42.41           1.08    1.91    2.31    1.45            0.06    0.04    0.01           0.31     0.37
B4          5.36    2.92    0.10          19.72   36.89   32.19          48.96   41.11           0.92    2.25    3.36    1.41            0.08    0.05    0.00           0.35     0.42
B5         12.15   10.88    6.10          39.38   11.95   11.53          16.61   43.98           0.78    1.07    1.21    0.94            0.19    0.15    0.09           0.46     0.51
B6         14.34   11.05    4.05          39.66   24.98   22.72          33.76   42.29           0.62    1.17    1.42    0.90            0.22    0.16    0.07           0.44     0.52
B7         16.47   10.93    2.47          39.47   38.34   33.50          50.92   41.15           0.50    1.33    1.66    0.87            0.20    0.13    0.04           0.35     0.41
B8         21.01   11.44    0.99          40.31   58.15   51.35          77.58   41.44           0.31    1.63    2.11    0.81            0.10    0.08    0.02           0.21     0.24
B9         33.72   33.75   24.43          64.76    4.17    5.96           7.28   55.01           0.41    0.50    0.57    0.46            0.44    0.42    0.27           0.52     0.59
B10        35.28   33.60   21.56          64.64   10.03   11.18          15.02   48.09           0.35    0.53    0.63    0.46            0.46    0.46    0.23           0.51     0.60
B11        37.22   33.83   19.51          64.83   15.65   15.70          22.17   45.08           0.30    0.56    0.67    0.44            0.42    0.42    0.19           0.47     0.55
B12        43.56   34.26   13.40          65.17   33.79   30.85          45.76   42.39           0.14    0.65    0.86    0.41            0.28    0.33    0.18           0.47     0.52
B13        64.98   70.93   62.82          87.45   -7.54   -4.25           8.65  209.39           0.21    0.12    0.13    0.16            0.21    0.18    0.15           0.21     0.25
B14        68.50   65.17   59.04          84.57   12.64   -5.48          13.78  336.56           0.10    0.23    0.15    0.18            0.32    0.42    0.18           0.35     0.43
B15        71.18   73.90   44.56          88.87   -0.16   17.95          17.96   90.52           0.10    0.13    0.30    0.12            0.15    0.17    0.12           0.22     0.25
B16        58.18   60.71   49.39          82.22   -0.88    0.80           1.21  137.37           0.22    0.22    0.24    0.22            0.34    0.40    0.19           0.35     0.41
B17        65.75   63.08   46.70          83.48   11.28    6.10          12.82   28.41           0.10    0.24    0.26    0.19            0.46    0.55    0.37           0.35     0.42
B18        61.97   68.65   48.86          86.33   -9.60    8.50          12.82  138.49           0.22    0.14    0.25    0.17            0.23    0.19    0.20           0.22     0.25
B19        60.87   62.91   60.10          83.40    0.50   -8.57           8.58  273.31           0.21    0.20    0.14    0.21            0.28    0.36    0.19           0.32     0.38
B20         4.81    2.95    0.95          19.85   29.58   16.66          33.95   29.39           1.01    2.01    2.05    1.43            0.06    0.04    0.02           0.26     0.30
B21        16.55   11.03    3.89          39.63   38.07   23.67          44.83   31.88           0.50    1.31    1.41    0.87            0.18    0.13    0.07           0.34     0.37
B22        32.66   27.82   16.05          59.72   22.15   14.68          26.58   33.53           0.32    0.68    0.76    0.52            0.38    0.40    0.30           0.48     0.54
C1          6.18    6.11    3.25          29.69    3.21   10.74          11.22   73.36           1.12    1.27    1.53    1.20            0.08    0.07    0.04           0.39     0.44
C2          6.60    6.10    2.11          29.67    7.67   19.80          21.24   68.84           1.04    1.31    1.76    1.18            0.09    0.08    0.03           0.35     0.40
C3          7.01    6.08    1.08          29.60   12.12   31.52          33.77   68.97           0.98    1.35    2.16    1.17            0.10    0.08    0.03           0.40     0.44
C4          7.74    6.14    0.28          29.76   18.48   46.09          49.66   68.16           0.92    1.41    3.17    1.15            0.11    0.09    0.01           0.34     0.43
C5         23.25   22.58   11.14          54.63    6.77   19.20          20.36   70.58           0.53    0.70    0.95    0.63            0.32    0.29    0.16           0.49     0.55
C6         24.95   22.51    6.27          54.56   14.49   36.95          39.69   68.58           0.45    0.75    1.27    0.61            0.38    0.34    0.11           0.48     0.57
C7         26.99   22.61    3.02          54.67   22.48   55.42          59.80   67.92           0.38    0.79    1.70    0.59            0.36    0.30    0.06           0.45     0.53
C8         30.17   22.55    0.55          54.60   35.13   83.81          90.87   67.26           0.30    0.89    3.13    0.57            0.45    0.35    0.01           0.47     0.59
C9         39.63   40.35   27.16          69.71    2.28    9.69           9.96   76.76           0.35    0.41    0.52    0.39            0.48    0.48    0.24           0.49     0.58
C10        40.64   40.37   23.21          69.73    5.34   16.77          17.61   72.33           0.31    0.43    0.60    0.38            0.45    0.47    0.24           0.49     0.56
C11        42.06   40.42   19.01          69.77    9.49   25.28          27.00   69.43           0.27    0.45    0.70    0.37            0.45    0.46    0.16           0.49     0.56
C12        48.45   40.90    6.43          70.10   26.36   63.05          68.33   67.31           0.12    0.52    1.31    0.34            0.32    0.40    0.12           0.54     0.58
C13        58.32   66.17   62.35          85.08  -12.86   -7.87          15.08  211.46           0.30    0.14    0.13    0.20            0.35    0.29    0.15           0.31     0.39
C14        60.99   53.50   54.69          78.17   23.30  -12.01          26.22  332.73           0.11    0.36    0.17    0.25            0.47    0.60    0.26           0.53     0.67
C15        68.44   71.25   31.69          87.61   -0.57   33.25          33.26   90.98           0.10    0.15    0.48    0.14            0.36    0.37    0.22           0.23     0.26
C16        44.63   46.47   37.75          73.85   -0.50    0.80           0.98  122.29           0.33    0.34    0.36    0.33            0.41    0.44    0.38           0.39     0.44
C17        56.31   50.08   33.73          76.12   20.87   10.40          23.32   26.49           0.12    0.39    0.41    0.27            0.33    0.42    0.32           0.40     0.45
C18        53.07   61.91   37.07          82.86  -16.38   17.28          23.81  133.47           0.30    0.16    0.40    0.22            0.31    0.25    0.33           0.32     0.40
C19        48.91   49.71   56.13          75.89    2.68  -17.45          17.66  278.71           0.32    0.31    0.16    0.31            0.33    0.42    0.20           0.44     0.54
C20        11.93    8.79    1.09          35.57   26.85   41.64          49.55   57.19           0.68    1.32    2.16    0.98            0.13    0.11    0.02           0.36     0.41
C21        21.15   19.75   10.61          51.55   10.38   15.53          18.68   56.24           0.56    0.78    0.96    0.68            0.26    0.27    0.17           0.40     0.46
C22        26.82   22.66   10.33          54.72   21.53   21.90          30.71   45.48           0.40    0.78    0.98    0.60            0.31    0.32    0.18           0.48     0.53
D1          4.02    4.26    2.34          24.50   -1.20    8.82           8.91   97.72           1.34    1.40    1.69    1.37            0.06    0.06    0.04           0.37     0.41
D2          4.07    4.37    1.45          24.86   -2.07   18.41          18.53   96.40           1.33    1.38    1.97    1.35            0.06    0.06    0.03           0.33     0.36
D3          4.07    4.36    0.82          24.84   -1.92   27.42          27.48   94.02           1.33    1.37    2.35    1.34            0.06    0.06    0.02           0.32     0.37
D4          4.05    4.39    0.31          24.92   -2.52   37.06          37.14   93.89           1.37    1.36    3.14    1.34            0.04    0.04    0.01           0.28     0.31
D5         17.14   18.12    9.00          49.64   -1.80   17.63          17.73   95.82           0.71    0.76    1.06    0.73            0.25    0.25    0.15           0.45     0.50
D6         17.04   18.11    4.83          49.63   -2.30   35.50          35.58   93.71           0.70    0.75    1.43    0.73            0.26    0.25    0.09           0.44     0.50
D7         16.90   18.16    2.32          49.68   -3.29   52.39          52.50   93.60           0.72    0.75    1.93    0.72            0.25    0.24    0.05           0.44     0.52
D8         16.74   18.05    0.73          49.56   -3.67   71.67          71.76   92.93           0.76    0.74    3.04    0.72            0.26    0.26    0.01           0.40     0.51
D9         45.42   47.74   23.53          74.66   -1.75   24.67          24.73   94.05           0.29    0.33    0.61    0.31            0.45    0.43    0.24           0.47     0.52
D10        45.17   47.76   13.49          74.67   -2.51   46.98          47.05   93.06           0.27    0.33    0.92    0.31            0.42    0.43    0.18           0.46     0.50
D11        44.97   47.86    6.76          74.74   -3.35   69.57          69.65   92.76           0.28    0.32    1.37    0.30            0.37    0.34    0.09           0.41     0.45
D12        44.66   47.66    3.15          74.61   -3.69   88.88          88.95   92.37           0.29    0.32    1.98    0.30            0.32    0.26    0.05           0.29     0.33
D13        52.40   61.73   61.66          82.77  -17.71  -11.19          20.95  212.29           0.39    0.15    0.14    0.23            0.40    0.32    0.11           0.34     0.44
D14        54.49   44.28   50.49          72.42   32.27  -17.35          36.63  331.74           0.13    0.49    0.20    0.33            0.40    0.48    0.25           0.52     0.63
D15        66.60   69.10   23.23          86.55   -0.06   45.73          45.73   90.08           0.09    0.17    0.65    0.15            0.32    0.32    0.15           0.24     0.28
D16        33.23   34.73   28.04          65.53   -0.89    1.01           1.38  130.29           0.46    0.47    0.50    0.46            0.48    0.51    0.43           0.55     0.61
D17        48.49   40.02   23.80          69.48   29.16   15.25          32.91   27.61           0.14    0.54    0.57    0.36            0.36    0.44    0.33           0.49     0.55
D18        45.70   55.88   28.21          79.54  -21.99   24.88          33.21  131.47           0.39    0.19    0.54    0.26            0.31    0.25    0.27           0.34     0.41
D19        38.51   38.56   52.09          68.43    4.29  -26.00          26.35  279.37           0.45    0.42    0.19    0.43            0.30    0.36    0.17           0.48     0.56
D20         2.88    2.90    1.03          19.64    1.45   15.04          15.11   84.47           1.45    1.59    2.11    1.52            0.04    0.03    0.02           0.28     0.31
D21        30.08   27.76    1.40          59.67   12.95   79.04          80.09   80.70           0.39    0.64    2.43    0.51            0.30    0.31    0.03           0.39     0.44
D22        39.85   43.27   55.23          71.74   -5.74  -23.67          24.36  256.36           0.49    0.34    0.17    0.39            0.35    0.46    0.20           0.50     0.59
E1          5.41    6.27    3.42          30.08   -7.24   10.22          12.53  125.31           1.27    1.19    1.52    1.21            0.09    0.08    0.05           0.41     0.47
E2          4.93    6.10    2.16          29.67  -11.28   19.31          22.37  120.27           1.34    1.17    1.80    1.22            0.07    0.08    0.04           0.40     0.43
E3          4.61    6.25    1.29          30.03  -16.99   29.32          33.89  120.09           1.43    1.12    2.17    1.22            0.07    0.07    0.02           0.34     0.37
E4          3.94    6.05    0.48          29.54  -24.13   41.85          48.31  119.97           1.66    1.08    3.09    1.24            0.04    0.06    0.01           0.24     0.29
E5         23.98   27.55   14.33          59.48  -10.92   18.56          21.53  120.46           0.63    0.53    0.85    0.56            0.36    0.38    0.26           0.51     0.57
E6         22.04   27.65    9.07          59.57  -20.05   34.49          39.89  120.17           0.70    0.50    1.12    0.57            0.31    0.34    0.15           0.48     0.53
E7         20.07   27.75    5.08          59.66  -29.83   51.51          59.52  120.07           0.82    0.46    1.52    0.57            0.24    0.26    0.09           0.39     0.43
E8         18.80   27.85    3.04          59.75  -36.59   64.04          73.76  119.74           0.92    0.43    1.95    0.57            0.19    0.18    0.05           0.29     0.38
E9         43.67   47.74   31.05          74.66   -6.82   11.93          13.74  119.75           0.35    0.31    0.47    0.32            0.51    0.47    0.32           0.48     0.54
E10        41.35   47.61   24.34          74.58  -13.39   23.05          26.66  120.16           0.39    0.29    0.60    0.33            0.49    0.50    0.29           0.46     0.50
E11        39.61   47.73   18.86          74.65  -19.05   34.03          39.00  119.25           0.43    0.27    0.75    0.33            0.37    0.35    0.23           0.42     0.46
E12        37.62   47.79   14.04          74.69  -25.56   45.55          52.23  119.30           0.48    0.25    0.93    0.33            0.33    0.28    0.23           0.45     0.52
E13        47.25   57.69   61.02          80.57  -22.06  -14.36          26.32  213.07           0.48    0.16    0.14    0.27            0.34    0.27    0.11           0.34     0.41
E14        48.48   36.40   46.34          66.82   40.60  -22.20          46.27  331.33           0.15    0.63    0.23    0.40            0.46    0.51    0.33           0.52     0.66
E15        65.32   67.30   17.57          85.66    0.95   55.85          55.86   89.02           0.09    0.19    0.80    0.15            0.29    0.29    0.15           0.25     0.29
E16        24.11   25.25   20.41          57.32   -1.03    0.87           1.37  139.10           0.60    0.61    0.65    0.60            0.35    0.37    0.37           0.46     0.52
E17        41.86   31.98   16.66          63.32   36.68   19.45          41.52   27.94           0.16    0.70    0.73    0.44            0.44    0.47    0.35           0.52     0.60
E18        39.49   50.43   21.49          76.33  -26.67   31.47          41.25  130.28           0.48    0.22    0.69    0.31            0.26    0.22    0.26           0.39     0.46
E19        29.75   29.11   47.91          60.88    6.47  -34.29          34.90  280.68           0.59    0.55    0.22    0.56            0.28    0.33    0.19           0.52     0.61
E20         6.83    8.20    1.26          34.41  -10.40   37.32          38.74  105.58           1.18    1.04    2.22    1.08            0.08    0.09    0.03           0.38     0.41
E21        23.78   28.65    6.12          60.47  -16.07   47.82          50.45  108.57           0.64    0.50    1.37    0.54            0.23    0.28    0.12           0.40     0.44
E22         8.47   18.17   12.85          49.70  -60.91    5.68          61.17  174.67           1.85    0.52    0.94    0.82            0.08    0.13    0.19           0.36     0.42
F1          3.53    4.39    3.10          24.93  -10.47    3.62          11.08  160.91           1.52    1.32    1.55    1.38            0.06    0.06    0.04           0.34     0.39
F2          2.86    4.31    2.58          24.68  -20.55    7.10          21.74  160.95           1.74    1.26    1.68    1.41            0.05    0.06    0.04           0.29     0.32
F3          2.38    4.33    2.22          24.74  -30.05   10.33          31.77  161.03           1.99    1.20    1.79    1.42            0.04    0.05    0.04           0.29     0.32
F4          1.55    4.39    1.55          24.92  -50.18   17.40          53.12  160.87           2.80    1.09    2.12    1.45            0.01    0.03    0.02           0.19     0.22
F5         11.25   14.39    9.75          44.79  -17.68    6.68          18.90  159.29           1.05    0.78    1.02    0.87            0.17    0.21    0.17           0.42     0.47
F6          9.07   14.24    8.18          44.57  -33.66   11.88          35.70  160.56           1.31    0.71    1.14    0.89            0.16    0.21    0.16           0.45     0.49
F7          7.35   14.46    6.81          44.88  -50.47   17.90          53.55  160.47           1.65    0.64    1.28    0.90            0.09    0.14    0.08           0.34     0.38
F8          5.86   14.40    5.62          44.81  -65.48   23.15          69.46  160.53           2.09    0.59    1.43    0.92            0.04    0.05    0.06           0.24     0.28
F9         28.89   33.57   24.77          64.62  -12.93    5.10          13.90  158.48           0.59    0.44    0.57    0.49            0.48    0.51    0.41           0.56     0.61
F10        25.91   33.60   22.47          64.64  -24.95    9.40          26.66  159.35           0.71    0.39    0.63    0.50            0.41    0.47    0.34           0.53     0.59
F11        23.16   33.40   20.72          64.48  -36.10   12.58          38.23  160.79           0.85    0.36    0.68    0.51            0.29    0.36    0.34           0.48     0.53
F12        20.51   33.55   18.39          64.60  -48.95   17.71          52.05  160.11           1.02    0.32    0.76    0.52            0.19    0.20    0.28           0.43     0.50
F13        42.77   53.99   60.27          78.46  -25.83  -17.25          31.06  213.74           0.57    0.18    0.15    0.31            0.35    0.28    0.18           0.35     0.42
F14        43.18   30.07   42.34          61.71   47.58  -26.12          54.28  331.23           0.18    0.77    0.26    0.48            0.37    0.39    0.23           0.48     0.61
F15        64.31   65.66   13.40          84.82    2.28   64.71          64.75   87.98           0.09    0.20    0.96    0.16            0.24    0.24    0.11           0.27     0.32
F16        17.00   17.89   14.37          49.36   -1.38    1.00           1.72  143.78           0.75    0.76    0.81    0.75            0.25    0.26    0.30           0.49     0.54
F17        36.05   25.48   11.27          57.54   43.22   23.79          49.34   28.84           0.19    0.87    0.91    0.52            0.31    0.31    0.21           0.40     0.46
