targets/wolf_faust/transmissive/V120306.it8
IT8.7/1
ORIGINATOR "Wolf Faust"
DESCRIPTOR "Velvia (RVP 50), Type 3, L* a* b* (light D50, viewing angle 2)"
MANUFACTURER "Wolf Faust - http://www.coloraid.de"
CREATED "March 06, 2012"
PROD_DATE "2011:09"
DIFFUSE_GEOMETRY "opal"
SERIAL "V120306 Batch Average Data"
MATERIAL "Fujichrome Velvia (RVP 50)"
KEYWORD "MEAN_DE" # Mean Delta E of samples compared to batch average
NUMBER_OF_FIELDS 18
BEGIN_DATA_FORMAT
SAMPLE_ID  XYZ_X   XYZ_Y   XYZ_Z          LAB_L   LAB_A   LAB_B          LAB_C   LAB_H          D_RED  D_GREEN  D_BLUE  D_VIS          STDEV_X STDEV_Y STDEV_Z        MEAN_DE  STDEV_DE
END_DATA_FORMAT
NUMBER_OF_SETS 288
BEGIN_DATA
A1          2.25    1.91    1.36          15.00    9.25    2.58           9.61   15.56           1.49    1.88    1.88    1.69            0.03    0.03    0.02           0.19     0.23
A2          2.73    1.89    1.11          14.90   19.19    5.76          20.04   16.71           1.31    2.06    1.96    1.65            0.03    0.02    0.02           0.21     0.23 
A3          3.25    1.85    0.92          14.70   29.26    8.23          30.40   15.71           1.16    2.33    2.01    1.62            0.03    0.02    0.01           0.19     0.21
A4          4.17    1.84    0.71          14.64   43.43   11.84          45.02   15.25           0.96    3.19    2.04    1.57            0.02    0.01    0.01           0.20     0.22 
A5          9.65    8.34    5.92          34.68   13.66    4.28          14.32   17.38           0.87    1.21    1.21    1.05            0.10    0.11    0.08           0.35     0.38
A6         11.57    8.38    5.02          34.76   27.84    8.85          29.21   17.63           0.70    1.35    1.27    1.02            0.14    0.12    0.08           0.30     0.35 
A7         13.91    8.50    4.38          34.99   42.44   12.77          44.32   16.74           0.55    1.54    1.31    0.98            0.13    0.10    0.07           0.31     0.35
A8         17.32    8.70    3.53          35.39   60.58   18.64          63.38   17.10           0.38    1.93    1.37    0.92            0.10    0.07    0.04           0.21     0.24 
A9         28.20   27.42   20.93          59.36    7.04    3.33           7.79   25.30           0.48    0.61    0.63    0.55            0.23    0.27    0.21           0.42     0.46
A10        30.54   27.78   20.28          59.69   14.60    5.22          15.51   19.67           0.40    0.64    0.64    0.54            0.26    0.29    0.22           0.41     0.47
A11        32.82   27.93   19.15          59.83   22.27    7.84          23.61   19.40           0.33    0.68    0.66    0.52            0.27    0.30    0.24           0.44     0.51
A12        38.44   27.77   16.75          59.68   41.79   12.93          43.75   17.19           0.18    0.81    0.71    0.49            0.26    0.29    0.17           0.45     0.51 
A13        72.50   76.52   65.51          90.10   -2.67   -2.26           3.50  220.29           0.13    0.10    0.11    0.12            0.21    0.22    0.15           0.15     0.17
A14        77.37   78.19   64.89          90.87    4.00   -0.35           4.02  355.05           0.07    0.12    0.11    0.10            0.19    0.23    0.20           0.18     0.20 
A15        78.24   80.32   62.17          91.83    1.59    3.92           4.23   67.84           0.07    0.10    0.13    0.09            0.20    0.22    0.29           0.21     0.24
A16        75.51   78.63   64.43          91.07   -0.63    0.43           0.78  146.77           0.10    0.10    0.11    0.11            0.21    0.21    0.29           0.18     0.21
A17        76.84   77.78   62.57          90.68    3.75    1.55           4.06   22.46           0.07    0.12    0.13    0.11            0.21    0.26    0.34           0.25     0.28
A18        74.08   77.61   59.76          90.60   -1.54    4.20           4.47  110.08           0.11    0.10    0.15    0.11            0.36    0.34    0.47           0.27     0.31 
A19        71.94   74.37   64.39          89.10    0.49   -2.92           2.96  279.54           0.12    0.13    0.11    0.13            0.31    0.35    0.23           0.23     0.25
A20         6.12    2.91    1.81          19.67   45.71    5.47          46.03    6.82           0.83    2.59    1.64    1.39            0.08    0.04    0.02           0.25     0.32 
A21        26.16   18.37   13.81          49.94   39.47    3.47          39.62    5.03           0.34    1.02    0.79    0.67            0.25    0.21    0.08           0.36     0.41
A22        52.62   48.08   30.95          74.87   16.88   12.45          20.98   36.40           0.16    0.39    0.45    0.29            0.38    0.43    0.22           0.40     0.47
B1          3.31    2.99    1.70          19.99    7.38    7.22          10.32   44.37           1.34    1.64    1.81    1.50            0.04    0.04    0.02           0.23     0.27
B2          3.84    2.92    1.05          19.74   16.70   14.90          22.38   41.74           1.19    1.77    2.04    1.47            0.03    0.03    0.01           0.20     0.22
B3          4.35    2.85    0.66          19.43   25.32   20.99          32.89   39.65           1.07    1.94    2.26    1.46            0.05    0.04    0.01           0.25     0.28
B4          5.40    2.93    0.10          19.74   37.26   32.14          49.20   40.78           0.91    2.26    3.32    1.40            0.03    0.02    0.00           0.16     0.19
B5         12.22   10.96    6.25          39.51   11.88   11.10          16.26   43.05           0.78    1.07    1.20    0.93            0.15    0.15    0.08           0.35     0.40
B6         14.31   11.05    4.12          39.67   24.78   22.32          33.35   42.00           0.62    1.17    1.41    0.90            0.10    0.09    0.05           0.32     0.37
B7         16.53   11.14    2.57          39.81   37.21   33.31          49.94   41.83           0.50    1.30    1.64    0.87            0.09    0.09    0.03           0.36     0.42
B8         21.01   11.47    1.01          40.36   57.98   51.08          77.27   41.38           0.31    1.62    2.09    0.81            0.08    0.07    0.01           0.19     0.22
B9         33.66   33.63   24.38          64.66    4.36    5.87           7.32   53.44           0.41    0.50    0.57    0.47            0.21    0.28    0.22           0.37     0.45
B10        35.49   33.63   21.75          64.67   10.62   10.84          15.18   45.59           0.35    0.53    0.62    0.46            0.28    0.33    0.19           0.40     0.46
B11        37.37   33.84   19.65          64.84   16.12   15.40          22.30   43.70           0.30    0.56    0.67    0.44            0.27    0.31    0.21           0.38     0.44
B12        43.31   33.97   13.19          64.94   34.04   31.00          46.04   42.32           0.15    0.66    0.86    0.41            0.22    0.28    0.12           0.40     0.47
B13        64.84   70.70   62.58          87.34   -7.37   -4.22           8.49  209.78           0.21    0.12    0.13    0.16            0.31    0.27    0.27           0.21     0.25
B14        67.88   64.30   58.55          84.12   13.23   -5.76          14.43  336.50           0.10    0.23    0.15    0.18            0.20    0.30    0.19           0.36     0.42
B15        70.84   73.48   44.10          88.68   -0.03   18.17          18.17   90.09           0.10    0.14    0.31    0.13            0.36    0.39    0.39           0.25     0.31
B16        57.78   59.98   48.71          81.82   -0.12    0.90           0.92   96.68           0.22    0.22    0.24    0.22            0.42    0.47    0.28           0.33     0.38
B17        64.88   61.92   45.86          82.87   11.98    6.03          13.42   26.74           0.10    0.25    0.27    0.19            0.25    0.37    0.24           0.42     0.48
B18        61.63   68.20   48.08          86.10   -9.40    9.00          13.02  136.23           0.22    0.14    0.26    0.17            0.24    0.20    0.24           0.25     0.28
B19        60.48   62.19   59.68          83.01    1.22   -8.81           8.90  277.88           0.21    0.21    0.14    0.21            0.29    0.36    0.25           0.36     0.40
B20         4.79    2.88    0.94          19.56   30.56   16.25          34.61   28.01           1.00    2.05    2.04    1.44            0.03    0.02    0.01           0.18     0.22
B21        16.58   11.06    3.94          39.68   38.02   23.46          44.68   31.68           0.50    1.31    1.40    0.87            0.14    0.12    0.06           0.35     0.40
B22        32.92   27.97   16.14          59.86   22.47   14.70          26.85   33.19           0.32    0.68    0.75    0.52            0.25    0.25    0.10           0.36     0.42
C1          6.28    6.16    3.40          29.81    3.68    9.87          10.54   69.54           1.11    1.27    1.50    1.20            0.05    0.07    0.06           0.32     0.35
C2          6.61    6.15    2.08          29.80    7.20   20.36          21.60   70.53           1.05    1.30    1.78    1.18            0.08    0.09    0.03           0.30     0.34
C3          7.05    6.10    1.12          29.67   12.22   31.04          33.36   68.51           0.98    1.35    2.14    1.17            0.05    0.07    0.02           0.31     0.35
C4          7.73    6.13    0.29          29.73   18.42   45.89          49.45   68.12           0.92    1.41    3.15    1.15            0.08    0.08    0.00           0.33     0.41
C5         23.25   22.55   11.19          54.61    6.86   18.98          20.19   70.13           0.53    0.70    0.95    0.63            0.18    0.24    0.16           0.43     0.48
C6         25.21   22.64    6.34          54.70   14.96   36.87          39.79   67.92           0.44    0.75    1.26    0.61            0.27    0.29    0.11           0.46     0.54
C7         26.89   22.51    3.05          54.57   22.50   55.03          59.45   67.76           0.38    0.80    1.70    0.60            0.13    0.18    0.04           0.36     0.45
C8         30.48   22.74    0.56          54.81   35.39   83.96          91.12   67.15           0.29    0.89    3.11    0.57            0.26    0.22    0.01           0.32     0.41
C9         39.84   40.39   27.52          69.75    2.80    9.15           9.57   72.99           0.34    0.42    0.51    0.39            0.36    0.36    0.27           0.46     0.52
C10        40.77   40.31   23.17          69.69    5.94   16.78          17.81   70.51           0.31    0.43    0.60    0.38            0.34    0.40    0.26           0.42     0.47
C11        41.82   40.19   19.29          69.61    9.48   24.41          26.18   68.76           0.27    0.45    0.70    0.37            0.34    0.37    0.16           0.46     0.52
C12        48.10   40.47    6.50          69.80   26.71   62.21          67.70   66.76           0.12    0.53    1.30    0.34            0.19    0.27    0.07           0.37     0.41
C13        58.05   65.86   62.19          84.93  -12.84   -8.00          15.13  211.90           0.30    0.14    0.13    0.20            0.27    0.23    0.25           0.23     0.27
C14        61.03   53.69   54.55          78.28   22.93  -11.67          25.73  333.02           0.11    0.35    0.17    0.25            0.18    0.28    0.14           0.39     0.45
C15        68.19   70.94   32.05          87.46   -0.47   32.45          32.45   90.83           0.10    0.16    0.47    0.14            0.37    0.40    0.34           0.28     0.33
C16        44.59   46.47   37.96          73.85   -0.62    0.53           0.85  144.20           0.33    0.34    0.36    0.33            0.18    0.24    0.16           0.35     0.42
C17        56.47   50.32   33.98          76.26   20.63   10.28          23.05   26.50           0.12    0.39    0.41    0.27            0.32    0.43    0.25           0.44     0.51
C18        52.77   61.54   37.32          82.67  -16.30   16.60          23.27  134.47           0.31    0.17    0.39    0.22            0.25    0.22    0.29           0.32     0.37
C19        48.86   49.74   56.05          75.91    2.46  -17.34          17.51  278.08           0.32    0.31    0.16    0.31            0.29    0.40    0.27           0.42     0.48
C20        11.92    8.80    1.17          35.60   26.69   40.53          48.52   56.63           0.68    1.31    2.11    0.98            0.13    0.12    0.02           0.29     0.37
C21        21.61   20.20   10.82          52.06   10.36   15.75          18.85   56.65           0.55    0.77    0.96    0.67            0.18    0.22    0.12           0.40     0.45
C22        26.90   22.75   10.41          54.81   21.47   21.80          30.60   45.44           0.40    0.78    0.97    0.60            0.27    0.27    0.09           0.43     0.52
D1          4.10    4.32    2.39          24.71   -1.02    8.81           8.87   96.57           1.33    1.39    1.68    1.36            0.03    0.04    0.03           0.23     0.27
D2          4.10    4.38    1.49          24.88   -1.76   18.01          18.10   95.58           1.33    1.38    1.96    1.35            0.03    0.04    0.02           0.25     0.28
D3          4.09    4.37    0.85          24.86   -1.71   26.99          27.04   93.62           1.33    1.38    2.33    1.34            0.03    0.04    0.01           0.26     0.31
D4          4.09    4.38    0.32          24.90   -1.96   36.93          36.98   93.03           1.36    1.36    3.13    1.34            0.04    0.06    0.00           0.33     0.41
D5         17.14   18.14    9.09          49.66   -1.91   17.35          17.46   96.28           0.72    0.76    1.06    0.73            0.19    0.22    0.11           0.41     0.45
D6         17.05   18.12    4.88          49.64   -2.27   35.24          35.31   93.68           0.70    0.75    1.42    0.73            0.20    0.24    0.08           0.37     0.43
D7         16.96   18.01    2.41          49.51   -2.24   51.34          51.39   92.49           0.71    0.75    1.89    0.73            0.15    0.16    0.02           0.35     0.41
D8         16.80   18.06    0.74          49.57   -3.37   71.50          71.58   92.70           0.76    0.75    3.02    0.72            0.12    0.15    0.01           0.29     0.34
D9         45.34   47.29   23.49          74.38   -0.74   24.25          24.26   91.76           0.28    0.34    0.61    0.32            0.30    0.35    0.15           0.38     0.43
D10        45.24   47.63   13.56          74.59   -1.95   46.65          46.69   92.39           0.27    0.33    0.92    0.31            0.25    0.23    0.10           0.30     0.35
D11        44.85   47.49    6.80          74.50   -2.69   69.01          69.07   92.23           0.28    0.33    1.36    0.30            0.22    0.23    0.06           0.25     0.28
D12        44.57   47.67    3.35          74.61   -4.00   87.53          87.62   92.61           0.29    0.32    1.92    0.30            0.16    0.15    0.03           0.21     0.26
D13        52.26   61.52   61.61          82.66  -17.59  -11.34          20.93  212.80           0.39    0.15    0.13    0.24            0.29    0.24    0.19           0.25     0.29
D14        54.41   44.22   50.26          72.37   32.25  -17.16          36.53  331.98           0.13    0.49    0.20    0.33            0.26    0.34    0.21           0.41     0.47
D15        66.36   68.82   23.59          86.41    0.01   44.82          44.82   89.98           0.10    0.17    0.64    0.15            0.32    0.36    0.26           0.27     0.32
D16        33.20   34.59   28.34          65.43   -0.55    0.33           0.70  155.82           0.46    0.47    0.49    0.46            0.17    0.23    0.23           0.36     0.42
D17        48.40   39.89   24.10          69.39   29.29   14.54          32.70   26.40           0.14    0.54    0.56    0.36            0.19    0.26    0.16           0.38     0.43
D18        45.61   55.71   28.67          79.45  -21.82   23.97          32.41  132.32           0.39    0.19    0.53    0.27            0.26    0.23    0.15           0.25     0.32
D19        38.56   38.58   52.00          68.45    4.38  -25.87          26.24  279.60           0.45    0.42    0.19    0.43            0.20    0.28    0.17           0.38     0.44
D20         2.95    2.95    1.07          19.82    2.04   14.83          14.97   82.15           1.43    1.59    2.09    1.51            0.04    0.05    0.02           0.30     0.33
D21        30.30   27.93    1.51          59.82   13.09   78.03          79.12   80.48           0.39    0.64    2.36    0.51            0.29    0.33    0.03           0.46     0.52
D22        40.16   43.45   55.29          71.86   -5.32  -23.52          24.12  257.24           0.48    0.33    0.17    0.38            0.29    0.40    0.21           0.41     0.48
E1          5.37    6.08    3.41          29.61   -5.66    9.49          11.05  120.77           1.26    1.21    1.52    1.22            0.06    0.07    0.05           0.29     0.34
E2          4.91    6.09    2.20          29.64  -11.44   18.89          22.09  121.20           1.34    1.17    1.79    1.23            0.05    0.08    0.03           0.28     0.34
E3          4.49    6.11    1.32          29.68  -17.02   28.41          33.12  120.93           1.44    1.13    2.15    1.23            0.06    0.09    0.02           0.29     0.38
E4          3.98    6.07    0.49          29.58  -23.65   41.73          47.97  119.54           1.64    1.08    3.05    1.24            0.06    0.11    0.01           0.40     0.55
E5         24.16   27.65   14.65          59.57  -10.52   17.89          20.76  120.47           0.62    0.53    0.84    0.56            0.21    0.29    0.19           0.42     0.48
E6         22.10   27.61    9.10          59.53  -19.56   34.34          39.52  119.67           0.70    0.50    1.12    0.57            0.16    0.19    0.09           0.31     0.35
E7         20.13   27.65    5.01          59.57  -29.11   51.67          59.31  119.40           0.81    0.46    1.53    0.57            0.10    0.13    0.04           0.20     0.22
E8         19.03   27.99    3.09          59.88  -35.95   63.93          73.35  119.35           0.90    0.43    1.93    0.57            0.12    0.14    0.03           0.21     0.24
E9         43.57   47.56   31.50          74.55   -6.62   11.04          12.88  120.95           0.35    0.31    0.46    0.33            0.27    0.29    0.18           0.31     0.38
E10        41.38   47.41   24.29          74.45  -12.72   22.91          26.20  119.05           0.39    0.29    0.60    0.33            0.30    0.35    0.27           0.29     0.33
E11        39.58   47.54   19.18          74.53  -18.62   33.12          38.00  119.34           0.43    0.27    0.74    0.33            0.23    0.25    0.18           0.22     0.26
E12        37.64   47.68   14.16          74.62  -25.18   45.09          51.65  119.18           0.48    0.25    0.92    0.33            0.25    0.27    0.16           0.23     0.28
E13        47.13   57.49   60.98          80.45  -21.89  -14.52          26.27  213.56           0.48    0.17    0.14    0.27            0.25    0.20    0.20           0.24     0.28
E14        48.45   36.39   46.17          66.81   40.54  -22.02          46.13  331.50           0.15    0.63    0.23    0.40            0.22    0.25    0.19           0.32     0.36
E15        65.01   66.94   17.54          85.48    1.04   55.60          55.61   88.93           0.10    0.19    0.80    0.16            0.22    0.27    0.16           0.22     0.25
E16        24.15   25.25   20.41          57.32   -0.83    0.86           1.20  134.16           0.60    0.61    0.65    0.60            0.19    0.23    0.18           0.33     0.40
E17        41.73   31.84   16.51          63.21   36.78   19.61          41.68   28.06           0.16    0.70    0.74    0.44            0.20    0.24    0.15           0.35     0.40
E18        39.36   50.16   21.39          76.17  -26.38   31.40          41.01  130.03           0.48    0.22    0.69    0.31            0.25    0.25    0.19           0.26     0.31
E19        29.86   29.21   47.91          60.97    6.51  -34.14          34.76  280.79           0.59    0.55    0.22    0.55            0.27    0.35    0.25           0.46     0.54
E20         7.01    8.36    1.37          34.72   -9.94   36.47          37.80  105.25           1.16    1.04    2.16    1.07            0.09    0.13    0.02           0.37     0.44
E21        23.95   28.74    6.20          60.55  -15.65   47.58          50.09  108.21           0.63    0.50    1.36    0.54            0.22    0.30    0.08           0.35     0.43
E22         8.50   18.10   12.83          49.62  -60.35    5.61          60.61  174.69           1.83    0.52    0.94    0.82            0.05    0.08    0.13           0.25     0.30
F1          3.54    4.39    3.13          24.93  -10.26    3.40          10.81  161.69           1.52    1.32    1.55    1.38            0.04    0.06    0.05           0.29     0.34
F2          2.95    4.43    2.63          25.03  -20.45    7.32          21.72  160.30           1.72    1.25    1.67    1.39            0.04    0.07    0.04           0.25     0.32
F3          2.39    4.30    2.24          24.64  -29.31    9.96          30.96  161.22           1.97    1.21    1.78    1.42            0.03    0.07    0.04           0.34     0.40
F4          1.53    4.30    1.51          24.64  -49.52   17.38          52.48  160.66           2.76    1.10    2.13    1.46            0.02    0.06    0.02           0.31     0.40
F5         11.28   14.23    9.75          44.55  -16.47    6.28          17.63  159.15           1.04    0.79    1.02    0.87            0.11    0.15    0.11           0.37     0.43
F6          9.02   14.20    8.20          44.52  -33.85   11.69          35.82  160.94           1.32    0.71    1.14    0.89            0.09    0.15    0.08           0.34     0.41
F7          7.21   13.96    6.77          44.17  -48.67   16.86          51.51  160.90           1.63    0.66    1.27    0.92            0.07    0.13    0.09           0.28     0.32
F8          5.87   14.34    5.65          44.72  -65.05   22.88          68.96  160.62           2.07    0.59    1.43    0.92            0.02    0.03    0.06           0.23     0.27
F9         29.12   33.61   25.14          64.65  -12.18    4.47          12.97  159.84           0.58    0.44    0.56    0.49            0.21    0.28    0.17           0.35     0.41
F10        25.79   33.39   22.38          64.48  -24.73    9.30          26.42  159.39           0.71    0.40    0.63    0.50            0.18    0.27    0.23           0.32     0.36
F11        23.34   33.53   20.54          64.59  -35.78   13.13          38.11  159.84           0.84    0.36    0.69    0.51            0.18    0.24    0.21           0.28     0.31
F12        20.70   33.64   18.63          64.68  -48.38   17.31          51.39  160.31           1.01    0.32    0.75    0.52            0.09    0.09    0.14           0.25     0.29
F13        42.66   53.81   60.30          78.35  -25.68  -17.47          31.06  214.22           0.57    0.18    0.14    0.31            0.18    0.14    0.14           0.22     0.25
F14        43.25   30.16   42.25          61.80   47.41  -25.87          54.01  331.39           0.18    0.77    0.26    0.47            0.16    0.19    0.13           0.31     0.38
F15        64.00   65.29   13.34          84.63    2.39   64.55          64.59   87.88           0.09    0.21    0.96    0.16            0.23    0.26    0.12           0.21     0.24
F16        17.07   17.95   14.32          49.43   -1.31    1.28           1.83  135.38           0.75    0.76    0.81    0.75            0.13    0.18    0.14           0.28     0.34
F17        35.94   25.40   11.12          57.46   43.21   24.10          49.48   29.15           0.19    0.88    0.92    0.52            0.17    0.18    0.07           0.30     0.36
