targets/wolf_faust/transmissive/V120101.it8
IT8.7/1
ORIGINATOR "Wolf Faust"
DESCRIPTOR "Velvia (RVP 50), Type 3, L* a* b* (light D50, viewing angle 2)"
MANUFACTURER "Wolf Faust - http://www.coloraid.de"
CREATED "January 18, 2012"
PROD_DATE "2011:09"
DIFFUSE_GEOMETRY "opal"
SERIAL "V120101 Batch Average Data"
MATERIAL "Fujichrome Velvia (RVP 50)"
KEYWORD "MEAN_DE" # Mean Delta E of samples compared to batch average
NUMBER_OF_FIELDS 18
BEGIN_DATA_FORMAT
SAMPLE_ID  XYZ_X   XYZ_Y   XYZ_Z          LAB_L   LAB_A   LAB_B          LAB_C   LAB_H          D_RED  D_GREEN  D_BLUE  D_VIS          STDEV_X STDEV_Y STDEV_Z        MEAN_DE  STDEV_DE
END_DATA_FORMAT
NUMBER_OF_SETS 288
BEGIN_DATA
A1          2.20    1.87    1.31          14.81    9.07    2.90           9.53   17.69           1.50    1.89    1.90    1.70            0.04    0.03    0.01           0.27     0.32
A2          2.76    1.90    1.14          14.97   19.47    5.48          20.22   15.72           1.31    2.06    1.95    1.65            0.04    0.02    0.01           0.22     0.26 
A3          3.25    1.86    0.93          14.75   28.87    8.12          30.00   15.71           1.16    2.32    2.01    1.62            0.05    0.03    0.01           0.22     0.31
A4          4.33    1.91    0.69          15.00   44.05   12.86          45.89   16.27           0.94    3.23    2.06    1.55            0.07    0.03    0.01           0.39     0.47 
A5          9.86    8.62    6.07          35.25   12.96    4.57          13.75   19.41           0.87    1.19    1.20    1.04            0.12    0.11    0.04           0.37     0.45
A6         11.83    8.58    5.12          35.17   27.92    9.03          29.35   17.91           0.69    1.34    1.26    1.01            0.19    0.14    0.09           0.40     0.50 
A7         14.23    8.70    4.37          35.41   42.63   13.55          44.73   17.63           0.54    1.53    1.31    0.97            0.18    0.11    0.04           0.34     0.44
A8         17.35    8.70    3.59          35.41   60.67   18.29          63.36   16.77           0.38    1.94    1.36    0.92            0.06    0.04    0.04           0.15     0.18 
A9         28.92   28.25   21.87          60.11    6.59    2.77           7.15   22.79           0.47    0.59    0.61    0.54            0.28    0.29    0.22           0.25     0.29
A10        31.02   28.37   20.48          60.22   14.09    5.73          15.21   22.14           0.40    0.63    0.64    0.53            0.52    0.48    0.35           0.38     0.47
A11        33.53   28.69   19.63          60.51   21.85    7.99          23.26   20.08           0.32    0.66    0.65    0.51            0.37    0.34    0.23           0.33     0.40
A12        39.23   28.62   17.06          60.44   41.00   13.54          43.18   18.28           0.17    0.79    0.71    0.48            0.25    0.27    0.24           0.24     0.37 
A13        73.29   77.22   65.99          90.42   -2.41   -2.15           3.23  221.73           0.13    0.10    0.10    0.12            0.21    0.22    0.18           0.11     0.13
A14        78.31   79.36   65.75          91.40    3.59   -0.25           3.60  356.06           0.07    0.11    0.10    0.10            0.22    0.25    0.31           0.16     0.20 
A15        78.84   80.95   62.78          92.11    1.57    3.82           4.13   67.55           0.07    0.09    0.13    0.09            0.15    0.18    0.32           0.25     0.29
A16        76.14   79.18   64.95          91.31   -0.41    0.36           0.55  141.07           0.10    0.10    0.11    0.10            0.20    0.17    0.27           0.20     0.24
A17        77.70   78.84   63.37          91.16    3.38    1.61           3.75   25.51           0.07    0.11    0.12    0.10            0.17    0.27    0.28           0.25     0.29
A18        74.97   78.40   60.59          90.96   -1.26    3.99           4.19  107.53           0.10    0.10    0.15    0.11            0.27    0.23    0.37           0.23     0.28 
A19        72.91   75.45   64.92          89.60    0.32   -2.55           2.58  277.22           0.12    0.12    0.11    0.12            0.42    0.39    0.24           0.24     0.30
A20         6.34    3.01    1.85          20.10   46.24    5.89          46.62    7.26           0.81    2.58    1.63    1.38            0.10    0.05    0.01           0.29     0.36 
A21        26.54   18.66   14.04          50.28   39.54    3.46          39.69    5.00           0.34    1.01    0.78    0.67            0.38    0.28    0.16           0.38     0.46
A22        53.54   48.99   31.06          75.44   16.82   13.26          21.42   38.26           0.15    0.38    0.45    0.29            0.38    0.42    0.28           0.28     0.36
B1          3.39    3.03    1.66          20.17    7.96    7.93          11.24   44.91           1.33    1.64    1.82    1.49            0.05    0.05    0.03           0.25     0.29
B2          3.96    3.04    1.10          20.19   16.51   14.91          22.25   42.10           1.18    1.75    2.02    1.46            0.05    0.04    0.02           0.29     0.33
B3          4.43    2.92    0.67          19.72   25.11   21.43          33.01   40.48           1.07    1.92    2.27    1.45            0.07    0.04    0.01           0.30     0.36
B4          5.44    2.97    0.10          19.93   36.95   32.51          49.22   41.34           0.91    2.24    3.36    1.40            0.07    0.04    0.00           0.25     0.36
B5         12.67   11.38    6.27          40.21   11.92   12.19          17.05   45.64           0.76    1.05    1.20    0.92            0.13    0.13    0.05           0.32     0.38
B6         14.55   11.23    4.16          39.97   24.94   22.64          33.68   42.23           0.62    1.17    1.40    0.89            0.22    0.17    0.05           0.35     0.43
B7         16.92   11.32    2.58          40.12   38.02   33.76          50.85   41.61           0.49    1.30    1.64    0.86            0.22    0.14    0.02           0.30     0.41
B8         21.17   11.60    1.03          40.57   57.81   51.19          77.22   41.52           0.31    1.61    2.09    0.81            0.11    0.08    0.02           0.19     0.22
B9         34.33   34.47   25.05          65.33    3.82    5.80           6.95   56.69           0.41    0.49    0.55    0.46            0.30    0.31    0.27           0.24     0.28
B10        36.26   34.55   22.15          65.40   10.03   11.32          15.13   48.46           0.34    0.52    0.61    0.44            0.42    0.46    0.34           0.34     0.42
B11        37.95   34.68   20.01          65.50   15.13   15.81          21.88   46.26           0.29    0.54    0.66    0.43            0.44    0.48    0.25           0.40     0.49
B12        43.93   34.73   13.57          65.53   33.29   31.00          45.49   42.96           0.14    0.64    0.85    0.41            0.36    0.41    0.27           0.36     0.51
B13        65.18   71.12   63.13          87.54   -7.50   -4.39           8.69  210.34           0.21    0.12    0.12    0.16            0.45    0.40    0.40           0.30     0.34
B14        69.02   65.70   59.58          84.84   12.60   -5.56          13.77  336.19           0.09    0.22    0.14    0.17            0.49    0.59    0.64           0.29     0.42
B15        71.68   74.45   44.68          89.13   -0.22   18.26          18.26   90.69           0.09    0.13    0.30    0.12            0.40    0.41    0.40           0.25     0.29
B16        58.52   61.09   49.71          82.42   -0.93    0.79           1.22  139.70           0.21    0.21    0.23    0.22            0.54    0.55    0.43           0.29     0.35
B17        66.08   63.39   46.85          83.64   11.32    6.20          12.91   28.71           0.10    0.24    0.26    0.18            0.45    0.52    0.43           0.29     0.37
B18        62.45   69.09   49.15          86.55   -9.42    8.54          12.72  137.79           0.21    0.13    0.25    0.17            0.41    0.38    0.33           0.24     0.29
B19        61.33   63.38   60.61          83.64    0.51   -8.66           8.67  273.39           0.21    0.20    0.14    0.20            0.39    0.41    0.46           0.27     0.32
B20         4.87    2.95    0.97          19.84   30.40   16.35          34.52   28.27           1.00    2.03    2.03    1.43            0.09    0.06    0.02           0.29     0.35
B21        16.99   11.33    3.99          40.13   38.37   23.95          45.23   31.97           0.49    1.30    1.40    0.86            0.26    0.17    0.04           0.36     0.45
B22        33.37   28.45   16.37          60.29   22.21   14.89          26.74   33.84           0.31    0.67    0.75    0.51            0.42    0.35    0.16           0.36     0.45
C1          6.36    6.27    3.46          30.08    3.46    9.97          10.55   70.85           1.11    1.26    1.49    1.19            0.08    0.08    0.03           0.29     0.34
C2          6.79    6.30    2.09          30.16    7.53   20.86          22.17   70.16           1.03    1.29    1.77    1.17            0.08    0.08    0.03           0.26     0.30
C3          7.33    6.36    1.14          30.30   12.30   31.88          34.17   68.91           0.96    1.33    2.14    1.15            0.08    0.07    0.01           0.34     0.40
C4          7.88    6.22    0.28          29.95   18.89   46.35          50.05   67.83           0.91    1.41    3.19    1.14            0.12    0.10    0.01           0.42     0.48
C5         23.97   23.35   11.50          55.43    6.49   19.47          20.52   71.57           0.52    0.69    0.94    0.61            0.29    0.33    0.14           0.37     0.45
C6         25.44   22.94    6.39          55.01   14.60   37.17          39.94   68.55           0.44    0.74    1.26    0.60            0.32    0.30    0.07           0.33     0.44
C7         27.44   23.04    3.26          55.12   22.33   54.52          58.91   67.73           0.37    0.78    1.66    0.59            0.30    0.25    0.03           0.37     0.47
C8         30.74   22.98    0.56          55.05   35.29   84.39          91.47   67.31           0.29    0.89    3.14    0.56            0.29    0.21    0.01           0.35     0.40
C9         40.42   41.02   27.78          70.19    2.70    9.46           9.84   74.09           0.34    0.41    0.51    0.38            0.49    0.51    0.39           0.32     0.41
C10        41.49   41.17   23.25          70.29    5.53   17.66          18.51   72.61           0.30    0.42    0.60    0.37            0.41    0.47    0.29           0.33     0.40
C11        42.74   41.20   19.41          70.32    9.16   25.36          26.97   70.13           0.26    0.44    0.69    0.36            0.42    0.48    0.26           0.30     0.40
C12        48.62   41.19    6.65          70.31   25.94   62.44          67.61   67.44           0.12    0.52    1.29    0.34            0.41    0.49    0.11           0.44     0.55
C13        59.21   66.90   62.96          85.45  -12.30   -7.84          14.59  212.50           0.29    0.13    0.12    0.19            0.29    0.29    0.44           0.22     0.28
C14        61.88   54.65   55.38          78.84   22.48  -11.58          25.29  332.74           0.11    0.34    0.16    0.25            0.40    0.49    0.54           0.33     0.44
C15        68.97   71.82   32.10          87.88   -0.60   33.11          33.12   91.04           0.09    0.15    0.47    0.13            0.27    0.27    0.22           0.17     0.20
C16        45.41   47.30   38.22          74.38   -0.57    1.09           1.24  118.18           0.32    0.33    0.36    0.33            0.67    0.73    0.40           0.48     0.61
C17        56.96   50.91   34.17          76.62   20.31   10.62          22.92   27.61           0.11    0.38    0.40    0.27            0.20    0.27    0.23           0.30     0.34
C18        53.92   62.56   37.56          83.21  -15.69   17.20          23.28  132.36           0.29    0.16    0.39    0.21            0.27    0.26    0.20           0.19     0.23
C19        49.97   50.81   56.82          76.56    2.63  -17.01          17.22  278.80           0.31    0.30    0.16    0.30            0.32    0.34    0.39           0.28     0.33
C20        12.36    9.10    1.17          36.18   27.19   41.54          49.65   56.80           0.66    1.30    2.12    0.97            0.16    0.11    0.03           0.23     0.30
C21        21.79   20.30   10.80          52.17   10.69   15.98          19.23   56.23           0.54    0.77    0.96    0.67            0.31    0.27    0.13           0.34     0.41
C22        27.11   22.96   10.53          55.03   21.39   21.77          30.53   45.50           0.39    0.78    0.97    0.60            0.30    0.28    0.11           0.44     0.53
D1          4.20    4.45    2.42          25.10   -1.23    9.20           9.28   97.63           1.32    1.38    1.67    1.35            0.04    0.04    0.03           0.26     0.30
D2          4.22    4.54    1.52          25.37   -2.06   18.56          18.68   96.34           1.32    1.36    1.95    1.33            0.04    0.04    0.02           0.20     0.23
D3          4.19    4.51    0.86          25.29   -2.24   27.52          27.61   94.64           1.32    1.36    2.32    1.33            0.05    0.06    0.02           0.33     0.39
D4          4.18    4.54    0.32          25.37   -2.72   37.69          37.79   94.12           1.36    1.34    3.16    1.32            0.06    0.07    0.01           0.39     0.44
D5         17.68   18.77    9.30          50.42   -2.24   17.91          18.05   97.15           0.70    0.74    1.05    0.72            0.21    0.26    0.12           0.41     0.47
D6         17.26   18.50    5.00          50.10   -3.14   35.40          35.54   95.07           0.70    0.74    1.41    0.72            0.20    0.22    0.05           0.39     0.47
D7         17.08   18.17    2.43          49.70   -2.42   51.53          51.59   92.69           0.71    0.75    1.89    0.72            0.19    0.20    0.03           0.33     0.40
D8         17.11   18.41    0.74          49.98   -3.47   72.15          72.23   92.75           0.75    0.74    3.04    0.71            0.23    0.22    0.01           0.45     0.53
D9         45.92   48.20   24.17          74.95   -1.57   23.99          24.04   93.74           0.28    0.32    0.60    0.31            0.43    0.45    0.28           0.30     0.34
D10        45.80   48.43   13.81          75.09   -2.51   46.83          46.90   93.07           0.27    0.32    0.91    0.30            0.41    0.45    0.14           0.30     0.35
D11        45.44   48.15    6.82          74.92   -2.79   69.63          69.69   92.29           0.27    0.32    1.36    0.30            0.31    0.32    0.05           0.27     0.33
D12        45.34   48.33    3.37          75.03   -3.58   88.05          88.13   92.33           0.28    0.32    1.92    0.29            0.37    0.32    0.04           0.38     0.44
D13        53.25   62.42   62.32          83.14  -17.09  -11.21          20.43  213.26           0.38    0.15    0.13    0.23            0.29    0.29    0.36           0.21     0.25
D14        55.23   45.17   51.17          73.00   31.61  -17.09          35.94  331.60           0.13    0.47    0.19    0.32            0.42    0.49    0.51           0.35     0.48
D15        67.20   69.76   23.96          86.88   -0.12   44.95          44.95   90.16           0.09    0.17    0.63    0.14            0.26    0.27    0.18           0.15     0.19
D16        34.30   35.84   29.13          66.40   -0.88    0.73           1.17  141.04           0.45    0.45    0.48    0.45            0.34    0.36    0.24           0.43     0.50
D17        49.18   40.79   24.70          70.03   28.70   14.54          32.17   26.86           0.13    0.53    0.55    0.35            0.20    0.24    0.20           0.25     0.30
D18        46.54   56.58   29.10          79.94  -21.33   24.12          32.20  131.48           0.38    0.19    0.52    0.26            0.25    0.24    0.19           0.23     0.26
D19        39.44   39.51   52.80          69.12    4.25  -25.58          25.93  279.43           0.44    0.41    0.18    0.42            0.41    0.44    0.38           0.37     0.43
D20         3.04    3.04    1.10          20.22    1.80   14.96          15.07   83.15           1.42    1.57    2.08    1.50            0.05    0.05    0.02           0.29     0.33
D21        30.61   28.24    1.51          60.11   13.03   78.54          79.61   80.58           0.38    0.63    2.37    0.51            0.29    0.26    0.03           0.37     0.41
D22        40.68   44.16   55.87          72.34   -5.76  -23.31          24.01  256.12           0.48    0.33    0.17    0.38            0.40    0.38    0.24           0.33     0.41
E1          5.49    6.24    3.45          30.00   -5.95    9.87          11.52  121.08           1.25    1.20    1.51    1.21            0.05    0.06    0.02           0.21     0.26
E2          5.07    6.28    2.24          30.11  -11.41   19.43          22.53  120.43           1.33    1.16    1.78    1.21            0.05    0.07    0.03           0.28     0.33
E3          4.63    6.28    1.32          30.11  -17.03   29.05          33.67  120.38           1.43    1.12    2.15    1.22            0.05    0.08    0.02           0.30     0.35
E4          4.09    6.28    0.50          30.10  -24.37   42.46          48.95  119.85           1.64    1.06    3.07    1.22            0.06    0.09    0.01           0.38     0.43
E5         24.72   28.25   14.70          60.11  -10.45   18.70          21.42  119.19           0.61    0.52    0.84    0.55            0.34    0.42    0.18           0.43     0.51
E6         22.30   27.87    9.24          59.77  -19.66   34.23          39.47  119.87           0.70    0.49    1.11    0.56            0.24    0.30    0.09           0.28     0.36
E7         20.19   27.87    5.08          59.77  -29.69   51.67          59.59  119.88           0.81    0.45    1.52    0.57            0.21    0.26    0.04           0.36     0.41
E8         19.07   28.11    3.11          59.99  -36.23   63.96          73.51  119.53           0.91    0.42    1.93    0.57            0.18    0.21    0.03           0.35     0.42
E9         44.38   48.47   31.64          75.12   -6.73   11.81          13.60  119.67           0.34    0.30    0.46    0.32            0.55    0.59    0.42           0.35     0.42
E10        42.13   48.17   24.77          74.93  -12.51   22.87          26.07  118.68           0.38    0.28    0.59    0.32            0.35    0.43    0.23           0.30     0.34
E11        40.12   48.26   19.16          74.99  -18.92   33.96          38.88  119.12           0.42    0.26    0.74    0.32            0.35    0.39    0.21           0.25     0.30
E12        38.09   48.12   14.20          74.90  -24.93   45.48          51.86  118.73           0.47    0.25    0.92    0.33            0.32    0.34    0.16           0.26     0.30
E13        47.94   58.24   61.57          80.87  -21.45  -14.37          25.82  213.81           0.47    0.16    0.13    0.27            0.22    0.23    0.32           0.21     0.24
E14        48.91   36.91   46.66          67.21   40.09  -21.92          45.69  331.33           0.15    0.62    0.22    0.40            0.27    0.31    0.23           0.31     0.41
E15        65.63   67.62   17.74          85.82    0.95   55.74          55.75   89.02           0.09    0.18    0.80    0.15            0.25    0.25    0.12           0.14     0.17
E16        24.70   25.94   20.80          57.98   -1.31    1.22           1.79  137.18           0.59    0.59    0.64    0.59            0.24    0.26    0.16           0.37     0.42
E17        42.11   32.32   16.76          63.60   36.23   19.68          41.23   28.51           0.16    0.69    0.73    0.44            0.26    0.25    0.18           0.24     0.28
E18        40.11   50.93   21.77          76.63  -26.02   31.44          40.81  129.61           0.46    0.22    0.68    0.31            0.20    0.20    0.14           0.22     0.26
E19        30.39   29.87   48.58          61.54    6.01  -33.92          34.45  280.05           0.58    0.54    0.22    0.54            0.26    0.28    0.29           0.27     0.33
E20         7.15    8.53    1.37          35.07  -10.05   37.03          38.37  105.18           1.16    1.03    2.16    1.07            0.10    0.11    0.03           0.34     0.40
E21        24.27   28.85    6.07          60.65  -14.68   48.36          50.54  106.89           0.62    0.50    1.37    0.54            0.24    0.25    0.06           0.31     0.36
E22         8.56   18.23   12.96          49.77  -60.45    5.48          60.70  174.82           1.83    0.52    0.93    0.82            0.05    0.08    0.05           0.22     0.27
F1          3.58    4.47    3.16          25.17  -10.66    3.58          11.24  161.43           1.52    1.31    1.54    1.37            0.05    0.05    0.02           0.23     0.31
F2          3.00    4.46    2.66          25.15  -20.16    7.32          21.45  160.06           1.71    1.25    1.66    1.39            0.03    0.05    0.01           0.30     0.35
F3          2.43    4.39    2.27          24.93  -29.77   10.21          31.47  161.08           1.97    1.20    1.78    1.41            0.04    0.08    0.02           0.39     0.52
F4          1.52    4.30    1.50          24.65  -49.78   17.47          52.76  160.67           2.80    1.10    2.13    1.46            0.03    0.09    0.01           0.41     0.58
F5         11.46   14.48    9.94          44.92  -16.73    6.24          17.85  159.53           1.03    0.78    1.01    0.86            0.12    0.17    0.14           0.32     0.38
F6          9.19   14.40    8.31          44.80  -33.68   11.77          35.68  160.74           1.31    0.71    1.13    0.89            0.10    0.18    0.09           0.38     0.45
F7          7.20   13.99    6.81          44.21  -48.94   16.75          51.73  161.10           1.64    0.66    1.27    0.92            0.09    0.17    0.06           0.31     0.40
F8          5.89   14.43    5.71          44.84  -65.27   22.81          69.14  160.74           2.08    0.59    1.42    0.92            0.08    0.16    0.07           0.23     0.29
F9         29.45   34.13   25.16          65.06  -12.71    5.16          13.72  157.91           0.58    0.43    0.56    0.48            0.31    0.34    0.28           0.33     0.38
F10        26.32   34.08   22.84          65.02  -24.89    9.35          26.59  159.41           0.70    0.39    0.62    0.49            0.22    0.29    0.21           0.29     0.33
F11        23.75   34.10   20.65          65.04  -35.87   13.68          38.39  159.12           0.83    0.35    0.69    0.50            0.20    0.29    0.21           0.23     0.27
F12        20.84   33.82   18.51          64.82  -48.29   17.83          51.47  159.74           1.00    0.32    0.76    0.52            0.22    0.26    0.15           0.24     0.32
F13        43.52   54.61   60.82          78.81  -25.15  -17.19          30.46  214.36           0.56    0.18    0.14    0.30            0.19    0.20    0.22           0.17     0.19
F14        43.66   30.60   42.74          62.17   47.01  -25.84          53.64  331.21           0.17    0.76    0.25    0.47            0.24    0.26    0.24           0.30     0.37
F15        64.49   65.81   13.48          84.90    2.34   64.64          64.69   87.93           0.09    0.20    0.96    0.16            0.30    0.34    0.14           0.17     0.21
F16        17.53   18.44   14.54          50.02   -1.32    1.72           2.16  127.31           0.74    0.75    0.80    0.74            0.18    0.21    0.13           0.30     0.38
F17        36.06   25.54   11.19          57.60   43.00   24.16          49.32   29.33           0.19    0.87    0.92    0.52            0.13    0.14    0.06           0.21     0.25
