targets/wolf_faust/transmissive/V120601.it8
IT8.7/1
ORIGINATOR "Wolf Faust"
DESCRIPTOR "Velvia (RVP 50), Type 3, L* a* b* (light D50, viewing angle 2)"
MANUFACTURER "Wolf Faust - http://www.coloraid.de"
CREATED "July 05, 2012"
PROD_DATE "2011:09"
DIFFUSE_GEOMETRY "opal"
SERIAL "V120601 Batch Average Data"
MATERIAL "Fujichrome Velvia (RVP 50)"
KEYWORD "MEAN_DE" # Mean Delta E of samples compared to batch average
NUMBER_OF_FIELDS 18
BEGIN_DATA_FORMAT
SAMPLE_ID  XYZ_X   XYZ_Y   XYZ_Z          LAB_L   LAB_A   LAB_B          LAB_C   LAB_H          D_RED  D_GREEN  D_BLUE  D_VIS          STDEV_X STDEV_Y STDEV_Z        MEAN_DE  STDEV_DE
END_DATA_FORMAT
NUMBER_OF_SETS 288
BEGIN_DATA
A1          2.17    1.85    1.33          14.70    8.80    2.37           9.11   15.04           1.51    1.89    1.90    1.70            0.03    0.02    0.02           0.22     0.27
A2          2.70    1.87    1.16          14.81   19.06    4.89          19.68   14.39           1.32    2.06    1.94    1.66            0.05    0.03    0.02           0.28     0.37 
A3          3.17    1.83    0.96          14.55   28.42    7.43          29.38   14.65           1.18    2.31    2.00    1.63            0.05    0.03    0.02           0.27     0.34
A4          4.21    1.86    0.70          14.74   43.52   12.27          45.22   15.75           0.96    3.18    2.06    1.56            0.05    0.02    0.01           0.17     0.23 
A5          9.59    8.40    6.01          34.81   12.68    4.09          13.33   17.86           0.88    1.20    1.20    1.05            0.14    0.12    0.09           0.28     0.33
A6         11.56    8.40    5.10          34.80   27.55    8.51          28.84   17.17           0.70    1.34    1.26    1.02            0.18    0.12    0.08           0.30     0.37 
A7         13.82    8.47    4.33          34.94   42.08   12.93          44.02   17.08           0.55    1.53    1.32    0.98            0.17    0.11    0.06           0.26     0.31
A8         17.08    8.56    3.56          35.12   60.44   18.01          63.07   16.59           0.39    1.94    1.37    0.93            0.09    0.05    0.05           0.22     0.26 
A9         28.16   27.52   21.45          59.45    6.49    2.45           6.94   20.72           0.48    0.60    0.62    0.55            0.32    0.29    0.18           0.39     0.48
A10        30.24   27.58   20.11          59.51   14.23    5.26          15.18   20.28           0.41    0.64    0.65    0.54            0.23    0.20    0.08           0.36     0.44
A11        32.56   27.75   19.12          59.66   22.05    7.62          23.33   19.06           0.33    0.68    0.67    0.52            0.20    0.27    0.21           0.53     0.65
A12        38.76   28.18   16.87          60.05   41.20   13.30          43.30   17.89           0.18    0.80    0.71    0.49            0.20    0.19    0.13           0.32     0.41 
A13        72.90   76.91   65.74          90.28   -2.61   -2.16           3.39  219.59           0.13    0.10    0.10    0.12            0.25    0.19    0.23           0.24     0.28
A14        77.93   78.88   65.42          91.18    3.76   -0.31           3.78  355.36           0.07    0.11    0.11    0.10            0.25    0.29    0.28           0.18     0.21 
A15        78.65   80.78   62.64          92.03    1.51    3.82           4.11   68.39           0.07    0.09    0.13    0.09            0.23    0.25    0.33           0.17     0.20
A16        75.81   78.92   64.77          91.20   -0.58    0.34           0.71  151.69           0.10    0.10    0.11    0.10            0.33    0.32    0.50           0.28     0.33
A17        77.40   78.48   63.15          91.00    3.49    1.54           3.82   23.81           0.07    0.11    0.12    0.10            0.22    0.26    0.36           0.19     0.22
A18        74.55   78.06   60.20          90.81   -1.48    4.11           4.37  109.81           0.10    0.10    0.15    0.11            0.23    0.22    0.35           0.21     0.24 
A19        72.63   75.17   64.82          89.47    0.32   -2.69           2.71  276.77           0.12    0.12    0.11    0.13            0.27    0.27    0.25           0.25     0.29
A20         6.17    2.94    1.89          19.81   45.67    4.97          45.94    6.21           0.82    2.57    1.62    1.39            0.10    0.05    0.03           0.33     0.43 
A21        26.04   18.34   14.02          49.91   39.09    2.87          39.20    4.20           0.35    1.01    0.78    0.67            0.32    0.26    0.21           0.35     0.41
A22        52.94   48.40   30.76          75.07   16.86   13.10          21.35   37.84           0.15    0.39    0.46    0.29            0.38    0.41    0.30           0.30     0.34
B1          3.31    2.97    1.68          19.94    7.63    7.34          10.59   43.88           1.34    1.65    1.82    1.50            0.05    0.04    0.03           0.25     0.29
B2          3.85    2.97    1.12          19.92   16.07   14.20          21.44   41.46           1.20    1.76    2.01    1.47            0.06    0.04    0.03           0.26     0.31
B3          4.31    2.85    0.68          19.44   24.75   20.64          32.23   39.82           1.08    1.93    2.25    1.46            0.07    0.05    0.02           0.28     0.35
B4          5.27    2.88    0.10          19.55   36.55   31.76          48.43   40.99           0.92    2.25    3.31    1.41            0.10    0.05    0.00           0.41     0.49
B5         12.29   11.05    6.19          39.66   11.68   11.62          16.48   44.86           0.77    1.06    1.21    0.93            0.24    0.19    0.10           0.39     0.47
B6         14.15   10.95    4.14          39.49   24.57   21.90          32.92   41.72           0.63    1.18    1.41    0.90            0.18    0.13    0.07           0.32     0.38
B7         16.48   11.04    2.56          39.65   37.61   33.11          50.11   41.36           0.50    1.31    1.64    0.87            0.24    0.16    0.05           0.32     0.39
B8         20.87   11.41    1.03          40.27   57.67   50.68          76.78   41.31           0.32    1.62    2.09    0.82            0.11    0.08    0.02           0.21     0.24
B9         33.49   33.62   24.66          64.66    3.79    5.35           6.56   54.64           0.42    0.50    0.56    0.47            0.37    0.37    0.23           0.40     0.50
B10        35.38   33.71   21.73          64.73    9.97   11.01          14.85   47.81           0.35    0.53    0.62    0.46            0.31    0.29    0.20           0.36     0.43
B11        37.09   33.80   19.68          64.81   15.32   15.29          21.65   44.94           0.30    0.55    0.67    0.45            0.35    0.32    0.25           0.31     0.39
B12        43.36   34.12   13.40          65.06   33.67   30.66          45.54   42.32           0.15    0.65    0.86    0.41            0.15    0.18    0.14           0.31     0.37
B13        64.75   70.74   62.86          87.36   -7.67   -4.45           8.87  210.11           0.22    0.12    0.13    0.16            0.47    0.38    0.39           0.41     0.48
B14        68.31   64.83   58.98          84.40   12.98   -5.72          14.19  336.25           0.10    0.23    0.15    0.18            0.20    0.22    0.33           0.21     0.25
B15        71.12   73.83   44.13          88.84   -0.16   18.43          18.43   90.49           0.09    0.14    0.31    0.13            0.30    0.30    0.44           0.30     0.38
B16        57.58   60.07   49.02          81.88   -0.84    0.63           1.09  144.50           0.22    0.22    0.24    0.22            0.38    0.38    0.37           0.35     0.42
B17        65.31   62.45   46.24          83.15   11.72    6.07          13.20   27.38           0.10    0.25    0.27    0.19            0.28    0.36    0.27           0.29     0.35
B18        61.60   68.36   48.57          86.18   -9.82    8.57          13.04  138.88           0.22    0.14    0.26    0.17            0.39    0.33    0.33           0.33     0.39
B19        60.43   62.47   60.07          83.16    0.48   -8.95           8.96  273.10           0.22    0.20    0.14    0.21            0.30    0.33    0.30           0.28     0.34
B20         4.76    2.89    1.00          19.60   29.92   15.39          33.65   27.22           1.01    2.03    2.01    1.44            0.07    0.04    0.02           0.31     0.37
B21        16.62   11.12    4.02          39.78   37.83   23.14          44.35   31.46           0.50    1.31    1.39    0.87            0.17    0.12    0.06           0.28     0.34
B22        32.95   28.11   16.32          59.98   22.05   14.47          26.38   33.28           0.32    0.68    0.75    0.52            0.26    0.24    0.14           0.32     0.36
C1          6.24    6.16    3.46          29.82    3.19    9.50          10.02   71.42           1.11    1.27    1.49    1.20            0.10    0.09    0.06           0.31     0.37
C2          6.62    6.17    2.10          29.83    7.18   20.18          21.42   70.41           1.04    1.30    1.77    1.18            0.10    0.09    0.05           0.31     0.35
C3          7.17    6.24    1.15          30.00   11.94   31.12          33.33   69.00           0.97    1.34    2.13    1.16            0.11    0.09    0.03           0.31     0.37
C4          7.69    6.08    0.29          29.60   18.65   45.64          49.30   67.77           0.92    1.42    3.14    1.15            0.16    0.12    0.01           0.45     0.57
C5         23.40   22.82   11.37          54.88    6.35   18.92          19.96   71.45           0.53    0.69    0.94    0.62            0.40    0.36    0.11           0.50     0.58
C6         24.94   22.50    6.35          54.56   14.44   36.59          39.34   68.46           0.45    0.75    1.26    0.61            0.34    0.30    0.10           0.37     0.45
C7         26.93   22.64    3.28          54.69   22.10   53.66          58.03   67.62           0.38    0.79    1.65    0.59            0.34    0.31    0.06           0.42     0.51
C8         30.22   22.58    0.56          54.64   35.16   83.59          90.68   67.19           0.29    0.89    3.11    0.57            0.25    0.20    0.01           0.27     0.33
C9         39.47   40.03   27.20          69.49    2.76    9.24           9.64   73.37           0.35    0.42    0.52    0.39            0.46    0.46    0.34           0.37     0.45
C10        40.56   40.22   22.86          69.62    5.56   17.26          18.13   72.12           0.31    0.43    0.61    0.38            0.42    0.42    0.29           0.39     0.46
C11        41.86   40.28   19.11          69.67    9.34   24.89          26.58   69.43           0.27    0.45    0.70    0.37            0.36    0.37    0.21           0.36     0.44
C12        48.08   40.54    6.60          69.85   26.44   61.86          67.27   66.86           0.12    0.53    1.30    0.34            0.24    0.28    0.10           0.39     0.46
C13        58.36   66.12   62.35          85.06  -12.66   -7.92          14.94  212.00           0.30    0.14    0.13    0.20            0.43    0.35    0.39           0.43     0.50
C14        61.08   53.70   54.72          78.29   23.00  -11.84          25.87  332.76           0.11    0.35    0.17    0.25            0.25    0.29    0.26           0.28     0.35
C15        68.39   71.17   31.66          87.57   -0.50   33.23          33.24   90.86           0.10    0.15    0.48    0.14            0.28    0.29    0.35           0.32     0.40
C16        44.75   46.59   37.72          73.93   -0.49    0.99           1.12  117.72           0.33    0.34    0.36    0.33            0.34    0.36    0.11           0.36     0.46
C17        56.21   50.01   33.69          76.08   20.80   10.39          23.25   26.56           0.12    0.39    0.41    0.27            0.22    0.29    0.11           0.30     0.38
C18        53.11   61.87   37.14          82.84  -16.18   17.15          23.57  133.33           0.30    0.16    0.39    0.22            0.37    0.31    0.15           0.32     0.39
C19        49.00   49.88   56.10          75.99    2.48  -17.25          17.43  278.19           0.32    0.31    0.16    0.31            0.57    0.65    0.55           0.43     0.55
C20        12.03    8.91    1.20          35.80   26.58   40.50          48.45   56.72           0.68    1.30    2.10    0.98            0.19    0.15    0.03           0.42     0.53
C21        21.41   20.02   10.79          51.86   10.25   15.47          18.56   56.47           0.55    0.78    0.96    0.68            0.24    0.22    0.12           0.34     0.40
C22        26.90   22.78   10.51          54.84   21.37   21.50          30.32   45.18           0.39    0.78    0.97    0.60            0.21    0.19    0.09           0.40     0.46
D1          4.12    4.39    2.44          24.92   -1.61    8.69           8.84  100.52           1.33    1.38    1.67    1.35            0.06    0.06    0.04           0.28     0.36
D2          4.12    4.45    1.52          25.10   -2.34   18.01          18.16   97.42           1.33    1.37    1.95    1.34            0.07    0.08    0.05           0.34     0.44
D3          4.11    4.44    0.88          25.09   -2.47   26.86          26.97   95.25           1.33    1.36    2.31    1.34            0.07    0.08    0.03           0.34     0.40
D4          4.08    4.43    0.33          25.05   -2.77   37.05          37.15   94.28           1.36    1.35    3.13    1.33            0.11    0.12    0.01           0.50     0.59
D5         17.34   18.43    9.20          50.02   -2.33   17.57          17.73   97.57           0.71    0.75    1.05    0.73            0.27    0.24    0.11           0.46     0.54
D6         16.81   18.02    4.94          49.52   -3.10   34.72          34.86   95.09           0.71    0.75    1.42    0.73            0.21    0.20    0.07           0.33     0.41
D7         16.74   17.83    2.44          49.29   -2.53   50.69          50.76   92.85           0.71    0.76    1.88    0.73            0.20    0.22    0.04           0.39     0.48
D8         16.77   18.07    0.75          49.58   -3.56   71.36          71.44   92.86           0.76    0.74    3.02    0.72            0.22    0.23    0.01           0.37     0.43
D9         45.02   47.22   23.71          74.33   -1.48   23.77          23.81   93.56           0.29    0.33    0.61    0.32            0.44    0.47    0.32           0.40     0.49
D10        45.00   47.56   13.67          74.54   -2.46   46.27          46.34   93.04           0.28    0.33    0.92    0.31            0.41    0.41    0.19           0.41     0.51
D11        44.76   47.44    6.78          74.47   -2.80   69.03          69.09   92.33           0.28    0.33    1.36    0.30            0.29    0.26    0.07           0.30     0.37
D12        44.77   47.86    3.39          74.74   -3.93   87.46          87.55   92.57           0.29    0.32    1.92    0.30            0.36    0.29    0.04           0.36     0.45
D13        52.49   61.76   61.84          82.78  -17.54  -11.34          20.89  212.89           0.39    0.15    0.13    0.23            0.40    0.33    0.10           0.39     0.49
D14        54.51   44.36   50.56          72.47   32.10  -17.33          36.48  331.64           0.13    0.48    0.20    0.33            0.25    0.29    0.14           0.28     0.38
D15        66.60   69.08   23.72          86.54   -0.01   44.80          44.80   90.01           0.09    0.17    0.63    0.15            0.23    0.25    0.20           0.20     0.24
D16        33.43   34.91   28.61          65.68   -0.79    0.32           0.90  160.68           0.46    0.46    0.49    0.46            0.26    0.28    0.05           0.37     0.49
D17        48.49   40.05   24.33          69.50   29.08   14.30          32.41   26.18           0.14    0.54    0.56    0.36            0.26    0.30    0.09           0.30     0.40
D18        45.91   56.01   28.94          79.62  -21.71   23.82          32.24  132.35           0.39    0.19    0.53    0.26            0.37    0.31    0.15           0.34     0.42
D19        38.78   38.91   52.36          68.69    4.04  -25.85          26.16  278.88           0.45    0.42    0.19    0.42            0.30    0.36    0.23           0.36     0.43
D20         3.01    3.04    1.15          20.19    1.36   14.33          14.39   84.57           1.43    1.57    2.06    1.50            0.03    0.04    0.02           0.25     0.28
D21        30.24   27.97    1.53          59.86   12.72   77.90          78.94   80.73           0.39    0.64    2.35    0.51            0.28    0.25    0.02           0.30     0.37
D22        40.35   43.82   55.60          72.11   -5.80  -23.42          24.13  256.10           0.48    0.33    0.17    0.38            0.29    0.33    0.20           0.33     0.38
E1          5.38    6.14    3.48          29.77   -6.22    9.32          11.20  123.72           1.26    1.20    1.51    1.22            0.06    0.07    0.05           0.28     0.33
E2          4.98    6.20    2.25          29.92  -11.70   18.94          22.26  121.72           1.34    1.16    1.78    1.22            0.07    0.09    0.05           0.34     0.43
E3          4.57    6.22    1.35          29.97  -17.20   28.53          33.31  121.09           1.43    1.12    2.14    1.22            0.07    0.10    0.03           0.32     0.37
E4          4.01    6.17    0.50          29.82  -24.27   41.98          48.49  120.03           1.65    1.07    3.08    1.23            0.06    0.10    0.01           0.32     0.41
E5         24.20   27.68   14.48          59.59  -10.46   18.36          21.13  119.68           0.62    0.53    0.84    0.56            0.41    0.44    0.22           0.45     0.52
E6         21.76   27.21    9.13          59.17  -19.56   33.59          38.87  120.22           0.71    0.50    1.12    0.57            0.45    0.50    0.16           0.51     0.63
E7         19.81   27.40    5.06          59.34  -29.72   51.02          59.05  120.22           0.82    0.46    1.52    0.58            0.19    0.24    0.07           0.33     0.42
E8         18.72   27.72    3.12          59.63  -36.49   63.31          73.07  119.96           0.92    0.43    1.93    0.58            0.21    0.22    0.05           0.45     0.58
E9         43.41   47.43   31.01          74.46   -6.71   11.63          13.43  119.98           0.35    0.31    0.47    0.33            0.49    0.53    0.36           0.42     0.50
E10        41.32   47.28   24.43          74.37  -12.56   22.51          25.78  119.16           0.39    0.29    0.60    0.33            0.46    0.46    0.28           0.47     0.58
E11        39.42   47.48   18.90          74.49  -18.97   33.65          38.63  119.41           0.43    0.27    0.75    0.33            0.42    0.43    0.18           0.38     0.47
E12        37.49   47.56   14.07          74.54  -25.34   45.20          51.82  119.27           0.48    0.25    0.93    0.33            0.38    0.33    0.13           0.41     0.51
E13        47.27   57.65   61.17          80.54  -21.90  -14.55          26.29  213.60           0.48    0.16    0.14    0.27            0.42    0.40    0.15           0.35     0.45
E14        48.61   36.66   46.41          67.02   40.09  -21.96          45.71  331.29           0.15    0.62    0.23    0.40            0.30    0.33    0.19           0.35     0.46
E15        65.24   67.18   17.64          85.59    1.04   55.57          55.58   88.92           0.09    0.19    0.80    0.15            0.26    0.27    0.12           0.23     0.29
E16        24.17   25.40   20.59          57.46   -1.40    0.75           1.60  152.37           0.60    0.60    0.64    0.60            0.26    0.29    0.10           0.34     0.42
E17        41.75   31.95   16.71          63.30   36.47   19.29          41.26   27.88           0.16    0.70    0.73    0.44            0.33    0.35    0.16           0.38     0.46
E18        39.56   50.41   21.69          76.32  -26.40   31.06          40.76  130.36           0.47    0.22    0.68    0.31            0.25    0.23    0.09           0.25     0.31
E19        30.08   29.61   48.30          61.32    5.85  -33.99          34.49  279.77           0.59    0.54    0.22    0.55            0.30    0.37    0.23           0.42     0.54
E20         7.09    8.52    1.41          35.05  -10.53   36.53          38.02  106.08           1.16    1.03    2.15    1.07            0.07    0.09    0.03           0.32     0.38
E21        23.88   28.47    6.10          60.31  -14.94   47.65          49.94  107.40           0.63    0.50    1.37    0.54            0.16    0.16    0.03           0.31     0.38
E22         8.53   18.15   12.96          49.68  -60.29    5.32          60.52  174.95           1.82    0.52    0.93    0.82            0.04    0.07    0.06           0.20     0.24
F1          3.56    4.46    3.20          25.14  -10.87    3.24          11.35  163.41           1.52    1.31    1.54    1.37            0.05    0.06    0.07           0.34     0.41
F2          2.95    4.42    2.67          25.01  -20.30    6.94          21.46  161.12           1.72    1.25    1.66    1.40            0.05    0.06    0.05           0.27     0.31
F3          2.44    4.41    2.29          24.99  -29.93   10.09          31.59  161.37           1.97    1.19    1.78    1.41            0.05    0.09    0.05           0.37     0.46
F4          1.52    4.29    1.53          24.60  -49.61   17.09          52.47  161.00           2.78    1.10    2.12    1.46            0.03    0.07    0.04           0.37     0.42
F5         11.24   14.20    9.80          44.52  -16.66    6.03          17.72  160.11           1.04    0.79    1.02    0.87            0.18    0.21    0.15           0.35     0.39
F6          9.02   14.14    8.24          44.44  -33.55   11.44          35.44  161.18           1.31    0.72    1.13    0.89            0.11    0.16    0.10           0.27     0.32
F7          7.15   13.88    6.83          44.05  -48.77   16.38          51.45  161.43           1.64    0.67    1.27    0.92            0.08    0.14    0.11           0.31     0.37
F8          5.85   14.31    5.69          44.67  -65.09   22.60          68.90  160.85           2.08    0.59    1.42    0.92            0.07    0.13    0.10           0.34     0.40
F9         28.76   33.34   24.67          64.43  -12.62    4.95          13.56  158.62           0.58    0.44    0.57    0.49            0.36    0.42    0.23           0.46     0.59
F10        25.73   33.35   22.53          64.44  -24.83    8.94          26.40  160.20           0.71    0.40    0.63    0.50            0.22    0.26    0.22           0.39     0.51
F11        23.23   33.39   20.32          64.48  -35.79   13.39          38.21  159.48           0.84    0.36    0.69    0.51            0.18    0.21    0.13           0.33     0.43
F12        20.57   33.47   18.39          64.54  -48.41   17.61          51.51  160.00           1.01    0.32    0.76    0.52            0.16    0.17    0.22           0.36     0.43
F13        42.81   53.93   60.30          78.42  -25.53  -17.35          30.87  214.20           0.57    0.18    0.14    0.31            0.40    0.39    0.15           0.35     0.44
F14        43.28   30.30   42.42          61.91   47.03  -25.89          53.69  331.17           0.18    0.76    0.26    0.47            0.31    0.31    0.23           0.37     0.45
F15        64.12   65.41   13.45          84.70    2.40   64.36          64.41   87.87           0.09    0.20    0.96    0.16            0.13    0.15    0.13           0.24     0.31
F16        17.14   18.05   14.41          49.56   -1.46    1.24           1.92  139.70           0.75    0.76    0.81    0.75            0.12    0.12    0.09           0.30     0.34
F17        35.87   25.40   11.21          57.46   42.95   23.83          49.12   29.02           0.19    0.87    0.92    0.53            0.12    0.12    0.05           0.31     0.35
