targets/wolf_faust/transmissive/V130214.it8
IT8.7/1
ORIGINATOR "Wolf Faust"
DESCRIPTOR "Velvia (RVP 50), Type 3, L* a* b* (light D50, viewing angle 2)"
MANUFACTURER "Wolf Faust - http://www.coloraid.de"
CREATED "February 18, 2013"
PROD_DATE "2012:08"
DIFFUSE_GEOMETRY "opal"
SERIAL "V130214 Batch Average Data"
MATERIAL "Fujichrome Velvia (RVP 50)"
KEYWORD "MEAN_DE" # Mean Delta E of samples compared to batch average
NUMBER_OF_FIELDS 18
BEGIN_DATA_FORMAT
SAMPLE_ID  XYZ_X   XYZ_Y   XYZ_Z          LAB_L   LAB_A   LAB_B          LAB_C   LAB_H          D_RED  D_GREEN  D_BLUE  D_VIS          STDEV_X STDEV_Y STDEV_Z        MEAN_DE  STDEV_DE
END_DATA_FORMAT
NUMBER_OF_SETS 288
BEGIN_DATA
A1          2.15    1.83    1.27          14.59    8.78    3.01           9.29   18.91           1.51    1.89    1.92    1.71            0.01    0.01    0.01           0.24     0.29
A2          2.63    1.80    1.05          14.39   19.44    5.75          20.27   16.48           1.33    2.09    1.98    1.67            0.02    0.02    0.02           0.24     0.27 
A3          3.15    1.79    0.88          14.36   28.97    8.31          30.14   15.99           1.17    2.35    2.03    1.64            0.02    0.01    0.01           0.18     0.23
A4          4.25    1.87    0.66          14.78   43.91   12.95          45.78   16.44           0.95    3.26    2.08    1.56            0.02    0.01    0.01           0.12     0.14 
A5          9.55    8.34    5.84          34.67   12.89    4.66          13.71   19.88           0.88    1.21    1.22    1.05            0.09    0.08    0.04           0.23     0.26
A6         11.50    8.34    5.05          34.67   27.68    8.57          28.98   17.21           0.71    1.35    1.27    1.02            0.09    0.08    0.05           0.22     0.24 
A7         13.80    8.43    4.32          34.86   42.30   12.85          44.21   16.89           0.55    1.54    1.32    0.98            0.09    0.07    0.04           0.22     0.25
A8         17.44    8.74    3.54          35.48   60.88   18.72          63.70   17.09           0.38    1.94    1.37    0.92            0.05    0.03    0.03           0.12     0.14 
A9         28.21   27.50   20.98          59.44    6.77    3.36           7.56   26.37           0.48    0.61    0.63    0.55            0.20    0.23    0.12           0.33     0.38
A10        30.18   27.59   19.98          59.51   13.99    5.54          15.05   21.61           0.41    0.64    0.65    0.54            0.32    0.33    0.20           0.39     0.46
A11        32.73   27.88   19.04          59.78   22.15    8.00          23.55   19.85           0.33    0.68    0.67    0.52            0.28    0.29    0.18           0.42     0.48
A12        38.66   27.93   16.60          59.82   41.89   13.55          44.02   17.92           0.17    0.81    0.72    0.49            0.20    0.22    0.17           0.34     0.42 
A13        72.73   76.88   65.42          90.27   -2.90   -1.88           3.47  212.91           0.13    0.10    0.11    0.12            0.24    0.27    0.15           0.30     0.33
A14        78.58   79.85   65.37          91.62    3.17    0.50           3.22    9.01           0.07    0.10    0.11    0.10            0.22    0.29    0.17           0.29     0.33 
A15        79.16   81.23   63.82          92.23    1.67    3.03           3.47   60.83           0.07    0.09    0.12    0.09            0.24    0.34    0.21           0.41     0.48
A16        76.47   79.45   64.57          91.44   -0.27    0.93           0.98  105.05           0.09    0.10    0.11    0.10            0.31    0.35    0.22           0.37     0.43
A17        78.33   79.77   63.93          91.58    2.84    1.80           3.37   32.34           0.07    0.10    0.12    0.10            0.23    0.30    0.22           0.33     0.38
A18        74.62   78.18   60.28          90.86   -1.56    4.12           4.41  110.72           0.10    0.10    0.15    0.11            0.28    0.26    0.20           0.33     0.38 
A19        72.45   75.19   64.53          89.48   -0.11   -2.39           2.40  267.37           0.12    0.12    0.11    0.13            0.36    0.31    0.19           0.25     0.28
A20         6.26    2.96    1.76          19.87   46.36    6.37          46.79    7.83           0.81    2.62    1.65    1.38            0.04    0.02    0.02           0.22     0.26 
A21        26.07   18.36   13.85          49.93   39.17    3.34          39.31    4.87           0.35    1.02    0.79    0.67            0.14    0.12    0.11           0.30     0.34
A22        52.76   48.36   30.71          75.05   16.51   13.13          21.09   38.50           0.16    0.39    0.46    0.29            0.28    0.31    0.26           0.32     0.35
B1          3.22    2.88    1.60          19.57    7.72    7.59          10.83   44.51           1.35    1.66    1.84    1.51            0.02    0.01    0.02           0.25     0.29
B2          3.73    2.86    1.01          19.49   16.16   15.06          22.09   42.98           1.21    1.78    2.07    1.48            0.02    0.02    0.02           0.24     0.27
B3          4.33    2.90    0.61          19.64   24.04   22.30          32.80   42.85           1.09    1.91    2.32    1.45            0.01    0.01    0.01           0.24     0.30
B4          5.34    2.92    0.10          19.71   36.70   32.16          48.79   41.23           0.92    2.25    3.35    1.41            0.03    0.02    0.00           0.16     0.19
B5         12.12   10.88    6.14          39.37   11.79   11.35          16.37   43.90           0.78    1.07    1.21    0.94            0.08    0.08    0.06           0.25     0.29
B6         14.34   11.07    4.08          39.69   24.84   22.60          33.58   42.29           0.62    1.17    1.41    0.90            0.06    0.06    0.03           0.19     0.21
B7         16.52   10.98    2.48          39.55   38.23   33.58          50.89   41.30           0.50    1.32    1.66    0.87            0.09    0.08    0.01           0.23     0.27
B8         21.11   11.50    0.99          40.41   58.20   51.53          77.73   41.53           0.31    1.62    2.11    0.81            0.05    0.04    0.01           0.21     0.26
B9         33.70   33.77   24.46          64.78    4.00    5.93           7.15   55.98           0.42    0.50    0.56    0.46            0.21    0.26    0.19           0.24     0.31
B10        35.18   33.52   21.53          64.58    9.94   11.14          14.93   48.26           0.36    0.53    0.63    0.46            0.30    0.33    0.19           0.30     0.35
B11        37.16   33.82   19.43          64.82   15.51   15.85          22.18   45.62           0.30    0.56    0.68    0.44            0.33    0.36    0.18           0.43     0.48
B12        43.48   34.15   13.28          65.08   33.93   31.02          45.97   42.43           0.15    0.65    0.86    0.41            0.19    0.21    0.12           0.33     0.39
B13        64.84   70.88   62.87          87.43   -7.76   -4.35           8.90  209.27           0.21    0.12    0.13    0.16            0.42    0.37    0.45           0.34     0.37
B14        68.91   65.77   59.27          84.88   12.21   -5.18          13.26  337.02           0.10    0.22    0.14    0.17            0.43    0.52    0.51           0.39     0.43
B15        71.24   74.13   44.69          88.98   -0.49   17.98          17.99   91.57           0.10    0.13    0.30    0.12            0.24    0.25    0.34           0.39     0.45
B16        58.45   61.16   49.70          82.47   -1.25    0.87           1.54  145.46           0.22    0.21    0.24    0.22            0.39    0.42    0.25           0.32     0.34
B17        66.04   63.51   46.89          83.71   10.96    6.26          12.62   29.75           0.10    0.24    0.26    0.18            0.38    0.47    0.28           0.31     0.36
B18        62.01   68.78   49.00          86.40   -9.79    8.45          12.93  139.20           0.22    0.13    0.25    0.17            0.34    0.33    0.20           0.23     0.26
B19        60.92   63.12   60.11          83.51    0.14   -8.39           8.39  270.92           0.21    0.20    0.14    0.20            0.43    0.48    0.32           0.31     0.35
B20         4.79    2.95    0.94          19.83   29.39   16.80          33.85   29.76           1.01    2.01    2.05    1.43            0.02    0.02    0.01           0.25     0.30
B21        16.54   11.02    3.88          39.62   38.06   23.72          44.85   31.93           0.50    1.32    1.41    0.87            0.12    0.10    0.04           0.23     0.26
B22        32.68   27.87   16.07          59.77   22.01   14.71          26.48   33.75           0.32    0.68    0.76    0.52            0.24    0.22    0.18           0.36     0.39
C1          6.13    6.07    3.26          29.60    3.00   10.52          10.94   74.10           1.12    1.28    1.53    1.20            0.02    0.04    0.02           0.24     0.30
C2          6.57    6.08    2.11          29.63    7.53   19.75          21.14   69.12           1.05    1.31    1.76    1.19            0.03    0.03    0.02           0.23     0.28
C3          7.00    6.08    1.08          29.62   11.98   31.55          33.75   69.21           0.99    1.35    2.16    1.17            0.05    0.05    0.01           0.28     0.34
C4          7.73    6.15    0.27          29.78   18.29   46.16          49.65   68.39           0.92    1.41    3.18    1.15            0.06    0.05    0.01           0.30     0.35
C5         23.11   22.48   11.13          54.54    6.54   19.04          20.14   71.06           0.54    0.70    0.95    0.63            0.19    0.21    0.12           0.30     0.35
C6         24.88   22.50    6.29          54.55   14.25   36.83          39.49   68.84           0.45    0.75    1.26    0.61            0.13    0.15    0.04           0.30     0.34
C7         26.86   22.53    3.00          54.58   22.30   55.41          59.73   68.07           0.38    0.80    1.71    0.60            0.15    0.15    0.01           0.30     0.35
C8         30.25   22.61    0.55          54.67   35.13   83.90          90.96   67.28           0.29    0.89    3.12    0.57            0.19    0.17    0.01           0.31     0.37
C9         39.57   40.36   27.19          69.72    2.07    9.67           9.89   77.92           0.35    0.41    0.52    0.39            0.29    0.35    0.28           0.34     0.41
C10        40.50   40.28   23.17          69.67    5.19   16.74          17.53   72.76           0.31    0.43    0.60    0.38            0.33    0.39    0.23           0.38     0.46
C11        41.95   40.38   18.93          69.74    9.29   25.40          27.05   69.91           0.27    0.45    0.71    0.37            0.36    0.41    0.22           0.45     0.51
C12        48.38   40.80    6.38          70.03   26.48   63.15          68.48   67.25           0.12    0.53    1.32    0.34            0.21    0.26    0.05           0.35     0.42
C13        58.08   66.02   62.35          85.01  -13.11   -8.01          15.36  211.42           0.30    0.14    0.13    0.20            0.29    0.26    0.35           0.31     0.35
C14        61.24   53.85   54.66          78.37   23.01  -11.62          25.78  333.19           0.11    0.35    0.17    0.25            0.36    0.43    0.40           0.39     0.44
C15        68.34   71.32   31.71          87.64   -0.94   33.28          33.29   91.61           0.10    0.15    0.48    0.14            0.25    0.30    0.31           0.40     0.50
C16        44.81   46.80   37.95          74.06   -0.90    0.90           1.30  135.00           0.33    0.33    0.36    0.33            0.32    0.36    0.25           0.38     0.42
C17        56.50   50.32   33.85          76.27   20.69   10.48          23.19   26.86           0.12    0.39    0.41    0.27            0.27    0.33    0.24           0.30     0.34
C18        52.93   61.83   37.15          82.82  -16.58   17.10          23.82  134.13           0.31    0.16    0.39    0.22            0.40    0.39    0.29           0.28     0.33
C19        48.89   49.81   56.03          75.95    2.36  -17.25          17.41  277.79           0.32    0.31    0.16    0.31            0.31    0.33    0.22           0.34     0.37
C20        11.88    8.76    1.08          35.52   26.73   41.71          49.54   57.35           0.68    1.32    2.17    0.99            0.06    0.06    0.02           0.33     0.38
C21        21.09   19.72   10.58          51.52   10.24   15.56          18.63   56.67           0.56    0.78    0.97    0.68            0.14    0.16    0.10           0.30     0.35
C22        26.78   22.66   10.28          54.72   21.41   22.03          30.72   45.82           0.40    0.78    0.98    0.60            0.24    0.23    0.11           0.34     0.41
D1          4.00    4.24    2.33          24.45   -1.22    8.83           8.92   97.89           1.34    1.40    1.69    1.37            0.02    0.03    0.02           0.20     0.26
D2          4.04    4.35    1.44          24.79   -2.16   18.39          18.52   96.68           1.34    1.38    1.98    1.35            0.03    0.04    0.01           0.22     0.26
D3          4.05    4.36    0.81          24.81   -2.09   27.53          27.61   94.34           1.34    1.37    2.36    1.35            0.03    0.03    0.01           0.31     0.36
D4          3.99    4.34    0.31          24.76   -2.71   36.84          36.94   94.21           1.38    1.36    3.15    1.34            0.04    0.05    0.01           0.29     0.35
D5         17.02   18.02    9.01          49.52   -1.93   17.39          17.50   96.33           0.72    0.76    1.06    0.74            0.10    0.13    0.09           0.24     0.30
D6         16.95   18.06    4.83          49.57   -2.54   35.41          35.50   94.10           0.71    0.75    1.43    0.73            0.10    0.13    0.04           0.27     0.30
D7         16.81   18.09    2.30          49.60   -3.47   52.48          52.60   93.78           0.72    0.75    1.93    0.72            0.07    0.09    0.02           0.27     0.33
D8         16.65   18.00    0.73          49.50   -3.88   71.60          71.71   93.10           0.76    0.74    3.04    0.72            0.16    0.21    0.01           0.32     0.41
D9         45.39   47.83   23.58          74.72   -2.06   24.68          24.77   94.77           0.29    0.33    0.61    0.31            0.26    0.31    0.22           0.28     0.34
D10        45.11   47.82   13.52          74.71   -2.84   46.96          47.05   93.46           0.28    0.33    0.92    0.31            0.28    0.36    0.15           0.34     0.41
D11        44.73   47.70    6.73          74.64   -3.63   69.56          69.65   92.99           0.28    0.32    1.37    0.30            0.20    0.23    0.05           0.29     0.32
D12        44.45   47.57    3.15          74.55   -4.06   88.76          88.85   92.62           0.30    0.32    1.98    0.30            0.24    0.21    0.03           0.31     0.37
D13        52.10   61.51   61.67          82.65  -17.98  -11.40          21.29  212.38           0.40    0.15    0.13    0.24            0.25    0.24    0.27           0.23     0.26
D14        54.69   44.50   50.47          72.56   32.14  -17.07          36.39  332.02           0.13    0.48    0.20    0.32            0.22    0.23    0.27           0.25     0.28
D15        66.60   69.25   23.21          86.63   -0.38   45.91          45.91   90.48           0.10    0.17    0.65    0.14            0.33    0.34    0.14           0.34     0.39
D16        33.29   34.89   28.22          65.66   -1.20    0.93           1.54  142.94           0.46    0.46    0.50    0.46            0.28    0.31    0.26           0.41     0.46
D17        48.74   40.29   23.94          69.68   29.00   15.32          32.79   27.85           0.13    0.54    0.57    0.35            0.29    0.31    0.22           0.32     0.36
D18        45.57   55.81   28.36          79.51  -22.22   24.58          33.13  132.11           0.39    0.19    0.54    0.27            0.24    0.23    0.23           0.28     0.31
D19        38.50   38.66   52.07          68.51    3.93  -25.84          26.14  278.66           0.45    0.42    0.19    0.43            0.30    0.30    0.31           0.32     0.37
D20         2.85    2.88    1.01          19.55    1.36   15.14          15.20   84.87           1.45    1.59    2.12    1.52            0.02    0.02    0.02           0.26     0.30
D21        30.01   27.73    1.40          59.64   12.78   79.01          80.04   80.81           0.39    0.64    2.43    0.52            0.21    0.22    0.03           0.39     0.43
D22        39.92   43.46   55.33          71.86   -6.07  -23.56          24.33  255.55           0.49    0.33    0.17    0.38            0.23    0.29    0.24           0.28     0.32
E1          5.37    6.23    3.41          29.99   -7.29   10.12          12.47  125.75           1.28    1.19    1.52    1.21            0.05    0.07    0.03           0.26     0.32
E2          4.89    6.06    2.15          29.57  -11.38   19.27          22.38  120.55           1.34    1.17    1.80    1.23            0.04    0.06    0.01           0.30     0.35
E3          4.57    6.22    1.28          29.97  -17.25   29.36          34.06  120.43           1.44    1.12    2.18    1.22            0.04    0.06    0.01           0.30     0.37
E4          3.92    6.06    0.48          29.56  -24.42   41.85          48.46  120.26           1.67    1.07    3.07    1.24            0.05    0.09    0.01           0.41     0.48
E5         24.03   27.71   14.46          59.62  -11.32   18.48          21.67  121.50           0.63    0.53    0.85    0.56            0.17    0.23    0.18           0.37     0.42
E6         21.92   27.58    9.10          59.51  -20.33   34.28          39.86  120.67           0.71    0.50    1.12    0.57            0.12    0.17    0.05           0.24     0.29
E7         19.95   27.69    5.08          59.61  -30.16   51.37          59.57  120.42           0.82    0.45    1.52    0.57            0.09    0.15    0.04           0.25     0.28
E8         18.69   27.76    3.05          59.67  -36.79   63.87          73.71  119.94           0.92    0.43    1.95    0.58            0.08    0.11    0.02           0.20     0.23
E9         43.60   47.77   31.12          74.68   -7.07   11.85          13.80  120.83           0.35    0.30    0.47    0.32            0.27    0.36    0.32           0.32     0.39
E10        41.20   47.59   24.37          74.57  -13.77   22.97          26.79  120.94           0.40    0.29    0.60    0.33            0.30    0.40    0.29           0.31     0.37
E11        39.48   47.68   18.86          74.62  -19.32   33.96          39.07  119.64           0.43    0.27    0.75    0.33            0.28    0.34    0.22           0.34     0.42
E12        37.45   47.67   14.01          74.62  -25.80   45.50          52.30  119.55           0.48    0.25    0.93    0.33            0.23    0.23    0.13           0.33     0.38
E13        47.01   57.50   60.99          80.46  -22.24  -14.52          26.56  213.14           0.49    0.16    0.14    0.27            0.18    0.18    0.24           0.18     0.21
E14        48.65   36.59   46.25          66.97   40.42  -21.85          45.95  331.61           0.15    0.62    0.23    0.40            0.27    0.26    0.32           0.30     0.33
E15        65.36   67.49   17.56          85.75    0.63   56.04          56.04   89.35           0.09    0.18    0.80    0.15            0.37    0.38    0.13           0.35     0.41
E16        24.12   25.32   20.54          57.39   -1.30    0.72           1.50  150.93           0.60    0.61    0.64    0.60            0.26    0.29    0.19           0.38     0.43
E17        41.95   32.05   16.64          63.38   36.69   19.59          41.60   28.09           0.16    0.70    0.73    0.44            0.20    0.20    0.18           0.31     0.35
E18        39.44   50.43   21.60          76.33  -26.83   31.25          41.19  130.65           0.48    0.22    0.68    0.31            0.18    0.18    0.20           0.30     0.35
E19        29.90   29.35   48.06          61.09    6.16  -34.11          34.66  280.25           0.59    0.55    0.22    0.55            0.17    0.21    0.23           0.32     0.36
E20         6.82    8.22    1.25          34.43  -10.61   37.42          38.90  105.83           1.18    1.04    2.23    1.08            0.05    0.07    0.02           0.30     0.35
E21        23.74   28.67    6.14          60.49  -16.32   47.77          50.48  108.87           0.64    0.49    1.37    0.54            0.11    0.17    0.04           0.31     0.35
E22         8.44   18.13   12.96          49.66  -61.04    5.30          61.27  175.04           1.85    0.52    0.93    0.82            0.07    0.14    0.11           0.26     0.29
F1          3.49    4.36    3.08          24.82  -10.52    3.52          11.10  161.53           1.53    1.32    1.55    1.38            0.04    0.06    0.03           0.29     0.37
F2          2.83    4.28    2.57          24.58  -20.64    7.05          21.81  161.15           1.75    1.26    1.68    1.41            0.03    0.05    0.03           0.29     0.34
F3          2.36    4.31    2.22          24.66  -30.18   10.18          31.85  161.36           2.00    1.20    1.79    1.42            0.03    0.06    0.03           0.32     0.37
F4          1.54    4.37    1.54          24.86  -50.17   17.39          53.10  160.88           2.80    1.09    2.12    1.45            0.02    0.05    0.02           0.34     0.39
F5         11.22   14.39    9.78          44.78  -17.90    6.56          19.07  159.88           1.05    0.78    1.02    0.87            0.09    0.15    0.11           0.35     0.40
F6          9.01   14.19    8.18          44.51  -33.93   11.77          35.91  160.88           1.32    0.71    1.14    0.89            0.05    0.11    0.07           0.26     0.31
F7          7.25   14.33    6.76          44.70  -50.62   17.79          53.66  160.64           1.66    0.65    1.28    0.91            0.06    0.13    0.06           0.26     0.33
F8          5.78   14.26    5.60          44.61  -65.57   22.94          69.46  160.72           2.10    0.59    1.43    0.93            0.05    0.10    0.05           0.21     0.24
F9         28.78   33.50   24.77          64.57  -13.13    4.99          14.05  159.19           0.59    0.44    0.57    0.49            0.19    0.26    0.23           0.30     0.36
F10        25.77   33.49   22.41          64.55  -25.14    9.37          26.83  159.56           0.71    0.39    0.63    0.50            0.22    0.30    0.22           0.32     0.36
F11        22.99   33.24   20.57          64.36  -36.31   12.69          38.46  160.74           0.85    0.36    0.69    0.51            0.19    0.26    0.21           0.30     0.34
F12        20.35   33.38   18.27          64.47  -49.15   17.74          52.25  160.16           1.02    0.32    0.77    0.52            0.13    0.16    0.17           0.28     0.33
F13        42.59   53.84   60.27          78.37  -25.98  -17.41          31.27  213.84           0.57    0.18    0.15    0.31            0.21    0.22    0.26           0.19     0.21
F14        43.48   30.34   42.40          61.95   47.44  -25.79          54.00  331.47           0.17    0.77    0.26    0.47            0.24    0.23    0.27           0.28     0.32
F15        64.26   65.74   13.44          84.86    1.98   64.69          64.73   88.24           0.09    0.20    0.96    0.16            0.14    0.17    0.12           0.30     0.36
F16        17.02   17.95   14.42          49.43   -1.56    1.01           1.88  147.08           0.75    0.76    0.81    0.75            0.12    0.13    0.14           0.31     0.33
F17        36.18   25.59   11.23          57.64   43.22   24.09          49.48   29.14           0.18    0.87    0.91    0.52            0.18    0.18    0.13           0.29     0.33
