targets/wolf_faust/transmissive/V130608.it8
IT8.7/1
ORIGINATOR "Wolf Faust"
DESCRIPTOR "Velvia (RVP 50), Type 3, L* a* b* (light D50, viewing angle 2)"
MANUFACTURER "Wolf Faust - http://www.coloraid.de"
CREATED "July 11, 2013"
PROD_DATE "2013:07"
DIFFUSE_GEOMETRY "opal"
SERIAL "V130608 Batch Average Data"
MATERIAL "Fujichrome Velvia (RVP 50)"
KEYWORD "MEAN_DE" # Mean Delta E of samples compared to batch average
NUMBER_OF_FIELDS 18
BEGIN_DATA_FORMAT
SAMPLE_ID  XYZ_X   XYZ_Y   XYZ_Z          LAB_L   LAB_A   LAB_B          LAB_C   LAB_H          D_RED  D_GREEN  D_BLUE  D_VIS          STDEV_X STDEV_Y STDEV_Z        MEAN_DE  STDEV_DE
END_DATA_FORMAT
NUMBER_OF_SETS 288
BEGIN_DATA
A1          2.14    1.83    1.29          14.55    8.76    2.67           9.16   16.92           1.52    1.90    1.91    1.71            0.04    0.03    0.03           0.31     0.35
A2          2.72    1.87    1.09          14.77   19.52    5.77          20.36   16.45           1.31    2.07    1.97    1.66            0.05    0.04    0.02           0.29     0.33 
A3          3.18    1.80    0.87          14.40   29.36    8.55          30.58   16.23           1.17    2.36    2.04    1.63            0.06    0.03    0.02           0.32     0.38
A4          4.25    1.87    0.69          14.79   43.86   12.50          45.61   15.91           0.95    3.27    2.06    1.56            0.07    0.03    0.01           0.33     0.41 
A5          9.66    8.40    6.01          34.81   13.23    4.09          13.85   17.16           0.87    1.20    1.20    1.05            0.15    0.12    0.07           0.38     0.45
A6         11.65    8.46    5.11          34.92   27.67    8.68          29.00   17.41           0.70    1.34    1.26    1.01            0.27    0.20    0.10           0.54     0.63 
A7         14.25    8.69    4.48          35.38   42.83   12.85          44.71   16.70           0.54    1.53    1.30    0.97            0.28    0.17    0.07           0.51     0.60
A8         17.37    8.70    3.65          35.39   60.87   17.90          63.45   16.38           0.38    1.95    1.36    0.92            0.10    0.06    0.05           0.16     0.20 
A9         28.79   28.12   21.60          60.00    6.59    3.09           7.29   25.14           0.47    0.60    0.62    0.54            0.41    0.44    0.30           0.61     0.69
A10        30.76   28.15   20.57          60.02   13.98    5.20          14.92   20.38           0.40    0.63    0.64    0.53            0.47    0.45    0.26           0.54     0.60
A11        33.46   28.61   19.41          60.44   21.89    8.33          23.43   20.83           0.32    0.67    0.66    0.51            0.46    0.45    0.21           0.49     0.60
A12        39.27   28.58   17.32          60.41   41.25   12.88          43.21   17.34           0.17    0.79    0.70    0.48            0.24    0.25    0.20           0.37     0.41 
A13        73.30   77.38   65.75          90.50   -2.71   -1.80           3.26  213.82           0.13    0.10    0.11    0.12            0.34    0.32    0.19           0.35     0.42
A14        78.66   79.82   65.62          91.60    3.38    0.23           3.40   76.10           0.07    0.10    0.11    0.10            0.21    0.32    0.20           0.29     0.39 
A15        79.29   81.49   63.14          92.35    1.41    3.89           4.15   69.75           0.06    0.09    0.13    0.09            0.19    0.34    0.26           0.40     0.55
A16        76.42   79.58   65.18          91.50   -0.64    0.47           0.81  145.40           0.10    0.09    0.11    0.10            0.29    0.35    0.23           0.34     0.42
A17        78.20   79.47   63.64          91.45    3.14    1.84           3.66   30.39           0.07    0.11    0.12    0.10            0.19    0.31    0.30           0.36     0.48
A18        75.17   78.75   60.71          91.12   -1.55    4.14           4.42  110.40           0.10    0.10    0.15    0.10            0.23    0.22    0.30           0.35     0.45 
A19        73.13   75.91   64.89          89.82   -0.12   -2.16           2.18  266.33           0.12    0.12    0.11    0.12            0.25    0.25    0.23           0.30     0.35
A20         6.08    2.85    1.78          19.45   46.20    5.46          46.52    6.74           0.83    2.65    1.65    1.40            0.12    0.05    0.02           0.37     0.46 
A21        26.00   18.21   13.87          49.75   39.63    2.99          39.74    4.31           0.35    1.02    0.79    0.68            0.36    0.28    0.20           0.35     0.41
A22        53.10   48.44   31.10          75.10   17.14   12.60          21.28   36.32           0.15    0.39    0.45    0.29            0.42    0.44    0.28           0.32     0.36
B1          3.30    2.97    1.70          19.93    7.44    7.17          10.34   43.97           1.34    1.65    1.81    1.50            0.05    0.04    0.02           0.32     0.37
B2          3.81    2.87    1.03          19.52   17.14   14.92          22.72   41.04           1.19    1.79    2.06    1.48            0.04    0.03    0.01           0.23     0.27
B3          4.30    2.83    0.62          19.35   24.89   21.73          33.05   41.12           1.08    1.94    2.31    1.46            0.06    0.04    0.01           0.29     0.33
B4          5.39    2.93    0.10          19.76   37.04   32.24          49.11   41.03           0.91    2.26    3.34    1.40            0.07    0.04    0.00           0.26     0.36
B5         12.35   11.15    6.34          39.84   11.36   11.23          15.97   44.68           0.77    1.06    1.20    0.93            0.09    0.08    0.05           0.32     0.37
B6         14.37   11.12    4.18          39.77   24.70   22.13          33.17   41.86           0.62    1.17    1.40    0.90            0.20    0.16    0.04           0.42     0.49
B7         16.64   11.16    2.58          39.84   37.64   33.27          50.24   41.47           0.50    1.31    1.64    0.87            0.22    0.16    0.03           0.43     0.49
B8         21.14   11.55    1.01          40.50   57.97   51.32          77.42   41.52           0.31    1.62    2.10    0.81            0.08    0.06    0.01           0.12     0.15
B9         34.14   34.19   25.10          65.11    4.11    5.34           6.75   52.51           0.41    0.50    0.55    0.46            0.47    0.56    0.40           0.60     0.68
B10        36.15   34.49   22.14          65.34    9.90   11.27          15.00   48.69           0.35    0.52    0.61    0.45            0.47    0.50    0.31           0.52     0.59
B11        37.75   34.32   19.88          65.22   15.71   15.59          22.14   44.78           0.29    0.55    0.67    0.44            0.43    0.41    0.22           0.45     0.52
B12        43.54   34.23   13.62          65.14   33.86   30.20          45.37   41.73           0.15    0.65    0.85    0.41            0.25    0.31    0.13           0.42     0.48
B13        65.86   71.78   63.43          87.86   -7.35   -4.14           8.44  209.38           0.20    0.12    0.12    0.15            0.44    0.38    0.32           0.37     0.44
B14        68.99   65.72   59.31          84.85   12.50   -5.26          13.57  337.18           0.09    0.22    0.14    0.17            0.33    0.36    0.36           0.26     0.30
B15        71.92   74.86   45.40          89.33   -0.55   17.72          17.73   91.78           0.09    0.13    0.29    0.12            0.35    0.29    0.19           0.29     0.35
B16        59.14   61.56   50.02          82.68   -0.52    0.87           1.03  120.90           0.21    0.21    0.23    0.21            0.45    0.44    0.35           0.32     0.37
B17        66.21   63.55   47.33          83.73   11.25    5.78          12.65   27.17           0.10    0.24    0.26    0.18            0.42    0.46    0.39           0.28     0.33
B18        62.99   69.67   49.43          86.84   -9.40    8.71          12.82  137.19           0.21    0.13    0.25    0.16            0.34    0.28    0.36           0.36     0.42
B19        61.56   63.45   60.36          83.68    0.88   -8.34           8.38  276.05           0.20    0.20    0.14    0.20            0.35    0.33    0.44           0.25     0.30
B20         4.73    2.86    0.93          19.48   30.07   16.36          34.24   28.55           1.01    2.05    2.05    1.44            0.09    0.05    0.01           0.40     0.49
B21        16.56   11.09    4.00          39.74   37.66   23.15          44.21   31.58           0.50    1.31    1.40    0.87            0.23    0.16    0.04           0.40     0.47
B22        32.88   28.12   16.44          60.00   21.73   14.23          25.97   33.21           0.32    0.68    0.75    0.52            0.39    0.37    0.19           0.39     0.46
C1          6.18    6.13    3.33          29.74    2.91   10.27          10.67   74.17           1.12    1.27    1.52    1.20            0.06    0.06    0.02           0.30     0.34
C2          6.64    6.20    2.09          29.91    7.03   20.40          21.58   70.99           1.04    1.30    1.78    1.18            0.07    0.07    0.03           0.28     0.32
C3          7.09    6.11    1.11          29.68   12.54   31.23          33.66   68.12           0.98    1.35    2.15    1.17            0.09    0.08    0.02           0.25     0.29
C4          7.73    6.12    0.28          29.72   18.56   45.94          49.54   68.00           0.92    1.41    3.17    1.15            0.10    0.08    0.01           0.30     0.36
C5         23.67   23.15   11.56          55.22    6.06   18.92          19.87   72.26           0.53    0.69    0.94    0.62            0.41    0.35    0.17           0.55     0.68
C6         25.25   22.80    6.41          54.87   14.41   36.86          39.58   68.64           0.44    0.74    1.26    0.61            0.25    0.21    0.06           0.41     0.49
C7         27.26   22.87    3.13          54.93   22.39   55.11          59.49   67.89           0.37    0.79    1.69    0.59            0.28    0.24    0.03           0.37     0.42
C8         30.55   22.85    0.57          54.92   35.18   83.97          91.05   67.27           0.29    0.89    3.11    0.57            0.28    0.25    0.01           0.34     0.43
C9         40.13   40.89   27.93          70.10    2.20    9.07           9.33   76.40           0.34    0.41    0.51    0.38            0.46    0.55    0.33           0.52     0.58
C10        41.49   41.24   23.88          70.34    5.29   16.57          17.40   72.29           0.30    0.42    0.59    0.37            0.48    0.52    0.29           0.50     0.56
C11        42.73   41.25   19.54          70.35    9.01   25.15          26.71   70.29           0.26    0.44    0.69    0.36            0.38    0.40    0.13           0.49     0.55
C12        48.64   41.20    6.64          70.31   26.00   62.48          67.67   67.41           0.12    0.52    1.30    0.34            0.23    0.30    0.07           0.33     0.38
C13        58.75   66.65   62.71          85.33  -12.87   -7.81          15.05  211.26           0.30    0.13    0.13    0.19            0.37    0.29    0.37           0.32     0.38
C14        61.68   54.38   55.00          78.68   22.70  -11.46          25.43  333.21           0.11    0.35    0.17    0.25            0.36    0.41    0.43           0.28     0.33
C15        69.10   72.14   32.48          88.04   -0.99   32.79          32.81   91.73           0.09    0.15    0.47    0.13            0.31    0.27    0.12           0.32     0.38
C16        45.38   47.42   38.49          74.45   -0.97    0.85           1.31  139.25           0.32    0.33    0.35    0.33            0.40    0.39    0.18           0.35     0.41
C17        57.12   51.06   34.48          76.72   20.28   10.34          22.76   27.02           0.11    0.38    0.40    0.27            0.26    0.31    0.22           0.24     0.29
C18        53.55   62.46   37.81          83.16  -16.41   16.77          23.47  134.37           0.30    0.16    0.39    0.21            0.32    0.28    0.18           0.24     0.27
C19        49.22   50.21   56.38          76.20    2.20  -17.19          17.33  277.30           0.32    0.30    0.16    0.31            0.46    0.45    0.39           0.32     0.37
C20        12.04    8.89    1.11          35.77   26.76   41.67          49.52   57.29           0.68    1.31    2.15    0.98            0.15    0.09    0.01           0.29     0.37
C21        21.24   19.94   10.87          51.77    9.86   15.07          18.00   56.81           0.56    0.78    0.95    0.68            0.29    0.26    0.10           0.34     0.41
C22        26.81   22.80   10.49          54.87   20.86   21.62          30.05   46.02           0.40    0.78    0.97    0.60            0.25    0.24    0.11           0.35     0.39
D1          4.10    4.35    2.41          24.78   -1.31    8.72           8.82   98.56           1.33    1.39    1.68    1.36            0.03    0.03    0.02           0.29     0.34
D2          4.13    4.46    1.50          25.14   -2.32   18.37          18.52   97.19           1.33    1.37    1.96    1.34            0.05    0.05    0.02           0.23     0.27
D3          4.07    4.37    0.83          24.85   -2.02   27.23          27.31   94.24           1.33    1.37    2.35    1.34            0.05    0.05    0.01           0.28     0.32
D4          3.95    4.30    0.31          24.64   -2.87   36.57          36.69   94.48           1.38    1.36    3.17    1.35            0.05    0.06    0.01           0.32     0.37
D5         17.11   18.20    9.21          49.73   -2.35   17.03          17.20   97.86           0.72    0.75    1.05    0.73            0.17    0.21    0.11           0.50     0.56
D6         17.02   18.09    4.98          49.60   -2.29   34.66          34.74   93.78           0.70    0.76    1.41    0.73            0.15    0.15    0.03           0.40     0.46
D7         16.92   18.20    2.38          49.73   -3.41   51.99          52.11   93.75           0.72    0.74    1.92    0.72            0.15    0.17    0.02           0.45     0.50
D8         16.89   18.28    0.75          49.83   -3.98   71.70          71.81   93.18           0.76    0.74    3.03    0.72            0.16    0.18    0.01           0.40     0.45
D9         46.31   48.82   24.36          75.34   -2.14   24.31          24.41   95.03           0.28    0.32    0.60    0.30            0.44    0.53    0.29           0.44     0.49
D10        45.87   48.63   13.85          75.22   -2.88   46.95          47.04   93.51           0.27    0.32    0.91    0.30            0.36    0.37    0.11           0.37     0.42
D11        45.18   48.26    7.00          74.99   -3.82   68.98          69.08   93.17           0.28    0.32    1.35    0.30            0.37    0.35    0.06           0.31     0.37
D12        44.79   48.07    3.39          74.87   -4.43   87.68          87.79   92.89           0.29    0.32    1.93    0.30            0.29    0.24    0.04           0.28     0.34
D13        52.56   61.88   61.81          82.85  -17.64  -11.21          20.90  212.42           0.39    0.15    0.13    0.23            0.23    0.27    0.21           0.26     0.32
D14        55.16   45.06   50.81          72.93   31.74  -16.82          35.92  332.08           0.13    0.48    0.19    0.32            0.38    0.43    0.43           0.33     0.39
D15        67.19   69.92   23.95          86.96   -0.50   45.10          45.10   90.64           0.09    0.16    0.63    0.14            0.26    0.20    0.08           0.29     0.33
D16        33.82   35.50   28.76          66.14   -1.42    0.87           1.70  147.77           0.45    0.45    0.49    0.45            0.29    0.28    0.14           0.41     0.47
D17        49.00   40.60   24.37          69.90   28.77   14.91          32.40   27.39           0.13    0.53    0.56    0.35            0.16    0.19    0.10           0.19     0.24
D18        46.09   56.32   28.89          79.80  -21.98   24.20          32.70  132.25           0.39    0.19    0.53    0.26            0.22    0.22    0.14           0.20     0.22
D19        38.73   38.92   52.31          68.70    3.86  -25.78          26.07  278.51           0.45    0.42    0.19    0.42            0.29    0.25    0.30           0.26     0.31
D20         2.89    2.90    1.03          19.63    1.76   15.01          15.11   83.30           1.44    1.59    2.12    1.52            0.04    0.03    0.02           0.23     0.26
D21        30.23   27.91    1.43          59.81   12.89   78.91          79.96   80.72           0.39    0.64    2.42    0.51            0.25    0.21    0.02           0.27     0.33
D22        39.89   43.62   55.54          71.97   -6.62  -23.60          24.51  254.32           0.49    0.33    0.17    0.38            0.31    0.34    0.24           0.40     0.45
E1          5.36    6.13    3.46          29.74   -6.38    9.38          11.34  124.23           1.27    1.20    1.51    1.22            0.04    0.04    0.02           0.23     0.28
E2          4.91    6.16    2.23          29.82  -12.17   19.02          22.58  122.60           1.35    1.16    1.79    1.22            0.04    0.04    0.02           0.22     0.25
E3          4.50    6.17    1.32          29.85  -17.63   28.66          33.64  121.59           1.45    1.12    2.16    1.23            0.05    0.05    0.02           0.30     0.35
E4          4.05    6.24    0.50          30.02  -24.59   42.25          48.89  120.20           1.65    1.06    3.05    1.23            0.06    0.08    0.01           0.35     0.41
E5         24.38   28.06   14.93          59.94  -11.17   17.82          21.04  122.07           0.62    0.52    0.83    0.56            0.25    0.35    0.20           0.51     0.57
E6         22.25   27.88    9.26          59.78  -19.96   34.17          39.57  120.28           0.70    0.49    1.11    0.56            0.16    0.22    0.08           0.43     0.48
E7         20.21   27.97    5.13          59.86  -29.97   51.55          59.63  120.18           0.81    0.45    1.52    0.57            0.10    0.15    0.04           0.32     0.36
E8         18.92   28.01    3.12          59.90  -36.58   63.70          73.46  119.87           0.91    0.42    1.93    0.57            0.11    0.14    0.02           0.15     0.19
E9         44.14   48.48   32.07          75.12   -7.44   11.17          13.42  123.66           0.35    0.30    0.45    0.32            0.36    0.47    0.31           0.42     0.48
E10        41.80   48.19   25.21          74.94  -13.57   22.10          25.94  121.56           0.39    0.28    0.58    0.32            0.29    0.31    0.15           0.30     0.35
E11        39.90   48.28   20.06          75.00  -19.65   32.08          37.62  121.49           0.43    0.26    0.72    0.32            0.35    0.37    0.14           0.36     0.42
E12        37.71   47.98   14.34          74.81  -25.79   44.96          51.83  119.84           0.48    0.25    0.92    0.33            0.21    0.22    0.12           0.24     0.29
E13        47.77   58.15   61.31          80.82  -21.69  -14.21          25.93  213.22           0.47    0.16    0.14    0.27            0.26    0.24    0.19           0.23     0.27
E14        49.31   37.37   46.80          67.55   39.72  -21.50          45.17  331.58           0.15    0.61    0.22    0.39            0.22    0.24    0.24           0.21     0.25
E15        65.87   68.08   18.05          86.05    0.51   55.44          55.44   89.48           0.09    0.18    0.79    0.15            0.16    0.18    0.07           0.26     0.32
E16        24.66   25.86   20.96          57.90   -1.17    0.74           1.42  148.06           0.59    0.60    0.63    0.59            0.20    0.20    0.07           0.35     0.43
E17        42.18   32.36   16.98          63.64   36.28   19.24          41.06   27.94           0.16    0.69    0.72    0.44            0.20    0.21    0.10           0.22     0.26
E18        40.08   51.01   22.07          76.69  -26.38   30.95          40.67  130.44           0.47    0.22    0.67    0.31            0.20    0.20    0.12           0.16     0.19
E19        30.32   29.74   48.23          61.43    6.27  -33.72          34.30  280.53           0.58    0.54    0.22    0.55            0.24    0.20    0.25           0.28     0.32
E20         6.91    8.32    1.34          34.64  -10.57   36.63          38.13  106.10           1.17    1.04    2.18    1.08            0.11    0.11    0.03           0.27     0.31
E21        24.09   29.06    6.33          60.83  -16.27   47.48          50.19  108.91           0.63    0.49    1.35    0.54            0.21    0.22    0.05           0.33     0.37
E22         8.52   18.18   13.22          49.72  -60.56    4.68          60.74  175.58           1.84    0.52    0.92    0.82            0.06    0.12    0.08           0.18     0.21
F1          3.53    4.43    3.15          25.05  -10.97    3.44          11.50  162.60           1.52    1.31    1.55    1.38            0.03    0.03    0.02           0.21     0.25
F2          2.92    4.41    2.66          24.97  -20.74    6.98          21.89  161.40           1.73    1.25    1.66    1.40            0.03    0.02    0.02           0.22     0.25
F3          2.40    4.40    2.28          24.94  -30.44   10.11          32.08  161.62           1.99    1.19    1.78    1.42            0.02    0.04    0.01           0.23     0.29
F4          1.54    4.39    1.59          24.91  -50.38   16.97          53.16  161.39           2.82    1.09    2.11    1.45            0.01    0.03    0.02           0.28     0.37
F5         11.40   14.58   10.18          45.06  -17.77    5.72          18.67  162.16           1.05    0.77    1.00    0.86            0.10    0.10    0.08           0.37     0.42
F6          9.01   14.24    8.36          44.58  -34.24   11.22          36.03  161.86           1.32    0.71    1.13    0.89            0.08    0.11    0.07           0.27     0.32
F7          7.35   14.46    7.03          44.89  -50.46   17.00          53.24  161.38           1.65    0.64    1.26    0.90            0.05    0.08    0.04           0.20     0.23
F8          5.82   14.36    5.80          44.75  -65.74   22.21          69.39  161.34           2.10    0.59    1.41    0.92            0.03    0.07    0.04           0.14     0.15
F9         29.24   34.08   25.63          65.02  -13.33    4.26          14.00  162.28           0.58    0.43    0.55    0.48            0.23    0.27    0.29           0.40     0.49
F10        26.16   34.06   23.25          65.01  -25.49    8.56          26.89  161.44           0.71    0.39    0.62    0.49            0.26    0.31    0.21           0.30     0.36
F11        23.44   33.97   21.38          64.94  -36.81   12.06          38.74  161.86           0.85    0.35    0.67    0.51            0.19    0.24    0.14           0.24     0.28
F12        20.51   33.58   18.97          64.63  -49.09   16.49          51.79  161.43           1.02    0.32    0.75    0.52            0.18    0.23    0.18           0.23     0.26
F13        43.06   54.26   60.54          78.61  -25.63  -17.25          30.90  213.94           0.56    0.18    0.14    0.30            0.19    0.18    0.19           0.19     0.22
F14        43.71   30.64   42.57          62.20   47.02  -25.58          53.53  331.45           0.17    0.76    0.26    0.47            0.13    0.15    0.23           0.22     0.27
F15        64.83   66.40   13.85          85.20    1.83   64.17          64.20   88.36           0.09    0.20    0.95    0.16            0.16    0.15    0.04           0.22     0.26
F16        17.13   18.14   14.73          49.66   -1.96    0.59           2.06  162.85           0.75    0.75    0.80    0.75            0.19    0.17    0.09           0.33     0.38
F17        36.28   25.74   11.52          57.79   42.91   23.48          48.91   28.69           0.19    0.87    0.90    0.52            0.13    0.14    0.08           0.21     0.24
