targets/wolf_faust/transmissive/V131103.it8
IT8.7/1
ORIGINATOR "Wolf Faust"
DESCRIPTOR "Velvia (RVP 50), Type 3, L* a* b* (light D50, viewing angle 2)"
MANUFACTURER "Wolf Faust - http://www.coloraid.de"
CREATED "November 16, 2013"
PROD_DATE "2013:07"
DIFFUSE_GEOMETRY "opal"
SERIAL "V131103 Batch Average Data"
MATERIAL "Fujichrome Velvia (RVP 50)"
KEYWORD "MEAN_DE" # Mean Delta E of samples compared to batch average
NUMBER_OF_FIELDS 18
BEGIN_DATA_FORMAT
SAMPLE_ID  XYZ_X   XYZ_Y   XYZ_Z          LAB_L   LAB_A   LAB_B          LAB_C   LAB_H          D_RED  D_GREEN  D_BLUE  D_VIS          STDEV_X STDEV_Y STDEV_Z        MEAN_DE  STDEV_DE
END_DATA_FORMAT
NUMBER_OF_SETS 288
BEGIN_DATA
A1          2.08    1.79    1.27          14.36    8.25    2.57           8.64   17.31           1.53    1.90    1.92    1.72            0.05    0.04    0.03           0.28     0.34
A2          2.67    1.84    1.09          14.64   19.10    5.63          19.91   16.41           1.32    2.07    1.97    1.66            0.05    0.03    0.02           0.31     0.38 
A3          3.13    1.78    0.88          14.28   28.92    8.24          30.07   15.90           1.17    2.35    2.04    1.64            0.06    0.04    0.02           0.36     0.42
A4          4.18    1.86    0.71          14.73   43.21   12.08          44.87   15.62           0.96    3.09    2.05    1.57            0.08    0.04    0.01           0.31     0.39 
A5          9.55    8.32    5.90          34.63   13.12    4.29          13.80   18.10           0.88    1.21    1.21    1.05            0.16    0.13    0.06           0.32     0.41
A6         11.52    8.36    5.03          34.71   27.65    8.71          28.99   17.47           0.70    1.35    1.27    1.02            0.18    0.13    0.05           0.30     0.40 
A7         13.81    8.43    4.35          34.86   42.35   12.68          44.21   16.67           0.55    1.54    1.32    0.98            0.18    0.12    0.07           0.30     0.34
A8         17.22    8.63    3.59          35.26   60.63   18.03          63.25   16.56           0.38    1.94    1.36    0.93            0.09    0.06    0.05           0.18     0.22 
A9         27.90   27.27   21.00          59.23    6.46    2.95           7.10   24.62           0.49    0.61    0.63    0.56            0.18    0.17    0.15           0.32     0.37
A10        30.05   27.46   20.02          59.40   13.99    5.25          14.94   20.59           0.41    0.64    0.65    0.54            0.24    0.21    0.14           0.33     0.37
A11        32.41   27.68   18.83          59.60   21.79    8.13          23.25   20.47           0.34    0.68    0.67    0.53            0.21    0.18    0.16           0.31     0.35
A12        38.75   28.08   16.97          59.97   41.54   12.91          43.50   17.27           0.17    0.80    0.71    0.49            0.16    0.16    0.14           0.22     0.26 
A13        72.52   76.64   65.08          90.15   -2.86   -1.76           3.36  211.51           0.13    0.10    0.11    0.12            0.24    0.20    0.11           0.13     0.16
A14        77.91   78.89   64.90          91.19    3.69    0.19           3.70    2.93           0.07    0.11    0.11    0.10            0.19    0.16    0.13           0.11     0.13 
A15        78.64   80.75   62.36          92.02    1.54    4.07           4.35   69.25           0.07    0.10    0.13    0.09            0.20    0.19    0.16           0.10     0.12
A16        75.83   78.98   64.56          91.23   -0.66    0.58           0.89  138.55           0.10    0.10    0.11    0.10            0.27    0.23    0.19           0.15     0.18
A17        77.47   78.58   62.91          91.04    3.44    1.86           3.91   28.34           0.07    0.11    0.13    0.10            0.17    0.16    0.11           0.13     0.14
A18        74.48   78.02   59.89          90.79   -1.54    4.39           4.66  109.36           0.10    0.10    0.15    0.11            0.29    0.26    0.28           0.22     0.26 
A19        72.30   74.98   64.27          89.38   -0.00   -2.31           2.32  269.97           0.12    0.12    0.11    0.13            0.24    0.17    0.10           0.13     0.19
A20         5.92    2.79    1.77          19.19   45.51    5.11          45.80    6.41           0.84    2.61    1.65    1.41            0.11    0.05    0.02           0.43     0.51 
A21        25.38   17.75   13.57          49.20   39.41    2.83          39.51    4.11           0.36    1.04    0.80    0.69            0.28    0.19    0.12           0.42     0.50
A22        52.22   47.42   30.47          74.46   17.64   12.48          21.61   35.29           0.16    0.40    0.46    0.30            0.36    0.31    0.21           0.26     0.29
B1          3.22    2.91    1.67          19.70    7.14    7.10          10.07   44.84           1.36    1.65    1.82    1.51            0.04    0.03    0.03           0.24     0.29
B2          3.72    2.81    1.01          19.29   16.83   14.77          22.39   41.26           1.20    1.80    2.07    1.49            0.05    0.03    0.03           0.28     0.33
B3          4.24    2.80    0.61          19.21   24.70   21.57          32.79   41.13           1.09    1.94    2.31    1.46            0.06    0.04    0.02           0.23     0.27
B4          5.28    2.87    0.11          19.53   36.75   31.59          48.46   40.69           0.92    2.25    3.25    1.41            0.07    0.04    0.00           0.30     0.35
B5         12.20   11.01    6.21          39.59   11.36   11.42          16.11   45.15           0.78    1.06    1.21    0.93            0.20    0.15    0.11           0.30     0.40
B6         14.13   10.91    4.07          39.43   24.69   22.24          33.23   42.02           0.63    1.18    1.41    0.90            0.22    0.15    0.08           0.32     0.41
B7         16.28   10.89    2.51          39.40   37.58   33.09          50.07   41.37           0.50    1.32    1.65    0.88            0.18    0.11    0.03           0.29     0.35
B8         20.98   11.46    1.04          40.34   57.91   50.61          76.91   41.15           0.31    1.62    2.08    0.81            0.09    0.08    0.02           0.18     0.22
B9         33.10   33.13   24.40          64.27    4.11    5.16           6.61   51.48           0.42    0.51    0.57    0.47            0.23    0.22    0.22           0.47     0.55
B10        34.99   33.34   21.42          64.43    9.95   11.10          14.91   48.12           0.36    0.53    0.63    0.46            0.28    0.23    0.17           0.31     0.35
B11        36.68   33.26   19.22          64.37   15.86   15.52          22.20   44.38           0.30    0.56    0.68    0.45            0.33    0.29    0.18           0.30     0.35
B12        43.10   33.72   13.34          64.74   34.29   30.27          45.74   41.43           0.15    0.66    0.86    0.42            0.13    0.14    0.16           0.25     0.31
B13        65.22   71.14   62.60          87.55   -7.44   -3.86           8.38  207.45           0.21    0.12    0.13    0.16            0.35    0.29    0.22           0.25     0.29
B14        68.22   64.70   58.70          84.33   13.09   -5.56          14.22  337.01           0.10    0.23    0.15    0.18            0.14    0.14    0.13           0.08     0.10
B15        71.09   73.85   44.56          88.85   -0.24   17.91          17.91   90.77           0.10    0.13    0.30    0.13            0.40    0.43    0.39           0.26     0.29
B16        58.11   60.33   49.25          82.02   -0.14    0.60           0.63  102.23           0.21    0.22    0.24    0.22            0.32    0.36    0.23           0.25     0.29
B17        65.13   62.21   46.47          83.03   11.87    5.58          13.12   25.16           0.10    0.25    0.26    0.19            0.20    0.19    0.22           0.17     0.19
B18        62.21   68.86   48.91          86.44   -9.48    8.61          12.81  137.76           0.21    0.13    0.25    0.17            0.29    0.25    0.26           0.25     0.30
B19        60.61   62.34   59.54          83.09    1.18   -8.53           8.62  277.86           0.21    0.21    0.14    0.21            0.35    0.36    0.22           0.17     0.24
B20         4.65    2.83    0.93          19.33   29.69   16.02          33.73   28.36           1.02    2.04    2.05    1.45            0.10    0.06    0.02           0.33     0.42
B21        16.31   10.91    3.95          39.43   37.60   22.95          44.05   31.40           0.51    1.31    1.40    0.88            0.29    0.18    0.03           0.45     0.61
B22        32.21   27.52   16.11          59.45   21.72   14.05          25.87   32.91           0.33    0.69    0.76    0.53            0.33    0.26    0.22           0.40     0.46
C1          6.06    6.03    3.27          29.50    2.66   10.27          10.61   75.49           1.13    1.28    1.52    1.21            0.06    0.06    0.03           0.22     0.26
C2          6.51    6.09    2.04          29.64    6.89   20.40          21.53   71.35           1.05    1.30    1.78    1.19            0.06    0.04    0.03           0.22     0.27
C3          6.91    5.96    1.08          29.32   12.31   30.99          33.35   68.33           0.99    1.36    2.16    1.18            0.07    0.05    0.02           0.23     0.27
C4          7.62    6.02    0.29          29.47   18.55   45.34          48.99   67.75           0.92    1.42    3.07    1.16            0.10    0.08    0.01           0.29     0.36
C5         23.18   22.64   11.25          54.70    6.13   18.96          19.93   72.08           0.54    0.70    0.95    0.63            0.28    0.23    0.16           0.31     0.37
C6         24.68   22.23    6.20          54.27   14.57   36.75          39.53   68.37           0.45    0.75    1.27    0.62            0.26    0.21    0.07           0.28     0.34
C7         26.67   22.31    3.05          54.36   22.49   54.72          59.16   67.66           0.38    0.80    1.70    0.60            0.26    0.20    0.03           0.29     0.35
C8         30.01   22.36    0.59          54.41   35.36   82.58          89.83   66.82           0.30    0.90    2.88    0.58            0.17    0.15    0.00           0.27     0.31
C9         39.06   39.77   27.16          69.31    2.26    8.99           9.28   75.85           0.36    0.42    0.52    0.39            0.30    0.28    0.27           0.43     0.49
C10        40.39   40.09   23.23          69.53    5.44   16.38          17.26   71.62           0.31    0.43    0.60    0.38            0.35    0.32    0.21           0.36     0.41
C11        41.74   40.16   19.09          69.59    9.33   24.79          26.49   69.39           0.27    0.45    0.70    0.38            0.42    0.40    0.25           0.39     0.44
C12        48.16   40.57    6.49          69.87   26.57   62.36          67.79   66.93           0.12    0.53    1.31    0.34            0.15    0.18    0.09           0.24     0.30
C13        57.97   65.93   62.01          84.96  -13.18   -7.75          15.29  210.46           0.30    0.14    0.13    0.20            0.27    0.23    0.23           0.21     0.26
C14        60.95   53.47   54.47          78.15   23.29  -11.81          26.11  333.11           0.11    0.36    0.17    0.25            0.05    0.07    0.04           0.10     0.11
C15        68.46   71.34   31.94          87.65   -0.71   32.95          32.96   91.23           0.10    0.15    0.47    0.14            0.27    0.29    0.31           0.23     0.29
C16        44.45   46.36   37.81          73.78   -0.75    0.61           0.98  142.54           0.33    0.34    0.36    0.34            0.33    0.37    0.23           0.34     0.40
C17        56.24   50.02   33.82          76.08   20.88   10.20          23.24   26.04           0.12    0.39    0.41    0.27            0.34    0.40    0.35           0.34     0.40
C18        52.90   61.82   37.43          82.82  -16.61   16.71          23.56  134.83           0.31    0.16    0.39    0.22            0.29    0.24    0.22           0.31     0.37
C19        48.26   49.20   55.69          75.58    2.26  -17.53          17.68  277.35           0.33    0.31    0.17    0.32            0.33    0.28    0.18           0.30     0.37
C20        11.74    8.69    1.11          35.37   26.39   41.07          48.81   57.28           0.69    1.32    2.15    0.99            0.17    0.11    0.02           0.34     0.39
C21        20.75   19.49   10.64          51.25    9.75   14.92          17.83   56.82           0.57    0.78    0.96    0.69            0.27    0.22    0.13           0.37     0.43
C22        26.19   22.27   10.25          54.31   20.74   21.45          29.84   45.96           0.41    0.79    0.98    0.61            0.28    0.23    0.13           0.33     0.38
D1          4.01    4.27    2.36          24.55   -1.56    8.75           8.89  100.13           1.35    1.40    1.68    1.37            0.04    0.03    0.04           0.20     0.25
D2          4.04    4.37    1.45          24.86   -2.47   18.41          18.58   97.64           1.34    1.37    1.98    1.35            0.05    0.05    0.02           0.23     0.28
D3          4.02    4.33    0.82          24.72   -2.12   27.21          27.29   94.45           1.34    1.38    2.35    1.35            0.04    0.05    0.02           0.18     0.22
D4          3.90    4.24    0.31          24.46   -2.77   36.24          36.35   94.37           1.39    1.37    3.10    1.35            0.05    0.05    0.01           0.21     0.26
D5         16.88   17.94    8.96          49.42   -2.28   17.40          17.55   97.46           0.72    0.76    1.07    0.74            0.26    0.24    0.14           0.30     0.37
D6         16.80   17.81    4.86          49.27   -2.08   34.71          34.78   93.42           0.71    0.76    1.42    0.74            0.30    0.26    0.08           0.35     0.45
D7         16.52   17.76    2.31          49.20   -3.32   51.67          51.78   93.68           0.73    0.75    1.92    0.73            0.29    0.30    0.04           0.51     0.59
D8         16.63   17.96    0.76          49.45   -3.79   70.97          71.07   93.06           0.76    0.75    2.90    0.72            0.16    0.17    0.01           0.36     0.42
D9         45.16   47.57   23.61          74.55   -2.02   24.33          24.42   94.74           0.29    0.33    0.61    0.31            0.38    0.42    0.26           0.50     0.57
D10        44.85   47.46   13.44          74.48   -2.61   46.77          46.85   93.19           0.28    0.33    0.93    0.31            0.34    0.35    0.15           0.37     0.42
D11        44.29   47.25    6.82          74.35   -3.65   68.66          68.76   93.04           0.28    0.33    1.36    0.31            0.21    0.22    0.07           0.24     0.28
D12        44.27   47.51    3.36          74.51   -4.42   87.28          87.39   92.90           0.30    0.32    1.91    0.30            0.41    0.35    0.03           0.37     0.44
D13        52.06   61.50   61.39          82.64  -18.06  -11.14          21.22  211.67           0.40    0.15    0.14    0.24            0.24    0.19    0.15           0.20     0.26
D14        54.37   44.14   50.20          72.32   32.38  -17.18          36.65  332.04           0.13    0.49    0.20    0.33            0.18    0.23    0.21           0.18     0.25
D15        66.63   69.20   23.52          86.60   -0.20   45.28          45.28   90.25           0.10    0.17    0.64    0.14            0.24    0.28    0.19           0.20     0.24
D16        33.09   34.68   28.27          65.50   -1.23    0.58           1.37  155.25           0.46    0.46    0.50    0.46            0.33    0.36    0.23           0.32     0.40
D17        48.52   40.04   24.09          69.50   29.17   14.74          32.68   26.81           0.13    0.54    0.56    0.36            0.25    0.30    0.22           0.31     0.38
D18        45.54   55.80   28.60          79.50  -22.27   24.18          32.88  132.65           0.39    0.19    0.53    0.27            0.28    0.24    0.19           0.26     0.31
D19        38.19   38.37   51.83          68.29    3.87  -25.95          26.24  278.48           0.45    0.42    0.19    0.43            0.35    0.36    0.18           0.28     0.40
D20         2.83    2.85    1.03          19.45    1.45   14.79          14.86   84.41           1.45    1.60    2.12    1.53            0.05    0.04    0.02           0.28     0.32
D21        29.59   27.26    1.42          59.22   13.05   78.03          79.11   80.50           0.40    0.65    2.38    0.52            0.25    0.20    0.02           0.28     0.34
D22        38.81   42.44   54.69          71.17   -6.57  -24.07          24.95  254.74           0.51    0.34    0.18    0.40            0.36    0.35    0.19           0.30     0.36
E1          5.29    6.07    3.40          29.59   -6.50    9.55          11.55  124.23           1.27    1.21    1.52    1.22            0.06    0.06    0.04           0.25     0.29
E2          4.85    6.11    2.18          29.68  -12.28   19.18          22.77  122.63           1.35    1.16    1.80    1.23            0.05    0.05    0.04           0.23     0.27
E3          4.46    6.15    1.30          29.79  -17.82   28.79          33.86  121.75           1.46    1.12    2.16    1.23            0.03    0.05    0.02           0.19     0.22
E4          3.99    6.15    0.50          29.79  -24.50   41.99          48.62  120.26           1.66    1.07    3.02    1.23            0.05    0.08    0.01           0.28     0.33
E5         24.03   27.62   14.50          59.55  -10.99   18.22          21.28  121.10           0.63    0.53    0.84    0.56            0.25    0.25    0.18           0.34     0.39
E6         22.03   27.57    9.05          59.50  -19.77   34.46          39.73  119.84           0.70    0.50    1.12    0.57            0.28    0.27    0.10           0.38     0.44
E7         19.93   27.57    5.00          59.50  -29.81   51.62          59.61  120.01           0.82    0.46    1.53    0.57            0.21    0.23    0.04           0.36     0.41
E8         18.77   27.84    3.07          59.75  -36.71   63.80          73.60  119.92           0.92    0.43    1.93    0.57            0.16    0.18    0.04           0.23     0.28
E9         43.24   47.38   31.19          74.43   -7.08   11.32          13.35  122.00           0.36    0.31    0.47    0.33            0.55    0.51    0.32           0.44     0.52
E10        40.96   47.16   24.42          74.29  -13.32   22.40          26.07  120.74           0.40    0.29    0.60    0.33            0.37    0.38    0.25           0.39     0.45
E11        39.25   47.45   19.46          74.48  -19.45   32.43          37.82  120.95           0.44    0.27    0.73    0.33            0.31    0.32    0.20           0.38     0.43
E12        37.33   47.56   14.03          74.54  -25.86   45.33          52.18  119.70           0.48    0.25    0.93    0.33            0.32    0.30    0.07           0.31     0.39
E13        47.10   57.57   60.60          80.50  -22.16  -14.07          26.24  212.41           0.48    0.16    0.14    0.27            0.36    0.33    0.22           0.24     0.31
E14        48.59   36.58   46.18          66.96   40.30  -21.77          45.80  331.62           0.15    0.62    0.23    0.40            0.25    0.26    0.24           0.25     0.30
E15        65.31   67.36   17.82          85.69    0.80   55.32          55.33   89.17           0.09    0.19    0.80    0.15            0.23    0.26    0.15           0.19     0.23
E16        23.94   25.14   20.46          57.21   -1.30    0.58           1.43  156.35           0.60    0.61    0.65    0.60            0.31    0.28    0.23           0.40     0.46
E17        41.84   31.98   16.79          63.32   36.62   19.14          41.32   27.59           0.16    0.70    0.73    0.44            0.21    0.23    0.16           0.27     0.33
E18        39.65   50.61   21.81          76.44  -26.67   31.03          40.92  130.67           0.47    0.22    0.68    0.31            0.28    0.27    0.21           0.32     0.38
E19        29.47   28.92   47.59          60.71    6.13  -34.22          34.76  280.16           0.60    0.55    0.22    0.56            0.34    0.31    0.18           0.33     0.44
E20         6.82    8.25    1.32          34.51  -10.90   36.69          38.27  106.54           1.18    1.04    2.19    1.08            0.11    0.12    0.03           0.32     0.37
E21        23.54   28.42    6.16          60.27  -16.24   47.31          50.02  108.95           0.64    0.50    1.36    0.55            0.28    0.27    0.07           0.36     0.43
E22         8.45   18.12   12.90          49.64  -60.84    5.45          61.08  174.88           1.85    0.52    0.93    0.82            0.09    0.14    0.16           0.29     0.33
F1          3.47    4.39    3.12          24.91  -11.17    3.41          11.68  163.04           1.53    1.31    1.55    1.38            0.05    0.05    0.04           0.23     0.28
F2          2.88    4.37    2.60          24.85  -20.94    7.29          22.18  160.81           1.74    1.25    1.68    1.40            0.03    0.03    0.04           0.20     0.24
F3          2.38    4.38    2.24          24.88  -30.55   10.39          32.27  161.22           2.00    1.19    1.79    1.42            0.03    0.05    0.05           0.30     0.35
F4          1.53    4.35    1.54          24.80  -50.18   17.32          53.08  160.96           2.82    1.09    2.12    1.45            0.02    0.05    0.03           0.28     0.32
F5         11.11   14.21    9.78          44.53  -17.63    6.13          18.67  160.82           1.06    0.78    1.02    0.87            0.18    0.24    0.16           0.40     0.47
F6          8.86   14.05    8.10          44.31  -34.30   11.74          36.25  161.11           1.33    0.72    1.14    0.90            0.13    0.17    0.14           0.29     0.35
F7          7.29   14.36    6.83          44.75  -50.44   17.60          53.42  160.76           1.66    0.65    1.27    0.91            0.11    0.17    0.11           0.28     0.34
F8          5.82   14.38    5.65          44.78  -65.80   22.98          69.69  160.75           2.11    0.59    1.43    0.92            0.06    0.12    0.06           0.22     0.26
F9         28.86   33.53   25.01          64.58  -12.89    4.59          13.69  160.40           0.59    0.44    0.57    0.49            0.32    0.36    0.23           0.45     0.53
F10        25.65   33.41   22.54          64.49  -25.38    9.01          26.93  160.45           0.72    0.39    0.63    0.50            0.30    0.35    0.25           0.44     0.51
F11        23.01   33.42   20.77          64.50  -36.82   12.51          38.88  161.23           0.86    0.36    0.68    0.51            0.23    0.27    0.18           0.31     0.35
F12        20.38   33.48   18.61          64.55  -49.35   17.15          52.25  160.83           1.03    0.32    0.76    0.52            0.22    0.26    0.10           0.29     0.35
F13        42.45   53.74   59.88          78.31  -26.16  -17.12          31.26  213.20           0.58    0.18    0.15    0.31            0.29    0.25    0.20           0.26     0.34
F14        43.28   30.21   42.23          61.84   47.33  -25.77          53.89  331.43           0.17    0.77    0.26    0.47            0.18    0.18    0.19           0.20     0.25
F15        64.31   65.72   13.63          84.85    2.15   64.14          64.17   88.08           0.09    0.20    0.95    0.16            0.19    0.22    0.12           0.22     0.26
F16        16.92   17.89   14.54          49.36   -1.80    0.57           1.90  162.44           0.76    0.76    0.80    0.75            0.21    0.19    0.13           0.34     0.40
F17        35.91   25.37   11.34          57.43   43.23   23.41          49.16   28.43           0.19    0.88    0.91    0.53            0.11    0.12    0.11           0.24     0.29
