targets/wolf_faust/transmissive/V140410.it8
IT8.7/1
ORIGINATOR "Wolf Faust"
DESCRIPTOR "Velvia (RVP 50), Type 3, L* a* b* (light D50, viewing angle 2)"
MANUFACTURER "Wolf Faust - http://www.coloraid.de"
CREATED "June 22, 2014"
PROD_DATE "2012:08"
DIFFUSE_GEOMETRY "opal"
SERIAL "V140410 Batch Average Data"
MATERIAL "Fujichrome Velvia (RVP 50)"
KEYWORD "MEAN_DE" # Mean Delta E of samples compared to batch average
NUMBER_OF_FIELDS 18
BEGIN_DATA_FORMAT
SAMPLE_ID  XYZ_X   XYZ_Y   XYZ_Z          LAB_L   LAB_A   LAB_B          LAB_C   LAB_H          D_RED  D_GREEN  D_BLUE  D_VIS          STDEV_X STDEV_Y STDEV_Z        MEAN_DE  STDEV_DE
END_DATA_FORMAT
NUMBER_OF_SETS 288
BEGIN_DATA
A1          2.22    1.89    1.30          14.89    9.05    3.11           9.57   18.99           1.50    1.88    1.91    1.69            0.05    0.04    0.03           0.34     0.38
A2          2.70    1.85    1.08          14.67   19.58    5.78          20.42   16.44           1.31    2.08    1.97    1.66            0.06    0.04    0.03           0.34     0.37 
A3          3.23    1.84    0.91          14.61   29.16    8.23          30.30   15.75           1.16    2.33    2.01    1.63            0.07    0.04    0.03           0.37     0.41
A4          4.30    1.90    0.68          14.96   43.94   12.90          45.80   16.36           0.94    3.14    2.06    1.55            0.07    0.03    0.01           0.31     0.35 
A5          9.74    8.51    6.04          35.01   12.95    4.31          13.65   18.40           0.87    1.20    1.20    1.04            0.16    0.14    0.13           0.41     0.46
A6         11.68    8.48    5.25          34.97   27.66    8.06          28.82   16.25           0.70    1.34    1.25    1.01            0.16    0.12    0.10           0.37     0.42 
A7         14.07    8.59    4.49          35.19   42.58   12.47          44.36   16.32           0.55    1.53    1.30    0.97            0.19    0.12    0.09           0.34     0.41
A8         17.63    8.85    3.71          35.70   60.94   17.99          63.54   16.45           0.37    1.92    1.35    0.92            0.12    0.08    0.07           0.26     0.31 
A9         28.42   27.83   21.75          59.73    6.32    2.34           6.75   20.36           0.48    0.60    0.61    0.55            0.50    0.48    0.39           0.56     0.66
A10        30.55   28.03   20.88          59.91   13.63    4.38          14.32   17.81           0.41    0.63    0.63    0.53            0.50    0.47    0.38           0.49     0.59
A11        33.21   28.37   19.87          60.22   21.94    6.98          23.03   17.65           0.33    0.67    0.65    0.52            0.53    0.48    0.35           0.47     0.55
A12        39.46   28.69   17.59          60.50   41.47   12.42          43.29   16.68           0.17    0.79    0.69    0.48            0.26    0.28    0.21           0.37     0.47 
A13        72.16   76.69   65.56          90.18   -3.72   -2.17           4.32  210.09           0.14    0.10    0.11    0.12            0.36    0.36    0.19           0.38     0.42
A14        79.06   80.49   65.65          91.90    2.88    0.73           2.99   14.59           0.07    0.10    0.11    0.09            0.37    0.52    0.18           0.43     0.50 
A15        79.61   81.79   64.23          92.48    1.46    3.07           3.41   64.47           0.06    0.09    0.12    0.09            0.30    0.40    0.16           0.29     0.33
A16        76.62   79.82   64.82          91.60   -0.69    0.99           1.21  125.33           0.09    0.09    0.11    0.10            0.45    0.46    0.21           0.25     0.28
A17        78.80   80.39   64.30          91.86    2.57    1.92           3.23   36.85           0.07    0.10    0.12    0.09            0.36    0.50    0.18           0.37     0.44
A18        74.46   78.31   60.52          90.92   -2.16    3.99           4.54  118.40           0.11    0.10    0.15    0.11            0.54    0.52    0.28           0.29     0.33 
A19        72.05   75.02   64.64          89.40   -0.60   -2.63           2.71  256.67           0.13    0.12    0.11    0.13            0.38    0.46    0.14           0.39     0.46
A20         6.41    3.03    1.85          20.18   46.55    5.96          46.93    7.29           0.80    2.57    1.63    1.37            0.07    0.04    0.02           0.25     0.29 
A21        26.54   18.72   14.57          50.36   39.20    2.22          39.27    3.24           0.34    1.00    0.76    0.67            0.32    0.26    0.24           0.40     0.44
A22        53.45   49.19   31.76          75.57   16.04   12.40          20.28   37.70           0.15    0.38    0.44    0.29            0.44    0.49    0.37           0.44     0.50
B1          3.30    2.95    1.63          19.83    7.86    7.67          10.99   44.32           1.34    1.66    1.83    1.50            0.06    0.05    0.04           0.32     0.34
B2          3.80    2.91    1.03          19.70   16.35   15.13          22.27   42.78           1.20    1.77    2.06    1.48            0.06    0.05    0.02           0.30     0.33
B3          4.40    2.94    0.63          19.79   24.35   22.31          33.03   42.50           1.08    1.90    2.31    1.45            0.08    0.05    0.01           0.33     0.37
B4          5.40    2.95    0.11          19.85   36.80   32.24          48.93   41.21           0.91    2.24    3.26    1.40            0.09    0.05    0.00           0.40     0.47
B5         12.28   11.05    6.33          39.66   11.66   11.00          16.03   43.31           0.77    1.06    1.20    0.93            0.13    0.13    0.12           0.43     0.48
B6         14.53   11.25    4.19          39.99   24.75   22.49          33.44   42.27           0.62    1.16    1.40    0.89            0.14    0.12    0.07           0.37     0.41
B7         16.83   11.20    2.55          39.91   38.44   33.66          51.10   41.21           0.49    1.31    1.64    0.86            0.14    0.09    0.04           0.37     0.40
B8         21.30   11.64    1.02          40.64   58.13   51.46          77.64   41.52           0.31    1.61    2.09    0.81            0.09    0.08    0.01           0.19     0.22
B9         33.77   33.99   25.18          64.95    3.52    4.94           6.07   54.53           0.42    0.50    0.55    0.46            0.45    0.47    0.35           0.44     0.55
B10        35.34   33.82   22.16          64.82    9.46   10.31          14.00   47.44           0.36    0.53    0.61    0.45            0.24    0.28    0.28           0.51     0.58
B11        37.47   34.19   20.21          65.11   15.24   14.73          21.20   44.02           0.30    0.55    0.66    0.44            0.56    0.57    0.38           0.48     0.60
B12        44.08   34.77   13.86          65.57   33.59   30.28          45.23   42.04           0.14    0.64    0.84    0.41            0.26    0.31    0.22           0.46     0.55
B13        63.51   70.03   62.40          87.01   -8.98   -4.60          10.09  207.10           0.23    0.12    0.13    0.17            0.46    0.44    0.29           0.33     0.37
B14        69.07   66.00   59.16          85.00   12.03   -4.87          12.98  337.98           0.09    0.22    0.15    0.17            0.35    0.47    0.19           0.37     0.45
B15        71.49   74.57   45.38          89.19   -0.86   17.51          17.53   92.82           0.10    0.13    0.29    0.12            0.52    0.54    0.44           0.37     0.41
B16        57.73   60.65   49.75          82.19   -1.81    0.34           1.86  169.40           0.23    0.21    0.24    0.22            0.39    0.45    0.35           0.39     0.43
B17        66.32   63.87   47.36          83.90   10.76    6.03          12.34   29.30           0.10    0.23    0.26    0.18            0.34    0.46    0.36           0.43     0.48
B18        60.86   68.09   48.96          86.05  -10.98    7.90          13.52  144.27           0.23    0.13    0.25    0.17            0.37    0.33    0.31           0.32     0.37
B19        60.17   62.67   59.93          83.27   -0.60   -8.62           8.65  266.03           0.22    0.20    0.14    0.21            0.38    0.45    0.20           0.37     0.43
B20         4.87    3.00    0.97          20.03   29.52   16.61          33.87   29.37           1.00    2.00    2.03    1.43            0.05    0.04    0.02           0.27     0.33
B21        16.68   11.14    4.01          39.82   38.00   23.25          44.55   31.46           0.50    1.31    1.39    0.87            0.15    0.12    0.08           0.34     0.40
B22        32.95   28.16   16.74          60.03   21.86   13.56          25.73   31.82           0.32    0.68    0.74    0.52            0.36    0.34    0.27           0.44     0.50
C1          6.23    6.17    3.32          29.84    3.06   10.53          10.97   73.82           1.12    1.27    1.52    1.20            0.09    0.08    0.06           0.36     0.42
C2          6.67    6.18    2.15          29.86    7.60   19.80          21.21   69.00           1.04    1.30    1.76    1.18            0.09    0.09    0.05           0.31     0.36
C3          7.09    6.16    1.09          29.81   12.04   31.64          33.85   69.17           0.98    1.34    2.16    1.17            0.08    0.06    0.02           0.33     0.38
C4          7.78    6.18    0.28          29.86   18.41   46.11          49.65   68.23           0.91    1.41    3.13    1.15            0.08    0.07    0.00           0.32     0.38
C5         23.32   22.79   11.58          54.85    6.13   18.23          19.23   71.43           0.54    0.69    0.93    0.62            0.33    0.32    0.24           0.46     0.53
C6         25.14   22.84    6.49          54.90   13.79   36.57          39.08   69.34           0.45    0.74    1.25    0.61            0.33    0.31    0.12           0.42     0.49
C7         27.23   22.92    3.08          54.99   22.03   55.58          59.79   68.37           0.38    0.78    1.70    0.59            0.34    0.31    0.05           0.40     0.48
C8         30.75   23.02    0.57          55.10   35.14   84.26          91.30   67.36           0.29    0.88    3.05    0.56            0.26    0.23    0.01           0.35     0.43
C9         39.65   40.59   27.96          69.89    1.59    8.66           8.81   79.57           0.35    0.41    0.51    0.39            0.47    0.49    0.41           0.45     0.53
C10        40.76   40.73   24.01          69.98    4.61   15.72          16.38   73.64           0.31    0.42    0.59    0.38            0.50    0.53    0.37           0.49     0.55
C11        42.20   40.76   19.59          70.00    8.91   24.44          26.02   69.98           0.27    0.44    0.69    0.37            0.57    0.61    0.39           0.48     0.59
C12        48.92   41.48    6.61          70.51   25.91   62.93          68.06   67.62           0.12    0.52    1.30    0.33            0.23    0.32    0.09           0.40     0.47
C13        56.70   65.12   61.96          84.54  -14.49   -8.43          16.77  210.17           0.32    0.14    0.13    0.21            0.36    0.30    0.19           0.30     0.34
C14        61.73   54.43   54.90          78.71   22.71  -11.30          25.36  333.54           0.11    0.35    0.17    0.25            0.39    0.54    0.24           0.55     0.63
C15        68.71   71.90   32.56          87.92   -1.33   32.48          32.51   92.35           0.10    0.15    0.47    0.13            0.43    0.45    0.37           0.38     0.42
C16        44.37   46.52   38.40          73.88   -1.39   -0.02           1.43  180.31           0.34    0.33    0.35    0.33            0.32    0.42    0.40           0.47     0.55
C17        57.13   51.02   34.79          76.69   20.43    9.85          22.68   25.74           0.11    0.38    0.40    0.27            0.48    0.61    0.47           0.54     0.61
C18        51.88   61.24   37.46          82.51  -17.93   16.13          24.12  138.02           0.32    0.16    0.39    0.22            0.30    0.27    0.34           0.39     0.45
C19        48.29   49.49   55.95          75.75    1.58  -17.50          17.58  275.14           0.33    0.31    0.17    0.31            0.35    0.45    0.19           0.49     0.56
C20        12.02    8.89    1.12          35.78   26.59   41.59          49.36   57.41           0.68    1.31    2.15    0.98            0.18    0.15    0.02           0.36     0.42
C21        21.18   19.90   11.05          51.72    9.77   14.44          17.44   55.92           0.56    0.78    0.94    0.68            0.28    0.29    0.21           0.56     0.63
C22        26.98   22.92   10.78          54.99   21.03   20.93          29.68   44.86           0.40    0.78    0.96    0.60            0.26    0.25    0.18           0.46     0.50
D1          4.11    4.34    2.39          24.75   -0.92    8.84           8.89   95.95           1.33    1.39    1.68    1.36            0.08    0.08    0.05           0.30     0.34
D2          4.13    4.44    1.47          25.07   -2.05   18.59          18.70   96.30           1.32    1.37    1.97    1.34            0.06    0.06    0.03           0.31     0.35
D3          4.13    4.42    0.82          25.01   -1.84   27.64          27.70   93.81           1.32    1.37    2.35    1.34            0.06    0.06    0.01           0.34     0.38
D4          4.08    4.42    0.32          25.01   -2.47   37.12          37.20   93.80           1.36    1.36    3.10    1.34            0.05    0.05    0.00           0.34     0.40
D5         17.22   18.30    9.39          49.86   -2.27   16.64          16.79   97.77           0.72    0.75    1.04    0.73            0.21    0.21    0.18           0.45     0.52
D6         17.11   18.29    4.95          49.85   -2.89   35.22          35.34   94.69           0.71    0.75    1.41    0.72            0.21    0.20    0.09           0.42     0.48
D7         16.96   18.35    2.35          49.92   -3.96   52.58          52.73   94.30           0.72    0.74    1.92    0.72            0.20    0.21    0.03           0.42     0.48
D8         16.83   18.23    0.75          49.77   -4.11   71.75          71.87   93.27           0.76    0.74    2.99    0.72            0.16    0.19    0.01           0.37     0.45
D9         45.42   48.08   24.27          74.87   -2.66   23.67          23.82   96.42           0.29    0.32    0.60    0.31            0.49    0.55    0.40           0.51     0.59
D10        45.17   48.18   13.98          74.94   -3.64   46.13          46.27   94.51           0.28    0.32    0.91    0.30            0.46    0.51    0.25           0.43     0.49
D11        44.76   48.08    6.91          74.87   -4.54   69.16          69.31   93.75           0.28    0.32    1.36    0.30            0.41    0.42    0.10           0.33     0.40
D12        43.76   47.25    3.17          74.35   -5.19   88.26          88.41   93.37           0.31    0.32    1.97    0.31            0.22    0.19    0.03           0.36     0.39
D13        50.89   60.71   61.36          82.22  -19.30  -11.85          22.65  211.54           0.42    0.15    0.14    0.24            0.25    0.21    0.18           0.25     0.28
D14        55.39   45.30   50.84          73.09   31.65  -16.59          35.73  332.35           0.12    0.47    0.19    0.32            0.28    0.38    0.14           0.46     0.55
D15        66.89   69.80   24.02          86.90   -0.90   44.86          44.87   91.14           0.10    0.16    0.63    0.14            0.41    0.44    0.33           0.38     0.42
D16        33.30   35.05   28.94          65.79   -1.71   -0.03           1.75  180.94           0.47    0.46    0.48    0.46            0.40    0.44    0.44           0.51     0.58
D17        49.47   41.09   24.91          70.24   28.58   14.52          32.06   26.93           0.13    0.53    0.55    0.35            0.34    0.42    0.29           0.45     0.55
D18        44.64   55.30   28.67          79.21  -23.60   23.57          33.36  135.03           0.41    0.19    0.53    0.27            0.24    0.21    0.30           0.46     0.52
D19        38.12   38.51   52.06          68.39    3.21  -26.03          26.23  277.02           0.46    0.42    0.19    0.43            0.29    0.40    0.22           0.50     0.61
D20         2.95    2.97    1.05          19.92    1.50   15.21          15.29   84.37           1.44    1.58    2.10    1.51            0.05    0.06    0.02           0.33     0.37
D21        30.02   27.89    1.43          59.78   12.21   78.86          79.80   81.20           0.40    0.64    2.40    0.51            0.35    0.35    0.02           0.45     0.53
D22        39.28   43.03   55.01          71.57   -6.80  -23.72          24.68  254.01           0.50    0.33    0.17    0.39            0.28    0.39    0.25           0.42     0.49
E1          5.51    6.38    3.50          30.36   -7.25   10.16          12.49  125.49           1.26    1.18    1.51    1.20            0.10    0.10    0.06           0.32     0.36
E2          5.00    6.19    2.19          29.88  -11.35   19.49          22.56  120.22           1.33    1.16    1.80    1.22            0.08    0.09    0.04           0.36     0.39
E3          4.66    6.33    1.29          30.22  -17.12   29.62          34.21  120.02           1.43    1.11    2.17    1.21            0.06    0.07    0.02           0.33     0.37
E4          4.03    6.19    0.49          29.89  -24.22   42.24          48.69  119.83           1.65    1.07    3.04    1.23            0.06    0.08    0.01           0.38     0.44
E5         23.97   27.75   14.90          59.66  -11.73   17.41          21.00  123.96           0.63    0.53    0.83    0.56            0.32    0.37    0.28           0.55     0.62
E6         21.94   27.77    9.37          59.68  -20.94   33.64          39.63  121.90           0.71    0.49    1.11    0.57            0.29    0.34    0.17           0.48     0.54
E7         20.00   27.89    5.12          59.79  -30.71   51.48          59.94  120.82           0.82    0.45    1.52    0.57            0.20    0.25    0.08           0.35     0.38
E8         18.72   27.89    3.04          59.79  -37.13   64.11          74.08  120.08           0.92    0.42    1.95    0.57            0.09    0.09    0.03           0.23     0.26
E9         43.41   47.80   31.77          74.70   -7.73   10.88          13.35  125.38           0.36    0.30    0.46    0.32            0.58    0.65    0.54           0.49     0.57
E10        40.95   47.60   24.97          74.57  -14.56   21.90          26.30  123.63           0.40    0.28    0.59    0.33            0.50    0.54    0.48           0.51     0.59
E11        39.02   47.55   19.35          74.54  -20.42   32.78          38.62  121.92           0.44    0.27    0.73    0.33            0.42    0.45    0.36           0.52     0.59
E12        36.82   47.46   14.40          74.49  -27.27   44.25          51.98  121.65           0.50    0.25    0.91    0.33            0.34    0.30    0.16           0.43     0.50
E13        45.89   56.70   60.60          80.01  -23.45  -14.91          27.79  212.45           0.51    0.17    0.14    0.28            0.24    0.20    0.16           0.24     0.29
E14        49.26   37.20   46.60          67.43   40.11  -21.46          45.49  331.85           0.15    0.61    0.22    0.39            0.29    0.36    0.17           0.44     0.54
E15        65.61   68.00   18.21          86.01    0.10   55.01          55.01   89.89           0.10    0.18    0.79    0.15            0.36    0.40    0.23           0.33     0.37
E16        24.16   25.43   21.21          57.49   -1.57   -0.44           1.66  195.66           0.60    0.60    0.63    0.60            0.32    0.35    0.36           0.53     0.59
E17        42.54   32.65   17.44          63.87   36.36   18.58          40.83   27.06           0.15    0.69    0.71    0.43            0.29    0.34    0.25           0.51     0.58
E18        38.81   50.14   22.08          76.15  -28.05   30.00          41.08  133.08           0.49    0.22    0.67    0.32            0.35    0.31    0.25           0.50     0.57
E19        29.65   29.28   47.96          61.02    5.48  -34.10          34.54  279.13           0.60    0.54    0.22    0.55            0.39    0.47    0.28           0.53     0.66
E20         6.94    8.37    1.29          34.75  -10.71   37.53          39.03  105.93           1.18    1.03    2.21    1.08            0.08    0.11    0.02           0.37     0.42
E21        23.67   28.85    6.27          60.65  -17.30   47.44          50.49  110.04           0.65    0.49    1.36    0.54            0.26    0.31    0.10           0.50     0.56
E22         8.69   18.58   13.45          50.19  -61.12    4.87          61.31  175.45           1.83    0.51    0.91    0.81            0.06    0.10    0.19           0.39     0.46
F1          3.60    4.47    3.17          25.18  -10.37    3.55          10.96  161.10           1.51    1.31    1.54    1.37            0.07    0.08    0.08           0.33     0.38
F2          2.93    4.40    2.63          24.95  -20.52    7.22          21.75  160.63           1.73    1.25    1.67    1.40            0.06    0.08    0.06           0.34     0.38
F3          2.44    4.42    2.25          25.00  -30.01   10.52          31.80  160.69           1.97    1.19    1.79    1.41            0.05    0.07    0.05           0.31     0.36
F4          1.57    4.44    1.56          25.07  -50.32   17.52          53.29  160.80           2.76    1.08    2.11    1.44            0.02    0.05    0.02           0.30     0.34
F5         11.40   14.61   10.09          45.09  -17.92    6.07          18.92  161.28           1.05    0.77    1.00    0.86            0.17    0.20    0.19           0.48     0.54
F6          9.20   14.48    8.45          44.91  -34.05   11.46          35.92  161.40           1.31    0.71    1.12    0.88            0.12    0.18    0.18           0.44     0.50
F7          7.49   14.77    6.97          45.32  -50.98   17.98          54.06  160.57           1.64    0.63    1.26    0.89            0.10    0.18    0.15           0.38     0.44
F8          5.97   14.65    5.73          45.15  -65.74   23.20          69.72  160.56           2.07    0.58    1.42    0.91            0.05    0.09    0.10           0.31     0.37
F9         28.74   33.60   25.47          64.64  -13.60    3.87          14.14  164.10           0.60    0.43    0.56    0.49            0.37    0.45    0.44           0.55     0.64
F10        25.77   33.64   23.14          64.67  -25.66    8.19          26.94  162.31           0.72    0.39    0.62    0.50            0.33    0.40    0.44           0.55     0.63
F11        23.17   33.61   21.35          64.65  -36.79   11.61          38.58  162.48           0.85    0.35    0.67    0.51            0.22    0.30    0.30           0.50     0.59
F12        20.60   33.83   19.00          64.83  -49.51   16.79          52.28  161.26           1.02    0.31    0.75    0.52            0.17    0.19    0.24           0.39     0.44
F13        41.65   53.13   59.82          77.95  -27.01  -17.67          32.28  213.19           0.60    0.18    0.15    0.31            0.25    0.25    0.26           0.23     0.27
F14        43.98   30.81   42.67          62.34   47.18  -25.45          53.61  331.65           0.17    0.76    0.26    0.47            0.25    0.29    0.15           0.41     0.49
F15        64.63   66.38   13.93          85.19    1.43   63.94          63.95   88.72           0.09    0.19    0.94    0.16            0.28    0.34    0.19           0.31     0.36
F16        17.18   18.16   15.02          49.69   -1.79   -0.09           1.80  182.59           0.75    0.75    0.79    0.75            0.23    0.26    0.26           0.43     0.51
F17        36.64   26.02   11.81          58.05   42.96   23.07          48.76   28.24           0.18    0.86    0.89    0.52            0.26    0.28    0.17           0.43     0.50
