targets/wolf_faust/transmissive/V140202.it8
IT8.7/1
ORIGINATOR "Wolf Faust"
DESCRIPTOR "Velvia (RVP 50), Type 3, L* a* b* (light D50, viewing angle 2)"
MANUFACTURER "Wolf Faust - http://www.coloraid.de"
CREATED "February 22, 2014"
PROD_DATE "2012:08"
DIFFUSE_GEOMETRY "opal"
SERIAL "V140202 Batch Average Data"
MATERIAL "Fujichrome Velvia (RVP 50)"
KEYWORD "MEAN_DE" # Mean Delta E of samples compared to batch average
NUMBER_OF_FIELDS 18
BEGIN_DATA_FORMAT
SAMPLE_ID  XYZ_X   XYZ_Y   XYZ_Z          LAB_L   LAB_A   LAB_B          LAB_C   LAB_H          D_RED  D_GREEN  D_BLUE  D_VIS          STDEV_X STDEV_Y STDEV_Z        MEAN_DE  STDEV_DE
END_DATA_FORMAT
NUMBER_OF_SETS 288
BEGIN_DATA
A1          2.21    1.87    1.29          14.81    9.19    3.07           9.69   18.49           1.50    1.89    1.91    1.69            0.03    0.03    0.02           0.26     0.32
A2          2.69    1.84    1.07          14.63   19.68    5.85          20.53   16.56           1.31    2.08    1.97    1.66            0.03    0.02    0.02           0.27     0.30 
A3          3.21    1.82    0.90          14.53   29.25    8.29          30.40   15.82           1.16    2.34    2.02    1.63            0.03    0.02    0.02           0.22     0.26
A4          4.27    1.88    0.67          14.86   43.87   12.91          45.74   16.40           0.95    3.17    2.07    1.56            0.03    0.01    0.01           0.21     0.24 
A5          9.68    8.43    5.93          34.86   13.14    4.55          13.91   19.12           0.87    1.20    1.21    1.05            0.12    0.12    0.10           0.42     0.49
A6         11.59    8.40    5.12          34.80   27.81    8.40          29.05   16.81           0.70    1.35    1.26    1.01            0.13    0.11    0.08           0.41     0.47 
A7         13.95    8.51    4.40          35.02   42.56   12.70          44.41   16.62           0.55    1.54    1.31    0.98            0.13    0.09    0.07           0.41     0.46
A8         17.46    8.75    3.63          35.51   60.87   18.23          63.55   16.68           0.38    1.93    1.36    0.92            0.09    0.06    0.07           0.34     0.41 
A9         28.03   27.39   21.40          59.33    6.51    2.35           6.94   19.83           0.49    0.61    0.62    0.55            0.30    0.28    0.33           0.59     0.69
A10        30.11   27.62   20.51          59.54   13.63    4.50          14.36   18.29           0.41    0.64    0.64    0.54            0.29    0.30    0.27           0.53     0.62
A11        32.67   27.89   19.47          59.79   21.89    7.09          23.02   17.94           0.33    0.68    0.66    0.52            0.38    0.36    0.31           0.65     0.73
A12        38.84   28.09   17.12          59.97   41.80   12.58          43.66   16.75           0.17    0.80    0.71    0.49            0.23    0.25    0.24           0.52     0.58 
A13        71.58   76.09   65.03          89.90   -3.75   -2.15           4.32  209.89           0.15    0.10    0.11    0.12            0.33    0.27    0.20           0.32     0.36
A14        78.37   79.65   65.04          91.53    3.14    0.65           3.22   11.89           0.07    0.11    0.11    0.10            0.20    0.26    0.14           0.30     0.34 
A15        78.95   81.07   63.59          92.16    1.56    3.13           3.50   63.43           0.07    0.09    0.12    0.09            0.23    0.30    0.15           0.25     0.29
A16        75.87   79.01   64.16          91.24   -0.64    0.99           1.19  122.31           0.10    0.10    0.12    0.10            0.29    0.30    0.21           0.23     0.25
A17        78.03   79.47   63.60          91.44    2.82    1.88           3.40   33.73           0.07    0.11    0.12    0.10            0.16    0.20    0.13           0.25     0.29
A18        73.74   77.54   59.80          90.57   -2.11    4.10           4.62  117.29           0.11    0.10    0.15    0.11            0.43    0.39    0.21           0.29     0.32 
A19        71.34   74.14   63.98          88.99   -0.29   -2.72           2.75  263.95           0.13    0.13    0.12    0.13            0.37    0.32    0.11           0.32     0.38
A20         6.33    3.00    1.80          20.03   46.43    6.24          46.84    7.66           0.81    2.58    1.64    1.38            0.07    0.04    0.03           0.33     0.37 
A21        26.23   18.47   14.29          50.06   39.21    2.42          39.29    3.54           0.35    1.01    0.77    0.67            0.27    0.23    0.23           0.50     0.55
A22        52.74   48.39   31.14          75.07   16.37   12.49          20.59   37.34           0.16    0.39    0.45    0.29            0.41    0.50    0.34           0.58     0.69
B1          3.30    2.93    1.62          19.77    8.07    7.74          11.18   43.83           1.34    1.66    1.83    1.50            0.04    0.04    0.03           0.32     0.36
B2          3.78    2.89    1.02          19.61   16.38   15.19          22.34   42.84           1.20    1.78    2.06    1.48            0.03    0.03    0.01           0.28     0.32
B3          4.39    2.93    0.63          19.75   24.44   22.22          33.03   42.28           1.08    1.91    2.30    1.45            0.05    0.03    0.01           0.21     0.25
B4          5.40    2.95    0.10          19.82   36.90   32.21          48.98   41.12           0.91    2.24    3.28    1.40            0.06    0.04    0.00           0.25     0.32
B5         12.25   11.00    6.27          39.57   11.84   11.11          16.24   43.16           0.77    1.07    1.20    0.93            0.11    0.11    0.09           0.52     0.58
B6         14.47   11.16    4.11          39.86   24.97   22.75          33.78   42.33           0.62    1.17    1.41    0.89            0.17    0.15    0.09           0.46     0.54
B7         16.63   11.04    2.48          39.65   38.45   33.73          51.15   41.26           0.49    1.32    1.65    0.87            0.14    0.11    0.04           0.35     0.38
B8         21.15   11.53    1.00          40.46   58.18   51.47          77.68   41.50           0.31    1.62    2.10    0.81            0.08    0.06    0.01           0.18     0.20
B9         33.41   33.59   24.87          64.64    3.61    4.94           6.14   53.64           0.42    0.50    0.56    0.47            0.35    0.35    0.33           0.62     0.71
B10        34.96   33.43   21.97          64.51    9.51   10.15          13.92   46.85           0.36    0.53    0.62    0.46            0.32    0.34    0.30           0.59     0.67
B11        37.01   33.74   19.90          64.76   15.28   14.75          21.25   43.99           0.30    0.56    0.66    0.45            0.34    0.35    0.25           0.68     0.79
B12        43.71   34.39   13.71          65.27   33.82   30.16          45.32   41.73           0.14    0.65    0.84    0.41            0.26    0.31    0.22           0.57     0.65
B13        63.36   69.80   62.25          86.90   -8.82   -4.65           9.98  207.80           0.23    0.13    0.13    0.17            0.32    0.27    0.22           0.26     0.31
B14        68.54   65.34   58.87          84.66   12.36   -5.16          13.40  337.36           0.10    0.22    0.15    0.18            0.25    0.28    0.21           0.23     0.26
B15        70.95   73.85   44.68          88.85   -0.54   17.77          17.77   91.73           0.10    0.13    0.30    0.13            0.30    0.30    0.37           0.41     0.47
B16        57.39   60.17   49.30          81.93   -1.52    0.40           1.60  165.58           0.23    0.22    0.24    0.22            0.26    0.31    0.29           0.42     0.46
B17        65.74   63.13   46.89          83.51   11.13    5.91          12.61   27.96           0.10    0.24    0.26    0.19            0.26    0.33    0.34           0.46     0.51
B18        60.50   67.64   48.60          85.83  -10.87    7.92          13.45  143.91           0.23    0.14    0.26    0.18            0.46    0.39    0.30           0.45     0.53
B19        59.65   61.98   59.58          82.90   -0.25   -8.90           8.91  268.43           0.23    0.20    0.14    0.21            0.37    0.41    0.30           0.36     0.41
B20         4.84    2.97    0.95          19.93   29.56   16.77          33.99   29.56           1.01    2.01    2.04    1.43            0.04    0.03    0.01           0.22     0.26
B21        16.67   11.12    3.95          39.78   38.13   23.54          44.81   31.69           0.50    1.31    1.40    0.87            0.19    0.15    0.08           0.42     0.46
B22        32.71   27.93   16.56          59.82   21.91   13.64          25.81   31.92           0.32    0.68    0.74    0.52            0.32    0.32    0.21           0.59     0.65
C1          6.22    6.14    3.27          29.75    3.31   10.73          11.23   72.84           1.11    1.27    1.52    1.20            0.07    0.07    0.05           0.35     0.39
C2          6.65    6.13    2.12          29.74    7.88   19.86          21.37   68.36           1.04    1.31    1.76    1.18            0.07    0.07    0.03           0.30     0.35
C3          7.07    6.11    1.08          29.70   12.33   31.69          34.01   68.75           0.98    1.35    2.16    1.17            0.07    0.06    0.02           0.32     0.36
C4          7.79    6.17    0.29          29.84   18.51   46.04          49.62   68.10           0.91    1.41    3.11    1.15            0.08    0.07    0.00           0.34     0.39
C5         23.12   22.53   11.39          54.58    6.38   18.33          19.41   70.79           0.54    0.70    0.94    0.63            0.23    0.24    0.18           0.55     0.62
C6         24.93   22.57    6.35          54.63   14.12   36.69          39.31   68.95           0.45    0.74    1.26    0.61            0.26    0.27    0.10           0.53     0.61
C7         26.92   22.57    3.01          54.62   22.39   55.42          59.77   68.00           0.38    0.79    1.71    0.59            0.27    0.24    0.05           0.43     0.47
C8         30.35   22.69    0.56          54.75   35.17   83.80          90.88   67.23           0.29    0.89    3.04    0.57            0.21    0.19    0.01           0.33     0.39
C9         39.20   40.12   27.63          69.55    1.63    8.63           8.79   79.22           0.36    0.41    0.51    0.39            0.39    0.39    0.35           0.58     0.65
C10        40.21   40.14   23.64          69.57    4.72   15.70          16.40   73.24           0.32    0.43    0.59    0.38            0.37    0.39    0.32           0.66     0.77
C11        41.83   40.36   19.28          69.72    9.01   24.61          26.22   69.89           0.27    0.45    0.70    0.37            0.30    0.32    0.29           0.67     0.76
C12        48.57   41.06    6.50          70.22   26.20   62.91          68.15   67.38           0.12    0.52    1.31    0.34            0.23    0.30    0.10           0.47     0.54
C13        56.49   64.84   61.75          84.40  -14.37   -8.47          16.68  210.51           0.33    0.14    0.14    0.21            0.29    0.25    0.21           0.26     0.31
C14        61.12   53.70   54.54          78.29   23.10  -11.65          25.87  333.23           0.11    0.36    0.17    0.25            0.22    0.26    0.18           0.23     0.26
C15        68.21   71.25   32.05          87.61   -1.06   32.71          32.72   91.86           0.10    0.15    0.47    0.14            0.31    0.29    0.44           0.60     0.68
C16        44.15   46.20   37.99          73.67   -1.13    0.17           1.24  172.67           0.34    0.34    0.36    0.34            0.37    0.40    0.31           0.55     0.62
C17        56.59   50.39   34.32          76.31   20.75    9.87          22.98   25.43           0.11    0.39    0.40    0.27            0.37    0.48    0.39           0.63     0.72
C18        51.64   60.91   37.02          82.33  -17.80   16.43          24.23  137.30           0.33    0.17    0.40    0.23            0.33    0.28    0.33           0.53     0.64
C19        47.92   49.00   55.72          75.45    1.84  -17.78          17.88  275.91           0.34    0.31    0.17    0.32            0.38    0.40    0.15           0.47     0.52
C20        11.99    8.84    1.10          35.67   26.85   41.65          49.56   57.19           0.68    1.31    2.15    0.98            0.12    0.09    0.02           0.36     0.39
C21        21.06   19.77   10.87          51.57    9.84   14.75          17.73   56.27           0.56    0.78    0.95    0.68            0.22    0.22    0.19           0.59     0.65
C22        26.82   22.75   10.60          54.81   21.18   21.17          29.94   44.99           0.40    0.78    0.96    0.60            0.24    0.22    0.16           0.56     0.61
D1          4.08    4.29    2.36          24.61   -0.78    8.88           8.91   95.02           1.33    1.40    1.68    1.36            0.05    0.06    0.04           0.30     0.33
D2          4.11    4.40    1.45          24.95   -1.80   18.57          18.66   95.54           1.32    1.38    1.97    1.35            0.05    0.05    0.02           0.24     0.29
D3          4.12    4.39    0.82          24.93   -1.62   27.62          27.67   93.35           1.32    1.37    2.35    1.34            0.04    0.05    0.01           0.25     0.29
D4          4.08    4.40    0.32          24.96   -2.26   37.00          37.07   93.49           1.36    1.36    3.08    1.34            0.04    0.05    0.01           0.30     0.35
D5         17.09   18.14    9.15          49.66   -2.17   17.12          17.26   97.20           0.72    0.75    1.05    0.74            0.17    0.21    0.12           0.49     0.56
D6         17.03   18.16    4.85          49.69   -2.61   35.50          35.60   94.21           0.71    0.75    1.43    0.73            0.14    0.17    0.09           0.46     0.53
D7         16.78   18.04    2.30          49.55   -3.37   52.41          52.52   93.68           0.72    0.75    1.93    0.73            0.16    0.17    0.04           0.35     0.41
D8         16.58   17.91    0.73          49.39   -3.79   71.30          71.40   93.05           0.77    0.75    2.97    0.73            0.15    0.18    0.01           0.35     0.39
D9         44.94   47.49   23.78          74.50   -2.45   23.93          24.06   95.84           0.30    0.33    0.61    0.32            0.32    0.34    0.35           0.58     0.66
D10        44.64   47.54   13.76          74.53   -3.43   46.02          46.14   94.26           0.28    0.33    0.91    0.31            0.32    0.35    0.20           0.53     0.60
D11        44.39   47.57    6.77          74.55   -4.24   69.23          69.36   93.50           0.29    0.32    1.37    0.30            0.31    0.29    0.09           0.47     0.54
D12        43.57   46.95    3.14          74.15   -4.92   88.18          88.31   93.19           0.31    0.32    1.98    0.31            0.27    0.22    0.04           0.25     0.32
D13        50.74   60.46   61.14          82.09  -19.13  -11.86          22.51  211.79           0.42    0.15    0.14    0.24            0.24    0.20    0.23           0.26     0.30
D14        54.73   44.54   50.45          72.59   32.14  -17.01          36.36  332.11           0.13    0.48    0.20    0.32            0.25    0.29    0.23           0.28     0.32
D15        66.47   69.19   23.55          86.60   -0.55   45.21          45.21   90.69           0.10    0.17    0.64    0.15            0.28    0.27    0.30           0.51     0.60
D16        32.96   34.61   28.53          65.44   -1.46    0.06           1.55  177.86           0.47    0.46    0.49    0.46            0.32    0.33    0.31           0.63     0.69
D17        48.89   40.42   24.53          69.77   29.02   14.39          32.40   26.37           0.13    0.54    0.56    0.35            0.25    0.33    0.30           0.64     0.72
D18        44.45   54.99   28.28          79.04  -23.39   23.90          33.45  134.40           0.41    0.19    0.54    0.27            0.31    0.27    0.35           0.65     0.75
D19        37.85   38.13   51.85          68.12    3.50  -26.27          26.50  277.60           0.46    0.42    0.19    0.43            0.24    0.28    0.16           0.44     0.47
D20         2.95    2.95    1.04          19.86    1.74   15.32          15.42   83.53           1.44    1.59    2.11    1.51            0.03    0.04    0.01           0.32     0.35
D21        29.86   27.65    1.42          59.57   12.55   78.68          79.67   80.94           0.40    0.64    2.40    0.52            0.25    0.21    0.02           0.42     0.47
D22        39.11   42.71   54.84          71.36   -6.44  -23.91          24.76  254.91           0.50    0.34    0.17    0.39            0.22    0.22    0.11           0.32     0.36
E1          5.47    6.31    3.44          30.19   -7.03   10.28          12.45  124.37           1.26    1.19    1.52    1.21            0.06    0.06    0.06           0.34     0.39
E2          4.98    6.14    2.16          29.77  -11.02   19.50          22.40  119.47           1.33    1.17    1.80    1.22            0.06    0.07    0.03           0.30     0.36
E3          4.66    6.30    1.28          30.16  -16.85   29.66          34.11  119.61           1.43    1.12    2.17    1.21            0.05    0.07    0.02           0.35     0.39
E4          4.01    6.14    0.49          29.75  -24.03   42.00          48.39  119.78           1.65    1.07    3.01    1.23            0.05    0.07    0.01           0.36     0.40
E5         23.80   27.49   14.59          59.43  -11.50   17.80          21.20  122.86           0.63    0.53    0.84    0.57            0.25    0.31    0.23           0.60     0.68
E6         21.80   27.53    9.15          59.46  -20.66   34.00          39.79  121.28           0.71    0.50    1.12    0.57            0.21    0.25    0.14           0.50     0.57
E7         19.88   27.60    5.03          59.52  -30.18   51.52          59.70  120.36           0.82    0.46    1.53    0.57            0.15    0.20    0.07           0.35     0.40
E8         18.71   27.79    3.02          59.70  -36.81   64.15          73.96  119.85           0.92    0.43    1.95    0.58            0.14    0.16    0.03           0.25     0.30
E9         42.99   47.30   31.42          74.38   -7.58   10.87          13.26  124.93           0.36    0.31    0.46    0.33            0.37    0.42    0.40           0.58     0.66
E10        40.60   47.17   24.69          74.30  -14.46   21.92          26.27  123.42           0.41    0.29    0.59    0.33            0.32    0.35    0.33           0.56     0.66
E11        38.72   47.13   19.10          74.27  -20.23   32.85          38.58  121.63           0.45    0.27    0.74    0.33            0.36    0.39    0.30           0.57     0.65
E12        36.59   47.09   14.08          74.24  -27.00   44.68          52.20  121.15           0.50    0.25    0.93    0.34            0.22    0.19    0.23           0.54     0.64
E13        45.86   56.59   60.49          79.95  -23.28  -14.91          27.64  212.64           0.51    0.17    0.14    0.28            0.20    0.17    0.13           0.23     0.26
E14        48.90   36.84   46.42          67.15   40.30  -21.73          45.79  331.67           0.15    0.62    0.23    0.40            0.21    0.25    0.16           0.30     0.35
E15        65.26   67.46   17.82          85.74    0.46   55.41          55.41   89.52           0.10    0.18    0.80    0.15            0.25    0.24    0.25           0.51     0.62
E16        24.02   25.25   20.95          57.32   -1.41   -0.23           1.53  188.37           0.61    0.61    0.63    0.60            0.26    0.29    0.32           0.70     0.77
E17        42.12   32.21   17.15          63.51   36.65   18.62          41.11   26.93           0.16    0.70    0.72    0.44            0.21    0.26    0.28           0.57     0.64
E18        38.60   49.84   21.73          75.97  -27.92   30.38          41.26  132.59           0.50    0.22    0.68    0.32            0.30    0.26    0.29           0.60     0.70
E19        29.48   29.00   47.81          60.78    5.87  -34.35          34.85  279.70           0.60    0.55    0.22    0.56            0.22    0.25    0.14           0.39     0.45
E20         6.93    8.30    1.27          34.61  -10.29   37.46          38.84  105.37           1.17    1.04    2.21    1.08            0.06    0.09    0.01           0.34     0.38
E21        23.64   28.66    6.17          60.48  -16.71   47.60          50.45  109.34           0.64    0.49    1.36    0.54            0.21    0.29    0.10           0.52     0.58
E22         8.66   18.50   13.28          50.10  -60.96    5.19          61.18  175.14           1.84    0.51    0.92    0.81            0.08    0.13    0.21           0.35     0.43
F1          3.57    4.43    3.11          25.04  -10.22    3.70          10.87  160.11           1.51    1.31    1.55    1.38            0.03    0.05    0.05           0.35     0.40
F2          2.90    4.35    2.59          24.78  -20.36    7.27          21.62  160.35           1.73    1.26    1.68    1.40            0.03    0.05    0.04           0.32     0.37
F3          2.43    4.40    2.22          24.96  -29.97   10.68          31.82  160.39           1.98    1.19    1.79    1.41            0.02    0.05    0.03           0.37     0.41
F4          1.56    4.41    1.55          24.98  -50.25   17.50          53.21  160.80           2.78    1.09    2.11    1.45            0.02    0.05    0.03           0.32     0.35
F5         11.34   14.51    9.91          44.96  -17.80    6.42          18.93  160.18           1.05    0.77    1.01    0.86            0.13    0.20    0.14           0.57     0.63
F6          9.14   14.35    8.31          44.73  -33.78   11.65          35.73  160.97           1.31    0.71    1.13    0.89            0.11    0.18    0.17           0.50     0.56
F7          7.43   14.61    6.82          45.09  -50.57   18.19          53.74  160.21           1.65    0.64    1.27    0.90            0.09    0.17    0.10           0.39     0.44
F8          5.94   14.56    5.63          45.03  -65.54   23.52          69.64  160.26           2.08    0.59    1.43    0.92            0.04    0.08    0.08           0.27     0.32
F9         28.56   33.36   25.10          64.45  -13.47    4.21          14.12  162.65           0.60    0.44    0.56    0.49            0.26    0.33    0.34           0.65     0.72
F10        25.57   33.35   22.87          64.44  -25.53    8.30          26.84  162.00           0.72    0.39    0.62    0.50            0.23    0.29    0.25           0.51     0.61
F11        22.95   33.27   21.08          64.38  -36.59   11.68          38.41  162.30           0.86    0.36    0.67    0.51            0.20    0.28    0.25           0.56     0.65
F12        20.43   33.56   18.72          64.61  -49.39   17.01          52.24  161.00           1.03    0.32    0.75    0.52            0.14    0.14    0.24           0.47     0.54
F13        41.63   53.05   59.80          77.91  -26.86  -17.73          32.19  213.44           0.60    0.18    0.15    0.31            0.22    0.20    0.15           0.23     0.27
F14        43.67   30.52   42.52          62.10   47.34  -25.68          53.85  331.52           0.17    0.76    0.26    0.47            0.20    0.22    0.13           0.30     0.36
F15        64.28   65.83   13.62          84.91    1.81   64.29          64.32   88.38           0.09    0.20    0.95    0.16            0.24    0.24    0.17           0.43     0.53
F16        17.07   18.01   14.82          49.51   -1.61    0.10           1.68  175.82           0.75    0.76    0.79    0.75            0.14    0.16    0.25           0.58     0.66
F17        36.27   25.65   11.59          57.70   43.25   23.12          49.04   28.13           0.18    0.87    0.90    0.52            0.17    0.18    0.22           0.53     0.59
