targets/wolf_faust/transmissive/V141121.it8
IT8.7/1
ORIGINATOR "Wolf Faust"
DESCRIPTOR "Velvia (RVP 50), Type 3, L* a* b* (light D50, viewing angle 2)"
MANUFACTURER "Wolf Faust - http://www.coloraid.de"
CREATED "November 30, 2014"
PROD_DATE "2013:07"
DIFFUSE_GEOMETRY "opal"
SERIAL "V141121 Batch Average Data"
MATERIAL "Fujichrome Velvia (RVP 50)"
KEYWORD "MEAN_DE" # Mean Delta E of samples compared to batch average
NUMBER_OF_FIELDS 18
BEGIN_DATA_FORMAT
SAMPLE_ID  XYZ_X   XYZ_Y   XYZ_Z          LAB_L   LAB_A   LAB_B          LAB_C   LAB_H          D_RED  D_GREEN  D_BLUE  D_VIS          STDEV_X STDEV_Y STDEV_Z        MEAN_DE  STDEV_DE
END_DATA_FORMAT
NUMBER_OF_SETS 288
BEGIN_DATA
A1          2.18    1.87    1.30          14.80    8.64    3.03           9.15   19.31           1.51    1.88    1.91    1.70            0.06    0.04    0.04           0.38     0.46
A2          2.75    1.90    1.09          14.95   19.38    6.06          20.30   17.36           1.31    2.05    1.97    1.65            0.08    0.05    0.03           0.37     0.45 
A3          3.21    1.82    0.88          14.53   29.19    8.69          30.46   16.58           1.16    2.34    2.04    1.63            0.10    0.06    0.03           0.41     0.52
A4          4.24    1.88    0.70          14.83   43.59   12.36          45.31   15.83           0.95    3.10    2.05    1.56            0.12    0.05    0.01           0.46     0.57 
A5          9.83    8.59    6.15          35.17   13.03    4.08          13.65   17.40           0.87    1.19    1.19    1.04            0.27    0.20    0.16           0.58     0.66
A6         11.68    8.51    5.17          35.02   27.48    8.53          28.77   17.24           0.70    1.33    1.26    1.01            0.30    0.20    0.13           0.57     0.67 
A7         14.08    8.59    4.48          35.19   42.61   12.51          44.41   16.36           0.54    1.53    1.30    0.97            0.27    0.15    0.12           0.47     0.57
A8         17.44    8.73    3.76          35.45   60.98   17.30          63.39   15.84           0.38    1.93    1.34    0.92            0.14    0.10    0.11           0.39     0.48 
A9         28.73   28.23   22.11          60.09    5.99    2.27           6.42   20.68           0.48    0.59    0.61    0.54            0.75    0.70    0.63           0.71     0.85
A10        30.66   28.23   20.92          60.09   13.25    4.63          14.04   19.24           0.41    0.63    0.63    0.53            0.78    0.70    0.62           0.70     0.79
A11        33.18   28.50   19.68          60.33   21.34    7.59          22.65   19.57           0.33    0.66    0.65    0.51            0.84    0.71    0.58           0.72     0.81
A12        39.77   29.06   17.79          60.83   41.01   12.54          42.89   17.00           0.17    0.78    0.69    0.48            0.40    0.43    0.57           0.75     0.90 
A13        73.09   77.72   65.62          90.65   -3.81   -1.41           4.07  200.45           0.14    0.10    0.11    0.11            0.20    0.30    0.19           0.42     0.47
A14        79.29   80.76   65.52          92.02    2.82    1.05           3.04   20.80           0.06    0.10    0.11    0.09            0.31    0.49    0.14           0.43     0.57 
A15        80.08   82.63   63.18          92.85    0.79    4.71           4.79   80.16           0.06    0.08    0.13    0.08            0.50    0.69    0.30           0.56     0.66
A16        76.61   80.11   65.06          91.73   -1.27    0.99           1.62  142.56           0.10    0.09    0.11    0.10            0.59    0.65    0.31           0.40     0.50
A17        78.96   80.56   63.89          91.94    2.55    2.45           3.56   43.70           0.06    0.10    0.12    0.09            0.44    0.61    0.38           0.47     0.61
A18        75.36   79.36   60.68          91.39   -2.35    4.64           5.21  116.73           0.10    0.09    0.15    0.10            0.49    0.52    0.41           0.39     0.47 
A19        73.11   76.26   64.68          89.98   -0.87   -1.68           1.91  242.22           0.12    0.11    0.11    0.12            0.49    0.51    0.11           0.40     0.48
A20         6.23    2.93    1.85          19.75   46.51    5.27          46.80    6.47           0.81    2.61    1.63    1.39            0.14    0.06    0.04           0.48     0.57 
A21        26.21   18.41   14.32          49.99   39.44    2.22          39.50    3.22           0.34    1.01    0.77    0.67            0.50    0.32    0.31           0.66     0.74
A22        53.63   49.15   31.84          75.54   16.61   12.23          20.63   36.36           0.15    0.38    0.44    0.29            0.54    0.49    0.54           0.46     0.53
B1          3.36    3.04    1.70          20.19    7.32    7.61          10.56   46.10           1.33    1.63    1.81    1.49            0.08    0.06    0.03           0.38     0.45
B2          3.84    2.91    1.02          19.66   17.08   15.22          22.88   41.71           1.19    1.78    2.06    1.48            0.11    0.08    0.02           0.39     0.48
B3          4.36    2.87    0.61          19.51   24.99   22.11          33.37   41.50           1.07    1.93    2.31    1.45            0.13    0.08    0.02           0.42     0.55
B4          5.44    2.96    0.10          19.87   37.14   32.33          49.24   41.04           0.91    2.24    3.29    1.40            0.15    0.08    0.00           0.59     0.74
B5         12.52   11.36    6.48          40.18   11.01   11.22          15.72   45.55           0.77    1.04    1.19    0.92            0.33    0.28    0.17           0.47     0.56
B6         14.51   11.24    4.20          39.98   24.64   22.42          33.32   42.30           0.62    1.16    1.40    0.89            0.34    0.25    0.10           0.51     0.60
B7         16.94   11.34    2.58          40.15   38.03   33.81          50.89   41.64           0.49    1.30    1.64    0.86            0.36    0.24    0.06           0.46     0.55
B8         21.19   11.56    1.00          40.51   58.15   51.44          77.64   41.49           0.31    1.61    2.10    0.81            0.14    0.11    0.03           0.23     0.27
B9         34.11   34.37   25.65          65.25    3.38    4.61           5.73   53.57           0.42    0.49    0.54    0.46            0.82    0.79    0.71           0.69     0.84
B10        36.24   34.77   22.69          65.56    9.24   10.58          14.05   48.87           0.35    0.51    0.60    0.44            0.90    0.84    0.61           0.63     0.76
B11        37.98   34.64   20.28          65.46   15.35   15.18          21.59   44.68           0.29    0.54    0.66    0.44            0.91    0.80    0.59           0.64     0.77
B12        44.10   34.81   13.92          65.60   33.53   30.19          45.11   42.00           0.14    0.64    0.84    0.41            0.46    0.53    0.45           0.72     0.84
B13        64.60   71.17   62.71          87.56   -8.89   -3.95           9.73  203.96           0.22    0.12    0.13    0.16            0.79    0.71    0.39           0.54     0.62
B14        70.03   67.08   59.67          85.55   11.73   -4.44          12.54  339.30           0.09    0.21    0.14    0.16            0.64    0.77    0.55           0.44     0.54
B15        72.56   75.79   45.78          89.76   -1.08   18.02          18.05   93.40           0.09    0.12    0.29    0.11            0.67    0.67    0.73           0.54     0.61
B16        59.10   61.87   50.36          82.85   -1.35    0.78           1.56  150.23           0.21    0.21    0.23    0.21            0.83    0.82    0.71           0.42     0.50
B17        67.30   64.97   48.12          84.47   10.48    6.13          12.15   30.30           0.09    0.23    0.25    0.17            0.66    0.74    0.78           0.40     0.51
B18        61.88   69.14   49.16          86.57  -10.85    8.57          13.82  141.69           0.22    0.13    0.25    0.17            0.76    0.67    0.70           0.51     0.61
B19        61.48   63.87   60.32          83.90   -0.24   -7.93           7.93  268.30           0.21    0.19    0.14    0.20            0.65    0.64    0.39           0.35     0.43
B20         4.83    2.93    0.95          19.75   30.23   16.54          34.46   28.68           1.00    2.03    2.04    1.43            0.09    0.05    0.02           0.30     0.34
B21        16.91   11.34    4.09          40.15   37.83   23.38          44.47   31.72           0.49    1.29    1.39    0.86            0.36    0.23    0.09           0.53     0.62
B22        33.01   28.39   16.79          60.24   21.18   13.80          25.28   33.09           0.32    0.67    0.74    0.51            0.59    0.44    0.30           0.63     0.72
C1          6.20    6.20    3.33          29.91    2.37   10.57          10.84   77.34           1.12    1.26    1.52    1.20            0.18    0.16    0.10           0.45     0.52
C2          6.69    6.27    2.07          30.08    6.87   20.92          22.02   71.82           1.04    1.29    1.78    1.17            0.20    0.17    0.06           0.44     0.54
C3          7.12    6.15    1.09          29.79   12.32   31.71          34.02   68.76           0.97    1.35    2.16    1.17            0.20    0.16    0.04           0.40     0.52
C4          7.80    6.18    0.28          29.86   18.58   46.16          49.76   68.08           0.91    1.41    3.14    1.14            0.22    0.16    0.01           0.61     0.75
C5         23.66   23.35   11.82          55.42    5.16   18.50          19.21   74.41           0.53    0.68    0.93    0.62            0.65    0.58    0.35           0.59     0.70
C6         25.41   23.04    6.45          55.11   14.05   37.08          39.65   69.24           0.44    0.73    1.25    0.60            0.62    0.54    0.15           0.60     0.71
C7         27.60   23.20    3.09          55.27   22.29   55.95          60.23   68.28           0.37    0.78    1.69    0.58            0.55    0.46    0.08           0.48     0.57
C8         30.98   23.14    0.57          55.22   35.47   84.50          91.64   67.23           0.28    0.88    3.06    0.56            0.59    0.45    0.01           0.61     0.76
C9         40.13   41.16   28.52          70.29    1.37    8.42           8.53   80.71           0.35    0.40    0.50    0.38            0.93    0.93    0.74           0.65     0.79
C10        41.63   41.64   24.46          70.62    4.54   16.00          16.63   74.15           0.31    0.41    0.58    0.37            0.96    0.94    0.66           0.62     0.76
C11        42.50   41.18   19.68          70.30    8.52   24.77          26.19   71.02           0.27    0.43    0.69    0.37            0.84    0.77    0.51           0.59     0.66
C12        49.16   41.79    6.60          70.73   25.62   63.35          68.33   67.98           0.12    0.51    1.30    0.33            0.43    0.55    0.16           0.53     0.64
C13        57.26   65.80   62.12          84.90  -14.62   -7.98          16.66  208.63           0.32    0.13    0.13    0.20            0.68    0.58    0.35           0.48     0.57
C14        62.76   55.75   55.49          79.47   21.80  -10.61          24.25  334.04           0.10    0.33    0.17    0.24            0.68    0.83    0.62           0.58     0.70
C15        69.37   72.68   32.53          88.30   -1.53   33.19          33.22   92.64           0.09    0.14    0.47    0.13            0.69    0.76    0.71           0.58     0.67
C16        44.87   47.27   38.74          74.36   -2.03    0.35           2.08  170.93           0.34    0.32    0.35    0.33            0.73    0.76    0.68           0.56     0.62
C17        58.12   52.27   35.50          77.44   19.61   10.13          22.07   27.31           0.11    0.36    0.39    0.26            0.62    0.71    0.82           0.57     0.73
C18        52.47   61.94   37.70          82.88  -18.01   16.45          24.39  137.60           0.32    0.16    0.39    0.22            0.58    0.51    0.66           0.57     0.67
C19        49.33   50.85   56.58          76.59    0.81  -16.72          16.74  272.78           0.33    0.29    0.16    0.30            0.71    0.76    0.43           0.48     0.60
C20        12.21    9.04    1.11          36.07   26.67   42.15          49.88   57.68           0.67    1.30    2.15    0.97            0.29    0.19    0.03           0.50     0.64
C21        21.59   20.38   11.23          52.27    9.35   14.84          17.54   57.79           0.55    0.76    0.94    0.67            0.43    0.36    0.25           0.60     0.71
C22        27.26   23.27   10.80          55.35   20.59   21.47          29.75   46.19           0.39    0.76    0.96    0.59            0.49    0.39    0.25           0.50     0.60
D1          4.18    4.44    2.40          25.08   -1.47    9.28           9.40   98.99           1.33    1.38    1.68    1.35            0.09    0.09    0.03           0.36     0.43
D2          4.21    4.55    1.47          25.41   -2.42   19.12          19.27   97.21           1.32    1.36    1.97    1.33            0.10    0.10    0.03           0.36     0.44
D3          4.18    4.49    0.82          25.22   -2.00   28.05          28.12   94.09           1.32    1.36    2.35    1.33            0.11    0.11    0.02           0.40     0.48
D4          4.06    4.41    0.31          24.98   -2.67   37.17          37.26   94.11           1.37    1.35    3.13    1.34            0.11    0.10    0.01           0.49     0.60
D5         16.97   18.16    9.23          49.69   -2.96   16.90          17.16   99.95           0.73    0.75    1.05    0.74            0.44    0.42    0.28           0.54     0.64
D6         17.18   18.34    4.97          49.91   -2.78   35.23          35.34   94.51           0.70    0.75    1.41    0.72            0.39    0.35    0.09           0.54     0.62
D7         17.13   18.46    2.35          50.05   -3.65   52.84          52.97   93.95           0.71    0.74    1.92    0.72            0.39    0.38    0.07           0.49     0.58
D8         17.09   18.47    0.75          50.06   -3.90   72.25          72.35   93.09           0.75    0.73    2.99    0.71            0.45    0.44    0.02           0.69     0.81
D9         46.31   49.14   24.76          75.53   -2.97   23.93          24.12   97.09           0.29    0.31    0.59    0.30            0.92    0.93    0.65           0.58     0.72
D10        45.95   49.02   13.99          75.46   -3.70   47.00          47.15   94.50           0.27    0.31    0.91    0.30            0.79    0.77    0.29           0.48     0.57
D11        45.22   48.55    6.94          75.17   -4.50   69.56          69.70   93.70           0.28    0.31    1.35    0.30            0.74    0.71    0.14           0.49     0.57
D12        44.24   47.84    3.30          74.72   -5.40   88.02          88.19   93.51           0.30    0.31    1.94    0.30            0.62    0.51    0.06           0.52     0.61
D13        51.06   60.95   61.09          82.35  -19.41  -11.35          22.49  210.32           0.41    0.15    0.14    0.24            0.68    0.65    0.65           0.50     0.61
D14        56.03   46.07   51.27          73.59   31.07  -16.20          35.04  332.46           0.12    0.46    0.19    0.31            0.56    0.68    0.46           0.58     0.71
D15        67.82   70.83   24.28          87.40   -1.05   45.27          45.29   91.32           0.09    0.16    0.62    0.14            0.51    0.54    0.46           0.54     0.62
D16        33.50   35.47   29.22          66.11   -2.43    0.08           2.47  178.81           0.47    0.45    0.48    0.45            0.55    0.55    0.58           0.59     0.67
D17        49.69   41.36   24.99          70.43   28.33   14.70          31.92   27.42           0.13    0.52    0.55    0.34            0.46    0.51    0.53           0.55     0.63
D18        45.34   56.09   29.20          79.66  -23.54   23.48          33.25  135.07           0.41    0.19    0.52    0.26            0.59    0.50    0.48           0.54     0.65
D19        38.83   39.44   52.54          69.07    2.54  -25.38          25.51  275.71           0.45    0.41    0.19    0.42            0.52    0.52    0.30           0.40     0.51
D20         3.01    3.02    1.05          20.12    1.78   15.62          15.72   83.50           1.42    1.58    2.11    1.50            0.05    0.04    0.02           0.24     0.27
D21        30.51   28.23    1.43          60.10   12.69   79.47          80.47   80.93           0.39    0.63    2.41    0.51            0.54    0.44    0.03           0.53     0.65
D22        39.26   43.31   55.22          71.76   -7.70  -23.62          24.85  251.94           0.51    0.33    0.17    0.39            0.57    0.58    0.22           0.55     0.65
E1          5.52    6.33    3.50          30.23   -6.60    9.99          11.97  123.47           1.25    1.19    1.51    1.21            0.12    0.12    0.06           0.40     0.47
E2          4.98    6.26    2.17          30.05  -12.34   19.89          23.41  121.81           1.34    1.15    1.80    1.21            0.12    0.12    0.05           0.35     0.42
E3          4.65    6.38    1.29          30.35  -17.79   29.89          34.79  120.76           1.44    1.10    2.17    1.21            0.11    0.14    0.04           0.34     0.42
E4          4.13    6.35    0.49          30.27  -24.48   42.92          49.41  119.70           1.64    1.05    3.06    1.22            0.12    0.16    0.02           0.47     0.56
E5         24.40   28.29   15.19          60.14  -11.96   17.53          21.22  124.31           0.63    0.52    0.82    0.55            0.56    0.57    0.39           0.54     0.64
E6         22.39   28.26    9.35          60.12  -20.79   34.47          40.25  121.09           0.70    0.48    1.11    0.56            0.47    0.50    0.21           0.50     0.58
E7         20.42   28.34    5.04          60.19  -30.41   52.60          60.76  120.04           0.81    0.44    1.53    0.56            0.37    0.41    0.10           0.40     0.47
E8         19.24   28.48    3.06          60.32  -36.81   64.92          74.63  119.56           0.91    0.42    1.95    0.56            0.31    0.34    0.07           0.40     0.47
E9         44.01   48.65   32.38          75.23   -8.27   10.87          13.66  127.26           0.36    0.29    0.45    0.32            0.93    0.97    0.81           0.56     0.68
E10        41.73   48.40   25.41          75.08  -14.38   21.98          26.27  123.20           0.39    0.28    0.58    0.32            0.83    0.83    0.61           0.54     0.65
E11        39.73   48.43   20.20          75.09  -20.57   31.96          38.01  122.77           0.44    0.26    0.71    0.32            0.66    0.66    0.44           0.52     0.63
E12        37.26   47.96   14.34          74.80  -27.19   44.96          52.54  121.17           0.49    0.24    0.92    0.33            0.56    0.52    0.32           0.58     0.69
E13        46.67   57.54   60.82          80.48  -23.32  -14.30          27.36  211.53           0.50    0.16    0.14    0.27            0.51    0.44    0.24           0.40     0.51
E14        50.00   38.09   47.20          68.09   39.26  -21.04          44.55  331.81           0.14    0.60    0.22    0.38            0.50    0.57    0.41           0.56     0.69
E15        66.49   68.99   18.34          86.50   -0.08   55.58          55.58   90.09           0.09    0.17    0.78    0.14            0.46    0.49    0.33           0.48     0.54
E16        24.51   25.95   21.36          57.99   -2.19    0.11           2.25  177.77           0.60    0.59    0.63    0.59            0.44    0.45    0.53           0.63     0.73
E17        42.93   33.12   17.72          64.26   35.85   18.62          40.40   27.44           0.15    0.68    0.70    0.43            0.45    0.48    0.43           0.48     0.62
E18        39.56   50.96   22.36          76.65  -27.84   30.34          41.18  132.53           0.48    0.21    0.67    0.31            0.54    0.49    0.44           0.60     0.70
E19        30.15   29.95   48.43          61.61    4.83  -33.63          33.97  278.18           0.59    0.53    0.22    0.54            0.36    0.35    0.17           0.38     0.47
E20         7.18    8.66    1.35          35.32  -10.84   37.70          39.23  106.04           1.16    1.02    2.18    1.06            0.10    0.09    0.03           0.23     0.27
E21        24.19   29.38    6.30          61.11  -17.04   48.09          51.02  109.51           0.63    0.48    1.35    0.53            0.42    0.40    0.11           0.48     0.55
E22         8.93   18.99   13.56          50.67  -61.17    5.40          61.41  174.96           1.81    0.50    0.91    0.80            0.11    0.16    0.24           0.32     0.43
F1          3.66    4.61    3.20          25.58  -11.19    4.01          11.89  160.27           1.51    1.29    1.54    1.36            0.08    0.09    0.06           0.34     0.40
F2          3.03    4.56    2.65          25.45  -20.96    7.88          22.39  159.40           1.72    1.23    1.67    1.38            0.07    0.08    0.06           0.30     0.34
F3          2.51    4.58    2.27          25.51  -30.73   11.20          32.71  159.97           1.97    1.17    1.79    1.40            0.06    0.09    0.05           0.30     0.34
F4          1.60    4.52    1.55          25.32  -50.68   18.03          53.79  160.42           2.76    1.07    2.12    1.43            0.03    0.08    0.04           0.29     0.37
F5         11.54   14.82   10.31          45.39  -18.17    5.87          19.10  162.09           1.04    0.76    0.99    0.85            0.24    0.26    0.23           0.44     0.51
F6          9.23   14.64    8.45          45.14  -34.78   11.87          36.75  161.16           1.31    0.70    1.12    0.88            0.19    0.26    0.18           0.40     0.46
F7          7.64   15.01    7.04          45.64  -50.97   18.24          54.14  160.31           1.63    0.63    1.26    0.89            0.13    0.22    0.15           0.29     0.35
F8          6.10   14.93    5.75          45.54  -66.04   23.79          70.20  160.19           2.07    0.57    1.42    0.90            0.07    0.14    0.13           0.30     0.39
F9         29.35   34.38   26.02          65.26  -13.93    4.00          14.50  164.00           0.59    0.42    0.55    0.48            0.67    0.72    0.70           0.54     0.68
F10        26.37   34.48   23.61          65.34  -26.06    8.46          27.40  162.02           0.71    0.38    0.61    0.49            0.52    0.56    0.56           0.50     0.64
F11        23.60   34.34   21.63          65.23  -37.39   12.06          39.29  162.13           0.85    0.34    0.66    0.50            0.45    0.49    0.42           0.51     0.61
F12        20.70   34.08   19.03          65.02  -49.87   17.05          52.70  161.12           1.03    0.31    0.74    0.52            0.30    0.34    0.45           0.58     0.67
F13        42.19   53.81   60.06          78.35  -27.11  -17.22          32.12  212.43           0.59    0.18    0.15    0.31            0.41    0.38    0.19           0.36     0.44
F14        44.55   31.45   43.22          62.88   46.51  -25.20          52.90  331.55           0.17    0.74    0.25    0.46            0.41    0.44    0.35           0.44     0.58
F15        65.36   67.19   13.99          85.60    1.28   64.48          64.49   88.86           0.09    0.19    0.94    0.15            0.37    0.41    0.23           0.40     0.45
F16        17.26   18.39   15.14          49.96   -2.55    0.10           2.60  178.31           0.75    0.74    0.79    0.74            0.29    0.28    0.39           0.58     0.65
F17        36.85   26.26   11.95          58.28   42.67   23.07          48.51   28.39           0.18    0.85    0.89    0.51            0.28    0.28    0.28           0.44     0.56
