targets/wolf_faust/transmissive/V150205.it8
IT8.7/1
ORIGINATOR "Wolf Faust"
DESCRIPTOR "Velvia (RVP 50), Type 3, L* a* b* (light D50, viewing angle 2)"
MANUFACTURER "Wolf Faust - http://www.coloraid.de"
CREATED "February 24, 2015"
PROD_DATE "2013:07"
DIFFUSE_GEOMETRY "opal"
SERIAL "V150205 Batch Average Data"
MATERIAL "Fujichrome Velvia (RVP 50)"
KEYWORD "MEAN_DE" # Mean Delta E of samples compared to batch average
NUMBER_OF_FIELDS 18
BEGIN_DATA_FORMAT
SAMPLE_ID  XYZ_X   XYZ_Y   XYZ_Z          LAB_L   LAB_A   LAB_B          LAB_C   LAB_H          D_RED  D_GREEN  D_BLUE  D_VIS          STDEV_X STDEV_Y STDEV_Z        MEAN_DE  STDEV_DE
END_DATA_FORMAT
NUMBER_OF_SETS 288
BEGIN_DATA
A1          2.15    1.83    1.28          14.60    8.91    2.89           9.37   17.98           1.51    1.90    1.92    1.70            0.05    0.03    0.02           0.34     0.40
A2          2.72    1.86    1.07          14.75   19.67    5.98          20.56   16.92           1.31    2.07    1.97    1.66            0.07    0.04    0.02           0.45     0.52 
A3          3.16    1.78    0.86          14.30   29.45    8.61          30.69   16.30           1.17    2.37    2.04    1.64            0.09    0.05    0.02           0.48     0.59
A4          4.19    1.84    0.68          14.63   43.72   12.30          45.42   15.72           0.96    3.25    2.06    1.57            0.09    0.04    0.01           0.43     0.51 
A5          9.65    8.42    6.04          34.84   13.02    4.01          13.63   17.12           0.88    1.20    1.20    1.05            0.17    0.13    0.08           0.56     0.63
A6         11.65    8.47    5.13          34.94   27.60    8.59          28.91   17.28           0.70    1.34    1.26    1.01            0.20    0.14    0.08           0.63     0.72 
A7         14.07    8.59    4.48          35.18   42.63   12.51          44.43   16.35           0.55    1.53    1.30    0.97            0.24    0.14    0.07           0.56     0.63
A8         17.38    8.69    3.66          35.37   60.98   17.77          63.52   16.24           0.38    1.95    1.35    0.92            0.09    0.06    0.07           0.33     0.42 
A9         28.05   27.56   21.55          59.49    5.92    2.32           6.38   21.44           0.49    0.60    0.62    0.55            0.44    0.40    0.32           0.72     0.81
A10        30.29   27.81   20.62          59.71   13.52    4.58          14.28   18.73           0.41    0.63    0.64    0.54            0.40    0.37    0.28           0.71     0.81
A11        32.83   28.14   19.43          60.01   21.48    7.56          22.78   19.39           0.33    0.67    0.66    0.52            0.42    0.41    0.28           0.70     0.82
A12        39.43   28.71   17.54          60.52   41.29   12.58          43.16   16.94           0.17    0.79    0.70    0.48            0.27    0.31    0.27           0.61     0.70 
A13        72.08   76.69   65.14          90.18   -3.87   -1.77           4.26  204.57           0.14    0.10    0.11    0.12            0.29    0.29    0.10           0.25     0.29
A14        78.73   79.95   65.14          91.66    3.28    0.79           3.39   13.77           0.07    0.10    0.11    0.09            0.24    0.37    0.05           0.36     0.43 
A15        79.41   81.72   62.71          92.45    1.20    4.48           4.64   74.87           0.06    0.09    0.13    0.09            0.20    0.30    0.16           0.28     0.35
A16        75.99   79.44   64.61          91.43   -1.24    0.90           1.54  144.58           0.10    0.09    0.12    0.10            0.34    0.36    0.14           0.25     0.30
A17        78.28   79.62   63.20          91.52    3.01    2.39           3.85   38.52           0.07    0.11    0.12    0.10            0.28    0.41    0.21           0.33     0.38
A18        74.66   78.53   60.16          91.02   -2.16    4.52           5.01  115.62           0.11    0.10    0.15    0.11            0.37    0.37    0.20           0.30     0.35 
A19        72.30   75.26   64.26          89.52   -0.55   -2.08           2.16  254.70           0.13    0.12    0.12    0.13            0.45    0.46    0.07           0.38     0.44
A20         6.11    2.86    1.81          19.48   46.39    5.18          46.68    6.36           0.82    2.66    1.64    1.40            0.11    0.05    0.02           0.48     0.55 
A21        26.07   18.31   14.16          49.86   39.42    2.43          39.50    3.53           0.35    1.02    0.78    0.68            0.35    0.24    0.21           0.69     0.79
A22        53.00   48.38   31.42          75.06   17.05   12.06          20.89   35.24           0.15    0.39    0.45    0.29            0.40    0.43    0.41           0.65     0.72
B1          3.31    2.97    1.67          19.93    7.58    7.46          10.64   44.58           1.34    1.65    1.82    1.50            0.06    0.04    0.02           0.38     0.45
B2          3.80    2.86    1.00          19.48   17.24   15.25          23.01   41.50           1.19    1.79    2.07    1.48            0.07    0.04    0.02           0.36     0.43
B3          4.30    2.83    0.60          19.34   25.04   22.05          33.37   41.36           1.08    1.94    2.32    1.46            0.08    0.05    0.02           0.34     0.43
B4          5.37    2.91    0.09          19.70   37.12   32.21          49.15   40.95           0.91    2.26    3.39    1.41            0.11    0.06    0.00           0.42     0.55
B5         12.27   11.11    6.35          39.76   11.14   11.05          15.70   44.78           0.78    1.06    1.20    0.93            0.17    0.12    0.09           0.54     0.63
B6         14.25   11.03    4.13          39.63   24.57   22.22          33.13   42.12           0.63    1.17    1.41    0.90            0.22    0.16    0.06           0.54     0.64
B7         16.61   11.11    2.54          39.77   37.78   33.52          50.51   41.58           0.49    1.31    1.65    0.87            0.26    0.17    0.04           0.50     0.56
B8         21.19   11.56    1.00          40.51   58.14   51.54          77.70   41.55           0.31    1.62    2.10    0.81            0.11    0.09    0.02           0.27     0.32
B9         33.22   33.44   24.98          64.51    3.47    4.53           5.74   52.38           0.43    0.50    0.55    0.47            0.51    0.51    0.42           0.77     0.89
B10        35.33   33.84   22.10          64.83    9.35   10.45          14.04   48.15           0.36    0.53    0.61    0.45            0.49    0.47    0.32           0.65     0.75
B11        37.11   33.79   19.80          64.79   15.45   15.02          21.55   44.18           0.30    0.56    0.67    0.45            0.49    0.48    0.30           0.66     0.78
B12        43.77   34.42   13.81          65.29   33.86   29.94          45.20   41.48           0.14    0.65    0.84    0.41            0.26    0.32    0.24           0.64     0.77
B13        64.01   70.49   62.51          87.24   -8.81   -4.32           9.81  206.10           0.23    0.12    0.13    0.16            0.59    0.55    0.32           0.31     0.38
B14        68.87   65.58   58.93          84.78   12.53   -5.01          13.50  338.22           0.09    0.22    0.15    0.17            0.53    0.65    0.33           0.45     0.54
B15        71.63   74.68   45.11          89.24   -0.80   17.92          17.94   92.55           0.10    0.13    0.30    0.12            0.57    0.57    0.54           0.46     0.53
B16        57.95   60.57   49.54          82.15   -1.11    0.50           1.27  156.51           0.22    0.22    0.24    0.22            0.70    0.68    0.44           0.51     0.58
B17        66.14   63.48   47.17          83.69   11.24    5.90          12.70   27.70           0.10    0.24    0.26    0.18            0.52    0.62    0.48           0.52     0.60
B18        61.35   68.50   48.82          86.25  -10.71    8.40          13.62  141.90           0.23    0.13    0.26    0.17            0.65    0.57    0.45           0.50     0.57
B19        60.34   62.50   59.69          83.18    0.17   -8.53           8.53  271.11           0.22    0.20    0.14    0.21            0.55    0.57    0.23           0.38     0.46
B20         4.77    2.88    0.93          19.56   30.30   16.47          34.49   28.53           1.01    2.05    2.05    1.44            0.09    0.05    0.01           0.40     0.47
B21        16.65   11.17    4.04          39.86   37.66   23.17          44.22   31.60           0.50    1.30    1.39    0.87            0.26    0.15    0.07           0.56     0.65
B22        32.84   28.18   16.81          60.05   21.34   13.46          25.23   32.23           0.33    0.67    0.74    0.52            0.35    0.26    0.26           0.65     0.73
C1          6.21    6.17    3.30          29.83    2.81   10.60          10.98   75.15           1.12    1.27    1.52    1.20            0.08    0.05    0.03           0.39     0.46
C2          6.63    6.19    2.04          29.88    7.06   20.81          21.98   71.28           1.04    1.30    1.79    1.18            0.09    0.06    0.02           0.37     0.45
C3          7.03    6.07    1.07          29.58   12.45   31.63          34.00   68.51           0.98    1.35    2.17    1.17            0.09    0.05    0.02           0.39     0.44
C4          7.68    6.07    0.27          29.58   18.63   45.88          49.52   67.90           0.92    1.42    3.19    1.15            0.13    0.08    0.00           0.44     0.55
C5         23.14   22.76   11.53          54.82    5.44   18.33          19.12   73.47           0.54    0.69    0.94    0.63            0.33    0.29    0.20           0.64     0.73
C6         24.91   22.55    6.33          54.61   14.09   36.74          39.35   69.02           0.45    0.74    1.26    0.61            0.32    0.26    0.09           0.55     0.67
C7         27.04   22.69    3.03          54.75   22.31   55.48          59.80   68.10           0.38    0.79    1.70    0.59            0.35    0.30    0.04           0.52     0.60
C8         30.38   22.68    0.55          54.74   35.30   83.97          91.08   67.20           0.29    0.89    3.11    0.57            0.41    0.33    0.01           0.55     0.63
C9         39.10   40.01   27.74          69.48    1.64    8.32           8.49   78.74           0.36    0.42    0.51    0.39            0.64    0.67    0.48           0.75     0.88
C10        40.56   40.48   23.80          69.81    4.76   15.82          16.52   73.23           0.32    0.42    0.59    0.38            0.54    0.55    0.35           0.68     0.79
C11        42.01   40.57   19.53          69.87    8.89   24.35          25.92   69.93           0.27    0.44    0.69    0.37            0.57    0.59    0.32           0.72     0.86
C12        48.73   41.26    6.60          70.35   26.04   62.70          67.89   67.44           0.12    0.52    1.30    0.33            0.29    0.37    0.07           0.49     0.61
C13        56.77   65.24   61.94          84.61  -14.58   -8.31          16.78  209.67           0.32    0.14    0.13    0.20            0.58    0.53    0.31           0.36     0.45
C14        61.72   54.42   54.75          78.70   22.71  -11.16          25.31  333.84           0.11    0.35    0.17    0.25            0.47    0.60    0.31           0.50     0.63
C15        68.92   72.08   32.44          88.00   -1.24   32.80          32.83   92.16           0.10    0.15    0.47    0.13            0.54    0.55    0.47           0.48     0.56
C16        44.36   46.62   38.31          73.94   -1.71    0.22           1.78  173.63           0.34    0.33    0.36    0.33            0.69    0.69    0.47           0.68     0.79
C17        57.12   51.03   34.62          76.70   20.37   10.11          22.74   26.39           0.11    0.38    0.40    0.27            0.42    0.51    0.49           0.66     0.78
C18        51.94   61.34   37.52          82.56  -17.99   16.14          24.18  138.11           0.32    0.16    0.39    0.22            0.61    0.55    0.47           0.60     0.67
C19        48.35   49.65   55.93          75.85    1.30  -17.32          17.36  274.28           0.33    0.30    0.17    0.31            0.50    0.50    0.20           0.38     0.47
C20        12.13    8.99    1.10          35.96   26.59   42.14          49.83   57.76           0.67    1.30    2.16    0.97            0.17    0.10    0.02           0.38     0.46
C21        21.17   19.98   11.04          51.82    9.33   14.62          17.35   57.46           0.56    0.77    0.95    0.68            0.28    0.21    0.14           0.67     0.79
C22        26.68   22.77   10.62          54.83   20.50   21.14          29.45   45.87           0.40    0.78    0.96    0.60            0.36    0.28    0.17           0.62     0.70
D1          4.13    4.37    2.37          24.85   -1.18    9.15           9.23   97.36           1.33    1.39    1.68    1.36            0.05    0.04    0.03           0.32     0.38
D2          4.16    4.48    1.46          25.19   -2.14   18.94          19.06   96.46           1.32    1.37    1.98    1.34            0.05    0.04    0.01           0.31     0.38
D3          4.12    4.41    0.81          24.98   -1.81   27.78          27.84   93.73           1.32    1.37    2.36    1.34            0.05    0.04    0.02           0.42     0.48
D4          3.99    4.32    0.30          24.71   -2.47   36.87          36.95   93.83           1.37    1.37    3.18    1.34            0.06    0.05    0.01           0.35     0.41
D5         16.87   18.00    9.17          49.50   -2.69   16.79          17.01   99.07           0.73    0.76    1.05    0.74            0.25    0.24    0.16           0.69     0.77
D6         16.81   17.92    4.89          49.40   -2.61   34.81          34.91   94.29           0.71    0.76    1.42    0.73            0.23    0.20    0.06           0.46     0.54
D7         16.75   18.04    2.30          49.54   -3.52   52.36          52.48   93.85           0.72    0.75    1.93    0.73            0.21    0.19    0.04           0.36     0.45
D8         16.70   18.06    0.73          49.56   -3.90   71.68          71.78   93.12           0.76    0.74    3.03    0.72            0.23    0.22    0.01           0.48     0.56
D9         45.15   47.82   24.08          74.71   -2.74   23.74          23.90   96.57           0.30    0.32    0.60    0.31            0.60    0.63    0.39           0.70     0.82
D10        44.92   47.86   13.76          74.73   -3.49   46.36          46.50   94.30           0.28    0.32    0.92    0.31            0.54    0.56    0.20           0.55     0.66
D11        44.27   47.56    6.89          74.54   -4.56   68.70          68.85   93.80           0.29    0.32    1.36    0.31            0.50    0.47    0.07           0.45     0.54
D12        43.40   47.07    3.27          74.23   -5.74   87.36          87.55   93.76           0.31    0.32    1.95    0.31            0.47    0.39    0.04           0.35     0.46
D13        50.89   60.74   61.22          82.24  -19.36  -11.68          22.61  211.10           0.42    0.15    0.14    0.24            0.51    0.45    0.24           0.37     0.47
D14        55.12   44.98   50.54          72.88   31.88  -16.60          35.95  332.49           0.12    0.48    0.20    0.32            0.43    0.53    0.34           0.49     0.61
D15        67.11   69.96   24.02          86.98   -0.76   45.00          45.00   90.97           0.09    0.16    0.63    0.14            0.49    0.51    0.38           0.51     0.59
D16        33.15   34.99   28.91          65.74   -2.07   -0.05           2.14  181.57           0.47    0.46    0.49    0.46            0.55    0.53    0.43           0.73     0.84
D17        49.25   40.84   24.76          70.06   28.72   14.48          32.17   26.76           0.13    0.53    0.55    0.35            0.33    0.43    0.32           0.66     0.78
D18        44.68   55.36   28.81          79.25  -23.62   23.39          33.25  135.28           0.41    0.19    0.53    0.27            0.49    0.43    0.36           0.61     0.69
D19        38.04   38.53   51.95          68.41    2.88  -25.87          26.03  276.35           0.46    0.42    0.19    0.43            0.42    0.41    0.21           0.40     0.50
D20         2.98    2.98    1.03          19.97    1.93   15.60          15.72   82.96           1.43    1.58    2.12    1.51            0.05    0.04    0.01           0.29     0.37
D21        30.03   27.79    1.41          59.70   12.60   78.98          79.98   80.93           0.39    0.64    2.42    0.51            0.39    0.31    0.03           0.44     0.52
D22        38.76   42.62   54.81          71.29   -7.26  -23.99          25.07  253.16           0.51    0.34    0.18    0.40            0.49    0.52    0.20           0.47     0.57
E1          5.45    6.22    3.44          29.96   -6.29    9.89          11.72  122.43           1.26    1.20    1.52    1.21            0.06    0.06    0.04           0.37     0.41
E2          4.99    6.24    2.19          30.02  -12.05   19.67          23.07  121.49           1.34    1.16    1.80    1.21            0.06    0.05    0.03           0.36     0.43
E3          4.57    6.26    1.28          30.06  -17.52   29.51          34.32  120.70           1.44    1.11    2.18    1.22            0.05    0.05    0.02           0.30     0.35
E4          4.10    6.29    0.49          30.12  -24.25   42.78          49.17  119.55           1.64    1.06    3.10    1.22            0.05    0.06    0.01           0.27     0.32
E5         23.84   27.58   14.80          59.51  -11.65   17.41          20.95  123.79           0.64    0.53    0.83    0.57            0.27    0.28    0.25           0.63     0.72
E6         21.89   27.57    9.18          59.50  -20.39   33.98          39.63  120.97           0.71    0.50    1.12    0.57            0.24    0.22    0.15           0.57     0.66
E7         20.00   27.76    4.99          59.67  -30.20   51.96          60.10  120.17           0.82    0.45    1.53    0.57            0.20    0.19    0.05           0.35     0.45
E8         18.83   27.99    3.03          59.88  -36.97   64.38          74.24  119.86           0.92    0.42    1.96    0.57            0.18    0.19    0.03           0.22     0.28
E9         42.88   47.36   31.55          74.42   -8.09   10.75          13.46  127.02           0.37    0.30    0.46    0.33            0.53    0.58    0.45           0.66     0.78
E10        40.66   47.15   24.79          74.29  -14.23   21.72          25.97  123.25           0.41    0.29    0.59    0.33            0.50    0.52    0.34           0.60     0.72
E11        38.82   47.33   19.77          74.40  -20.47   31.66          37.70  122.89           0.45    0.27    0.72    0.33            0.51    0.51    0.31           0.57     0.67
E12        36.51   47.14   14.09          74.28  -27.42   44.71          52.45  121.52           0.50    0.25    0.93    0.34            0.46    0.42    0.19           0.55     0.66
E13        46.21   57.00   60.55          80.18  -23.30  -14.57          27.48  212.01           0.50    0.17    0.14    0.28            0.52    0.48    0.21           0.38     0.51
E14        49.24   37.23   46.48          67.45   39.96  -21.29          45.28  331.95           0.15    0.61    0.23    0.39            0.32    0.36    0.29           0.34     0.45
E15        65.80   68.13   18.23          86.07    0.24   55.08          55.08   89.75           0.09    0.18    0.78    0.15            0.45    0.47    0.31           0.52     0.59
E16        24.31   25.66   21.21          57.72   -1.87   -0.06           1.97  181.94           0.60    0.60    0.63    0.59            0.36    0.34    0.26           0.71     0.82
E17        42.51   32.65   17.39          63.88   36.25   18.71          40.80   27.30           0.15    0.69    0.71    0.43            0.25    0.30    0.27           0.63     0.75
E18        38.91   50.23   22.07          76.21  -27.99   30.13          41.12  132.89           0.49    0.22    0.67    0.32            0.43    0.39    0.31           0.63     0.74
E19        29.83   29.51   47.94          61.23    5.25  -33.72          34.13  278.85           0.59    0.54    0.22    0.55            0.32    0.29    0.16           0.37     0.44
E20         7.12    8.58    1.33          35.15  -10.70   37.65          39.15  105.87           1.16    1.02    2.19    1.06            0.09    0.07    0.02           0.33     0.41
E21        23.82   28.91    6.28          60.70  -16.90   47.52          50.43  109.57           0.64    0.49    1.36    0.54            0.31    0.28    0.08           0.42     0.51
E22         8.82   18.74   13.46          50.38  -60.80    5.18          61.02  175.13           1.82    0.51    0.91    0.81            0.10    0.16    0.20           0.33     0.37
F1          3.62    4.54    3.15          25.38  -10.92    3.97          11.62  160.04           1.51    1.30    1.55    1.37            0.04    0.03    0.02           0.37     0.43
F2          2.97    4.47    2.63          25.17  -20.66    7.59          22.01  159.84           1.72    1.24    1.67    1.39            0.04    0.03    0.03           0.32     0.37
F3          2.46    4.49    2.24          25.22  -30.47   10.94          32.37  160.25           1.98    1.18    1.79    1.41            0.04    0.05    0.04           0.26     0.29
F4          1.55    4.40    1.54          24.95  -50.35   17.53          53.31  160.80           2.81    1.09    2.12    1.45            0.01    0.03    0.02           0.20     0.22
F5         11.29   14.45   10.04          44.87  -17.76    5.85          18.70  161.77           1.05    0.78    1.01    0.87            0.17    0.18    0.18           0.57     0.65
F6          9.08   14.36    8.29          44.74  -34.35   11.75          36.31  161.11           1.32    0.71    1.13    0.89            0.08    0.10    0.11           0.42     0.46
F7          7.48   14.69    6.93          45.20  -50.52   17.93          53.61  160.46           1.64    0.64    1.27    0.90            0.10    0.16    0.13           0.34     0.38
F8          5.99   14.69    5.70          45.21  -65.84   23.46          69.90  160.39           2.08    0.58    1.42    0.91            0.06    0.11    0.10           0.29     0.33
F9         28.53   33.36   25.26          64.45  -13.62    3.93          14.18  163.96           0.60    0.44    0.56    0.49            0.37    0.39    0.39           0.64     0.74
F10        25.68   33.54   23.02          64.59  -25.70    8.29          27.01  162.15           0.72    0.39    0.62    0.50            0.32    0.38    0.36           0.64     0.76
F11        23.12   33.64   21.17          64.67  -37.11   12.01          39.00  162.06           0.86    0.35    0.67    0.51            0.28    0.32    0.31           0.51     0.58
F12        20.47   33.71   18.88          64.73  -49.71   16.87          52.50  161.26           1.03    0.31    0.75    0.52            0.26    0.29    0.30           0.48     0.54
F13        41.77   53.29   59.81          78.05  -27.03  -17.51          32.21  212.93           0.59    0.18    0.15    0.31            0.40    0.38    0.18           0.31     0.41
F14        43.92   30.80   42.54          62.34   47.06  -25.30          53.43  331.74           0.17    0.76    0.26    0.47            0.21    0.22    0.23           0.26     0.31
F15        64.76   66.44   13.94          85.22    1.59   63.97          63.99   88.57           0.09    0.19    0.94    0.16            0.38    0.39    0.19           0.45     0.52
F16        17.17   18.25   15.06          49.79   -2.30   -0.01           2.34  180.21           0.75    0.75    0.79    0.74            0.24    0.21    0.15           0.59     0.69
F17        36.54   25.94   11.76          57.98   42.93   23.10          48.75   28.29           0.18    0.86    0.89    0.52            0.15    0.16    0.15           0.51     0.59
