targets/wolf_faust/transmissive/V150507.it8
IT8.7/1
ORIGINATOR "Wolf Faust"
DESCRIPTOR "Velvia (RVP 50), Type 3, L* a* b* (light D50, viewing angle 2)"
MANUFACTURER "Wolf Faust - http://www.coloraid.de"
CREATED "May 29, 2015"
PROD_DATE "2014:01"
DIFFUSE_GEOMETRY "opal"
SERIAL "V150507 Batch Average Data"
MATERIAL "Fujichrome Velvia (RVP 50)"
KEYWORD "MEAN_DE" # Mean Delta E of samples compared to batch average
NUMBER_OF_FIELDS 18
BEGIN_DATA_FORMAT
SAMPLE_ID  XYZ_X   XYZ_Y   XYZ_Z          LAB_L   LAB_A   LAB_B          LAB_C   LAB_H          D_RED  D_GREEN  D_BLUE  D_VIS          STDEV_X STDEV_Y STDEV_Z        MEAN_DE  STDEV_DE
END_DATA_FORMAT
NUMBER_OF_SETS 288
BEGIN_DATA
A1          2.12    1.83    1.27          14.58    8.32    2.95           8.83   19.51           1.52    1.89    1.92    1.71            0.09    0.07    0.04           0.48     0.57
A2          2.63    1.83    1.06          14.58   18.73    5.91          19.64   17.52           1.33    2.06    1.98    1.67            0.12    0.08    0.04           0.59     0.71 
A3          3.20    1.82    0.86          14.52   29.00    8.92          30.34   17.10           1.17    2.34    2.05    1.63            0.14    0.08    0.02           0.70     0.82
A4          4.19    1.85    0.66          14.66   43.67   12.72          45.48   16.24           0.96    3.23    2.08    1.57            0.18    0.08    0.02           0.73     0.90 
A5          9.68    8.51    6.03          35.01   12.49    4.33          13.22   19.13           0.88    1.19    1.20    1.04            0.39    0.30    0.19           0.66     0.82
A6         11.55    8.40    5.19          34.80   27.45    8.04          28.60   16.32           0.71    1.34    1.25    1.02            0.43    0.28    0.14           0.77     0.94 
A7         13.89    8.53    4.43          35.05   42.00   12.56          43.83   16.64           0.55    1.53    1.31    0.98            0.51    0.29    0.13           0.77     0.95
A8         17.28    8.66    3.55          35.32   60.68   18.40          63.41   16.87           0.38    1.94    1.37    0.93            0.23    0.14    0.14           0.43     0.54 
A9         28.39   28.04   21.62          59.92    5.37    2.94           6.13   28.74           0.48    0.59    0.62    0.54            0.98    0.90    0.70           0.77     0.91
A10        30.81   28.36   20.63          60.21   13.30    5.41          14.36   22.16           0.40    0.62    0.64    0.53            0.99    0.84    0.63           0.79     0.93
A11        33.06   28.27   19.68          60.12   21.82    7.24          22.99   18.35           0.33    0.67    0.65    0.52            0.94    0.78    0.59           0.71     0.83
A12        39.62   29.03   17.54          60.80   40.67   13.09          42.72   17.83           0.17    0.78    0.70    0.48            0.64    0.65    0.60           0.75     0.88 
A13        72.76   77.11   65.55          90.37   -3.29   -1.83           3.76  209.05           0.13    0.10    0.11    0.12            0.46    0.35    0.11           0.33     0.39
A14        78.98   80.28   65.61          91.81    3.13    0.59           3.19   10.82           0.06    0.10    0.11    0.09            0.24    0.33    0.19           0.20     0.27 
A15        79.46   81.69   63.38          92.44    1.37    3.80           4.04   70.22           0.06    0.09    0.13    0.09            0.19    0.21    0.37           0.21     0.26
A16        76.74   79.90   64.99          91.64   -0.61    0.89           1.11  123.98           0.09    0.09    0.11    0.10            0.39    0.30    0.24           0.29     0.33
A17        78.46   79.91   63.70          91.65    2.81    2.13           3.53   37.12           0.07    0.10    0.12    0.09            0.22    0.29    0.30           0.20     0.24
A18        73.74   77.82   59.50          90.70   -2.65    4.62           5.33  119.82           0.11    0.10    0.16    0.11            0.56    0.42    0.37           0.37     0.43 
A19        72.00   75.12   64.45          89.45   -0.90   -2.38           2.54  249.33           0.13    0.12    0.11    0.13            0.64    0.58    0.18           0.40     0.47
A20         6.25    2.96    1.80          19.88   46.16    6.01          46.56    7.41           0.82    2.59    1.65    1.38            0.24    0.11    0.04           0.77     0.93 
A21        26.35   18.66   14.20          50.28   38.73    3.04          38.85    4.48           0.35    1.00    0.78    0.67            0.74    0.50    0.43           0.70     0.82
A22        52.99   49.25   31.57          75.61   14.69   12.77          19.47   40.99           0.16    0.37    0.45    0.29            1.02    1.05    0.89           0.66     0.77
B1          3.29    2.99    1.63          20.01    6.91    8.07          10.63   49.43           1.35    1.64    1.84    1.50            0.12    0.09    0.05           0.46     0.56
B2          3.80    2.95    1.01          19.84   15.60   15.71          22.14   45.21           1.20    1.75    2.08    1.47            0.14    0.10    0.03           0.54     0.66
B3          4.43    2.98    0.60          19.96   24.03   23.09          33.33   43.85           1.08    1.89    2.34    1.44            0.18    0.11    0.02           0.66     0.80
B4          5.36    2.92    0.09          19.70   36.90   32.22          48.98   41.13           0.92    2.25    3.40    1.41            0.25    0.13    0.00           1.02     1.23
B5         12.38   11.21    6.35          39.93   11.16   11.34          15.92   45.47           0.77    1.05    1.20    0.92            0.50    0.42    0.20           0.72     0.90
B6         14.44   11.33    4.11          40.13   23.54   23.19          33.04   44.58           0.63    1.15    1.42    0.89            0.56    0.39    0.10           0.88     1.07
B7         16.66   11.21    2.57          39.92   37.40   33.50          50.21   41.85           0.50    1.30    1.64    0.87            0.60    0.38    0.08           0.85     1.02
B8         20.82   11.31    0.97          40.09   58.21   51.19          77.51   41.33           0.32    1.64    2.11    0.82            0.20    0.15    0.04           0.32     0.36
B9         33.66   34.03   25.03          64.98    2.97    5.25           6.04   60.47           0.42    0.49    0.55    0.46            1.14    1.10    0.81           0.80     0.94
B10        35.51   33.99   22.16          64.95    9.44   10.54          14.15   48.16           0.36    0.52    0.61    0.45            1.10    1.02    0.65           0.75     0.89
B11        37.27   34.15   20.12          65.08   14.74   14.86          20.93   45.23           0.30    0.55    0.66    0.44            1.00    0.88    0.55           0.69     0.81
B12        44.11   34.94   13.77          65.70   33.10   30.76          45.19   42.90           0.14    0.64    0.85    0.40            0.53    0.63    0.41           0.64     0.82
B13        63.84   70.39   62.88          87.19   -9.00   -4.76          10.18  207.92           0.23    0.12    0.13    0.16            0.99    0.82    0.58           0.58     0.68
B14        69.37   66.40   59.56          85.20   11.81   -4.92          12.79  337.39           0.09    0.22    0.14    0.17            0.91    1.06    0.72           0.55     0.69
B15        71.35   74.57   44.67          89.19   -1.16   18.37          18.41   93.61           0.10    0.13    0.30    0.12            0.88    0.80    0.67           0.42     0.50
B16        57.82   60.78   49.36          82.26   -1.91    0.90           2.13  154.49           0.22    0.21    0.24    0.22            1.14    1.11    0.77           0.57     0.68
B17        66.44   64.14   47.09          84.04   10.42    6.59          12.33   32.33           0.10    0.23    0.26    0.18            0.87    0.96    0.80           0.48     0.57
B18        60.80   68.08   48.30          86.05  -11.10    8.65          14.08  142.05           0.23    0.13    0.26    0.17            0.99    0.84    0.70           0.59     0.68
B19        60.15   62.65   59.99          83.25   -0.60   -8.70           8.72  266.10           0.22    0.20    0.14    0.21            0.96    0.97    0.54           0.53     0.64
B20         4.69    2.85    0.90          19.41   29.85   16.64          34.17   29.14           1.01    2.04    2.07    1.44            0.15    0.08    0.02           0.57     0.69
B21        16.69   11.22    4.01          39.94   37.50   23.47          44.24   32.03           0.50    1.30    1.40    0.87            0.51    0.32    0.09           0.75     0.89
B22        32.91   28.39   16.51          60.24   20.79   14.48          25.34   34.85           0.33    0.67    0.75    0.51            0.89    0.76    0.49           0.67     0.77
C1          6.33    6.30    3.35          30.15    2.74   10.85          11.19   75.86           1.11    1.26    1.51    1.19            0.21    0.18    0.07           0.50     0.60
C2          6.51    6.07    2.02          29.58    7.09   20.54          21.74   70.96           1.05    1.31    1.79    1.19            0.22    0.18    0.05           0.55     0.66
C3          7.08    6.15    1.06          29.79   11.95   32.14          34.29   69.61           0.98    1.34    2.18    1.17            0.26    0.20    0.04           0.63     0.76
C4          7.73    6.16    0.27          29.80   18.18   46.26          49.70   68.55           0.92    1.41    3.21    1.15            0.33    0.24    0.01           0.94     1.18
C5         23.53   22.97   11.51          55.04    6.21   18.76          19.76   71.68           0.53    0.69    0.94    0.62            0.85    0.77    0.43           0.74     0.90
C6         25.33   23.02    6.45          55.09   13.78   37.06          39.54   69.61           0.45    0.73    1.25    0.60            0.89    0.75    0.19           0.86     1.02
C7         27.35   23.01    3.06          55.08   22.13   55.88          60.10   68.40           0.37    0.78    1.70    0.59            0.96    0.80    0.11           0.99     1.17
C8         30.57   22.96    0.56          55.02   34.79   84.27          91.17   67.57           0.29    0.88    3.09    0.57            0.90    0.69    0.02           0.95     1.17
C9         39.75   40.77   27.66          70.01    1.37    9.37           9.47   81.70           0.35    0.41    0.51    0.38            1.15    1.15    0.82           0.72     0.85
C10        40.80   40.76   23.79          70.00    4.67   16.17          16.83   73.89           0.31    0.42    0.59    0.38            1.16    1.11    0.67           0.73     0.88
C11        42.25   41.10   19.54          70.24    8.04   24.97          26.23   72.15           0.27    0.43    0.69    0.37            1.11    1.04    0.51           0.68     0.81
C12        49.17   41.92    6.62          70.82   25.26   63.42          68.27   68.28           0.12    0.51    1.30    0.33            0.54    0.71    0.14           0.73     0.88
C13        56.76   65.22   62.30          84.60  -14.58   -8.67          16.97  210.75           0.32    0.14    0.13    0.20            0.88    0.72    0.48           0.59     0.70
C14        62.31   55.28   55.43          79.20   21.91  -11.01          24.52  333.32           0.11    0.34    0.17    0.24            0.76    0.90    0.57           0.59     0.77
C15        68.35   71.61   31.95          87.78   -1.50   33.16          33.20   92.58           0.10    0.15    0.48    0.13            1.04    1.00    0.71           0.51     0.61
C16        44.52   46.98   38.08          74.17   -2.26    0.92           2.45  157.38           0.34    0.33    0.36    0.33            1.11    1.07    0.77           0.68     0.79
C17        57.36   51.54   34.54          77.00   19.63   10.75          22.38   28.69           0.11    0.37    0.40    0.26            0.70    0.80    0.75           0.60     0.70
C18        51.67   61.08   36.96          82.42  -18.12   16.68          24.63  137.36           0.33    0.16    0.40    0.23            0.89    0.76    0.62           0.64     0.74
C19        48.49   50.01   56.22          76.07    0.73  -17.24          17.26  272.43           0.34    0.30    0.16    0.31            0.93    0.96    0.42           0.70     0.86
C20        12.01    8.95    1.12          35.89   26.01   41.72          49.16   58.06           0.68    1.30    2.15    0.98            0.37    0.24    0.03           0.72     0.87
C21        21.35   20.17   10.95          52.03    9.27   15.29          17.88   58.79           0.56    0.77    0.95    0.67            0.62    0.52    0.29           0.66     0.76
C22        26.88   23.00   10.68          55.07   20.29   21.36          29.47   46.47           0.40    0.77    0.96    0.60            0.74    0.63    0.28           0.69     0.80
D1          4.16    4.48    2.40          25.20   -2.26    9.55           9.82  103.36           1.34    1.37    1.68    1.35            0.12    0.11    0.05           0.43     0.49
D2          4.13    4.48    1.44          25.20   -2.64   19.21          19.39   97.84           1.33    1.36    1.99    1.34            0.14    0.13    0.04           0.46     0.54
D3          4.15    4.51    0.84          25.27   -2.66   27.75          27.88   95.47           1.33    1.35    2.34    1.33            0.16    0.15    0.03           0.48     0.58
D4          4.01    4.39    0.30          24.91   -3.17   37.21          37.35   94.88           1.38    1.35    3.18    1.34            0.15    0.14    0.01           0.73     0.87
D5         17.42   18.55    9.33          50.15   -2.48   17.34          17.52   98.14           0.71    0.74    1.05    0.73            0.63    0.59    0.31           0.67     0.83
D6         17.36   18.61    4.95          50.22   -3.14   35.88          36.02   95.00           0.70    0.74    1.42    0.72            0.57    0.53    0.13           0.72     0.86
D7         16.89   18.32    2.31          49.88   -4.23   52.83          53.00   94.59           0.72    0.74    1.94    0.72            0.58    0.55    0.07           0.75     0.91
D8         16.87   18.37    0.74          49.93   -4.58   72.13          72.27   93.64           0.76    0.73    3.03    0.72            0.59    0.54    0.02           0.97     1.16
D9         45.51   48.17   24.42          74.93   -2.65   23.51          23.66   96.43           0.29    0.32    0.59    0.31            1.23    1.22    0.73           0.71     0.83
D10        45.20   48.16   13.94          74.92   -3.50   46.21          46.35   94.34           0.28    0.32    0.91    0.30            1.16    1.12    0.33           0.70     0.85
D11        44.86   48.16    6.96          74.92   -4.50   69.06          69.21   93.73           0.28    0.32    1.35    0.30            0.97    0.88    0.10           0.77     0.93
D12        43.94   47.20    3.08          74.32   -4.56   88.90          89.02   92.93           0.30    0.32    2.00    0.31            0.88    0.72    0.06           0.71     0.84
D13        51.04   60.78   61.44          82.26  -19.07  -11.86          22.46  211.88           0.41    0.15    0.14    0.24            0.87    0.78    0.60           0.58     0.69
D14        55.65   45.74   51.09          73.37   31.06  -16.37          35.11  332.21           0.12    0.47    0.19    0.31            0.67    0.76    0.53           0.53     0.74
D15        66.67   69.60   23.68          86.80   -0.97   45.32          45.33   91.23           0.10    0.16    0.64    0.14            0.72    0.67    0.40           0.37     0.43
D16        33.37   35.29   28.48          65.97   -2.28    1.04           2.52  154.97           0.46    0.45    0.49    0.46            0.95    0.92    0.66           0.67     0.80
D17        49.33   41.16   24.49          70.28   27.99   15.36          31.93   28.76           0.13    0.52    0.56    0.35            0.74    0.80    0.68           0.66     0.79
D18        44.63   55.24   28.27          79.18  -23.48   24.15          33.69  134.19           0.41    0.19    0.54    0.27            0.85    0.74    0.52           0.64     0.75
D19        38.46   39.03   52.32          68.77    2.65  -25.67          25.80  275.89           0.46    0.41    0.19    0.42            0.89    0.91    0.50           0.74     0.88
D20         2.89    2.94    1.05          19.81    0.86   15.12          15.15   86.75           1.45    1.58    2.11    1.52            0.09    0.07    0.03           0.46     0.55
D21        30.01   27.91    1.45          59.81   12.08   78.73          79.65   81.28           0.40    0.63    2.40    0.51            0.86    0.73    0.04           0.83     1.00
D22        39.22   43.39   55.28          71.81   -8.07  -23.60          24.94  251.11           0.51    0.33    0.17    0.39            0.91    1.01    0.51           0.76     0.95
E1          5.39    6.27    3.44          30.09   -7.46   10.13          12.58  126.40           1.27    1.19    1.52    1.21            0.15    0.15    0.06           0.43     0.50
E2          4.99    6.33    2.19          30.24  -12.95   20.11          23.91  122.78           1.35    1.14    1.80    1.21            0.14    0.15    0.06           0.38     0.44
E3          4.71    6.41    1.26          30.43  -17.40   30.47          35.09  119.73           1.43    1.10    2.20    1.21            0.16    0.18    0.03           0.51     0.60
E4          4.10    6.39    0.49          30.38  -25.42   43.14          50.08  120.51           1.66    1.05    3.11    1.22            0.16    0.22    0.01           0.69     0.85
E5         24.24   28.13   14.72          60.00  -12.06   18.46          22.05  123.17           0.63    0.52    0.84    0.56            0.83    0.86    0.52           0.70     0.85
E6         22.09   27.94    9.09          59.83  -20.94   34.89          40.69  120.98           0.71    0.49    1.13    0.56            0.72    0.78    0.25           0.69     0.84
E7         20.06   27.89    5.01          59.78  -30.43   52.04          60.29  120.31           0.82    0.45    1.53    0.57            0.53    0.58    0.10           0.65     0.77
E8         18.80   27.88    2.94          59.78  -36.69   64.84          74.50  119.50           0.92    0.42    1.98    0.57            0.47    0.51    0.06           0.60     0.73
E9         43.64   48.16   31.86          74.92   -8.03   11.13          13.72  125.80           0.36    0.30    0.46    0.32            1.23    1.25    0.92           0.72     0.85
E10        41.11   47.88   24.73          74.74  -14.85   22.62          27.06  123.28           0.40    0.28    0.60    0.33            1.07    1.08    0.63           0.70     0.81
E11        39.06   47.33   18.94          74.39  -19.70   33.41          38.79  120.53           0.44    0.27    0.75    0.33            1.31    1.45    0.72           0.84     1.03
E12        36.93   47.43   14.06          74.46  -26.82   45.11          52.48  120.73           0.49    0.25    0.93    0.33            0.80    0.75    0.30           0.63     0.76
E13        46.23   56.98   60.84          80.17  -23.19  -14.87          27.55  212.67           0.50    0.17    0.14    0.28            0.74    0.64    0.35           0.59     0.71
E14        49.61   37.74   46.91          67.83   39.32  -21.14          44.65  331.74           0.14    0.60    0.22    0.39            0.62    0.69    0.58           0.62     0.78
E15        65.40   67.79   17.99          85.90    0.09   55.33          55.33   89.91           0.10    0.18    0.79    0.15            0.63    0.60    0.28           0.32     0.36
E16        24.35   25.83   20.85          57.87   -2.40    0.93           2.57  158.53           0.60    0.59    0.64    0.59            0.75    0.70    0.57           0.67     0.79
E17        42.56   32.85   17.15          64.04   35.71   19.54          40.70   28.68           0.15    0.68    0.72    0.43            0.50    0.54    0.48           0.59     0.70
E18        38.72   49.99   21.68          76.06  -27.96   30.64          41.48  132.39           0.49    0.22    0.68    0.32            0.68    0.63    0.39           0.55     0.65
E19        29.88   29.69   48.20          61.38    4.81  -33.76          34.10  278.11           0.60    0.54    0.22    0.55            0.72    0.72    0.48           0.70     0.84
E20         6.95    8.40    1.28          34.80  -10.94   37.68          39.24  106.20           1.18    1.03    2.22    1.07            0.18    0.17    0.03           0.47     0.56
E21        24.18   29.21    6.13          60.96  -16.47   48.63          51.34  108.71           0.63    0.49    1.37    0.53            0.62    0.61    0.10           0.76     0.89
E22         8.67   18.57   13.16          50.18  -61.23    5.66          61.50  174.72           1.84    0.51    0.93    0.81            0.17    0.29    0.27           0.40     0.45
F1          3.59    4.56    3.13          25.43  -11.71    4.26          12.46  160.02           1.52    1.29    1.55    1.37            0.10    0.11    0.07           0.34     0.40
F2          2.89    4.48    2.62          25.21  -22.27    7.70          23.56  160.92           1.76    1.23    1.68    1.39            0.10    0.13    0.07           0.40     0.45
F3          2.42    4.44    2.22          25.06  -30.69   10.88          32.57  160.48           1.99    1.19    1.80    1.41            0.09    0.16    0.06           0.49     0.60
F4          1.56    4.45    1.46          25.11  -50.66   18.71          54.01  159.73           2.81    1.08    2.16    1.44            0.05    0.13    0.04           0.54     0.65
F5         11.50   14.77   10.05          45.31  -18.22    6.57          19.37  160.17           1.04    0.76    1.01    0.86            0.39    0.42    0.29           0.54     0.65
F6          9.29   14.68    8.40          45.19  -34.55   12.13          36.62  160.66           1.31    0.70    1.13    0.88            0.30    0.40    0.25           0.53     0.61
F7          7.50   14.72    7.00          45.25  -50.60   17.72          53.61  160.70           1.64    0.64    1.26    0.90            0.23    0.38    0.19           0.54     0.62
F8          5.89   14.51    5.61          44.95  -65.86   23.48          69.92  160.38           2.10    0.59    1.43    0.92            0.12    0.24    0.14           0.39     0.44
F9         28.98   33.90   24.96          64.88  -13.73    5.21          14.68  159.21           0.59    0.43    0.57    0.48            0.89    0.92    0.79           0.69     0.81
F10        25.86   33.72   22.74          64.74  -25.58    9.06          27.14  160.50           0.72    0.39    0.63    0.50            0.70    0.74    0.63           0.66     0.76
F11        23.23   33.79   20.99          64.79  -37.16   12.59          39.23  161.28           0.85    0.35    0.68    0.51            0.57    0.66    0.54           0.57     0.66
F12        20.44   33.63   18.77          64.67  -49.62   17.02          52.45  161.07           1.03    0.32    0.75    0.52            0.47    0.56    0.50           0.55     0.67
F13        41.78   53.25   60.03          78.02  -26.93  -17.77          32.26  213.42           0.59    0.18    0.15    0.31            0.65    0.59    0.33           0.55     0.66
F14        44.28   31.24   43.03          62.71   46.47  -25.26          52.90  331.47           0.17    0.74    0.25    0.46            0.50    0.52    0.44           0.54     0.65
F15        64.35   66.06   13.73          85.03    1.49   64.19          64.21   88.67           0.10    0.20    0.95    0.16            0.56    0.54    0.21           0.28     0.32
F16        17.05   18.25   14.72          49.79   -2.97    0.86           3.11  163.27           0.76    0.74    0.80    0.74            0.56    0.51    0.36           0.66     0.79
F17        36.54   26.06   11.56          58.09   42.47   23.87          48.72   29.33           0.18    0.85    0.90    0.52            0.37    0.37    0.32           0.52     0.61
