targets/wolf_faust/transmissive/V151103.it8
IT8.7/1
ORIGINATOR "Wolf Faust"
DESCRIPTOR "Velvia (RVP 50), Type 3, L* a* b* (light D50, viewing angle 2)"
MANUFACTURER "Wolf Faust - http://www.coloraid.de"
CREATED "March 01, 2016"
PROD_DATE "2014:01"
DIFFUSE_GEOMETRY "opal"
SERIAL "V151103 Batch Average Data"
MATERIAL "Fujichrome Velvia (RVP 50)"
KEYWORD "MEAN_DE" # Mean Delta E of samples compared to batch average
NUMBER_OF_FIELDS 18
BEGIN_DATA_FORMAT
SAMPLE_ID  XYZ_X   XYZ_Y   XYZ_Z          LAB_L   LAB_A   LAB_B          LAB_C   LAB_H          D_RED  D_GREEN  D_BLUE  D_VIS          STDEV_X STDEV_Y STDEV_Z        MEAN_DE  STDEV_DE
END_DATA_FORMAT
NUMBER_OF_SETS 288
BEGIN_DATA
A1          2.06    1.78    1.22          14.30    8.01    3.12           8.60   21.33           1.54    1.90    1.94    1.72            0.06    0.04    0.02           0.41     0.48
A2          2.55    1.78    1.02          14.26   18.47    5.97          19.41   17.90           1.35    2.08    2.00    1.68            0.09    0.05    0.02           0.44     0.57 
A3          3.10    1.77    0.83          14.23   28.69    8.99          30.06   17.40           1.18    2.35    2.06    1.64            0.10    0.05    0.02           0.48     0.62
A4          4.10    1.80    0.63          14.41   43.49   12.89          45.36   16.51           0.96    3.35    2.10    1.58            0.11    0.05    0.01           0.45     0.60 
A5          9.39    8.28    5.80          34.56   12.06    4.65          12.93   21.12           0.89    1.20    1.22    1.06            0.26    0.21    0.11           0.60     0.72
A6         11.21    8.16    4.98          34.32   27.14    8.29          28.38   16.98           0.72    1.35    1.27    1.03            0.35    0.23    0.08           0.74     0.88 
A7         13.55    8.32    4.26          34.65   41.64   12.88          43.59   17.18           0.56    1.54    1.33    0.99            0.42    0.25    0.09           0.71     0.84
A8         17.31    8.64    3.40          35.29   60.99   19.34          63.99   17.59           0.38    1.96    1.39    0.93            0.12    0.08    0.07           0.26     0.32 
A9         27.68   27.35   20.86          59.29    5.31    3.36           6.30   32.36           0.50    0.60    0.63    0.56            0.75    0.69    0.43           0.75     0.89
A10        30.10   27.71   19.97          59.62   13.20    5.76          14.40   23.58           0.41    0.64    0.65    0.54            0.85    0.75    0.49           0.76     0.90
A11        32.95   28.14   19.37          60.01   21.94    7.69          23.26   19.30           0.33    0.67    0.66    0.52            0.81    0.64    0.49           0.71     0.83
A12        39.47   28.73   16.92          60.55   41.30   14.05          43.63   18.79           0.17    0.79    0.71    0.48            0.42    0.44    0.39           0.63     0.76 
A13        72.91   77.29   65.49          90.45   -3.33   -1.63           3.70  206.03           0.13    0.10    0.11    0.12            0.36    0.27    0.15           0.26     0.31
A14        79.15   80.34   65.53          91.84    3.34    0.72           3.42   12.14           0.06    0.10    0.11    0.09            0.24    0.30    0.25           0.15     0.19 
A15        79.65   81.84   63.06          92.50    1.45    4.23           4.47   70.99           0.06    0.09    0.13    0.08            0.18    0.19    0.27           0.16     0.19
A16        77.02   80.14   64.92          91.75   -0.51    1.15           1.27  114.00           0.09    0.09    0.11    0.10            0.31    0.26    0.29           0.19     0.23
A17        78.57   79.92   63.54          91.65    3.02    2.28           3.79   37.07           0.06    0.10    0.12    0.09            0.28    0.33    0.29           0.14     0.18
A18        73.99   78.03   59.23          90.80   -2.56    5.06           5.67  116.85           0.11    0.10    0.16    0.11            0.52    0.42    0.31           0.29     0.35 
A19        72.32   75.33   64.45          89.55   -0.65   -2.20           2.31  253.89           0.13    0.12    0.11    0.13            0.62    0.55    0.22           0.39     0.46
A20         6.12    2.89    1.73          19.61   45.97    6.28          46.40    7.78           0.82    2.63    1.66    1.39            0.21    0.10    0.03           0.64     0.81 
A21        26.00   18.39   13.76          49.96   38.69    3.65          38.87    5.40           0.35    1.01    0.79    0.67            0.61    0.43    0.29           0.64     0.76
A22        52.88   49.00   31.07          75.45   15.08   13.26          20.08   41.31           0.16    0.38    0.46    0.29            0.81    0.76    0.72           0.58     0.67
B1          3.20    2.92    1.57          19.73    6.63    8.17          10.52   50.94           1.36    1.65    1.85    1.51            0.09    0.06    0.02           0.46     0.57
B2          3.70    2.88    0.97          19.56   15.38   15.84          22.08   45.84           1.22    1.76    2.09    1.48            0.10    0.07    0.02           0.42     0.55
B3          4.33    2.92    0.58          19.73   23.77   23.07          33.12   44.14           1.09    1.90    2.35    1.45            0.13    0.08    0.02           0.48     0.60
B4          5.24    2.85    0.09          19.44   36.61   31.85          48.53   41.02           0.93    2.26    3.41    1.42            0.16    0.08    0.00           0.61     0.84
B5         12.00   10.90    6.08          39.41   10.78   11.69          15.91   47.32           0.79    1.06    1.22    0.94            0.31    0.25    0.10           0.59     0.73
B6         14.14   11.12    3.97          39.78   23.21   23.45          33.00   45.30           0.64    1.16    1.43    0.90            0.42    0.30    0.07           0.69     0.87
B7         16.34   11.00    2.47          39.58   37.15   33.75          50.19   42.25           0.50    1.31    1.66    0.87            0.44    0.28    0.05           0.65     0.82
B8         20.82   11.26    0.91          40.01   58.55   51.98          78.30   41.60           0.31    1.65    2.14    0.82            0.14    0.11    0.03           0.25     0.29
B9         32.92   33.28   24.22          64.38    2.97    5.68           6.42   62.32           0.43    0.50    0.57    0.47            0.84    0.78    0.52           0.70     0.85
B10        35.32   33.74   21.70          64.75    9.65   11.11          14.72   49.04           0.36    0.53    0.62    0.46            0.86    0.72    0.50           0.71     0.83
B11        37.19   34.02   19.72          64.98   14.91   15.51          21.51   46.13           0.30    0.55    0.67    0.44            0.85    0.74    0.50           0.64     0.74
B12        44.13   34.82   13.42          65.61   33.57   31.55          46.07   43.22           0.14    0.64    0.86    0.40            0.38    0.46    0.39           0.67     0.78
B13        63.95   70.52   62.69          87.25   -9.00   -4.47          10.05  206.40           0.23    0.12    0.13    0.16            0.75    0.59    0.29           0.51     0.61
B14        69.33   66.13   59.29          85.06   12.33   -4.89          13.26  338.37           0.09    0.22    0.14    0.17            0.59    0.68    0.39           0.43     0.50
B15        71.27   74.38   44.01          89.10   -0.95   19.02          19.05   92.85           0.10    0.13    0.31    0.12            0.68    0.62    0.60           0.34     0.43
B16        57.86   60.67   49.01          82.20   -1.53    1.20           1.96  141.68           0.22    0.21    0.24    0.22            0.92    0.86    0.65           0.52     0.59
B17        66.40   63.89   46.67          83.91   10.90    6.86          12.88   32.19           0.09    0.24    0.26    0.18            0.59    0.66    0.61           0.42     0.48
B18        60.62   67.98   47.83          86.00  -11.30    9.10          14.52  141.13           0.23    0.14    0.27    0.17            0.81    0.66    0.62           0.52     0.64
B19        60.33   62.72   59.94          83.29   -0.33   -8.59           8.60  267.85           0.22    0.20    0.14    0.21            0.73    0.64    0.20           0.53     0.61
B20         4.60    2.79    0.87          19.18   29.68   16.84          34.12   29.57           1.02    2.05    2.09    1.45            0.15    0.09    0.02           0.49     0.66
B21        16.45   11.05    3.85          39.66   37.37   23.95          44.38   32.65           0.51    1.31    1.42    0.88            0.46    0.29    0.06           0.66     0.84
B22        32.94   28.33   16.22          60.19   21.14   15.08          25.97   35.50           0.32    0.67    0.75    0.51            0.80    0.63    0.40           0.71     0.81
C1          6.19    6.20    3.24          29.91    2.34   11.15          11.40   78.20           1.12    1.26    1.53    1.19            0.16    0.12    0.04           0.48     0.62
C2          6.35    5.94    1.94          29.27    6.80   20.72          21.81   71.84           1.07    1.32    1.81    1.20            0.18    0.14    0.05           0.50     0.63
C3          6.90    6.01    1.01          29.45   11.72   32.22          34.29   70.02           0.99    1.35    2.20    1.18            0.18    0.13    0.02           0.51     0.64
C4          7.50    5.97    0.26          29.34   17.96   45.73          49.13   68.56           0.93    1.42    3.24    1.16            0.20    0.14    0.01           0.58     0.79
C5         22.91   22.40   11.09          54.45    5.99   19.01          19.94   72.50           0.54    0.70    0.96    0.63            0.54    0.47    0.23           0.62     0.80
C6         24.83   22.56    6.22          54.61   13.73   37.25          39.70   69.77           0.45    0.74    1.27    0.61            0.56    0.46    0.09           0.64     0.83
C7         26.98   22.71    2.96          54.77   21.98   56.07          60.22   68.60           0.38    0.79    1.72    0.59            0.59    0.45    0.05           0.63     0.80
C8         30.15   22.60    0.53          54.65   34.83   84.18          91.11   67.52           0.30    0.89    3.17    0.57            0.67    0.50    0.01           0.71     0.93
C9         39.57   40.51   27.10          69.83    1.60   10.00          10.14   80.91           0.35    0.41    0.52    0.39            1.00    0.90    0.67           0.75     0.85
C10        40.61   40.51   23.27          69.82    4.83   16.83          17.51   73.98           0.31    0.43    0.60    0.38            1.06    0.96    0.56           0.79     0.90
C11        42.08   40.87   19.15          70.08    8.21   25.52          26.81   72.16           0.27    0.44    0.70    0.37            0.91    0.81    0.49           0.70     0.79
C12        49.13   41.68    6.41          70.65   25.86   64.07          69.10   68.02           0.12    0.51    1.32    0.33            0.35    0.47    0.14           0.53     0.62
C13        56.30   64.91   61.86          84.44  -15.00   -8.51          17.25  209.57           0.33    0.14    0.14    0.21            0.83    0.68    0.33           0.60     0.72
C14        62.17   54.94   55.09          79.01   22.44  -10.99          24.98  333.91           0.11    0.34    0.17    0.24            0.57    0.67    0.40           0.53     0.60
C15        68.52   71.69   31.46          87.82   -1.32   33.99          34.01   92.22           0.10    0.15    0.48    0.13            0.70    0.65    0.56           0.41     0.52
C16        44.43   46.79   37.60          74.05   -1.99    1.38           2.43  145.07           0.34    0.33    0.37    0.33            1.00    0.93    0.77           0.70     0.79
C17        57.28   51.26   33.98          76.84   20.15   11.28          23.10   29.23           0.11    0.38    0.41    0.26            0.56    0.66    0.65           0.61     0.69
C18        51.38   60.91   36.29          82.33  -18.48   17.44          25.41  136.65           0.33    0.16    0.41    0.23            0.83    0.69    0.58           0.57     0.72
C19        48.41   49.80   56.11          75.95    1.06  -17.34          17.37  273.53           0.33    0.30    0.17    0.31            0.77    0.68    0.23           0.65     0.76
C20        11.79    8.79    1.08          35.58   25.83   41.79          49.13   58.28           0.69    1.30    2.17    0.99            0.30    0.20    0.03           0.50     0.65
C21        21.02   19.85   10.62          51.67    9.22   15.71          18.22   59.59           0.56    0.77    0.97    0.68            0.58    0.51    0.24           0.62     0.76
C22        26.93   22.99   10.50          55.05   20.54   21.92          30.04   46.86           0.40    0.77    0.97    0.60            0.67    0.51    0.23           0.69     0.79
D1          4.06    4.40    2.33          24.96   -2.59    9.75          10.09  104.88           1.35    1.37    1.70    1.35            0.11    0.10    0.04           0.49     0.59
D2          4.03    4.39    1.38          24.92   -2.93   19.39          19.61   98.59           1.34    1.37    2.01    1.35            0.12    0.11    0.03           0.54     0.66
D3          4.03    4.39    0.81          24.92   -2.83   27.69          27.84   95.84           1.35    1.36    2.36    1.34            0.12    0.11    0.02           0.45     0.56
D4          3.90    4.27    0.29          24.55   -3.23   36.77          36.92   95.03           1.40    1.36    3.19    1.35            0.12    0.11    0.00           0.52     0.71
D5         16.95   18.10    8.96          49.61   -2.73   17.72          17.94   98.76           0.73    0.75    1.07    0.74            0.41    0.37    0.16           0.59     0.73
D6         16.93   18.19    4.78          49.72   -3.34   35.93          36.09   95.32           0.71    0.75    1.44    0.73            0.41    0.37    0.08           0.61     0.75
D7         16.50   17.94    2.23          49.43   -4.45   52.77          52.96   94.82           0.74    0.74    1.96    0.73            0.42    0.39    0.04           0.61     0.79
D8         16.43   17.94    0.71          49.42   -4.79   71.81          71.98   93.82           0.78    0.74    3.08    0.73            0.47    0.44    0.01           0.75     1.00
D9         44.74   47.33   23.61          74.40   -2.56   24.07          24.21   96.07           0.30    0.33    0.61    0.32            0.96    0.94    0.48           0.64     0.78
D10        45.08   47.94   13.60          74.78   -3.26   46.86          46.98   93.98           0.28    0.32    0.92    0.31            1.06    0.97    0.33           0.71     0.81
D11        44.85   48.07    6.79          74.87   -4.28   69.68          69.81   93.52           0.28    0.32    1.37    0.30            0.91    0.80    0.13           0.67     0.81
D12        43.90   47.24    3.00          74.34   -4.76   89.49          89.62   93.04           0.31    0.32    2.02    0.31            0.83    0.68    0.07           0.62     0.78
D13        50.59   60.54   61.26          82.13  -19.70  -11.90          23.01  211.14           0.42    0.15    0.14    0.24            0.77    0.64    0.29           0.61     0.73
D14        55.56   45.45   50.84          73.19   31.64  -16.41          35.64  332.59           0.12    0.47    0.20    0.32            0.46    0.55    0.33           0.52     0.60
D15        66.65   69.48   23.19          86.74   -0.76   46.14          46.15   90.94           0.10    0.17    0.65    0.14            0.61    0.59    0.43           0.39     0.48
D16        33.36   35.19   28.08          65.89   -2.01    1.58           2.57  141.03           0.46    0.46    0.50    0.46            0.86    0.79    0.61           0.79     0.88
D17        49.40   41.05   24.12          70.21   28.50   15.91          32.65   29.17           0.13    0.53    0.57    0.35            0.45    0.50    0.53           0.57     0.65
D18        44.34   55.05   27.70          79.07  -23.87   24.93          34.51  133.76           0.42    0.19    0.55    0.27            0.69    0.61    0.51           0.53     0.66
D19        37.95   38.44   51.98          68.34    2.88  -26.03          26.20  276.31           0.46    0.42    0.19    0.43            0.72    0.75    0.36           0.75     0.87
D20         2.84    2.90    1.01          19.65    0.69   15.39          15.41   87.45           1.46    1.58    2.13    1.52            0.09    0.07    0.03           0.42     0.50
D21        29.68   27.58    1.40          59.51   12.14   78.84          79.77   81.25           0.40    0.64    2.43    0.52            0.67    0.58    0.03           0.68     0.87
D22        38.74   42.83   54.98          71.44   -7.95  -23.93          25.21  251.62           0.52    0.33    0.17    0.39            0.71    0.75    0.29           0.67     0.80
E1          5.27    6.16    3.32          29.81   -7.76   10.44          13.01  126.62           1.29    1.19    1.54    1.22            0.12    0.11    0.02           0.53     0.64
E2          4.89    6.23    2.10          29.98  -13.10   20.41          24.25  122.69           1.36    1.15    1.82    1.22            0.13    0.14    0.04           0.50     0.59
E3          4.61    6.30    1.22          30.15  -17.52   30.54          35.21  119.84           1.44    1.11    2.21    1.22            0.13    0.15    0.04           0.35     0.44
E4          3.98    6.22    0.47          29.96  -25.30   42.79          49.71  120.60           1.68    1.06    3.13    1.23            0.12    0.17    0.01           0.53     0.72
E5         23.62   27.48   14.17          59.41  -12.21   18.85          22.46  122.94           0.64    0.53    0.86    0.57            0.55    0.56    0.30           0.60     0.75
E6         21.61   27.42    8.80          59.36  -21.13   35.10          40.97  121.05           0.72    0.50    1.14    0.57            0.48    0.49    0.12           0.58     0.73
E7         19.71   27.52    4.86          59.45  -30.70   52.30          60.65  120.41           0.83    0.46    1.55    0.58            0.42    0.43    0.06           0.58     0.73
E8         18.55   27.66    2.84          59.58  -37.17   65.24          75.09  119.67           0.93    0.43    2.01    0.58            0.37    0.38    0.04           0.50     0.63
E9         42.86   47.31   30.95          74.38   -8.03   11.61          14.12  124.64           0.37    0.31    0.47    0.33            0.92    0.89    0.59           0.69     0.81
E10        40.41   47.13   23.97          74.27  -14.94   23.20          27.60  122.78           0.41    0.29    0.61    0.33            0.89    0.88    0.46           0.62     0.75
E11        38.59   46.91   18.46          74.13  -20.03   33.99          39.45  120.51           0.45    0.27    0.76    0.34            0.85    0.84    0.31           0.65     0.79
E12        36.79   47.36   13.71          74.42  -27.07   45.95          53.34  120.50           0.50    0.25    0.94    0.33            0.81    0.73    0.32           0.77     0.88
E13        45.80   56.73   60.63          80.03  -23.78  -14.91          28.07  212.09           0.51    0.17    0.14    0.28            0.65    0.55    0.18           0.57     0.69
E14        49.60   37.57   46.73          67.70   39.83  -21.15          45.10  332.03           0.14    0.61    0.22    0.39            0.39    0.45    0.29           0.48     0.57
E15        65.46   67.77   17.63          85.89    0.27   56.12          56.12   89.73           0.10    0.18    0.80    0.15            0.54    0.51    0.26           0.31     0.35
E16        24.03   25.49   20.41          57.55   -2.40    1.27           2.73  152.05           0.61    0.60    0.65    0.60            0.66    0.65    0.42           0.70     0.82
E17        42.42   32.56   16.66          63.81   36.28   20.26          41.55   29.19           0.15    0.69    0.73    0.43            0.38    0.43    0.34           0.53     0.62
E18        38.46   49.84   21.22          75.97  -28.36   31.39          42.31  132.09           0.50    0.22    0.69    0.32            0.59    0.55    0.38           0.48     0.58
E19        29.52   29.29   47.91          61.03    4.95  -34.03          34.39  278.27           0.60    0.54    0.22    0.56            0.55    0.56    0.34           0.68     0.80
E20         6.85    8.30    1.24          34.60  -11.04   37.89          39.46  106.25           1.19    1.04    2.23    1.08            0.18    0.19    0.03           0.49     0.58
E21        23.85   28.83    5.97          60.63  -16.45   48.79          51.49  108.63           0.64    0.49    1.39    0.54            0.49    0.48    0.06           0.66     0.81
E22         8.59   18.50   12.81          50.09  -61.56    6.47          61.90  174.00           1.85    0.51    0.94    0.81            0.14    0.23    0.19           0.31     0.36
F1          3.51    4.48    3.04          25.21  -11.96    4.51          12.78  159.33           1.54    1.30    1.57    1.37            0.09    0.10    0.03           0.50     0.59
F2          2.83    4.42    2.55          25.00  -22.46    7.94          23.83  160.53           1.78    1.24    1.69    1.40            0.08    0.11    0.05           0.45     0.53
F3          2.36    4.35    2.14          24.81  -30.74   11.13          32.69  160.10           2.01    1.19    1.81    1.42            0.08    0.12    0.05           0.45     0.54
F4          1.52    4.34    1.41          24.76  -50.33   18.83          53.74  159.49           2.83    1.09    2.18    1.45            0.04    0.12    0.05           0.47     0.64
F5         11.19   14.45    9.68          44.87  -18.46    7.04          19.76  159.14           1.06    0.77    1.02    0.87            0.25    0.27    0.21           0.48     0.60
F6          9.22   14.60    8.20          45.07  -34.58   12.67          36.83  159.89           1.31    0.70    1.14    0.88            0.27    0.35    0.22           0.51     0.59
F7          7.45   14.65    6.80          45.14  -50.63   18.37          53.86  160.06           1.65    0.64    1.28    0.90            0.22    0.36    0.18           0.51     0.60
F8          5.82   14.44    5.41          44.85  -66.19   24.27          70.50  159.86           2.12    0.59    1.46    0.92            0.09    0.18    0.09           0.31     0.36
F9         28.36   33.22   24.12          64.34  -13.77    5.79          14.95  157.20           0.60    0.44    0.58    0.49            0.73    0.75    0.52           0.69     0.83
F10        25.31   33.09   22.02          64.23  -25.72    9.57          27.44  159.59           0.73    0.40    0.64    0.51            0.60    0.65    0.45           0.64     0.76
F11        22.71   33.18   20.29          64.30  -37.35   13.16          39.60  160.59           0.87    0.36    0.70    0.52            0.53    0.62    0.37           0.56     0.68
F12        20.16   33.43   18.18          64.51  -50.27   18.02          53.41  160.28           1.04    0.32    0.77    0.52            0.39    0.44    0.33           0.45     0.56
F13        41.33   52.98   59.80          77.86  -27.58  -17.81          32.83  212.85           0.61    0.18    0.15    0.32            0.51    0.45    0.18           0.47     0.56
F14        44.00   30.83   42.57          62.36   47.17  -25.30          53.53  331.80           0.17    0.76    0.26    0.47            0.35    0.37    0.28           0.40     0.50
F15        64.61   66.23   13.55          85.11    1.69   64.81          64.83   88.50           0.09    0.20    0.96    0.16            0.58    0.55    0.21           0.30     0.34
F16        16.87   18.06   14.36          49.56   -2.97    1.37           3.28  155.21           0.76    0.75    0.81    0.75            0.46    0.46    0.31           0.65     0.75
F17        36.49   25.88   11.26          57.92   43.02   24.50          49.51   29.66           0.18    0.86    0.91    0.52            0.28    0.27    0.26           0.43     0.49
