targets/wolf_faust/reflective/R010315WhiteBacking.it8
IT8.7/2
ORIGINATOR "Wolf Faust"
DESCRIPTOR "L* a* b* Batch average data (light D50, viewing angle 2, white backing)"
MANUFACTURER "Wolf Faust - http://www.coloraid.de"
CREATED "March 15, 2001"
PROD_DATE "2001:03"
SERIAL "5x7 R010315"
MATERIAL "Kodak Professional Digital 3"
KEYWORD "MEAN_DE" # Mean Delta E of samples compared to batch average
NUMBER_OF_FIELDS 17
BEGIN_DATA_FORMAT
SAMPLE_ID   XYZ_X   XYZ_Y   XYZ_Z          LAB_L   LAB_A   LAB_B          LAB_C   LAB_H          STDEV_X  STDEV_Y  STDEV_Z          STDEV_L  STDEV_A  STDEV_B        MEAN_DE  STDEV_DE
END_DATA_FORMAT
NUMBER_OF_SETS 288
BEGIN_DATA
A1           3.11    2.60    1.90          18.37   10.95    2.32          11.20   11.96            0.07     0.06     0.03            0.27     0.36     0.31           0.49    0.55
A2           3.96    2.67    1.65          18.68   22.93    5.52          23.59   13.55            0.09     0.07     0.04            0.28     0.36     0.23           0.45    0.51
A3           6.04    3.56    1.78          22.18   34.03   10.19          35.52   16.67            0.09     0.05     0.02            0.17     0.37     0.19           0.39    0.45
A4           4.30    2.68    1.55          18.72   27.69    6.66          28.48   13.51            0.06     0.04     0.02            0.15     0.25     0.25           0.34    0.39
A5          11.62   10.05    7.05          37.92   14.54    4.85          15.34   18.48            0.16     0.15     0.14            0.27     0.44     0.39           0.56    0.65
A6          14.36   10.49    6.22          38.71   29.18    9.84          30.80   18.64            0.15     0.14     0.10            0.25     0.41     0.47           0.60    0.68
A7          17.23   10.82    5.35          39.28   43.35   14.97          45.87   19.06            0.16     0.14     0.10            0.23     0.40     0.38           0.52    0.60
A8          21.55   11.16    4.50          39.85   62.68   20.43          65.92   18.05            0.23     0.15     0.05            0.25     0.19     0.45           0.47    0.55
A9          40.92   40.03   31.24          69.49    7.23    2.70           7.73   20.47            0.31     0.32     0.32            0.23     0.19     0.27           0.32    0.41
A10         43.10   39.95   29.98          69.43   14.06    4.56          14.79   17.98            0.31     0.35     0.24            0.25     0.24     0.30           0.40    0.46
A11         45.90   40.41   28.90          69.76   20.75    6.87          21.86   18.33            0.29     0.35     0.23            0.25     0.27     0.32           0.41    0.48
A12         49.58   40.77   27.19          70.01   29.82   10.14          31.50   18.78            0.27     0.32     0.22            0.22     0.26     0.45           0.43    0.57
A13         81.71   85.14   71.78          93.94   -0.73   -1.39           1.57   242.08            0.21     0.22     0.15            0.09     0.03     0.17           0.17    0.20
A14         80.46   82.82   71.22          92.94    1.17   -2.62           2.87   294.12            0.25     0.27     0.25            0.12     0.05     0.12           0.16    0.18
A15         81.05   84.74   68.41          93.77   -1.27    1.35           1.86   133.28            0.24     0.25     0.13            0.11     0.03     0.17           0.17    0.20
A16         79.65   82.15   67.70          92.64    0.86    0.06           0.88   84.04            0.22     0.23     0.20            0.10     0.04     0.15           0.16    0.18
A17         79.59   82.08   67.73          92.61    0.88   -0.02           0.89   225.50            0.25     0.25     0.20            0.11     0.04     0.11           0.14    0.16
A18         81.00   84.70   68.31          93.75   -1.29    1.42           1.92   132.33            0.26     0.26     0.16            0.11     0.04     0.15           0.15    0.19
A19         80.36   82.62   71.15          92.85    1.36   -2.71           3.03   296.77            0.20     0.21     0.25            0.09     0.07     0.18           0.18    0.22
A20          1.14    0.95    0.66           8.57    8.10    2.30           8.43   15.81            0.03     0.02     0.01            0.18     0.17     0.29           0.33    0.38
A21          4.74    3.01    0.70          20.09   27.64   21.50          35.02   37.88            0.06     0.05     0.02            0.20     0.36     0.52           0.56    0.66
A22         10.06    5.73    0.79          28.73   42.62   34.70          54.96   39.15            0.10     0.07     0.01            0.17     0.27     0.38           0.45    0.50
B1           2.96    2.59    1.56          18.33    8.64    5.91          10.48   34.37            0.07     0.07     0.02            0.30     0.33     0.34           0.50    0.56
B2           3.56    2.69    0.97          18.74   16.79   14.39          22.12   40.60            0.08     0.06     0.01            0.27     0.36     0.39           0.51    0.59
B3           5.08    3.41    0.79          21.64   25.22   22.34          33.69   41.54            0.07     0.05     0.01            0.19     0.33     0.33           0.46    0.51
B4           4.13    2.71    0.62          18.85   24.67   20.82          32.29   40.17            0.08     0.06     0.01            0.27     0.36     0.48           0.59    0.66
B5          11.82   10.14    5.17          38.10   15.16   13.83          20.52   42.38            0.15     0.14     0.09            0.24     0.34     0.18           0.41    0.46
B6          14.09   10.48    3.61          38.69   27.65   23.79          36.48   40.72            0.16     0.15     0.04            0.27     0.47     0.34           0.57    0.64
B7          17.22   11.06    2.25          39.69   41.56   35.83          54.88   40.76            0.14     0.13     0.03            0.22     0.44     0.34           0.52    0.60
B8          21.30   11.39    0.91          40.22   59.93   52.43          79.63   41.18            0.19     0.15     0.01            0.25     0.19     0.41           0.43    0.52
B9          40.93   40.20   29.17          69.61    6.77    6.17           9.17   42.35            0.21     0.24     0.20            0.17     0.26     0.32           0.33    0.44
B10         42.50   39.86   25.74          69.37   12.54   11.53          17.04   42.61            0.21     0.24     0.24            0.17     0.32     0.36           0.45    0.52
B11         45.02   40.19   22.90          69.61   18.91   17.12          25.51   42.15            0.23     0.30     0.21            0.21     0.35     0.37           0.48    0.56
B12         48.44   40.53   19.61          69.84   27.46   24.11          36.55   41.28            0.25     0.27     0.18            0.19     0.17     0.35           0.37    0.44
B13         71.72   77.94   69.76          90.75   -7.10   -5.08           8.73   215.54            0.20     0.19     0.18            0.09     0.09     0.18           0.18    0.22
B14         75.23   73.68   68.50          88.77    8.71   -7.35          11.40   319.86            0.26     0.30     0.20            0.14     0.13     0.17           0.21    0.26
B15         78.79   83.17   57.60          93.09   -2.77   10.66          11.01   104.55            0.24     0.25     0.18            0.11     0.04     0.23           0.20    0.26
B16         63.15   65.36   53.69          84.67    0.30    0.25           0.47   117.08            0.25     0.26     0.29            0.13     0.17     0.27           0.30    0.34
B17         71.87   70.96   54.89          87.47    7.36    3.78           8.28   27.17            0.25     0.28     0.21            0.13     0.08     0.20           0.21    0.26
B18         68.91   76.08   56.28          89.90   -9.42    6.52          11.45   145.33            0.22     0.20     0.32            0.09     0.12     0.25           0.25    0.30
B19         65.79   67.22   66.45          85.61    2.19  -10.89          11.11   281.34            0.25     0.27     0.18            0.14     0.09     0.16           0.19    0.23
B20          2.55    1.82    0.65          14.50   17.49   12.73          21.63   36.04            0.05     0.04     0.01            0.23     0.27     0.36           0.46    0.50
B21          8.18    4.78    0.77          26.10   38.23   30.53          48.93   38.61            0.08     0.06     0.01            0.19     0.31     0.32           0.44    0.48
B22         28.19   23.69   11.00          55.78   22.48   21.59          31.17   43.85            0.25     0.27     0.16            0.28     0.42     0.35           0.53    0.62
C1           3.96    3.86    2.12          23.19    3.60    8.57           9.31   67.21            0.08     0.08     0.03            0.27     0.46     0.34           0.56    0.63
C2           4.34    3.99    1.28          23.62    7.03   18.38          19.69   69.06            0.10     0.09     0.02            0.31     0.38     0.42           0.59    0.64
C3           5.51    4.66    0.90          25.74   12.61   27.63          30.37   65.48            0.10     0.10     0.01            0.29     0.51     0.36           0.60    0.69
C4           4.43    3.81    0.83          23.04   10.78   24.23          26.52   66.00            0.07     0.05     0.01            0.18     0.45     0.37           0.55    0.61
C5          22.81   21.61    9.71          53.61    9.17   22.01          23.84   67.37            0.20     0.23     0.12            0.25     0.37     0.23           0.41    0.50
C6          25.31   22.22    5.28          54.26   17.28   41.13          44.61   67.21            0.20     0.19     0.06            0.20     0.33     0.29           0.43    0.49
C7          28.16   23.03    2.40          55.11   25.24   61.05          66.06   67.54            0.26     0.28     0.03            0.29     0.33     0.35           0.46    0.56
C8          28.34   22.18    1.60          54.21   29.79   67.29          73.59   66.12            0.18     0.20     0.02            0.21     0.32     0.41           0.50    0.56
C9          47.46   47.72   32.19          74.65    4.07   10.14          10.93   68.14            0.25     0.24     0.24            0.15     0.22     0.25           0.30    0.36
C10         49.33   48.15   26.43          74.92    8.00   19.90          21.45   68.10            0.29     0.33     0.18            0.21     0.25     0.31           0.38    0.45
C11         51.18   48.33   21.41          75.03   12.45   29.38          31.91   67.03            0.27     0.32     0.15            0.20     0.20     0.32           0.36    0.43
C12         53.62   48.65   16.13          75.23   17.93   41.22          44.95   66.49            0.21     0.26     0.12            0.16     0.15     0.35           0.33    0.41
C13         62.23   70.63   67.46          87.30  -13.19   -8.92          15.92   214.05            0.31     0.30     0.24            0.15     0.17     0.13           0.24    0.26
C14         69.23   63.79   65.00          83.86   17.29  -12.56          21.37   324.01            0.27     0.32     0.24            0.17     0.17     0.18           0.25    0.30
C15         76.64   81.46   47.47          92.34   -3.80   20.43          20.78   100.53            0.23     0.24     0.25            0.10     0.03     0.27           0.24    0.29
C16         48.87   50.48   41.56          76.36    0.53    0.11           0.61   216.35            0.27     0.27     0.26            0.17     0.25     0.26           0.34    0.39
C17         63.98   59.96   43.15          81.82   14.49    7.51          16.32   27.39            0.23     0.28     0.25            0.15     0.16     0.37           0.35    0.43
C18         57.67   67.36   45.42          85.68  -17.02   11.40          20.48   146.19            0.24     0.23     0.25            0.11     0.15     0.17           0.23    0.26
C19         53.06   53.44   61.18          78.13    3.99  -18.74          19.16   282.03            0.31     0.33     0.23            0.19     0.28     0.21           0.33    0.40
C20          1.52    1.27    0.62          11.07    8.74    7.46          11.49   40.47            0.02     0.03     0.02            0.21     0.34     0.25           0.39    0.47
C21         22.49   16.74    4.42          47.93   32.22   34.82          47.44   47.22            0.20     0.23     0.07            0.29     0.48     0.38           0.58    0.67
C22         34.10   30.85   15.92          62.37   15.76   19.55          25.11   51.12            0.23     0.27     0.18            0.23     0.37     0.37           0.49    0.57
D1           3.65    3.83    2.16          23.11   -0.63    8.04           8.08   94.36            0.07     0.07     0.02            0.24     0.48     0.40           0.60    0.67
D2           3.71    3.94    1.35          23.46   -1.36   17.22          17.28   94.52            0.07     0.08     0.02            0.27     0.47     0.40           0.59    0.67
D3           4.46    4.70    1.00          25.86   -0.92   26.22          26.24   92.01            0.07     0.08     0.01            0.23     0.43     0.42           0.55    0.64
D4           3.57    3.75    0.90          22.82   -0.71   22.61          22.63   91.80            0.05     0.06     0.01            0.22     0.48     0.35           0.53    0.63
D5          25.56   26.61   12.84          58.61   -0.40   21.06          21.07   91.09            0.19     0.20     0.13            0.19     0.30     0.20           0.35    0.40
D6          25.53   26.68    7.10          58.68   -0.83   40.46          40.47   91.18            0.21     0.25     0.07            0.23     0.30     0.23           0.39    0.44
D7          25.71   27.39    3.67          59.34   -2.92   58.99          59.07   92.84            0.25     0.26     0.03            0.24     0.27     0.37           0.44    0.51
D8          25.11   26.11    2.07          58.15   -0.29   69.29          69.30   90.24            0.08     0.09     0.02            0.08     0.22     0.21           0.29    0.32
D9          54.15   56.44   37.87          79.86   -0.68   11.00          11.03   93.52            0.16     0.19     0.18            0.11     0.25     0.29           0.31    0.40
D10         54.43   56.76   30.12          80.04   -0.73   22.63          22.65   91.86            0.28     0.30     0.26            0.17     0.17     0.16           0.27    0.29
D11         54.20   56.55   24.04          79.93   -0.85   32.78          32.80   91.48            0.21     0.21     0.22            0.12     0.18     0.31           0.33    0.38
D12         54.34   57.50    5.22          80.46   -2.79   86.60          86.65   91.85            0.15     0.15     0.04            0.08     0.12     0.22           0.23    0.26
D13         53.47   63.44   64.83          83.68  -18.84  -12.71          22.72   214.02            0.24     0.23     0.18            0.12     0.17     0.14           0.22    0.25
D14         63.61   55.03   61.42          79.06   25.53  -17.38          30.88   325.75            0.36     0.42     0.26            0.24     0.23     0.21           0.30    0.40
D15         74.56   79.52   38.03          91.47   -4.30   30.79          31.08   97.94            0.29     0.29     0.27            0.13     0.02     0.37           0.32    0.40
D16         37.18   38.51   31.21          68.39    0.17    0.85           0.94   73.07            0.21     0.24     0.21            0.18     0.34     0.35           0.44    0.52
D17         56.74   50.40   33.00          76.32   21.09   11.80          24.17   29.23            0.26     0.31     0.17            0.19     0.19     0.36           0.37    0.44
D18         47.56   58.83   35.71          81.20  -23.88   16.28          28.91   145.71            0.24     0.22     0.23            0.12     0.18     0.16           0.22    0.27
D19         42.35   41.94   55.69          70.83    5.79  -25.74          26.39   282.66            0.22     0.23     0.14            0.16     0.35     0.20           0.37    0.43
D20         13.17    9.94    2.58          37.73   25.89   29.61          39.34   48.83            0.14     0.15     0.03            0.27     0.50     0.41           0.57    0.70
D21         20.61   19.83   10.80          51.64    7.39   15.06          16.79   63.87            0.21     0.21     0.16            0.24     0.40     0.39           0.53    0.61
D22         37.80   35.81   19.13          66.38   10.86   19.16          22.03   60.45            0.22     0.27     0.13            0.21     0.32     0.30           0.43    0.48
E1           3.35    3.85    2.21          23.16   -5.69    7.69           9.57   126.43            0.05     0.06     0.03            0.21     0.50     0.34           0.57    0.64
E2           3.09    3.90    1.34          23.33  -10.62   17.20          20.21   121.69            0.06     0.07     0.02            0.24     0.35     0.36           0.49    0.55
E3           3.55    4.75    1.08          25.99  -14.66   25.23          29.19   120.16            0.05     0.06     0.02            0.18     0.38     0.47           0.53    0.63
E4           2.90    3.78    0.99          22.94  -12.27   21.41          24.68   119.82            0.03     0.04     0.03            0.15     0.39     0.43           0.51    0.60
E5          11.21   12.82    6.84          42.49   -8.05   13.60          15.81   120.59            0.10     0.08     0.08            0.13     0.44     0.28           0.46    0.54
E6          10.57   13.37    4.27          43.32  -16.34   27.71          32.17   120.52            0.14     0.14     0.04            0.21     0.34     0.29           0.43    0.49
E7           9.77   13.95    2.64          44.16  -26.25   40.25          48.05   123.11            0.12     0.15     0.05            0.21     0.25     0.31           0.40    0.45
E8           9.01   13.27    1.74          43.16  -28.11   46.73          54.53   121.04            0.03     0.04     0.02            0.06     0.25     0.21           0.28    0.33
E9          37.44   40.29   27.18          69.67   -4.52    9.58          10.60   115.28            0.26     0.25     0.30            0.18     0.27     0.34           0.40    0.47
E10         35.44   39.42   22.64          69.05   -8.43   16.66          18.67   116.83            0.21     0.21     0.15            0.15     0.23     0.30           0.35    0.41
E11         34.29   39.41   18.42          69.05  -12.36   25.31          28.17   116.03            0.20     0.21     0.13            0.15     0.28     0.29           0.39    0.43
E12         30.30   40.73    8.80          69.98  -30.68   53.38          61.57   119.89            0.22     0.22     0.08            0.16     0.18     0.22           0.26    0.32
E13         45.44   56.34   61.74          79.81  -23.87  -16.40          28.97   214.49            0.27     0.28     0.25            0.16     0.17     0.12           0.23    0.26
E14         57.76   46.59   57.26          73.92   33.90  -22.04          40.44   326.97            0.23     0.25     0.30            0.16     0.20     0.23           0.28    0.35
E15         72.64   77.47   30.06          90.54   -4.26   40.83          41.05   95.95            0.11     0.11     0.23            0.05     0.03     0.38           0.30    0.38
E16         27.45   28.36   22.93          60.21    0.43    0.87           1.06   61.62            0.23     0.23     0.22            0.21     0.39     0.32           0.48    0.55
E17         49.93   41.75   24.73          70.70   27.81   15.63          31.90   29.33            0.22     0.27     0.19            0.18     0.23     0.30           0.35    0.42
E18         38.51   50.57   27.63          76.42  -30.14   20.44          36.42   145.86            0.24     0.24     0.29            0.15     0.18     0.33           0.35    0.40
E19         33.13   31.96   49.85          63.31    8.36  -32.36          33.42   284.49            0.21     0.22     0.15            0.18     0.37     0.21           0.38    0.46
E20         23.74   16.01    1.19          46.99   41.88   59.85          73.05   55.01            0.19     0.20     0.02            0.26     0.36     0.45           0.51    0.63
E21         16.59   13.76    2.69          43.89   19.93   39.39          44.15   63.17            0.15     0.16     0.04            0.23     0.46     0.28           0.52    0.59
E22         28.77   24.62    7.41          56.70   20.75   35.80          41.38   59.90            0.16     0.17     0.08            0.17     0.34     0.39           0.46    0.55
F1           1.41    1.75    1.23          14.09   -7.58    2.71           8.06   160.38            0.03     0.04     0.01            0.24     0.41     0.33           0.50    0.57
F2           1.02    1.65    0.94          13.52  -17.65    5.81          18.58   161.79            0.02     0.04     0.02            0.23     0.33     0.30           0.45    0.50
F3           1.27    2.33    1.24          17.14  -24.83    7.82          26.03   162.52            0.03     0.04     0.02            0.19     0.31     0.33           0.42    0.49
F4           0.99    1.62    0.89          13.35  -18.01    6.32          19.09   160.66            0.03     0.04     0.03            0.23     0.55     0.38           0.58    0.71
F5           5.92    7.44    5.12          32.79  -13.06    4.93          13.96   159.32            0.04     0.07     0.04            0.14     0.39     0.26           0.44    0.49
F6           5.01    7.66    4.40          33.27  -25.79    9.64          27.54   159.50            0.07     0.09     0.06            0.20     0.35     0.37           0.49    0.54
F7           4.53    8.60    3.84          35.20  -40.22   16.33          43.41   157.90            0.06     0.09     0.04            0.17     0.20     0.29           0.34    0.40
F8           3.34    7.95    3.17          33.88  -51.97   18.49          55.16   160.41            0.04     0.06     0.03            0.13     0.15     0.22           0.27    0.30
F9          36.67   40.00   31.22          69.47   -6.14    2.69           6.71   156.38            0.22     0.22     0.24            0.15     0.32     0.28           0.40    0.45
F10         35.15   40.01   30.02          69.48  -11.25    4.57          12.14   157.88            0.22     0.23     0.19            0.17     0.27     0.23           0.34    0.39
F11         32.85   39.42   28.46          69.06  -17.39    6.38          18.53   159.87            0.27     0.30     0.35            0.21     0.20     0.30           0.38    0.42
F12         26.89   39.28   24.07          68.95  -39.52   13.82          41.87   160.73            0.21     0.21     0.20            0.15     0.22     0.29           0.32    0.39
F13         37.38   48.80   58.02          75.33  -29.08  -20.41          35.53   215.06            0.18     0.18     0.14            0.12     0.15     0.15           0.21    0.25
F14         52.28   39.19   53.06          68.89   41.81  -26.28          49.38   327.85            0.25     0.28     0.22            0.20     0.27     0.19           0.30    0.39
F15         70.79   75.23   23.10          89.50   -3.67   51.04          51.17   94.12            0.08     0.07     0.19            0.03     0.05     0.37           0.28    0.37
F16         19.24   19.99   16.09          51.83   -0.20    0.97           1.04   98.49            0.16     0.17     0.15            0.19     0.39     0.32           0.46    0.54
F17         43.75   34.30   17.78          65.20   34.22   20.07          39.67   30.39            0.22     0.26     0.13            0.21     0.29     0.48           0.47    0.60
F18         30.12   42.39   20.80          71.14  -36.36   23.90          43.51   146.69            0.24     0.25     0.23            0.17     0.19     0.25           0.29    0.36
F19         24.83   23.30   43.75          55.38   10.44  -38.83          40.21   285.04            0.19     0.25     0.19            0.25     0.39     0.22           0.42    0.51
