targets/wolf_faust/reflective/R011220.it8
IT8.7/2
ORIGINATOR "Wolf Faust"
DESCRIPTOR "L* a* b* Batch average data (light D50, viewing angle 2)"
MANUFACTURER "Wolf Faust - http://www.coloraid.de"
CREATED "January 07, 2002"
PROD_DATE "2001:12"
SERIAL "DIN A4  R011220"
MATERIAL "Kodak Professional Digital 3 - Non-Glossy"
NUMBER_OF_FIELDS 9
BEGIN_DATA_FORMAT
SAMPLE_ID   XYZ_X   XYZ_Y   XYZ_Z          LAB_L   LAB_A   LAB_B          LAB_C   LAB_H
END_DATA_FORMAT
NUMBER_OF_SETS 288
BEGIN_DATA
A1           3.25    2.71    1.94          18.86   11.18    2.87          11.55   14.41
A2           4.07    2.73    1.60          18.91   23.59    6.54          24.49   15.48
A3           5.79    3.42    1.75          21.67   33.38    9.60          34.73   16.05
A4           4.28    2.66    1.46          18.62   27.73    7.59          28.75   15.32
A5          11.97   10.30    7.42          38.38   15.04    4.16          15.61   15.47
A6          14.57   10.64    6.33          38.96   29.43    9.79          31.02   18.41
A7          17.48   11.01    5.44          39.60   43.31   15.07          45.86   19.18
A8          21.27   11.03    4.46          39.62   62.35   20.27          65.56   18.01
A9          40.60   39.52   30.52          69.13    7.84    3.20           8.46   22.23
A10         43.00   39.75   29.41          69.29   14.36    5.25          15.30   20.09
A11         45.48   39.89   28.20          69.39   21.12    7.39          22.38   19.30
A12         48.81   40.26   26.82          69.66   29.31   10.18          31.04   19.16
A13         79.77   83.22   69.20          93.11   -0.93   -0.48           1.06   207.49
A14         78.29   80.47   68.53          91.89    1.40   -1.97           2.42   305.55
A15         79.28   82.89   66.66          92.97   -1.28    1.62           2.06   128.88
A16         77.52   79.69   65.84          91.55    1.36   -0.08           1.37   177.00
A17         77.59   79.78   65.85          91.58    1.34   -0.02           1.34   178.99
A18         79.34   82.98   66.51          93.00   -1.31    1.81           2.25   126.19
A19         78.25   80.22   68.42          91.78    1.81   -2.05           2.73   311.23
A20          1.09    0.93    0.70           8.38    6.94    1.23           7.05   10.05
A21          4.72    3.00    0.75          20.05   27.52   20.41          34.27   36.56
A22          9.84    5.63    0.80          28.47   42.01   33.95          54.00   38.94
B1           3.12    2.73    1.54          18.94    8.63    7.19          11.23   39.81
B2           3.67    2.75    0.97          19.00   17.27   14.93          22.84   40.82
B3           3.88    2.71    0.80          18.82   21.20   17.31          27.37   39.23
B4           4.31    2.95    0.80          19.84   22.99   19.20          29.96   39.88
B5          12.06   10.32    5.45          38.41   15.50   12.98          20.22   39.94
B6          14.38   10.71    3.61          39.08   27.68   24.54          37.00   41.56
B7          17.45   11.14    2.13          39.81   42.27   37.17          56.29   41.34
B8          20.88   11.14    0.95          39.81   59.66   51.13          78.56   40.59
B9          40.67   39.81   28.44          69.33    7.17    6.89           9.95   43.86
B10         42.74   39.89   25.65          69.40   13.15   11.77          17.66   41.81
B11         44.98   40.21   23.09          69.62   18.74   16.80          25.17   41.86
B12         47.84   40.33   19.27          69.69   26.47   24.59          36.13   42.89
B13         70.87   76.81   67.53          90.23   -6.70   -3.90           7.75   210.22
B14         74.00   72.86   66.40          88.38    7.87   -6.05           9.93   322.42
B15         76.94   81.15   56.25          92.20   -2.59   10.54          10.85   103.85
B16         63.78   66.16   53.47          85.08   -0.04    1.21           1.22   91.81
B17         70.38   69.68   53.33          86.84    6.93    4.39           8.21   32.41
B18         67.89   74.58   54.70          89.19   -8.61    7.00          11.10   140.96
B19         65.22   66.60   64.35          85.30    2.25   -9.44           9.70   283.43
B20          2.51    1.79    0.70          14.39   17.25   11.45          20.71   33.57
B21          7.92    4.65    0.80          25.73   37.47   29.37          47.60   38.09
B22         28.34   23.72   11.09          55.81   22.91   21.35          31.32   42.97
C1           4.14    4.02    2.09          23.72    3.88    9.71          10.46   68.20
C2           4.35    3.96    1.30          23.52    7.63   18.00          19.56   67.02
C3           5.17    4.50    1.06          25.25   10.70   24.27          26.54   66.22
C4           4.50    3.98    1.03          23.59    9.39   21.87          23.80   66.77
C5          22.91   21.70   10.18          53.70    9.24   20.62          22.59   65.87
C6          25.36   22.10    5.19          54.13   18.04   41.42          45.19   66.47
C7          28.06   22.70    2.34          54.76   26.36   60.94          66.39   66.61
C8          28.61   22.57    1.85          54.63   29.04   65.47          71.63   66.08
C9          47.53   47.56   31.34          74.55    4.67   11.29          12.22   67.54
C10         49.17   47.86   25.97          74.73    8.38   20.41          22.06   67.67
C11         50.48   47.70   20.88          74.64   12.29   29.77          32.22   67.57
C12         52.80   48.25   15.99          74.98   16.89   41.13          44.47   67.67
C13         62.00   69.97   65.54          86.98  -12.32   -7.66          14.51   211.88
C14         68.54   63.72   63.27          83.82   15.98  -10.95          19.37   325.57
C15         74.88   79.41   46.88          91.42   -3.45   19.58          19.88   100.01
C16         50.04   51.70   41.67          77.10    0.51    1.25           1.36   68.14
C17         63.05   59.38   42.63          81.50   13.73    7.63          15.71   29.06
C18         57.39   66.30   44.92          85.15  -15.40   11.09          18.98   144.26
C19         53.34   53.74   59.59          78.31    3.92  -16.83          17.29   283.13
C20          1.49    1.29    0.70          11.16    7.53    5.93           9.59   38.24
C21         22.53   16.64    4.28          47.81   32.95   35.44          48.39   47.08
C22         34.45   30.97   16.26          62.48   16.50   18.94          25.12   48.93
D1           3.76    3.96    2.13          23.53   -0.77    9.13           9.17   94.81
D2           3.71    3.92    1.31          23.38   -1.06   17.72          17.75   93.44
D3           4.53    4.76    1.17          26.02   -0.75   23.96          23.97   91.78
D4           3.75    3.95    1.10          23.49   -0.82   20.73          20.76   92.25
D5          25.74   26.79   13.07          58.78   -0.39   20.73          20.73   91.06
D6          25.72   26.94    7.22          58.92   -1.06   40.35          40.36   91.52
D7          25.73   27.28    3.54          59.23   -2.38   59.65          59.70   92.28
D8          25.86   27.13    2.38          59.09   -1.25   68.20          68.22   91.05
D9          54.42   56.27   37.80          79.77    0.41   10.95          10.95   87.86
D10         54.25   56.34   29.56          79.81   -0.18   23.15          23.15   90.44
D11         54.31   56.48   23.84          79.88   -0.40   33.11          33.11   90.68
D12         54.05   57.01    5.88          80.19   -2.34   82.94          82.97   91.62
D13         52.96   62.51   62.84          83.18  -18.03  -11.64          21.47   212.84
D14         63.26   55.44   59.96          79.30   23.72  -15.50          28.34   326.83
D15         72.38   76.99   37.32          90.31   -3.85   29.80          30.04   97.37
D16         37.50   38.75   31.18          68.57    0.44    1.23           1.33   69.26
D17         56.01   50.09   32.73          76.13   20.09   11.89          23.34   30.62
D18         47.25   57.73   35.48          80.59  -22.13   15.58          27.06   144.85
D19         42.75   42.56   54.58          71.25    5.15  -23.82          24.37   282.21
D20         13.47   10.09    2.47          38.00   26.62   31.01          40.86   49.36
D21         20.78   19.97   10.94          51.81    7.52   14.94          16.73   63.27
D22         37.72   35.59   18.81          66.20   11.34   19.57          22.62   59.91
E1           3.44    3.92    2.16          23.40   -5.32    8.60          10.12   121.76
E2           3.11    3.90    1.38          23.32  -10.53   16.65          19.69   122.31
E3           3.62    4.78    1.27          26.07  -13.90   22.79          26.69   121.38
E4           2.97    3.84    1.17          23.11  -11.86   18.98          22.38   121.99
E5          11.75   13.34    7.11          43.26   -7.56   13.87          15.80   118.62
E6          10.71   13.46    4.40          43.44  -15.86   27.19          31.48   120.27
E7           9.82   13.79    2.50          43.93  -24.79   41.03          47.94   121.15
E8           9.43   13.70    2.02          43.79  -27.33   44.94          52.61   121.31
E9          36.95   39.78   26.82          69.31   -4.56    9.57          10.61   115.48
E10         35.49   39.58   22.72          69.16   -8.77   16.73          18.90   117.66
E11         34.39   39.61   18.73          69.19  -12.61   24.88          27.89   116.88
E12         29.84   39.67    8.88          69.23  -29.20   51.84          59.50   119.39
E13         44.80   55.33   59.97          79.23  -23.20  -15.62          27.97   213.94
E14         57.70   47.27   56.11          74.36   31.84  -20.07          37.63   327.76
E15         70.62   75.09   30.38          89.44   -3.76   38.45          38.64   95.59
E16         28.05   29.08   23.41          60.85    0.04    1.08           1.08   87.90
E17         49.60   41.90   25.13          70.81   26.50   15.10          30.50   29.68
E18         38.16   49.45   27.77          75.73  -28.31   19.06          34.13   146.06
E19         33.45   32.56   49.00          63.81    7.32  -30.51          31.38   283.49
E20         23.85   16.41    1.44          47.50   40.12   57.67          70.26   55.17
E21         16.50   13.54    2.46          43.56   20.89   40.68          45.73   62.83
E22         29.36   25.02    7.52          57.09   21.28   36.03          41.86   59.44
F1           1.34    1.71    1.25          13.91   -8.89    2.17           9.14   166.31
F2           1.06    1.71    1.02          13.86  -17.32    5.17          18.06   163.37
F3           1.29    2.26    1.28          16.82  -22.99    6.71          23.95   163.73
F4           1.04    1.67    1.01          13.68  -17.62    5.09          18.34   163.90
F5           6.05    7.60    5.33          33.13  -13.04    4.49          13.79   161.00
F6           4.92    7.61    4.54          33.16  -26.42    8.72          27.83   161.74
F7           4.11    7.99    3.81          33.95  -40.73   14.37          43.20   160.57
F8           3.35    7.91    3.17          33.79  -51.48   18.34          54.65   160.38
F9          36.28   39.53   30.54          69.13   -5.98    3.18           6.78   152.02
F10         34.58   39.45   29.53          69.07  -11.45    4.69          12.37   157.74
F11         32.92   39.48   28.37          69.10  -17.34    6.62          18.56   159.12
F12         27.19   39.01   24.66          68.75  -37.45   12.44          39.46   161.63
F13         37.56   48.55   56.76          75.17  -27.80  -19.36          33.88   214.85
F14         52.23   39.80   52.10          69.33   39.83  -24.47          46.75   328.44
F15         68.55   72.63   23.41          88.28   -3.22   48.37          48.48   93.81
F16         20.06   20.73   16.70          52.66    0.37    0.94           1.03   66.11
F17         43.47   34.44   18.17          65.30   32.93   19.41          38.22   30.52
F18         30.31   41.85   21.04          70.77  -34.05   22.79          40.97   146.21
F19         25.63   24.25   43.50          56.34    9.68  -36.85          38.10   284.71
F20         25.09   23.93   11.04          56.02    8.80   21.88          23.59   68.08
F21         33.34   29.93   10.13          61.60   16.47   34.41          38.15   64.43
F22         37.50   34.66   14.60          65.48   13.73   28.21          31.38   64.04
G1           2.05    2.62    2.42          18.45   -9.91   -2.33          10.20   193.29
G2           1.71    2.68    2.62          18.72  -19.09   -3.43          19.40   190.19
G3           1.78    3.15    3.21          20.63  -25.69   -4.57          26.09   190.09
G4           1.56    2.67    2.72          18.66  -23.04   -4.35          23.44   190.69
G5           8.18   10.00    9.09          37.82  -12.27   -3.08          12.65   194.11
G6           6.92    9.98    9.44          37.81  -24.08   -4.32          24.47   190.18
G7           5.93   10.49   10.23          38.71  -38.45   -5.40          38.83   188.01
G8           4.95   10.38   11.07          38.51  -49.23   -8.38          49.95   189.66
G9          36.43   39.73   33.35          69.28   -6.11   -0.85           6.17   187.93
G10         34.23   39.48   34.11          69.10  -12.77   -2.25          12.96   190.01
G11         32.63   39.61   35.44          69.19  -18.78   -4.01          19.20   192.06
G12         27.45   39.17   37.06          68.88  -36.93   -6.82          37.56   190.46
G13         30.80   41.83   53.03          70.75  -32.15  -23.02          39.54   215.61
G14         47.30   33.48   48.12          64.55   47.12  -28.20          54.92   329.10
G15         66.82   70.40   18.06          87.19   -2.32   57.40          57.45   92.31
G16         13.75   14.28   11.52          44.63   -0.12    0.79           0.82   94.70
G17         38.25   28.41   12.88          60.25   38.70   23.81          45.44   31.61
G18         23.59   34.95   15.74          65.70  -39.45   25.73          47.10   146.88
G19         19.05   17.32   37.98          48.66   12.45  -42.91          44.69   286.18
G20         34.88   33.28   13.65          64.39    9.78   28.83          30.44   71.25
G21         34.01   32.20    8.73          63.51   10.56   42.48          43.77   76.05
G22         46.89   43.40    2.72          71.82   14.64   87.32          88.53   80.48
H1           2.22    2.63    2.96          18.49   -6.44   -6.50           9.15   225.33
H2           1.98    2.65    3.95          18.57  -11.89  -13.00          17.62   227.57
H3           2.05    3.00    5.52          20.06  -16.90  -19.01          25.44   228.38
H4           1.83    2.66    4.75          18.62  -15.84  -17.52          23.62   227.88
H5           8.79   10.09   10.91          38.00   -7.72   -8.76          11.69   228.59
H6           7.75    9.91   13.91          37.69  -15.68  -17.91          23.81   228.81
H7           7.38   10.65   18.63          38.98  -24.74  -26.98          36.61   227.48
H8           6.75   10.75   23.27          39.16  -31.57  -36.06          47.93   228.80
H9          36.59   39.48   36.58          69.09   -4.80   -5.77           7.51   230.24
H10         35.48   39.48   39.75          69.09   -8.50  -10.06          13.17   229.79
H11         34.05   39.40   43.86          69.04  -13.15  -15.38          20.23   229.47
H12         31.36   39.56   52.37          69.16  -23.19  -25.06          34.14   227.22
H13         25.58   36.33   49.67          66.77  -35.49  -26.18          44.09   216.41
H14         42.47   27.73   43.99          59.64   54.38  -31.75          62.97   329.73
H15         65.20   68.11   13.57          86.06   -1.06   66.41          66.41   90.92
H16          9.35    9.67    7.88          37.25    0.19    0.40           0.48   71.41
H17         33.56   23.20    8.90          55.28   44.49   27.69          52.41   31.89
H18         18.40   29.21   11.66          60.97  -43.94   28.53          52.39   147.01
H19         14.11   12.09   32.96          41.36   16.23  -48.39          51.04   288.53
H20         39.89   40.06   14.31          69.51    4.02   35.92          36.14   83.62
H21         29.84   30.73   18.91          62.28    0.78   12.59          12.62   86.42
H22         33.97   36.73   10.45          67.08   -4.97   42.81          43.10   96.63
I1           3.82    3.92    5.20          23.39    0.68  -11.66          11.68   273.31
I2           3.84    3.92    7.95          23.39    0.91  -23.75          23.77   272.19
I3           3.92    3.88   11.42          23.30    2.46  -35.70          35.78   273.94
I4           4.17    3.94   17.41          23.46    5.30  -51.03          51.31   275.94
I5          12.94   13.35   14.11          43.28    0.43   -8.80           8.82   272.74
I6          13.09   13.28   18.45          43.18    1.86  -19.34          19.44   275.44
I7          13.14   13.27   22.91          43.17    2.23  -28.45          28.54   274.48
I8          13.40   13.49   34.09          43.50    2.54  -46.38          46.45   273.13
I9          38.67   39.78   36.50          69.31    0.99   -5.28           5.38   280.61
I10         38.88   39.88   39.92          69.38    1.36   -9.80           9.89   277.88
I11         39.03   40.02   43.96          69.48    1.43  -14.75          14.82   275.53
I12         39.16   40.16   53.43          69.58    1.38  -25.47          25.50   273.09
I13         20.76   30.90   45.84          62.42  -38.36  -29.18          48.20   217.26
I14         38.13   22.94   39.98          55.01   60.90  -34.66          70.07   330.36
I15         63.48   65.65   10.02          84.81    0.41   74.80          74.80   89.69
I16          5.72    5.95    4.89          29.28   -0.20    0.10           0.37   116.94
I17         29.67   19.12    5.73          50.83   49.51   33.00          59.50   33.70
I18         13.79   23.77    8.21          55.86  -48.28   31.20          57.48   147.13
I19         10.02    7.94   28.06          33.85   20.23  -53.64          57.32   290.65
I20         40.38   43.84   14.65          72.13   -5.75   39.55          39.96   98.27
I21         10.14   13.82    3.22          43.98  -22.57   35.59          42.14   122.38
I22         26.37   34.17   15.80          65.10  -25.06   24.56          35.08   135.58
J1           1.89    1.67    2.75          13.69    6.82  -13.18          14.84   297.36
J2           2.17    1.67    4.53          13.63   13.27  -24.93          28.23   298.02
J3           2.63    1.75    7.61          14.11   20.84  -38.42          43.71   298.47
J4           3.46    1.71   15.71          13.88   36.08  -63.52          73.05   299.59
J5          10.57   10.18   11.38          38.16    5.87   -9.92          11.53   300.61
J6          11.39   10.25   14.83          38.29   11.27  -19.26          22.31   300.34
J7          12.00   10.11   18.91          38.03   16.70  -29.24          33.67   299.73
J8          13.63    9.87   30.74          37.61   29.41  -51.51          59.31   299.73
J9          39.69   39.93   36.62          69.41    3.75   -5.28           6.47   305.35
J10         40.51   39.92   39.81          69.41    6.29   -9.60          11.48   303.27
J11         41.43   39.83   43.89          69.34    9.43  -14.90          17.63   302.32
J12         43.60   40.12   53.38          69.55   15.03  -25.48          29.58   300.54
J13         16.56   25.86   41.86          57.91  -40.63  -32.09          51.77   218.31
J14         33.98   18.76   36.02          50.40   66.96  -37.23          76.62   330.93
J15         61.73   62.92    6.97          83.40    2.49   83.61          83.64   88.30
J16          3.27    3.42    2.85          21.66   -0.33   -0.22           0.44   224.87
J17         25.95   15.51    3.37          46.31   54.23   38.59          66.56   35.44
J18          9.95   18.80    5.49          50.45  -51.94   33.51          61.81   147.17
J19          7.00    4.94   23.50          26.54   25.14  -58.25          63.45   293.35
J20         27.98   36.29   20.48          66.74  -25.63   16.99          30.76   146.47
J21          4.11    7.54    1.67          33.00  -36.62   29.92          47.28   140.75
J22          1.25    1.91    0.96          15.00  -16.15    8.21          18.12   153.03
K1           4.70    3.88    4.69          23.29   13.23   -9.14          16.07   325.33
K2           6.12    4.13    6.70          24.08   26.69  -17.47          31.90   326.80
K3           7.42    4.17    9.25          24.23   39.26  -27.05          47.67   325.44
K4           8.04    4.25   10.50          24.47   44.08  -30.82          53.79   325.04
K5          14.84   13.37   13.73          43.31   12.29   -7.73          14.52   327.82
K6          17.07   13.52   17.18          43.53   24.15  -15.88          28.90   326.68
K7          19.24   13.56   20.67          43.58   35.37  -23.36          42.38   326.57
K8          26.41   14.30   32.77          44.65   63.28  -42.45          76.20   326.14
K9          40.93   39.77   36.27          69.30    8.08   -4.99           9.50   328.32
K10         43.47   40.16   39.38          69.58   14.50   -8.73          16.93   328.95
K11         45.24   39.72   42.82          69.26   21.00  -13.71          25.09   326.87
K12         50.77   39.89   52.39          69.39   35.67  -24.66          43.37   325.34
K13         13.02   21.18   37.69          53.15  -41.52  -34.80          54.17   219.97
K14         29.88   15.08   31.76          45.74   72.25  -39.03          82.12   331.62
K15         59.69   59.77    4.77          81.72    4.95   91.17          91.31   86.89
K16          1.66    1.74    1.48          14.07   -0.44   -0.47           0.66   233.19
K17         22.51   12.43    1.81          41.88   58.39   43.81          73.00   36.88
K18          6.81   14.27    3.54          44.62  -54.53   34.47          64.52   147.70
K19          4.86    2.90   19.22          19.64   30.97  -61.59          68.94   296.69
K20          2.04    2.73    1.74          18.91  -12.20    4.94          13.16   158.01
K21          1.16    1.61    1.35          13.25  -11.42   -0.35          11.43   181.79
K22          1.45    1.94    2.58          15.15  -10.77   -9.27          14.21   220.72
L1           3.37    2.75    2.55          19.00   12.56   -2.45          12.79   349.00
L2           4.25    2.75    2.67          19.02   25.57   -3.38          25.80   352.48
L3           6.01    3.50    3.58          21.97   34.60   -4.78          34.94   352.15
L4           4.41    2.71    2.73          18.84   28.72   -4.08          29.01   351.91
L5          12.23   10.36    9.39          38.47   16.42   -3.00          16.70   349.63
L6          15.37   10.96   10.16          39.50   31.86   -3.80          32.09   353.20
L7          18.69   11.24   10.81          39.97   48.09   -5.07          48.36   353.99
L8          21.82   10.68   11.58          39.02   67.53   -9.05          68.14   352.36
L9          41.47   39.89   33.69          69.40    9.33   -1.13           9.40   353.10
L10         43.70   39.92   34.56          69.42   15.91   -2.36          16.08   351.57
L11         46.46   40.26   35.79          69.65   22.80   -3.71          23.09   350.75
L12         50.28   40.20   37.33          69.62   33.42   -5.91          33.94   349.97
L13          9.98   16.66   33.22          47.82  -40.31  -37.63          55.14   223.03
L14         25.62   11.81   27.16          40.90   76.15  -39.98          86.00   332.30
L15         56.95   55.59    3.05          79.38    8.39   97.82          98.17   85.10
L16          0.72    0.76    0.66           6.87   -0.38   -0.68           0.80   244.28
L17         19.07    9.77    0.82          37.41   61.07   49.02          78.31   38.76
L18          4.37   10.08    2.06          37.98  -54.48   34.61          64.54   147.57
L19          3.32    1.57   15.13          13.02   37.53  -63.58          73.83   300.56
L20          0.63    0.69    0.71           6.17   -1.27   -2.82           3.09   245.82
