targets/wolf_faust/reflective/R011201WhiteBacking.it8
IT8.7/2
ORIGINATOR "Wolf Faust"
DESCRIPTOR "L* a* b* Batch average data (light D50, viewing angle 2, white backing)"
MANUFACTURER "Wolf Faust - http://www.coloraid.de"
CREATED "December 16, 2001"
PROD_DATE "2001:12"
SERIAL "5x7 R011201"
MATERIAL "Kodak Professional Digital 3"
KEYWORD "MEAN_DE" # Mean Delta E of samples compared to batch average
NUMBER_OF_FIELDS 17
BEGIN_DATA_FORMAT
SAMPLE_ID   XYZ_X   XYZ_Y   XYZ_Z          LAB_L   LAB_A   LAB_B          LAB_C   LAB_H          STDEV_X  STDEV_Y  STDEV_Z          STDEV_L  STDEV_A  STDEV_B        MEAN_DE  STDEV_DE
END_DATA_FORMAT
NUMBER_OF_SETS 288
BEGIN_DATA
A1           3.45    2.76    1.82          19.06   13.75    4.37          14.43   17.64            0.05     0.04     0.03            0.17     0.19     0.19           0.29    0.32
A2           4.28    2.77    1.49          19.11   25.65    8.10          26.90   17.53            0.06     0.04     0.02            0.16     0.23     0.14           0.27    0.32
A3           6.43    3.81    1.60          23.03   34.51   13.56          37.08   21.45            0.07     0.04     0.03            0.15     0.19     0.17           0.28    0.30
A4           5.38    3.28    1.37          21.12   31.06   13.02          33.68   22.74            0.05     0.03     0.02            0.10     0.23     0.20           0.28    0.32
A5          12.33   10.87    7.90          39.35   13.31    3.92          13.87   16.41            0.14     0.12     0.11            0.20     0.16     0.22           0.30    0.34
A6          14.37   10.69    6.76          39.06   27.78    8.07          28.93   16.20            0.13     0.11     0.08            0.18     0.16     0.17           0.27    0.30
A7          17.61   11.12    5.92          39.78   43.25   13.07          45.18   16.81            0.12     0.08     0.10            0.14     0.10     0.28           0.30    0.33
A8          21.58   11.23    5.05          39.97   62.32   17.66          64.78   15.82            0.11     0.08     0.07            0.13     0.15     0.28           0.31    0.35
A9          40.90   39.76   30.21          69.30    8.03    3.97           8.96   26.33            0.35     0.33     0.36            0.24     0.19     0.21           0.33    0.37
A10         44.14   40.45   29.48          69.79   15.58    5.98          16.69   21.01            0.29     0.27     0.33            0.19     0.13     0.28           0.31    0.36
A11         47.05   40.92   28.06          70.12   22.43    8.88          24.12   21.60            0.22     0.23     0.28            0.16     0.09     0.30           0.30    0.35
A12         49.98   41.60   26.95          70.59   28.42   11.55          30.68   22.11            0.15     0.20     0.26            0.14     0.21     0.34           0.36    0.42
A13         82.42   85.90   72.58          94.27   -0.80   -1.52           1.72   242.31            0.21     0.22     0.11            0.09     0.03     0.08           0.11    0.13
A14         81.58   84.53   72.15          93.68    0.16   -2.17           2.17   274.14            0.16     0.16     0.10            0.07     0.04     0.09           0.10    0.12
A15         81.79   85.43   70.40          94.07   -1.12    0.07           1.12   176.74            0.19     0.20     0.17            0.09     0.03     0.11           0.12    0.14
A16         81.09   84.13   69.99          93.50   -0.06   -0.54           0.55   263.51            0.15     0.15     0.07            0.07     0.05     0.14           0.12    0.16
A17         81.14   84.19   70.00          93.53   -0.07   -0.50           0.51   262.41            0.15     0.16     0.09            0.07     0.04     0.07           0.09    0.11
A18         81.80   85.44   70.41          94.07   -1.12    0.07           1.12   176.58            0.15     0.15     0.11            0.07     0.02     0.11           0.11    0.13
A19         81.73   84.65   72.21          93.74    0.21   -2.12           2.13   275.56            0.16     0.17     0.13            0.07     0.05     0.08           0.11    0.12
A20          1.36    1.13    0.72          10.05    8.44    3.78           9.25   24.15            0.02     0.02     0.02            0.19     0.23     0.16           0.29    0.34
A21          5.08    3.17    0.74          20.72   29.15   21.78          36.38   36.77            0.07     0.04     0.01            0.16     0.42     0.29           0.44    0.53
A22         10.33    5.80    0.77          28.91   43.93   35.40          56.42   38.86            0.08     0.04     0.01            0.10     0.23     0.19           0.28    0.32
B1           3.34    2.85    1.41          19.44   10.31    9.58          14.07   42.92            0.04     0.04     0.02            0.14     0.19     0.18           0.26    0.30
B2           3.79    2.70    0.89          18.81   19.98   15.93          25.55   38.56            0.06     0.04     0.02            0.16     0.21     0.21           0.29    0.34
B3           5.02    3.23    0.75          20.93   27.46   21.89          35.11   38.56            0.07     0.05     0.01            0.18     0.22     0.22           0.30    0.36
B4           4.92    3.05    0.65          20.24   29.16   22.68          36.94   37.87            0.06     0.05     0.01            0.18     0.18     0.20           0.28    0.33
B5          12.58   11.01    6.04          39.60   13.93   12.17          18.50   41.15            0.12     0.10     0.08            0.17     0.18     0.16           0.26    0.29
B6          14.29   10.81    3.85          39.26   26.42   23.29          35.22   41.40            0.12     0.11     0.06            0.18     0.14     0.16           0.25    0.28
B7          17.81   11.44    2.07          40.31   42.05   38.57          57.05   42.53            0.12     0.09     0.03            0.16     0.05     0.12           0.18    0.20
B8          20.43   10.94    0.95          39.47   58.94   50.52          77.63   40.60            0.07     0.06     0.01            0.09     0.11     0.06           0.13    0.15
B9          40.72   39.79   28.10          69.32    7.37    7.43          10.46   45.23            0.24     0.23     0.27            0.16     0.12     0.21           0.26    0.29
B10         43.52   40.22   25.51          69.63   14.45   12.39          19.03   40.62            0.23     0.21     0.24            0.15     0.07     0.34           0.34    0.38
B11         46.34   40.75   22.42          70.00   20.96   18.73          28.11   41.79            0.18     0.19     0.18            0.14     0.13     0.22           0.26    0.29
B12         48.37   40.77   19.24          70.01   26.54   25.19          36.58   43.51            0.16     0.20     0.23            0.14     0.22     0.36           0.39    0.44
B13         75.59   80.98   71.16          92.12   -5.01   -3.98           6.40   218.42            0.22     0.20     0.11            0.09     0.10     0.08           0.13    0.16
B14         77.56   77.33   70.03          90.48    6.06   -5.79           8.38   316.27            0.14     0.12     0.14            0.06     0.12     0.14           0.17    0.19
B15         79.31   83.51   60.23          93.24   -2.38    8.25           8.58   106.09            0.19     0.18     0.29            0.08     0.04     0.23           0.22    0.25
B16         68.30   70.73   57.41          87.35    0.23    0.96           0.99   75.77            0.17     0.18     0.22            0.09     0.11     0.23           0.24    0.27
B17         74.53   74.94   58.36          89.36    4.73    3.45           5.86   36.02            0.13     0.14     0.26            0.07     0.06     0.26           0.21    0.28
B18         72.68   78.76   59.24          91.12   -6.70    5.60           8.73   140.13            0.18     0.17     0.17            0.08     0.07     0.17           0.17    0.20
B19         71.13   72.94   68.77          88.42    1.70   -8.20           8.38   281.73            0.22     0.23     0.15            0.11     0.11     0.08           0.16    0.17
B20          2.75    1.94    0.71          15.15   18.46   12.73          22.43   34.59            0.03     0.02     0.01            0.10     0.23     0.08           0.23    0.26
B21          8.38    4.84    0.75          26.29   39.18   31.08          50.01   38.43            0.07     0.03     0.01            0.09     0.26     0.15           0.29    0.32
B22         29.42   24.96   11.88          57.04   21.78   21.11          30.33   44.09            0.27     0.23     0.19            0.22     0.15     0.27           0.34    0.38
C1           4.48    4.26    2.02          24.53    5.06   11.75          12.80   66.70            0.06     0.05     0.03            0.17     0.18     0.12           0.25    0.27
C2           4.71    4.23    1.18          24.43    8.53   21.13          22.79   68.03            0.07     0.06     0.01            0.19     0.20     0.20           0.29    0.34
C3           5.71    4.93    0.98          26.53   11.61   27.71          30.04   67.28            0.06     0.05     0.01            0.15     0.21     0.18           0.29    0.32
C4           4.99    4.33    0.92          24.73   10.75   25.54          27.71   67.17            0.06     0.05     0.01            0.17     0.08     0.12           0.19    0.22
C5          22.98   22.04   10.84          54.07    7.96   19.15          20.74   67.42            0.22     0.21     0.19            0.22     0.13     0.29           0.35    0.39
C6          25.59   22.39    5.58          54.44   17.68   39.99          43.72   66.14            0.13     0.14     0.06            0.15     0.14     0.24           0.28    0.31
C7          28.05   22.44    2.03          54.49   27.47   63.33          69.03   66.55            0.12     0.12     0.02            0.13     0.21     0.08           0.21    0.26
C8          28.72   22.37    1.64          54.42   30.42   67.23          73.79   65.66            0.12     0.09     0.01            0.10     0.14     0.08           0.15    0.18
C9          48.80   48.71   31.44          75.27    5.05   12.35          13.35   67.76            0.31     0.33     0.31            0.21     0.17     0.27           0.32    0.38
C10         50.96   49.16   26.29          75.55    9.65   21.22          23.32   65.56            0.22     0.24     0.22            0.15     0.16     0.18           0.24    0.29
C11         52.32   48.70   21.68          75.26   14.45   29.23          32.61   63.69            0.19     0.22     0.26            0.14     0.19     0.40           0.42    0.46
C12         53.06   48.10   16.80          74.89   17.98   39.02          42.97   65.26            0.18     0.25     0.23            0.16     0.24     0.32           0.37    0.43
C13         63.72   71.85   68.36          87.90  -12.31   -8.72          15.09   215.33            0.32     0.30     0.14            0.15     0.15     0.17           0.23    0.27
C14         70.68   65.75   66.08          84.87   16.06  -11.84          19.95   323.60            0.20     0.21     0.11            0.11     0.19     0.15           0.23    0.26
C15         76.20   80.83   47.70          92.06   -3.50   19.69          20.00   100.08            0.19     0.19     0.27            0.09     0.02     0.30           0.25    0.32
C16         50.34   52.07   42.17          77.32    0.36    0.98           1.05   70.22            0.26     0.26     0.25            0.16     0.16     0.12           0.21    0.25
C17         64.82   61.42   43.75          82.60   13.00    8.11          15.32   31.96            0.22     0.25     0.27            0.13     0.14     0.24           0.27    0.30
C18         58.63   67.72   45.69          85.86  -15.47   11.38          19.21   143.65            0.23     0.21     0.20            0.11     0.13     0.21           0.23    0.26
C19         54.92   55.37   62.22          79.26    3.90  -17.82          18.24   282.34            0.28     0.32     0.33            0.19     0.18     0.23           0.30    0.35
C20          1.60    1.31    0.68          11.37    9.45    6.70          11.59   35.34            0.02     0.02     0.01            0.11     0.19     0.08           0.21    0.24
C21         23.75   17.93    4.75          49.40   31.52   35.56          47.52   48.45            0.23     0.19     0.09            0.24     0.17     0.23           0.34    0.37
C22         35.15   31.80   16.90          63.17   15.92   18.62          24.50   49.47            0.24     0.25     0.14            0.21     0.18     0.21           0.30    0.34
D1           4.10    4.29    2.03          24.62   -0.52   11.92          11.94   92.48            0.07     0.07     0.04            0.21     0.11     0.07           0.23    0.25
D2           4.06    4.26    1.21          24.50   -0.63   20.80          20.81   91.74            0.06     0.06     0.02            0.21     0.10     0.15           0.23    0.27
D3           4.94    5.30    1.10          27.58   -2.16   27.70          27.79   94.46            0.07     0.07     0.01            0.19     0.16     0.27           0.33    0.37
D4           4.01    4.32    1.01          24.70   -2.20   24.02          24.12   95.23            0.04     0.05     0.01            0.15     0.12     0.18           0.22    0.26
D5          25.06   26.10   13.73          58.13   -0.41   17.80          17.80   91.33            0.21     0.20     0.13            0.19     0.13     0.21           0.27    0.31
D6          25.32   26.52    7.90          58.53   -1.05   36.98          37.00   91.62            0.21     0.19     0.13            0.18     0.24     0.24           0.35    0.39
D7          25.29   26.55    3.15          58.56   -1.31   61.23          61.25   91.22            0.18     0.18     0.04            0.16     0.16     0.11           0.23    0.25
D8          25.64   27.67    2.21          59.59   -4.31   70.48          70.61   93.50            0.29     0.30     0.02            0.27     0.10     0.37           0.35    0.47
D9          56.89   59.17   37.61          81.38   -0.40   13.97          13.98   91.63            0.28     0.27     0.34            0.15     0.12     0.25           0.28    0.31
D10         57.64   60.05   30.23          81.87   -0.63   25.61          25.62   91.41            0.21     0.23     0.22            0.12     0.14     0.22           0.26    0.29
D11         58.01   60.21   25.01          81.95   -0.11   34.52          34.52   90.18            0.19     0.21     0.32            0.11     0.11     0.41           0.37    0.44
D12         57.34   59.75    6.54          81.70   -0.66   82.55          82.56   90.46            0.20     0.21     0.08            0.11     0.05     0.20           0.21    0.23
D13         52.28   62.34   64.69          83.09  -19.41  -13.58          23.69   214.99            0.29     0.27     0.28            0.14     0.17     0.16           0.24    0.28
D14         63.56   54.73   61.38          78.88   26.17  -17.64          31.56   326.02            0.13     0.17     0.13            0.10     0.21     0.11           0.22    0.26
D15         73.39   78.06   36.22          90.81   -3.86   32.14          32.37   96.85            0.19     0.19     0.27            0.09     0.02     0.34           0.29    0.36
D16         35.53   36.89   29.62          67.19   -0.13    1.29           1.30   95.59            0.21     0.21     0.24            0.16     0.15     0.20           0.27    0.30
D17         56.03   49.76   31.58          75.92   21.02   13.26          24.85   32.25            0.19     0.23     0.28            0.14     0.18     0.25           0.30    0.34
D18         45.56   56.45   33.74          79.87  -23.80   16.83          29.15   144.74            0.24     0.22     0.22            0.13     0.15     0.16           0.21    0.25
D19         40.85   40.31   54.95          69.69    6.18  -26.94          27.64   282.92            0.36     0.38     0.27            0.27     0.18     0.20           0.34    0.38
D20         13.37   10.30    2.42          38.38   24.41   32.08          40.31   52.73            0.17     0.14     0.04            0.24     0.18     0.21           0.34    0.37
D21         20.66   20.23   11.51          52.10    5.66   13.68          14.81   67.50            0.24     0.24     0.17            0.27     0.15     0.25           0.36    0.40
D22         38.03   35.72   19.06          66.30   11.94   19.17          22.59   58.09            0.28     0.28     0.25            0.22     0.16     0.26           0.34    0.37
E1           3.68    4.22    2.05          24.38   -5.69   11.22          12.58   116.90            0.04     0.04     0.03            0.12     0.17     0.22           0.27    0.30
E2           3.38    4.21    1.26          24.35  -10.36   19.95          22.48   117.46            0.07     0.08     0.03            0.26     0.14     0.16           0.29    0.33
E3           3.76    5.16    1.18          27.19  -16.63   25.89          30.77   122.72            0.06     0.08     0.01            0.21     0.10     0.24           0.29    0.33
E4           3.10    4.25    1.10          24.48  -15.40   22.41          27.19   124.49            0.05     0.07     0.02            0.21     0.10     0.16           0.23    0.28
E5          12.74   14.17    7.62          44.48   -5.99   13.85          15.09   113.36            0.15     0.16     0.12            0.22     0.17     0.17           0.30    0.33
E6          11.77   14.17    4.19          44.48  -12.65   30.18          32.73   112.73            0.15     0.16     0.08            0.23     0.16     0.13           0.28    0.31
E7          11.03   14.56    2.16          45.02  -20.27   45.78          50.07   113.87            0.13     0.15     0.03            0.22     0.14     0.15           0.26    0.30
E8          10.35   15.12    1.93          45.79  -28.71   49.32          57.07   120.21            0.11     0.14     0.02            0.19     0.15     0.20           0.28    0.31
E9          36.68   39.48   26.71          69.10   -4.52    9.39          10.42   115.71            0.21     0.20     0.26            0.15     0.18     0.24           0.29    0.34
E10         35.42   39.60   22.61          69.19   -9.10   16.95          19.24   118.22            0.27     0.30     0.26            0.21     0.10     0.20           0.28    0.31
E11         34.77   40.46   19.93          69.79  -13.89   23.35          27.17   120.76            0.23     0.28     0.20            0.19     0.21     0.25           0.33    0.38
E12         30.02   39.86    8.95          69.37  -29.07   51.81          59.41   119.30            0.16     0.17     0.09            0.12     0.12     0.14           0.19    0.23
E13         43.55   54.50   61.29          78.75  -24.80  -17.78          30.51   215.64            0.24     0.22     0.23            0.13     0.18     0.12           0.22    0.26
E14         57.68   46.27   57.06          73.72   34.57  -22.19          41.08   327.30            0.20     0.23     0.16            0.15     0.21     0.14           0.22    0.29
E15         71.19   75.61   28.19          89.67   -3.59   42.37          42.52   94.85            0.13     0.14     0.21            0.07     0.02     0.32           0.27    0.33
E16         25.60   26.65   21.43          58.65   -0.40    1.10           1.18   109.30            0.20     0.18     0.19            0.16     0.18     0.19           0.27    0.31
E17         49.15   41.09   23.28          70.24   27.69   17.50          32.76   32.29            0.18     0.22     0.30            0.16     0.22     0.34           0.38    0.44
E18         36.24   47.80   25.79          74.70  -30.13   20.65          36.52   145.57            0.24     0.22     0.28            0.14     0.19     0.31           0.35    0.39
E19         31.24   30.09   48.73          61.73    8.36  -33.79          34.81   283.90            0.26     0.28     0.24            0.24     0.24     0.20           0.34    0.40
E20         25.37   17.39    1.36          48.75   41.29   60.79          73.49   55.82            0.14     0.12     0.01            0.15     0.17     0.16           0.24    0.27
E21         16.48   13.89    2.24          44.07   18.54   43.45          47.24   66.90            0.17     0.17     0.04            0.24     0.14     0.15           0.29    0.32
E22         30.16   25.76    8.26          57.81   21.26   34.37          40.41   58.25            0.17     0.17     0.10            0.16     0.20     0.25           0.31    0.36
F1           1.35    1.76    1.19          14.16   -9.49    3.29          10.04   160.87            0.02     0.02     0.01            0.13     0.15     0.19           0.24    0.27
F2           1.20    1.85    1.05          14.69  -16.53    6.15          17.64   159.59            0.02     0.03     0.02            0.15     0.16     0.15           0.24    0.26
F3           1.48    2.61    1.25          18.40  -24.05    9.83          25.98   157.77            0.02     0.04     0.02            0.17     0.18     0.11           0.24    0.27
F4           1.21    1.95    1.03          15.23  -18.49    7.43          19.93   158.09            0.02     0.03     0.01            0.14     0.20     0.11           0.23    0.26
F5           6.85    8.27    5.92          34.55  -10.83    4.05          11.56   159.50            0.10     0.11     0.10            0.23     0.10     0.17           0.28    0.30
F6           5.40    7.98    5.00          33.94  -23.92    7.55          25.09   162.48            0.06     0.08     0.08            0.17     0.14     0.15           0.24    0.27
F7           4.09    7.83    3.87          33.63  -39.62   13.43          41.84   161.27            0.05     0.07     0.06            0.15     0.21     0.19           0.29    0.32
F8           3.82    8.92    3.28          35.83  -52.96   21.08          57.00   158.30            0.04     0.08     0.05            0.15     0.16     0.16           0.24    0.27
F9          35.93   39.25   30.10          68.93   -6.26    3.51           7.18   150.73            0.28     0.27     0.31            0.20     0.21     0.22           0.33    0.36
F10         34.79   39.88   29.27          69.38  -12.05    5.62          13.30   155.02            0.28     0.28     0.34            0.20     0.18     0.24           0.31    0.36
F11         34.18   41.10   28.22          70.24  -17.88    8.82          19.94   153.75            0.24     0.24     0.27            0.17     0.17     0.19           0.26    0.31
F12         28.98   40.91   25.29          70.12  -36.28   13.62          38.75   159.42            0.14     0.14     0.15            0.10     0.12     0.15           0.18    0.21
F13         36.79   48.05   58.06          74.86  -28.98  -21.26          35.94   216.26            0.23     0.23     0.18            0.15     0.16     0.14           0.22    0.26
F14         52.15   38.89   52.82          68.67   42.41  -26.40          49.95   328.10            0.18     0.22     0.17            0.16     0.21     0.12           0.23    0.29
F15         69.24   73.24   22.20          88.56   -2.97   51.15          51.23   93.32            0.13     0.14     0.16            0.07     0.03     0.25           0.20    0.26
F16         18.42   19.12   15.43          50.83   -0.09    0.85           0.87   95.10            0.16     0.15     0.17            0.17     0.21     0.19           0.28    0.33
F17         43.23   33.96   17.08          64.93   33.84   21.22          39.95   32.10            0.19     0.22     0.21            0.18     0.26     0.23           0.35    0.39
F18         28.98   40.61   19.74          69.90  -35.35   23.94          42.70   145.90            0.22     0.24     0.20            0.17     0.12     0.21           0.26    0.30
F19         23.87   22.18   43.01          54.22   11.28  -39.90          41.47   285.79            0.22     0.23     0.19            0.24     0.24     0.20           0.33    0.39
