targets/wolf_faust/reflective/R021106.it8
IT8.7/2
ORIGINATOR "Wolf Faust"
DESCRIPTOR "L* a* b* Batch average data (light D50, viewing angle 2, black backing)"
MANUFACTURER "Wolf Faust - http://www.coloraid.de"
CREATED "November 19, 2002"
PROD_DATE "2002:11"
SERIAL "5x7 R021106"
MATERIAL "Kodak Professional Digital 3"
KEYWORD "MEAN_DE" # Mean Delta E of samples compared to batch average
NUMBER_OF_FIELDS 17
BEGIN_DATA_FORMAT
SAMPLE_ID   XYZ_X   XYZ_Y   XYZ_Z          LAB_L   LAB_A   LAB_B          LAB_C   LAB_H          STDEV_X  STDEV_Y  STDEV_Z          STDEV_L  STDEV_A  STDEV_B        MEAN_DE  STDEV_DE
END_DATA_FORMAT
NUMBER_OF_SETS 288
BEGIN_DATA
A1           3.54    2.99    2.02          20.00   10.96    3.98          11.66   19.95            0.04     0.03     0.03            0.13     0.12     0.15           0.20    0.23
A2           4.44    2.97    1.66          19.94   24.24    7.54          25.38   17.27            0.05     0.04     0.02            0.15     0.15     0.21           0.25    0.30 
A3           6.31    3.50    1.64          21.95   37.95   11.27          39.58   16.54            0.06     0.04     0.02            0.14     0.08     0.22           0.23    0.28
A4           5.49    3.02    1.34          20.13   36.56   11.60          38.35   17.60            0.05     0.03     0.02            0.11     0.14     0.24           0.27    0.30 
A5          12.92   11.23    7.74          39.97   14.62    5.63          15.67   21.08            0.12     0.11     0.11            0.18     0.14     0.19           0.27    0.30
A6          15.27   11.20    6.72          39.91   29.53    9.69          31.09   18.17            0.17     0.13     0.13            0.21     0.19     0.36           0.40    0.45 
A7          17.64   11.20    5.74          39.92   42.80   14.17          45.09   18.31            0.15     0.10     0.08            0.17     0.17     0.36           0.36    0.43
A8          21.39   11.34    4.82          40.15   60.70   19.19          63.66   17.55            0.15     0.09     0.06            0.14     0.16     0.27           0.31    0.34 
A9          41.93   40.96   31.93          70.15    7.46    2.78           7.96   20.46            0.33     0.31     0.31            0.21     0.12     0.26           0.31    0.36
A10         43.97   40.76   30.21          70.01   14.14    5.20          15.07   20.18            0.33     0.29     0.28            0.21     0.11     0.23           0.30    0.33
A11         46.33   40.72   29.23          69.98   21.02    6.71          22.07   17.71            0.33     0.29     0.28            0.20     0.13     0.29           0.35    0.38
A12         48.95   40.60   27.52          69.90   28.63    9.39          30.12   18.15            0.33     0.29     0.25            0.21     0.16     0.25           0.32    0.36 
A13         80.17   83.72   69.33          93.33   -1.09   -0.24           1.13   192.31            0.45     0.47     0.43            0.21     0.02     0.17           0.24    0.27
A14         79.63   82.70   69.12          92.88   -0.23   -0.82           0.86   253.75            0.46     0.46     0.47            0.20     0.04     0.16           0.23    0.26 
A15         79.82   83.46   67.89          93.21   -1.27    0.88           1.55   145.83            0.43     0.44     0.47            0.19     0.03     0.19           0.24    0.27
A16         79.14   82.27   67.51          92.69   -0.37    0.33           0.51   140.87            0.39     0.40     0.40            0.17     0.02     0.17           0.22    0.24
A17         79.13   82.27   67.47          92.69   -0.38    0.36           0.54   137.82            0.46     0.47     0.45            0.21     0.03     0.12           0.22    0.24
A18         79.78   83.42   67.84          93.20   -1.28    0.89           1.56   145.28            0.43     0.44     0.42            0.19     0.03     0.12           0.20    0.23 
A19         79.54   82.60   68.95          92.83   -0.20   -0.75           0.78   254.50            0.46     0.47     0.43            0.21     0.05     0.14           0.23    0.25
A20          1.34    1.07    0.73           9.58    9.88    2.79          10.27   15.77            0.02     0.02     0.01            0.11     0.11     0.15           0.19    0.21 
A21          5.29    3.33    0.77          21.33   29.03   22.31          36.61   37.53            0.06     0.04     0.01            0.15     0.15     0.14           0.23    0.25
A22         10.47    5.93    0.81          29.24   43.52   35.12          55.93   38.90            0.09     0.06     0.01            0.16     0.08     0.09           0.18    0.20
B1           3.37    2.97    1.59          19.91    8.76    8.27          12.05   43.37            0.04     0.04     0.03            0.14     0.19     0.16           0.24    0.28
B2           4.08    3.03    1.02          20.16   18.42   16.14          24.49   41.22            0.04     0.04     0.01            0.14     0.15     0.23           0.25    0.31
B3           5.25    3.46    0.78          21.80   26.51   22.86          35.01   40.77            0.05     0.03     0.01            0.10     0.24     0.21           0.28    0.34
B4           4.77    3.01    0.55          20.06   28.12   24.27          37.14   40.80            0.05     0.03     0.01            0.11     0.23     0.21           0.29    0.33
B5          13.06   11.34    5.69          40.15   14.79   14.78          20.91   44.98            0.12     0.11     0.09            0.18     0.13     0.21           0.27    0.30
B6          15.01   11.27    3.83          40.03   27.48   24.70          36.95   41.95            0.12     0.11     0.05            0.19     0.20     0.12           0.27    0.30
B7          17.65   11.45    2.26          40.33   41.10   36.80          55.16   41.84            0.16     0.10     0.03            0.16     0.17     0.18           0.27    0.30
B8          20.71   11.35    1.06          40.17   57.36   50.02          76.11   41.10            0.19     0.12     0.02            0.20     0.09     0.19           0.25    0.29
B9          41.50   40.73   29.37          69.99    6.88    6.50           9.46   43.36            0.25     0.23     0.25            0.16     0.10     0.21           0.25    0.29
B10         43.85   41.32   26.26          70.40   12.10   12.41          17.33   45.73            0.32     0.29     0.28            0.20     0.14     0.23           0.30    0.34
B11         45.41   40.71   23.29          69.97   18.45   17.03          25.11   42.70            0.33     0.30     0.23            0.21     0.17     0.28           0.35    0.39
B12         47.92   40.50   20.33          69.82   26.13   22.58          34.54   40.83            0.33     0.29     0.21            0.20     0.13     0.37           0.38    0.44
B13         73.39   78.86   67.97          91.17   -5.43   -2.72           6.08   206.57            0.46     0.48     0.43            0.22     0.06     0.13           0.24    0.26
B14         75.38   75.06   66.96          89.42    6.20   -4.81           7.85   322.22            0.41     0.40     0.44            0.18     0.08     0.16           0.24    0.26
B15         77.76   81.89   59.12          92.53   -2.38    8.13           8.47   106.33            0.39     0.40     0.36            0.18     0.03     0.22           0.26    0.29
B16         66.70   68.96   56.31          86.49    0.45    0.60           0.77   51.16            0.47     0.48     0.46            0.24     0.08     0.21           0.30    0.33
B17         72.76   72.97   57.18          88.43    5.07    3.06           5.92   31.12            0.40     0.41     0.32            0.20     0.04     0.15           0.23    0.25
B18         71.19   77.18   58.28          90.40   -6.73    5.33           8.59   141.64            0.40     0.42     0.39            0.19     0.06     0.14           0.22    0.25
B19         69.04   70.80   65.70          87.39    1.67   -7.13           7.32   283.19            0.38     0.38     0.41            0.18     0.08     0.16           0.23    0.25
B20          2.88    2.04    0.72          15.69   18.57   13.46          22.94   35.92            0.03     0.02     0.01            0.10     0.22     0.25           0.29    0.35
B21          8.71    5.05    0.77          26.88   39.51   31.84          50.74   38.87            0.06     0.04     0.02            0.13     0.16     0.15           0.22    0.26
B22         29.43   24.85   11.48          56.93   22.33   22.09          31.41   44.70            0.22     0.21     0.20            0.20     0.18     0.33           0.38    0.43
C1           4.49    4.32    2.09          24.71    4.35   11.49          12.28   69.27            0.04     0.03     0.03            0.11     0.21     0.23           0.29    0.33
C2           4.88    4.43    1.36          25.04    8.08   19.91          21.49   67.91            0.05     0.04     0.02            0.13     0.15     0.25           0.27    0.32
C3           6.00    5.09    0.87          27.00   12.78   30.33          32.91   67.16            0.06     0.06     0.02            0.17     0.15     0.23           0.27    0.32
C4           5.22    4.40    0.77          24.94   12.62   28.57          31.24   66.18            0.07     0.05     0.01            0.14     0.20     0.30           0.30    0.38
C5          23.98   22.75   10.54          54.82    9.18   21.36          23.25   66.76            0.19     0.20     0.15            0.20     0.15     0.24           0.31    0.34
C6          26.19   22.85    5.19          54.92   18.13   42.75          46.43   67.02            0.30     0.27     0.09            0.28     0.16     0.36           0.39    0.48
C7          28.34   22.82    2.34          54.89   26.89   61.25          66.89   66.30            0.25     0.21     0.04            0.22     0.08     0.15           0.25    0.27
C8          29.54   22.97    1.42          55.04   30.85   70.81          77.24   66.46            0.27     0.23     0.03            0.23     0.12     0.23           0.32    0.35
C9          48.42   48.59   32.84          75.20    4.33   10.11          11.00   66.82            0.34     0.34     0.27            0.21     0.10     0.24           0.31    0.34
C10         50.39   48.98   27.12          75.44    8.60   19.62          21.43   66.33            0.30     0.28     0.21            0.17     0.09     0.25           0.30    0.32
C11         51.29   48.55   21.88          75.17   12.16   28.68          31.15   67.03            0.38     0.37     0.31            0.23     0.10     0.32           0.37    0.41
C12         53.18   49.00   16.50          75.45   15.84   40.73          43.70   68.75            0.36     0.34     0.20            0.21     0.13     0.32           0.36    0.41
C13         60.66   69.08   65.20          86.54  -13.57   -8.12          15.81   210.90            0.35     0.38     0.45            0.19     0.11     0.14           0.24    0.26
C14         69.81   65.67   63.99          84.82   14.38   -9.93          17.48   325.38            0.48     0.45     0.45            0.23     0.14     0.09           0.26    0.28
C15         75.16   79.66   48.67          91.53   -3.35   17.65          17.97   100.74            0.52     0.55     0.51            0.25     0.02     0.30           0.34    0.39
C16         49.40   52.00   43.46          77.28   -1.99   -0.70           2.11   199.38            0.43     0.42     0.44            0.25     0.10     0.17           0.28    0.32
C17         65.03   62.22   45.24          83.03   11.65    7.03          13.60   31.11            0.44     0.43     0.38            0.23     0.11     0.20           0.29    0.33
C18         56.65   65.80   46.67          84.89  -16.10    8.54          18.23   152.07            0.30     0.33     0.30            0.17     0.09     0.19           0.24    0.27
C19         53.31   54.92   60.16          79.00    0.91  -16.24          16.26   273.21            0.27     0.27     0.29            0.16     0.08     0.15           0.21    0.23
C20          1.76    1.46    0.69          12.33    9.48    8.26          12.57   41.03            0.02     0.02     0.01            0.10     0.12     0.24           0.24    0.29
C21         23.39   17.46    4.32          48.84   32.34   36.97          49.12   48.82            0.20     0.16     0.06            0.20     0.15     0.25           0.32    0.35
C22         35.34   31.95   17.00          63.30   16.00   18.58          24.52   49.27            0.33     0.28     0.28            0.24     0.14     0.35           0.37    0.44
D1           4.17    4.32    2.16          24.71    0.02   10.75          10.75   89.87            0.05     0.05     0.05            0.17     0.16     0.22           0.27    0.32
D2           4.14    4.34    1.39          24.77   -0.65   19.02          19.03   91.95            0.05     0.06     0.02            0.17     0.18     0.28           0.32    0.37
D3           5.09    5.36    0.98          27.72   -0.90   29.77          29.78   91.74            0.07     0.06     0.01            0.16     0.16     0.29           0.31    0.36
D4           4.11    4.31    0.85          24.66   -0.66   26.63          26.63   91.42            0.05     0.04     0.01            0.13     0.12     0.27           0.27    0.32
D5          27.42   28.40   13.66          60.25    0.15   21.64          21.64   89.61            0.23     0.22     0.20            0.20     0.09     0.25           0.29    0.34
D6          27.06   28.22    7.27          60.09   -0.60   42.17          42.17   90.82            0.23     0.22     0.10            0.20     0.11     0.21           0.26    0.31
D7          27.00   28.38    3.63          60.23   -1.43   60.82          60.84   91.35            0.18     0.20     0.06            0.18     0.12     0.22           0.27    0.31
D8          26.78   28.24    1.92          60.10   -1.81   74.08          74.11   91.40            0.19     0.18     0.03            0.17     0.09     0.24           0.26    0.30
D9          54.86   57.04   38.18          80.20   -0.35   11.17          11.17   91.79            0.36     0.37     0.28            0.21     0.09     0.15           0.25    0.27
D10         54.63   57.00   30.39          80.18   -0.83   22.45          22.46   92.11            0.31     0.31     0.25            0.18     0.10     0.23           0.27    0.30
D11         55.28   57.47   24.86          80.45   -0.35   32.20          32.21   90.62            0.40     0.38     0.28            0.21     0.11     0.31           0.34    0.39
D12         54.31   57.08    6.02          80.23   -1.84   82.32          82.34   91.28            0.33     0.34     0.07            0.19     0.08     0.20           0.26    0.29
D13         50.94   60.95   62.36          82.35  -19.73  -12.63          23.43   212.61            0.26     0.29     0.33            0.16     0.09     0.12           0.20    0.22
D14         62.54   54.34   59.32          78.66   24.80  -15.98          29.50   327.20            0.41     0.34     0.42            0.20     0.19     0.13           0.27    0.30
D15         72.62   77.24   38.54          90.43   -3.83   28.31          28.57   97.70            0.44     0.47     0.32            0.22     0.02     0.18           0.25    0.28
D16         35.77   37.36   31.80          67.55   -0.84   -1.51           1.74   240.87            0.25     0.25     0.27            0.18     0.14     0.22           0.29    0.32
D17         56.12   50.16   33.80          76.17   20.21   10.35          22.70   27.13            0.37     0.33     0.29            0.20     0.13     0.18           0.27    0.30
D18         45.52   56.26   36.23          79.76  -23.43   13.08          26.84   150.82            0.18     0.22     0.26            0.13     0.10     0.25           0.26    0.30
D19         40.56   40.58   53.59          69.88    4.45  -25.14          25.53   280.03            0.19     0.19     0.29            0.14     0.09     0.16           0.20    0.23
D20         14.15   10.70    2.60          39.07   26.38   31.80          41.31   50.32            0.13     0.09     0.04            0.16     0.21     0.25           0.31    0.36
D21         21.58   20.75   11.54          52.68    7.52   14.59          16.41   62.73            0.19     0.19     0.14            0.21     0.11     0.18           0.26    0.29
D22         38.87   36.86   19.46          67.17   10.87   19.82          22.61   61.26            0.28     0.25     0.23            0.19     0.13     0.20           0.26    0.31
E1           3.81    4.33    2.22          24.72   -5.24   10.30          11.56   116.96            0.03     0.03     0.02            0.10     0.04     0.17           0.17    0.20
E2           3.54    4.36    1.44          24.81   -9.76   18.48          20.90   117.84            0.03     0.05     0.02            0.14     0.09     0.27           0.25    0.32
E3           4.01    5.39    1.05          27.83  -15.72   28.81          32.82   118.62            0.03     0.05     0.01            0.13     0.15     0.26           0.28    0.32
E4           3.30    4.37    0.94          24.87  -13.82   25.53          29.03   118.43            0.04     0.04     0.01            0.14     0.12     0.32           0.29    0.37
E5          12.73   14.36    7.41          44.74   -7.26   15.14          16.79   115.62            0.12     0.13     0.10            0.19     0.07     0.19           0.25    0.28
E6          11.65   14.48    4.58          44.92  -15.41   28.71          32.59   118.22            0.12     0.15     0.08            0.21     0.07     0.17           0.24    0.28
E7          10.49   14.36    2.54          44.75  -23.11   42.07          48.00   118.78            0.12     0.14     0.03            0.20     0.16     0.22           0.30    0.33
E8           9.94   14.50    1.65          44.94  -28.29   50.74          58.09   119.14            0.08     0.10     0.02            0.15     0.12     0.30           0.32    0.36
E9          38.21   40.95   27.80          70.14   -4.05    9.35          10.18   113.41            0.20     0.20     0.16            0.14     0.12     0.23           0.25    0.29
E10         37.09   41.18   23.38          70.30   -8.36   17.42          19.32   115.62            0.19     0.20     0.19            0.14     0.07     0.18           0.20    0.24
E11         35.52   41.14   19.50          70.27  -13.43   25.09          28.46   118.17            0.22     0.24     0.15            0.17     0.05     0.12           0.17    0.21
E12         31.09   40.74    9.36          69.99  -27.78   51.44          58.46   118.38            0.20     0.24     0.12            0.17     0.12     0.26           0.29    0.33
E13         43.17   53.99   59.51          78.46  -24.64  -16.51          29.66   213.83            0.27     0.29     0.39            0.17     0.14     0.26           0.30    0.34
E14         56.73   45.95   55.37          73.51   33.15  -20.79          39.13   327.91            0.39     0.31     0.30            0.21     0.19     0.13           0.28    0.31
E15         70.54   75.01   30.70          89.40   -3.77   37.85          38.04   95.69            0.50     0.53     0.25            0.25     0.01     0.30           0.34    0.39
E16         26.41   27.53   23.68          59.46   -0.52   -1.83           1.91   253.84            0.19     0.18     0.20            0.17     0.15     0.16           0.24    0.27
E17         49.37   41.60   25.65          70.60   26.75   13.80          30.10   27.30            0.35     0.30     0.26            0.21     0.11     0.21           0.27    0.32
E18         36.87   48.29   28.32          75.00  -29.36   16.86          33.86   150.13            0.16     0.20     0.23            0.12     0.15     0.22           0.26    0.29
E19         31.60   30.78   48.04          62.32    7.14  -31.97          32.76   282.59            0.15     0.14     0.19            0.12     0.11     0.18           0.22    0.24
E20         24.64   16.85    1.22          48.07   41.16   61.42          73.94   56.18            0.14     0.10     0.01            0.12     0.14     0.15           0.22    0.24
E21         17.34   14.24    2.59          44.58   21.13   41.35          46.43   62.93            0.14     0.12     0.05            0.17     0.12     0.22           0.27    0.30
E22         29.93   25.53    7.83          57.59   21.34   35.65          41.55   59.10            0.22     0.21     0.12            0.20     0.12     0.23           0.28    0.33
F1           1.47    1.84    1.25          14.65   -8.20    3.35           8.86   157.80            0.02     0.02     0.02            0.13     0.10     0.14           0.19    0.21
F2           1.17    1.85    1.07          14.70  -17.56    5.90          18.53   161.43            0.01     0.02     0.01            0.13     0.20     0.19           0.26    0.31
F3           1.31    2.45    1.19          17.68  -26.00    9.33          27.62   160.26            0.02     0.04     0.02            0.18     0.21     0.19           0.26    0.33
F4           0.95    1.87    0.89          14.76  -25.50    8.83          26.99   160.91            0.01     0.01     0.01            0.06     0.29     0.20           0.27    0.35
F5           6.53    8.16    5.52          34.31  -13.05    5.53          14.18   157.02            0.08     0.08     0.08            0.18     0.11     0.18           0.24    0.27
F6           5.35    8.21    4.59          34.42  -26.59   10.57          28.61   158.33            0.06     0.09     0.07            0.19     0.11     0.24           0.28    0.33
F7           4.40    8.30    3.97          34.60  -39.44   14.51          42.03   159.80            0.07     0.12     0.10            0.24     0.09     0.27           0.32    0.37
F8           3.14    8.26    3.09          34.51  -58.08   20.15          61.48   160.86            0.03     0.06     0.04            0.12     0.15     0.19           0.23    0.27
F9          37.81   40.96   32.02          70.15   -5.36    2.64           5.98   153.78            0.20     0.21     0.24            0.15     0.13     0.17           0.23    0.26
F10         35.94   40.95   30.76          70.14  -11.45    4.57          12.33   158.24            0.19     0.20     0.23            0.14     0.09     0.21           0.23    0.27
F11         34.39   40.83   29.40          70.05  -16.34    6.57          17.61   158.10            0.20     0.22     0.25            0.15     0.07     0.30           0.31    0.34
F12         29.14   40.89   25.32          70.09  -35.56   13.52          38.05   159.19            0.22     0.26     0.23            0.18     0.13     0.29           0.30    0.37
F13         36.42   47.57   56.46          74.55  -28.89  -20.13          35.21   214.86            0.21     0.24     0.35            0.16     0.12     0.22           0.25    0.29
F14         51.18   38.49   51.16          68.38   41.12  -25.07          48.16   328.63            0.34     0.25     0.26            0.19     0.14     0.14           0.25    0.28
F15         68.46   72.59   24.03          88.25   -3.30   47.16          47.28   94.00            0.48     0.51     0.31            0.25     0.04     0.32           0.35    0.41
F16         18.96   19.66   17.05          51.45   -0.00   -1.96           1.96   269.76            0.12     0.14     0.14            0.15     0.12     0.19           0.25    0.28
F17         43.28   34.24   18.82          65.15   33.02   17.72          37.47   28.22            0.29     0.24     0.16            0.19     0.16     0.22           0.30    0.33
F18         29.60   41.14   21.72          70.28  -34.58   20.57          40.24   149.26            0.13     0.17     0.19            0.12     0.12     0.28           0.29    0.33
F19         24.03   22.56   42.41          54.62   10.27  -38.46          39.80   284.95            0.13     0.13     0.17            0.13     0.11     0.18           0.22    0.25
