targets/wolf_faust/reflective/R021105.it8
IT8.7/2
ORIGINATOR "Wolf Faust"
DESCRIPTOR "L* a* b* Batch average data (light D50, viewing angle 2, black backing)"
MANUFACTURER "Wolf Faust - http://www.coloraid.de"
CREATED "November 19, 2002"
PROD_DATE "2002:11"
SERIAL "5x7 R021105"
MATERIAL "Kodak Professional Digital 3"
KEYWORD "MEAN_DE" # Mean Delta E of samples compared to batch average
NUMBER_OF_FIELDS 17
BEGIN_DATA_FORMAT
SAMPLE_ID   XYZ_X   XYZ_Y   XYZ_Z          LAB_L   LAB_A   LAB_B          LAB_C   LAB_H          STDEV_X  STDEV_Y  STDEV_Z          STDEV_L  STDEV_A  STDEV_B        MEAN_DE  STDEV_DE
END_DATA_FORMAT
NUMBER_OF_SETS 288
BEGIN_DATA
A1           3.63    3.02    2.10          20.10   12.02    3.48          12.51   16.13            0.04     0.03     0.03            0.13     0.19     0.18           0.26    0.29
A2           4.55    3.05    1.75          20.25   24.44    7.15          25.46   16.31            0.04     0.03     0.03            0.12     0.16     0.12           0.21    0.24 
A3           6.48    3.62    1.74          22.38   37.88   10.93          39.42   16.10            0.03     0.02     0.01            0.08     0.10     0.13           0.16    0.18
A4           5.53    3.08    1.47          20.36   36.15   10.44          37.63   16.11            0.03     0.02     0.01            0.08     0.19     0.13           0.21    0.24 
A5          12.96   11.27    8.03          40.03   14.60    4.63          15.31   17.58            0.05     0.04     0.08            0.07     0.10     0.25           0.24    0.28
A6          15.39   11.38    7.03          40.21   28.93    8.91          30.27   17.12            0.06     0.04     0.04            0.07     0.19     0.20           0.24    0.28 
A7          17.70   11.33    6.16          40.13   42.22   12.57          44.05   16.58            0.05     0.05     0.03            0.08     0.12     0.18           0.20    0.23
A8          21.28   11.32    5.04          40.11   60.28   17.99          62.90   16.62            0.05     0.04     0.03            0.06     0.07     0.24           0.20    0.26 
A9          41.23   40.30   31.70          69.68    7.37    2.34           7.74   17.57            0.13     0.13     0.21            0.09     0.11     0.22           0.21    0.26
A10         43.62   40.60   30.58          69.89   13.61    4.43          14.32   18.03            0.14     0.15     0.16            0.11     0.14     0.21           0.24    0.28
A11         45.80   40.35   29.40          69.72   20.65    6.00          21.50   16.21            0.15     0.16     0.23            0.12     0.13     0.25           0.27    0.30
A12         48.64   40.39   28.10          69.75   28.42    8.18          29.58   16.06            0.07     0.10     0.17            0.07     0.13     0.19           0.22    0.24 
A13         78.88   82.39   67.77          92.75   -1.13    0.21           1.15   169.66            0.14     0.13     0.13            0.06     0.04     0.08           0.09    0.11
A14         78.29   81.33   67.52          92.27   -0.25   -0.38           0.47   233.98            0.18     0.19     0.17            0.08     0.02     0.13           0.13    0.16 
A15         78.57   82.17   66.51          92.65   -1.31    1.20           1.78   137.41            0.10     0.10     0.14            0.04     0.03     0.12           0.12    0.13
A16         77.91   80.98   66.22          92.12   -0.36    0.57           0.68   122.71            0.11     0.12     0.14            0.05     0.03     0.08           0.09    0.10
A17         77.87   80.97   66.10          92.12   -0.41    0.67           0.79   121.53            0.09     0.09     0.13            0.04     0.05     0.12           0.12    0.14
A18         78.60   82.20   66.50          92.66   -1.31    1.24           1.80   136.65            0.11     0.11     0.12            0.05     0.02     0.12           0.11    0.13 
A19         78.18   81.20   67.37          92.22   -0.22   -0.34           0.42   234.93            0.25     0.26     0.23            0.12     0.03     0.12           0.14    0.17
A20          1.47    1.18    0.78          10.39   10.24    3.23          10.74   17.49            0.02     0.01     0.01            0.08     0.16     0.08           0.17    0.20 
A21          5.34    3.40    0.83          21.56   28.70   21.63          35.94   37.00            0.04     0.02     0.01            0.09     0.15     0.09           0.17    0.20
A22         10.41    5.98    0.90          29.35   42.58   33.85          54.40   38.48            0.03     0.02     0.01            0.05     0.10     0.11           0.14    0.15
B1           3.48    3.04    1.65          20.21    9.18    8.16          12.29   41.66            0.03     0.03     0.01            0.11     0.17     0.16           0.23    0.26
B2           4.12    3.08    1.09          20.35   18.08   15.40          23.76   40.41            0.05     0.04     0.01            0.15     0.13     0.15           0.22    0.25
B3           5.48    3.62    0.84          22.37   26.84   22.88          35.27   40.45            0.02     0.02     0.01            0.06     0.22     0.12           0.21    0.26
B4           4.85    3.07    0.60          20.32   28.08   23.77          36.79   40.25            0.04     0.02     0.01            0.08     0.19     0.11           0.20    0.24
B5          12.99   11.11    5.99          39.76   15.94   12.72          20.40   38.58            0.09     0.07     0.06            0.12     0.16     0.20           0.25    0.28
B6          15.06   11.30    3.97          40.09   27.52   23.97          36.49   41.06            0.05     0.03     0.04            0.05     0.18     0.25           0.26    0.31
B7          17.45   11.35    2.47          40.17   40.69   34.74          53.50   40.49            0.05     0.03     0.02            0.04     0.18     0.16           0.21    0.25
B8          20.78   11.49    1.17          40.40   56.70   48.80          74.81   40.72            0.06     0.05     0.01            0.08     0.07     0.12           0.14    0.16
B9          41.42   40.82   30.16          70.05    6.36    5.38           8.33   40.19            0.17     0.16     0.20            0.12     0.11     0.25           0.26    0.30
B10         43.13   40.49   26.69          69.81   12.49   10.67          16.42   40.50            0.09     0.12     0.20            0.08     0.13     0.23           0.23    0.28
B11         45.37   40.60   23.75          69.89   18.65   16.05          24.61   40.70            0.16     0.16     0.21            0.11     0.12     0.22           0.24    0.27
B12         47.75   40.57   20.69          69.87   25.44   21.95          33.60   40.78            0.13     0.13     0.20            0.09     0.12     0.31           0.30    0.35
B13         70.38   76.28   66.22          89.99   -6.65   -3.12           7.34   205.12            0.20     0.18     0.08            0.08     0.10     0.12           0.15    0.18
B14         73.67   73.12   65.15          88.50    6.65   -4.67           8.13   324.89            0.13     0.15     0.12            0.07     0.07     0.10           0.12    0.14
B15         76.45   80.51   57.80          91.91   -2.37    8.44           8.77   105.70            0.11     0.12     0.07            0.05     0.01     0.09           0.09    0.11
B16         63.56   66.05   54.72          85.02   -0.27   -0.23           0.38   218.47            0.20     0.20     0.12            0.10     0.07     0.15           0.17    0.20
B17         71.15   71.11   55.67          87.54    5.54    3.11           6.36   29.27            0.14     0.15     0.18            0.07     0.05     0.20           0.19    0.22
B18         68.06   74.45   56.60          89.13   -7.97    4.88           9.35   148.51            0.22     0.19     0.19            0.09     0.11     0.23           0.23    0.27
B19         65.83   67.87   63.72          85.94    0.87   -7.72           7.77   276.42            0.15     0.16     0.11            0.08     0.10     0.15           0.17    0.19
B20          2.96    2.12    0.79          16.09   18.19   12.94          22.32   35.43            0.02     0.02     0.01            0.07     0.13     0.11           0.16    0.18
B21          8.69    5.09    0.85          26.99   38.92   30.60          49.51   38.17            0.03     0.03     0.01            0.07     0.13     0.09           0.16    0.17
B22         29.65   25.18   11.83          57.25   21.76   21.61          30.67   44.80            0.10     0.09     0.08            0.09     0.14     0.26           0.28    0.31
C1           4.65    4.46    2.37          25.14    4.72    9.68          10.77   63.98            0.04     0.04     0.01            0.11     0.11     0.12           0.17    0.20
C2           4.95    4.48    1.46          25.21    8.26   18.96          20.68   66.46            0.04     0.04     0.01            0.12     0.10     0.12           0.17    0.20
C3           6.12    5.15    0.92          27.17   13.34   29.84          32.68   65.91            0.07     0.06     0.01            0.16     0.18     0.19           0.27    0.31
C4           5.34    4.49    0.82          25.23   12.90   28.12          30.94   65.36            0.04     0.04     0.01            0.11     0.20     0.14           0.23    0.27
C5          24.32   23.02   10.88          55.09    9.47   20.77          22.83   65.49            0.08     0.06     0.11            0.07     0.20     0.32           0.34    0.38
C6          26.04   22.79    5.75          54.85   17.80   39.84          43.64   65.92            0.08     0.07     0.04            0.07     0.13     0.18           0.21    0.23
C7          28.43   23.05    2.50          55.12   26.22   60.30          65.75   66.50            0.10     0.09     0.01            0.09     0.15     0.11           0.18    0.21
C8          29.36   22.87    1.48          54.94   30.62   69.99          76.39   66.37            0.06     0.06     0.01            0.06     0.12     0.10           0.16    0.17
C9          48.38   48.62   33.18          75.21    4.17    9.65          10.52   66.60            0.17     0.16     0.25            0.10     0.11     0.27           0.26    0.31
C10         49.54   48.39   27.27          75.07    7.90   18.75          20.35   67.14            0.10     0.10     0.22            0.06     0.11     0.29           0.27    0.32
C11         51.04   48.34   22.13          75.04   12.04   27.99          30.46   66.72            0.18     0.19     0.22            0.12     0.13     0.32           0.31    0.37
C12         52.22   47.78   17.68          74.69   16.68   36.68          40.30   65.55            0.14     0.16     0.18            0.10     0.11     0.29           0.29    0.33
C13         61.21   69.18   64.14          86.59  -12.50   -7.01          14.32   209.27            0.23     0.23     0.19            0.11     0.08     0.17           0.19    0.22
C14         67.58   62.89   61.81          83.38   15.76  -10.28          18.82   326.88            0.13     0.14     0.10            0.07     0.07     0.12           0.12    0.15
C15         73.78   78.22   46.94          90.88   -3.37   18.57          18.87   100.27            0.17     0.19     0.15            0.08     0.02     0.18           0.16    0.20
C16         49.11   50.69   41.81          76.49    0.66    0.02           0.69   162.61            0.19     0.18     0.16            0.11     0.10     0.22           0.24    0.27
C17         62.85   59.49   43.40          81.56   13.00    6.77          14.66   27.52            0.10     0.10     0.24            0.06     0.10     0.23           0.21    0.26
C18         57.12   65.78   45.21          84.89  -14.94   10.29          18.14   145.44            0.17     0.15     0.27            0.08     0.10     0.30           0.28    0.33
C19         53.10   53.61   58.69          78.23    3.64  -16.05          16.45   282.79            0.16     0.14     0.07            0.08     0.11     0.14           0.17    0.19
C20          1.84    1.54    0.75          12.85    9.20    7.97          12.17   40.93            0.02     0.02     0.00            0.12     0.13     0.14           0.19    0.23
C21         23.44   17.70    4.97          49.12   31.33   33.91          46.17   47.26            0.12     0.09     0.06            0.11     0.14     0.20           0.24    0.27
C22         35.36   32.00   17.38          63.34   15.89   17.81          23.87   48.28            0.15     0.14     0.13            0.12     0.07     0.27           0.28    0.30
D1           4.23    4.38    2.31          24.89    0.05    9.76           9.77   89.73            0.02     0.02     0.02            0.07     0.12     0.11           0.16    0.18
D2           4.29    4.47    1.46          25.16   -0.24   18.81          18.81   90.73            0.05     0.05     0.02            0.16     0.13     0.12           0.20    0.24
D3           5.27    5.54    1.03          28.21   -0.78   29.83          29.84   91.50            0.04     0.04     0.01            0.10     0.17     0.13           0.21    0.23
D4           4.27    4.45    0.91          25.10   -0.30   26.41          26.41   90.66            0.03     0.03     0.01            0.10     0.16     0.15           0.21    0.24
D5          26.85   27.88   13.87          59.78   -0.11   20.29          20.29   90.30            0.12     0.11     0.13            0.10     0.17     0.23           0.27    0.30
D6          26.88   28.02    7.81          59.91   -0.57   39.73          39.74   90.82            0.12     0.11     0.04            0.10     0.15     0.18           0.21    0.26
D7          26.69   28.05    3.73          59.93   -1.44   59.69          59.70   91.38            0.12     0.12     0.02            0.10     0.09     0.15           0.16    0.20
D8          26.38   27.98    1.97          59.87   -2.46   73.25          73.29   91.92            0.10     0.09     0.01            0.08     0.10     0.12           0.15    0.18
D9          55.03   57.03   38.73          80.20    0.09   10.43          10.43   89.49            0.15     0.14     0.22            0.08     0.07     0.25           0.23    0.27
D10         54.69   56.73   31.03          80.03   -0.03   21.22          21.22   90.08            0.12     0.12     0.21            0.07     0.07     0.29           0.27    0.30
D11         54.18   56.61   25.10          79.96   -1.02   30.94          30.96   91.89            0.17     0.17     0.24            0.10     0.08     0.34           0.31    0.36
D12         53.40   56.48    6.48          79.88   -2.69   79.65          79.70   91.93            0.13     0.12     0.05            0.07     0.11     0.18           0.18    0.22
D13         52.07   61.64   61.52          82.72  -18.35  -11.14          21.47   211.27            0.10     0.09     0.08            0.05     0.08     0.10           0.12    0.14
D14         62.09   54.37   58.36          78.68   23.69  -14.95          28.01   327.74            0.15     0.15     0.15            0.09     0.09     0.07           0.13    0.15
D15         71.55   76.08   38.19          89.90   -3.77   27.88          28.14   97.70            0.11     0.11     0.13            0.05     0.03     0.14           0.12    0.15
D16         37.26   38.63   32.02          68.49    0.02   -0.21           0.27   263.69            0.16     0.16     0.14            0.12     0.11     0.21           0.24    0.27
D17         56.02   50.42   33.84          76.32   19.27   10.59          21.99   28.79            0.08     0.10     0.19            0.06     0.13     0.22           0.23    0.26
D18         46.74   57.02   36.10          80.19  -21.84   14.02          25.95   147.31            0.22     0.21     0.22            0.12     0.12     0.23           0.25    0.28
D19         41.86   41.72   53.30          70.68    4.98  -23.45          23.97   282.00            0.12     0.10     0.09            0.07     0.16     0.08           0.16    0.19
D20         14.24   10.78    2.79          39.20   26.36   30.48          40.30   49.15            0.06     0.05     0.03            0.09     0.15     0.18           0.22    0.25
D21         22.03   21.12   11.75          53.07    7.94   14.64          16.66   61.53            0.12     0.11     0.07            0.13     0.14     0.21           0.25    0.28
D22         38.58   36.69   19.87          67.05   10.48   18.76          21.49   60.81            0.15     0.13     0.16            0.10     0.15     0.27           0.26    0.32
E1           3.84    4.33    2.36          24.74   -4.86    9.04          10.27   118.27            0.03     0.03     0.02            0.09     0.18     0.09           0.19    0.22
E2           3.66    4.51    1.53          25.27   -9.93   18.20          20.74   118.61            0.04     0.05     0.01            0.14     0.12     0.11           0.18    0.21
E3           4.10    5.53    1.11          28.18  -15.95   28.63          32.77   119.12            0.03     0.04     0.01            0.11     0.09     0.16           0.19    0.21
E4           3.38    4.45    0.99          25.12  -13.64   25.08          28.55   118.54            0.02     0.03     0.01            0.08     0.10     0.11           0.14    0.17
E5          12.84   14.48    7.85          44.91   -7.18   13.70          15.47   117.67            0.05     0.06     0.07            0.08     0.11     0.18           0.20    0.22
E6          11.63   14.37    4.81          44.76  -14.87   27.21          31.01   118.66            0.05     0.05     0.04            0.08     0.15     0.16           0.21    0.23
E7          10.64   14.44    2.61          44.86  -22.47   41.64          47.32   118.35            0.06     0.06     0.02            0.09     0.09     0.09           0.13    0.15
E8          10.01   14.60    1.71          45.08  -28.24   50.43          57.80   119.26            0.04     0.06     0.01            0.08     0.10     0.14           0.17    0.19
E9          38.00   40.76   28.54          70.01   -4.14    7.89           8.91   117.67            0.10     0.09     0.13            0.07     0.07     0.19           0.18    0.22
E10         36.83   40.94   24.10          70.13   -8.51   15.81          17.95   118.28            0.16     0.15     0.17            0.11     0.09     0.15           0.17    0.21
E11         35.16   40.40   19.69          69.75  -12.39   23.80          26.83   117.51            0.13     0.13     0.18            0.09     0.08     0.26           0.25    0.28
E12         31.12   40.61    9.62          69.90  -27.30   50.41          57.32   118.44            0.14     0.13     0.09            0.09     0.13     0.26           0.26    0.31
E13         43.25   53.82   58.49          78.36  -23.98  -15.63          28.62   213.10            0.13     0.14     0.12            0.08     0.07     0.08           0.12    0.13
E14         56.01   45.52   54.15          73.23   32.56  -19.94          38.18   328.51            0.11     0.12     0.10            0.08     0.09     0.07           0.12    0.13
E15         69.43   73.81   30.19          88.83   -3.71   37.69          37.87   95.61            0.14     0.15     0.13            0.07     0.03     0.21           0.18    0.22
E16         26.66   27.68   23.42          59.60   -0.16   -1.08           1.09   261.06            0.10     0.09     0.13            0.09     0.07     0.19           0.19    0.22
E17         48.88   41.30   25.27          70.38   26.31   14.13          29.87   28.24            0.06     0.07     0.16            0.05     0.13     0.23           0.24    0.27
E18         37.02   48.15   27.90          74.92  -28.48   17.42          33.39   148.54            0.15     0.15     0.11            0.09     0.11     0.16           0.19    0.21
E19         31.70   30.83   47.26          62.36    7.32  -30.98          31.84   283.30            0.17     0.14     0.24            0.12     0.13     0.09           0.16    0.20
E20         24.42   16.68    1.27          47.85   41.13   60.38          73.06   55.74            0.09     0.08     0.01            0.10     0.08     0.10           0.14    0.16
E21         17.46   14.37    2.75          44.76   20.98   40.39          45.52   62.55            0.13     0.10     0.03            0.15     0.17     0.24           0.28    0.33
E22         29.80   25.55    8.25          57.61   20.77   34.11          39.93   58.66            0.12     0.09     0.05            0.09     0.11     0.27           0.27    0.31
F1           1.54    1.94    1.39          15.19   -8.43    2.54           8.81   163.21            0.01     0.01     0.01            0.06     0.10     0.07           0.12    0.14
F2           1.21    1.90    1.13          14.96  -17.26    5.52          18.12   162.25            0.01     0.01     0.01            0.08     0.14     0.12           0.16    0.20
F3           1.38    2.57    1.32          18.22  -26.03    8.62          27.42   161.68            0.01     0.02     0.01            0.08     0.09     0.13           0.16    0.18
F4           1.01    1.95    0.96          15.25  -25.24    8.52          26.64   161.36            0.01     0.03     0.01            0.13     0.16     0.13           0.18    0.24
F5           6.82    8.49    5.93          34.97  -12.96    4.72          13.80   159.98            0.05     0.06     0.07            0.11     0.12     0.22           0.23    0.27
F6           5.49    8.32    5.08          34.65  -25.99    8.36          27.30   162.16            0.02     0.04     0.03            0.07     0.09     0.15           0.17    0.19
F7           4.55    8.43    4.25          34.86  -38.48   13.26          40.70   160.98            0.02     0.03     0.03            0.07     0.07     0.17           0.18    0.20
F8           3.12    8.13    3.14          34.24  -57.16   19.36          60.35   161.29            0.01     0.03     0.02            0.06     0.10     0.11           0.15    0.16
F9          37.78   40.96   31.99          70.15   -5.45    2.71           6.09   153.61            0.10     0.09     0.14            0.06     0.09     0.13           0.14    0.17
F10         35.93   40.69   30.56          69.96  -10.71    4.59          11.66   156.83            0.14     0.13     0.20            0.10     0.10     0.19           0.21    0.24
F11         34.08   40.56   29.22          69.87  -16.60    6.56          17.85   158.43            0.12     0.14     0.17            0.10     0.07     0.20           0.20    0.23
F12         28.98   40.52   25.89          69.84  -35.06   12.10          37.09   160.96            0.14     0.15     0.20            0.10     0.12     0.25           0.25    0.30
F13         36.09   47.04   55.28          74.21  -28.51  -19.46          34.52   214.32            0.09     0.09     0.12            0.06     0.10     0.11           0.14    0.16
F14         50.79   38.50   50.23          68.39   40.06  -24.01          46.71   329.07            0.08     0.10     0.10            0.08     0.12     0.13           0.17    0.20
F15         67.54   71.60   24.01          87.78   -3.25   46.39          46.51   94.01            0.11     0.12     0.11            0.06     0.01     0.18           0.15    0.19
F16         19.17   19.92   17.22          51.74   -0.16   -1.82           1.84   264.61            0.10     0.08     0.15            0.10     0.17     0.31           0.34    0.36
F17         43.13   34.32   18.97          65.21   32.34   17.50          36.77   28.43            0.06     0.06     0.13            0.05     0.10     0.24           0.23    0.27
F18         29.50   40.83   21.68          70.06  -34.03   20.29          39.62   149.21            0.14     0.14     0.16            0.10     0.13     0.21           0.23    0.27
F19         24.09   22.75   41.86          54.82    9.68  -37.40          38.63   284.52            0.08     0.08     0.08            0.08     0.15     0.04           0.14    0.18
