targets/wolf_faust/reflective/R021106WhiteBacking.it8
IT8.7/2
ORIGINATOR "Wolf Faust"
DESCRIPTOR "L* a* b* Batch average data (light D50, viewing angle 2, white backing)"
MANUFACTURER "Wolf Faust - http://www.coloraid.de"
CREATED "November 19, 2002"
PROD_DATE "2002:11"
SERIAL "5x7 R021106"
MATERIAL "Kodak Professional Digital 3"
KEYWORD "MEAN_DE" # Mean Delta E of samples compared to batch average
NUMBER_OF_FIELDS 17
BEGIN_DATA_FORMAT
SAMPLE_ID   XYZ_X   XYZ_Y   XYZ_Z          LAB_L   LAB_A   LAB_B          LAB_C   LAB_H          STDEV_X  STDEV_Y  STDEV_Z          STDEV_L  STDEV_A  STDEV_B        MEAN_DE  STDEV_DE
END_DATA_FORMAT
NUMBER_OF_SETS 288
BEGIN_DATA
A1           3.53    2.98    2.00          19.95   11.02    4.09          11.76   20.34            0.03     0.03     0.03            0.13     0.14     0.14           0.21    0.24
A2           4.44    2.98    1.65          19.95   24.30    7.67          25.48   17.52            0.06     0.04     0.04            0.17     0.14     0.19           0.25    0.29 
A3           6.34    3.52    1.63          22.00   37.94   11.45          39.63   16.79            0.04     0.03     0.02            0.10     0.18     0.12           0.19    0.24
A4           5.48    3.02    1.33          20.13   36.54   11.76          38.38   17.84            0.05     0.02     0.02            0.09     0.25     0.22           0.28    0.34 
A5          12.88   11.18    7.64          39.89   14.73    5.87          15.85   21.73            0.13     0.11     0.11            0.19     0.15     0.20           0.28    0.31
A6          15.24   11.16    6.63          39.84   29.66    9.99          31.30   18.61            0.12     0.08     0.12            0.14     0.13     0.32           0.32    0.38 
A7          17.64   11.18    5.67          39.88   42.98   14.46          45.35   18.60            0.08     0.06     0.08            0.10     0.17     0.26           0.29    0.33
A8          21.53   11.38    4.77          40.22   61.00   19.62          64.08   17.83            0.08     0.06     0.05            0.10     0.12     0.25           0.27    0.30 
A9          41.91   40.91   31.62          70.11    7.60    3.20           8.24   22.82            0.09     0.12     0.15            0.08     0.07     0.16           0.18    0.19
A10         44.02   40.74   29.92          69.99   14.35    5.65          15.42   21.48            0.15     0.16     0.19            0.11     0.10     0.17           0.20    0.22
A11         46.43   40.70   28.92          69.97   21.36    7.21          22.55   18.64            0.10     0.11     0.19            0.07     0.10     0.25           0.24    0.28
A12         49.11   40.63   27.23          69.92   28.98    9.92          30.63   18.89            0.12     0.14     0.24            0.09     0.17     0.28           0.26    0.34 
A13         80.75   84.28   69.10          93.57   -1.00    0.40           1.07   158.14            0.17     0.18     0.14            0.08     0.01     0.10           0.11    0.13
A14         80.19   83.23   68.92          93.12   -0.12   -0.22           0.27   233.84            0.19     0.20     0.14            0.09     0.03     0.12           0.12    0.16 
A15         80.40   84.01   67.66          93.46   -1.18    1.53           1.93   127.61            0.18     0.18     0.19            0.08     0.03     0.11           0.12    0.14
A16         79.65   82.73   67.32          92.89   -0.23    0.87           0.90   105.29            0.13     0.14     0.10            0.06     0.03     0.13           0.12    0.14
A17         79.69   82.79   67.32          92.92   -0.26    0.92           0.96   106.24            0.18     0.18     0.07            0.08     0.04     0.13           0.12    0.15
A18         80.41   84.02   67.61          93.46   -1.19    1.58           1.98   126.97            0.17     0.18     0.14            0.08     0.03     0.16           0.14    0.18 
A19         80.04   83.07   68.78          93.05   -0.10   -0.21           0.24   236.83            0.17     0.18     0.15            0.08     0.03     0.13           0.13    0.15
A20          1.34    1.08    0.72           9.60    9.94    2.95          10.37   16.53            0.02     0.01     0.01            0.10     0.18     0.13           0.21    0.24 
A21          5.29    3.32    0.75          21.30   29.18   22.49          36.85   37.63            0.05     0.04     0.01            0.13     0.17     0.18           0.25    0.28
A22         10.48    5.92    0.80          29.22   43.70   35.23          56.13   38.87            0.06     0.04     0.02            0.09     0.17     0.25           0.26    0.32
B1           3.37    2.96    1.57          19.90    8.78    8.52          12.23   44.17            0.06     0.05     0.03            0.20     0.20     0.13           0.26    0.31
B2           4.08    3.02    1.01          20.14   18.41   16.27          24.57   41.47            0.06     0.04     0.01            0.17     0.19     0.19           0.27    0.32
B3           5.26    3.47    0.78          21.82   26.70   23.02          35.26   40.77            0.04     0.03     0.01            0.10     0.29     0.15           0.29    0.34
B4           4.77    3.00    0.54          20.04   28.15   24.36          37.22   40.88            0.04     0.03     0.01            0.11     0.15     0.15           0.20    0.24
B5          13.02   11.28    5.63          40.05   14.92   14.91          21.09   44.97            0.14     0.12     0.10            0.20     0.17     0.15           0.27    0.30
B6          15.00   11.22    3.78          39.95   27.73   24.87          37.25   41.88            0.09     0.09     0.06            0.14     0.16     0.17           0.25    0.27
B7          17.66   11.44    2.24          40.30   41.26   36.99          55.42   41.88            0.11     0.08     0.03            0.13     0.09     0.19           0.21    0.25
B8          20.82   11.37    1.04          40.20   57.71   50.30          76.55   41.08            0.07     0.05     0.01            0.09     0.05     0.12           0.14    0.16
B9          41.52   40.69   29.11          69.96    7.05    6.89           9.86   44.32            0.18     0.17     0.19            0.12     0.10     0.24           0.25    0.29
B10         43.92   41.31   25.98          70.39   12.32   12.90          17.84   46.32            0.15     0.13     0.15            0.09     0.12     0.20           0.20    0.25
B11         45.52   40.69   23.04          69.96   18.79   17.49          25.67   42.93            0.16     0.16     0.22            0.11     0.15     0.25           0.28    0.31
B12         48.09   40.49   20.12          69.82   26.60   23.02          35.17   40.87            0.12     0.13     0.20            0.09     0.09     0.31           0.26    0.34
B13         73.85   79.35   67.87          91.39   -5.43   -2.23           5.87   202.30            0.18     0.16     0.08            0.07     0.09     0.10           0.13    0.15
B14         75.76   75.34   66.69          89.55    6.40   -4.31           7.72   326.07            0.19     0.18     0.09            0.09     0.06     0.09           0.12    0.14
B15         78.15   82.24   58.79          92.68   -2.26    8.75           9.04   104.48            0.19     0.20     0.19            0.09     0.02     0.23           0.20    0.25
B16         66.90   69.13   55.97          86.57    0.54    1.12           1.25   63.42            0.21     0.23     0.25            0.11     0.08     0.18           0.19    0.23
B17         73.17   73.29   56.97          88.59    5.25    3.56           6.35   34.12            0.10     0.11     0.20            0.05     0.06     0.18           0.17    0.20
B18         71.56   77.54   58.02          90.57   -6.66    5.89           8.89   138.50            0.12     0.14     0.09            0.07     0.05     0.11           0.11    0.13
B19         69.37   71.09   65.50          87.53    1.77   -6.68           6.91   284.86            0.12     0.14     0.12            0.07     0.07     0.12           0.14    0.16
B20          2.88    2.03    0.71          15.66   18.72   13.64          23.16   36.08            0.05     0.03     0.01            0.15     0.31     0.26           0.37    0.43
B21          8.71    5.04    0.76          26.85   39.70   31.99          50.98   38.86            0.06     0.03     0.01            0.09     0.24     0.16           0.25    0.30
B22         29.43   24.78   11.31          56.86   22.60   22.50          31.89   44.87            0.14     0.15     0.16            0.15     0.13     0.29           0.29    0.35
C1           4.49    4.32    2.07          24.71    4.48   11.64          12.48   68.95            0.06     0.06     0.04            0.18     0.14     0.20           0.27    0.31
C2           4.89    4.43    1.35          25.04    8.21   20.06          21.68   67.74            0.05     0.05     0.02            0.13     0.13     0.21           0.24    0.28
C3           6.00    5.09    0.85          26.98   12.92   30.50          33.13   67.04            0.06     0.05     0.01            0.15     0.08     0.21           0.24    0.27
C4           5.20    4.38    0.76          24.88   12.67   28.56          31.24   66.08            0.04     0.03     0.01            0.11     0.16     0.23           0.25    0.30
C5          23.90   22.63   10.42          54.69    9.37   21.56          23.51   66.52            0.16     0.17     0.14            0.18     0.18     0.20           0.29    0.33
C6          26.19   22.80    5.13          54.86   18.37   42.96          46.73   66.85            0.15     0.15     0.08            0.16     0.10     0.30           0.31    0.35
C7          28.38   22.80    2.32          54.86   27.17   61.38          67.13   66.13            0.12     0.12     0.04            0.13     0.16     0.20           0.25    0.29
C8          29.58   22.92    1.41          54.99   31.24   70.93          77.51   66.23            0.10     0.11     0.01            0.11     0.14     0.20           0.23    0.26
C9          48.44   48.56   32.50          75.18    4.48   10.60          11.51   67.11            0.12     0.12     0.17            0.07     0.09     0.20           0.21    0.23
C10         50.56   49.05   26.90          75.48    8.88   20.08          21.95   66.13            0.14     0.14     0.21            0.09     0.09     0.25           0.24    0.28
C11         51.42   48.55   21.62          75.17   12.50   29.22          31.78   66.83            0.14     0.16     0.23            0.10     0.11     0.37           0.33    0.40
C12         53.39   49.03   16.29          75.47   16.31   41.25          44.35   68.42            0.17     0.21     0.18            0.14     0.15     0.27           0.29    0.33
C13         60.83   69.31   65.06          86.66  -13.68   -7.76          15.73   209.58            0.14     0.12     0.08            0.06     0.08     0.08           0.11    0.13
C14         70.05   65.77   63.65          84.88   14.67   -9.49          17.47   327.09            0.14     0.16     0.16            0.08     0.12     0.12           0.16    0.19
C15         75.51   79.95   48.33          91.66   -3.19   18.29          18.57   99.90            0.19     0.19     0.27            0.09     0.03     0.20           0.18    0.22
C16         49.43   52.00   43.12          77.28   -1.90   -0.26           1.91   187.64            0.16     0.16     0.16            0.09     0.10     0.13           0.17    0.18
C17         65.31   62.37   44.95          83.11   11.91    7.54          14.10   32.34            0.11     0.14     0.19            0.07     0.14     0.19           0.23    0.25
C18         56.82   65.98   46.37          84.99  -16.09    9.08          18.47   150.57            0.13     0.12     0.23            0.06     0.08     0.25           0.23    0.27
C19         53.42   54.98   59.95          79.03    1.04  -15.94          15.97   273.74            0.23     0.23     0.15            0.13     0.06     0.15           0.17    0.21
C20          1.76    1.45    0.68          12.31    9.64    8.45          12.82   41.23            0.02     0.02     0.00            0.13     0.19     0.20           0.26    0.30
C21         23.42   17.43    4.26          48.80   32.65   37.23          49.52   48.75            0.11     0.10     0.06            0.13     0.07     0.24           0.25    0.28
C22         35.31   31.86   16.78          63.22   16.25   18.99          24.99   49.45            0.18     0.17     0.22            0.14     0.06     0.31           0.31    0.35
D1           4.17    4.32    2.15          24.71    0.07   10.93          10.93   89.64            0.05     0.05     0.04            0.16     0.13     0.13           0.19    0.24
D2           4.17    4.36    1.38          24.83   -0.51   19.23          19.24   91.53            0.05     0.05     0.02            0.17     0.14     0.19           0.26    0.29
D3           5.11    5.37    0.97          27.75   -0.80   29.98          29.99   91.53            0.06     0.07     0.01            0.18     0.14     0.24           0.28    0.33
D4           4.12    4.30    0.84          24.66   -0.46   26.79          26.80   90.98            0.04     0.04     0.01            0.11     0.14     0.23           0.24    0.29
D5          27.37   28.31   13.51          60.17    0.27   21.92          21.92   89.29            0.25     0.26     0.20            0.23     0.11     0.22           0.30    0.34
D6          27.03   28.15    7.20          60.02   -0.42   42.38          42.38   90.57            0.15     0.15     0.10            0.14     0.07     0.21           0.23    0.26
D7          26.99   28.31    3.58          60.17   -1.25   61.04          61.05   91.17            0.18     0.20     0.05            0.18     0.12     0.17           0.25    0.27
D8          26.84   28.25    1.90          60.11   -1.60   74.28          74.30   91.23            0.10     0.11     0.01            0.10     0.11     0.20           0.20    0.25
D9          55.03   57.15   37.89          80.27   -0.19   11.68          11.68   90.93            0.13     0.12     0.14            0.07     0.10     0.17           0.18    0.21
D10         54.79   57.07   30.11          80.22   -0.63   22.99          23.00   91.56            0.10     0.09     0.13            0.05     0.09     0.20           0.20    0.23
D11         55.43   57.53   24.63          80.48   -0.10   32.68          32.68   90.18            0.24     0.24     0.27            0.13     0.09     0.39           0.35    0.42
D12         54.52   57.18    5.98          80.28   -1.55   82.63          82.65   91.08            0.11     0.12     0.06            0.07     0.13     0.19           0.19    0.24
D13         50.95   61.04   62.09          82.40  -19.92  -12.25          23.39   211.60            0.21     0.20     0.14            0.11     0.11     0.06           0.13    0.16
D14         62.65   54.31   58.98          78.64   25.13  -15.64          29.60   328.11            0.12     0.14     0.08            0.08     0.10     0.09           0.12    0.16
D15         72.95   77.48   38.17          90.54   -3.63   29.02          29.25   97.13            0.09     0.09     0.20            0.04     0.02     0.23           0.18    0.24
D16         35.72   37.29   31.49          67.50   -0.79   -1.11           1.37   234.15            0.06     0.08     0.16            0.06     0.11     0.23           0.22    0.26
D17         56.33   50.22   33.50          76.21   20.54   10.88          23.24   27.93            0.11     0.12     0.11            0.07     0.08     0.11           0.13    0.15
D18         45.57   56.34   35.96          79.80  -23.48   13.55          27.11   150.01            0.15     0.15     0.22            0.09     0.06     0.22           0.20    0.25
D19         40.59   40.61   53.35          69.90    4.46  -24.83          25.23   280.19            0.15     0.19     0.18            0.13     0.13     0.06           0.15    0.19
D20         14.19   10.70    2.58          39.07   26.60   31.99          41.60   50.26            0.10     0.09     0.05            0.15     0.19     0.24           0.29    0.34
D21         21.55   20.70   11.40          52.62    7.66   14.90          16.75   62.78            0.11     0.12     0.11            0.14     0.13     0.20           0.25    0.28
D22         38.91   36.81   19.25          67.13   11.13   20.22          23.08   61.16            0.17     0.18     0.19            0.13     0.12     0.24           0.26    0.30
E1           3.80    4.31    2.20          24.67   -5.14   10.40          11.60   116.29            0.03     0.03     0.02            0.09     0.08     0.13           0.15    0.18
E2           3.55    4.36    1.43          24.83   -9.72   18.63          21.02   117.55            0.05     0.06     0.02            0.19     0.05     0.19           0.23    0.28
E3           4.02    5.40    1.05          27.85  -15.66   28.98          32.94   118.38            0.05     0.06     0.01            0.16     0.16     0.22           0.27    0.32
E4           3.32    4.39    0.93          24.92  -13.74   25.71          29.16   118.12            0.05     0.05     0.01            0.17     0.11     0.31           0.28    0.36
E5          12.68   14.29    7.32          44.64   -7.15   15.39          16.97   114.91            0.15     0.17     0.12            0.24     0.09     0.18           0.29    0.31
E6          11.61   14.41    4.53          44.81  -15.28   28.86          32.65   117.90            0.12     0.14     0.07            0.19     0.07     0.13           0.21    0.24
E7          10.49   14.34    2.50          44.72  -23.01   42.32          48.17   118.54            0.13     0.15     0.03            0.22     0.10     0.24           0.28    0.34
E8           9.91   14.45    1.65          44.87  -28.15   50.68          57.97   119.06            0.06     0.06     0.02            0.08     0.14     0.34           0.29    0.37
E9          38.22   40.93   27.59          70.13   -3.96    9.70          10.47   112.20            0.14     0.16     0.10            0.11     0.11     0.18           0.21    0.24
E10         37.10   41.15   23.17          70.28   -8.24   17.80          19.61   114.85            0.08     0.09     0.13            0.06     0.04     0.22           0.19    0.23
E11         35.53   41.12   19.33          70.26  -13.34   25.45          28.73   117.66            0.18     0.19     0.14            0.14     0.05     0.12           0.17    0.19
E12         31.08   40.69    9.27          69.96  -27.68   51.73          58.67   118.15            0.15     0.17     0.12            0.12     0.09     0.28           0.27    0.32
E13         43.15   54.03   59.19          78.48  -24.79  -16.13          29.58   213.06            0.21     0.20     0.12            0.11     0.13     0.21           0.24    0.27
E14         56.88   45.97   55.01          73.53   33.45  -20.36          39.16   328.67            0.13     0.16     0.13            0.11     0.17     0.10           0.19    0.22
E15         70.86   75.22   30.45          89.50   -3.53   38.44          38.60   95.24            0.15     0.15     0.22            0.07     0.02     0.27           0.23    0.28
E16         26.37   27.48   23.45          59.41   -0.48   -1.47           1.55   251.67            0.10     0.11     0.09            0.10     0.14     0.14           0.20    0.23
E17         49.53   41.63   25.42          70.61   27.10   14.26          30.63   27.76            0.10     0.10     0.15            0.07     0.08     0.25           0.23    0.27
E18         36.86   48.29   28.07          75.01  -29.39   17.29          34.10   149.53            0.15     0.15     0.20            0.10     0.10     0.20           0.20    0.24
E19         31.58   30.77   47.75          62.31    7.11  -31.64          32.43   282.67            0.14     0.14     0.13            0.13     0.08     0.16           0.19    0.22
E20         24.77   16.89    1.20          48.12   41.47   61.71          74.35   56.10            0.09     0.09     0.01            0.12     0.15     0.18           0.20    0.26
E21         17.36   14.22    2.56          44.54   21.38   41.57          46.75   62.79            0.12     0.11     0.04            0.16     0.11     0.18           0.23    0.26
E22         29.97   25.50    7.73          57.55   21.63   36.00          42.00   59.00            0.15     0.13     0.12            0.13     0.09     0.27           0.25    0.31
F1           1.47    1.84    1.24          14.62   -8.17    3.43           8.86   157.26            0.02     0.02     0.02            0.11     0.09     0.13           0.15    0.19
F2           1.17    1.85    1.06          14.70  -17.48    6.01          18.48   161.02            0.02     0.03     0.02            0.14     0.30     0.27           0.32    0.42
F3           1.31    2.45    1.18          17.68  -26.01    9.52          27.70   159.91            0.02     0.04     0.02            0.15     0.11     0.20           0.23    0.27
F4           0.95    1.87    0.88          14.76  -25.45    8.96          26.98   160.61            0.01     0.02     0.01            0.11     0.22     0.12           0.21    0.27
F5           6.52    8.14    5.48          34.27  -13.00    5.70          14.20   156.33            0.08     0.09     0.07            0.19     0.08     0.12           0.22    0.24
F6           5.34    8.18    4.54          34.35  -26.52   10.73          28.61   157.97            0.06     0.08     0.06            0.17     0.11     0.11           0.21    0.23
F7           4.37    8.25    3.90          34.49  -39.37   14.77          42.05   159.45            0.05     0.08     0.06            0.16     0.16     0.23           0.27    0.32
F8           3.14    8.26    3.05          34.51  -58.01   20.45          61.51   160.58            0.04     0.08     0.04            0.17     0.08     0.14           0.20    0.24
F9          37.83   40.96   31.81          70.15   -5.29    2.98           6.08   150.65            0.19     0.18     0.21            0.12     0.13     0.21           0.23    0.28
F10         35.97   40.97   30.54          70.15  -11.41    4.95          12.44   156.57            0.12     0.12     0.22            0.08     0.06     0.26           0.23    0.28
F11         34.38   40.82   29.15          70.05  -16.33    6.97          17.76   156.88            0.17     0.16     0.21            0.11     0.11     0.26           0.26    0.30
F12         29.11   40.86   25.11          70.08  -35.61   13.89          38.22   158.70            0.23     0.25     0.21            0.17     0.15     0.17           0.25    0.29
F13         36.34   47.54   56.15          74.54  -29.09  -19.81          35.19   214.26            0.14     0.15     0.10            0.09     0.09     0.11           0.15    0.17
F14         51.34   38.52   50.86          68.40   41.45  -24.68          48.25   329.23            0.09     0.09     0.11            0.07     0.09     0.08           0.12    0.14
F15         68.78   72.79   23.78          88.35   -3.01   47.82          47.91   93.60            0.08     0.10     0.19            0.05     0.03     0.29           0.25    0.30
F16         18.88   19.57   16.88          51.34    0.08   -1.74           1.74   272.59            0.08     0.08     0.08            0.09     0.12     0.12           0.17    0.19
F17         43.43   34.26   18.63          65.17   33.40   18.16          38.02   28.54            0.12     0.11     0.15            0.09     0.08     0.22           0.21    0.25
F18         29.55   41.10   21.54          70.25  -34.64   20.88          40.45   148.92            0.16     0.17     0.19            0.12     0.12     0.21           0.23    0.27
F19         23.99   22.53   42.15          54.59   10.21  -38.17          39.51   284.97            0.16     0.15     0.13            0.15     0.07     0.12           0.18    0.20
