targets/wolf_faust/reflective/R021105WhiteBacking.it8
IT8.7/2
ORIGINATOR "Wolf Faust"
DESCRIPTOR "L* a* b* Batch average data (light D50, viewing angle 2, white backing)"
MANUFACTURER "Wolf Faust - http://www.coloraid.de"
CREATED "November 19, 2002"
PROD_DATE "2002:11"
SERIAL "5x7 R021105"
MATERIAL "Kodak Professional Digital 3"
KEYWORD "MEAN_DE" # Mean Delta E of samples compared to batch average
NUMBER_OF_FIELDS 17
BEGIN_DATA_FORMAT
SAMPLE_ID   XYZ_X   XYZ_Y   XYZ_Z          LAB_L   LAB_A   LAB_B          LAB_C   LAB_H          STDEV_X  STDEV_Y  STDEV_Z          STDEV_L  STDEV_A  STDEV_B        MEAN_DE  STDEV_DE
END_DATA_FORMAT
NUMBER_OF_SETS 288
BEGIN_DATA
A1           3.68    3.06    2.10          20.26   12.06    3.69          12.62   17.00            0.03     0.02     0.02            0.09     0.16     0.17           0.22    0.25
A2           4.64    3.10    1.76          20.46   24.74    7.35          25.81   16.54            0.04     0.03     0.02            0.11     0.23     0.16           0.27    0.31 
A3           6.60    3.68    1.75          22.58   38.21   11.20          39.82   16.34            0.05     0.04     0.01            0.12     0.10     0.15           0.18    0.22
A4           5.65    3.14    1.49          20.61   36.48   10.68          38.01   16.31            0.03     0.02     0.02            0.08     0.12     0.13           0.17    0.19 
A5          13.21   11.47    8.12          40.37   14.80    4.83          15.57   18.08            0.07     0.06     0.07            0.10     0.06     0.16           0.17    0.20
A6          15.70   11.59    7.12          40.55   29.25    9.15          30.64   17.37            0.07     0.06     0.06            0.10     0.17     0.14           0.22    0.24 
A7          18.06   11.54    6.22          40.48   42.63   12.88          44.54   16.82            0.11     0.07     0.06            0.12     0.16     0.16           0.23    0.25
A8          21.79   11.57    5.10          40.51   60.98   18.37          63.68   16.76            0.14     0.08     0.03            0.13     0.15     0.20           0.26    0.28 
A9          42.14   41.13   32.17          70.27    7.60    2.63           8.04   19.09            0.21     0.19     0.17            0.13     0.17     0.14           0.22    0.25
A10         44.59   41.45   31.06          70.49   13.87    4.71          14.65   18.75            0.23     0.23     0.27            0.16     0.13     0.22           0.27    0.30
A11         46.96   41.29   29.91          70.38   21.05    6.33          21.98   16.73            0.31     0.28     0.33            0.19     0.15     0.26           0.32    0.35
A12         49.82   41.27   28.52          70.36   28.96    8.54          30.19   16.44            0.34     0.31     0.34            0.21     0.10     0.22           0.28    0.32 
A13         80.94   84.49   69.16          93.66   -1.02    0.50           1.15   154.06            0.52     0.54     0.57            0.23     0.03     0.14           0.25    0.28
A14         80.29   83.35   68.84          93.17   -0.16   -0.05           0.22   193.34            0.48     0.49     0.51            0.21     0.05     0.17           0.24    0.28 
A15         80.68   84.31   67.90          93.59   -1.19    1.53           1.95   128.10            0.57     0.58     0.59            0.25     0.03     0.14           0.26    0.29
A16         79.95   83.04   67.66          93.03   -0.24    0.80           0.83   107.10            0.42     0.42     0.53            0.18     0.05     0.20           0.25    0.28
A17         79.96   83.08   67.54          93.05   -0.29    0.94           0.98   107.27            0.52     0.53     0.57            0.23     0.04     0.15           0.25    0.28
A18         80.76   84.39   67.95          93.62   -1.19    1.54           1.95   127.66            0.55     0.56     0.55            0.24     0.03     0.11           0.24    0.27 
A19         80.35   83.40   68.85          93.19   -0.12   -0.03           0.16   183.55            0.60     0.62     0.62            0.27     0.03     0.13           0.27    0.30
A20          1.49    1.19    0.79          10.48   10.41    3.31          10.93   17.67            0.02     0.01     0.01            0.10     0.10     0.07           0.14    0.16 
A21          5.43    3.44    0.83          21.75   28.96   21.83          36.27   37.01            0.04     0.03     0.01            0.12     0.17     0.14           0.22    0.25
A22         10.63    6.10    0.90          29.66   42.96   34.31          54.98   38.61            0.06     0.03     0.00            0.08     0.14     0.08           0.16    0.18
B1           3.55    3.10    1.67          20.43    9.24    8.37          12.47   42.17            0.03     0.02     0.01            0.10     0.11     0.18           0.20    0.23
B2           4.18    3.12    1.09          20.51   18.28   15.62          24.04   40.52            0.04     0.03     0.01            0.13     0.15     0.18           0.22    0.27
B3           5.59    3.68    0.84          22.60   27.15   23.16          35.68   40.46            0.03     0.02     0.01            0.06     0.23     0.18           0.25    0.30
B4           4.94    3.12    0.60          20.51   28.31   23.97          37.10   40.25            0.04     0.02     0.01            0.10     0.19     0.16           0.23    0.27
B5          13.26   11.32    6.07          40.12   16.22   12.96          20.76   38.63            0.08     0.08     0.04            0.12     0.12     0.17           0.22    0.24
B6          15.39   11.52    4.00          40.44   27.93   24.37          37.07   41.10            0.06     0.05     0.03            0.08     0.17     0.16           0.22    0.25
B7          17.82   11.58    2.49          40.53   41.17   35.21          54.17   40.54            0.08     0.04     0.02            0.07     0.15     0.11           0.17    0.20
B8          21.28   11.74    1.17          40.80   57.33   49.47          75.72   40.79            0.11     0.06     0.01            0.10     0.24     0.18           0.29    0.32
B9          42.33   41.68   30.66          70.65    6.50    5.62           8.60   40.86            0.21     0.20     0.22            0.14     0.10     0.19           0.22    0.26
B10         44.14   41.39   27.20          70.45   12.74   10.89          16.76   40.51            0.23     0.21     0.27            0.15     0.10     0.25           0.28    0.31
B11         46.49   41.53   24.22          70.54   19.04   16.30          25.07   40.57            0.25     0.24     0.23            0.17     0.14     0.18           0.25    0.29
B12         48.92   41.46   20.96          70.50   25.96   22.47          34.34   40.88            0.30     0.26     0.26            0.18     0.10     0.34           0.35    0.40
B13         72.20   78.23   67.57          90.88   -6.67   -2.82           7.24   202.95            0.50     0.53     0.61            0.24     0.07     0.17           0.27    0.30
B14         75.55   74.89   66.50          89.34    6.90   -4.50           8.24   326.94            0.48     0.47     0.57            0.22     0.08     0.23           0.29    0.33
B15         78.54   82.65   59.09          92.86   -2.27    8.77           9.06   104.52            0.49     0.51     0.49            0.23     0.03     0.17           0.26    0.28
B16         65.13   67.63   55.80          85.82   -0.18    0.01           0.27   177.95            0.37     0.39     0.48            0.20     0.06     0.22           0.28    0.30
B17         72.86   72.72   56.67          88.32    5.78    3.41           6.71   30.51            0.29     0.29     0.35            0.14     0.05     0.15           0.17    0.21
B18         69.87   76.38   57.76          90.04   -7.97    5.25           9.54   146.61            0.40     0.45     0.43            0.21     0.05     0.14           0.23    0.25
B19         67.46   69.51   65.06          86.75    0.97   -7.60           7.66   277.28            0.40     0.42     0.60            0.20     0.05     0.25           0.29    0.33
B20          3.00    2.15    0.79          16.24   18.38   13.14          22.59   35.56            0.02     0.02     0.00            0.08     0.09     0.16           0.17    0.20
B21          8.89    5.18    0.85          27.26   39.41   31.02          50.15   38.21            0.05     0.03     0.01            0.08     0.10     0.15           0.17    0.20
B22         30.32   25.70   12.05          57.75   22.12   21.83          31.08   44.62            0.15     0.14     0.12            0.13     0.05     0.27           0.28    0.30
C1           4.73    4.54    2.39          25.38    4.69    9.93          10.98   64.70            0.04     0.04     0.02            0.13     0.12     0.13           0.19    0.22
C2           5.03    4.54    1.46          25.40    8.43   19.22          20.99   66.31            0.04     0.04     0.02            0.12     0.09     0.24           0.24    0.28
C3           6.24    5.25    0.92          27.42   13.58   30.18          33.09   65.77            0.05     0.05     0.00            0.13     0.15     0.22           0.27    0.30
C4           5.42    4.55    0.82          25.42   13.02   28.38          31.23   65.35            0.06     0.05     0.01            0.15     0.16     0.24           0.28    0.33
C5          24.80   23.44   11.03          55.52    9.67   21.06          23.18   65.34            0.17     0.15     0.14            0.16     0.13     0.23           0.28    0.31
C6          26.57   23.20    5.81          55.28   18.13   40.33          44.21   65.79            0.09     0.09     0.04            0.09     0.06     0.15           0.16    0.18
C7          29.07   23.52    2.52          55.60   26.64   60.96          66.53   66.39            0.12     0.11     0.01            0.11     0.12     0.14           0.19    0.22
C8          30.01   23.31    1.49          55.39   31.11   70.64          77.19   66.23            0.15     0.10     0.00            0.11     0.14     0.14           0.19    0.23
C9          49.44   49.62   33.76          75.84    4.34    9.88          10.79   66.29            0.27     0.28     0.34            0.17     0.11     0.25           0.29    0.32
C10         50.71   49.46   27.74          75.73    8.18   19.10          20.78   66.82            0.23     0.23     0.23            0.14     0.09     0.19           0.22    0.26
C11         52.22   49.35   22.47          75.67   12.43   28.42          31.02   66.38            0.30     0.31     0.33            0.19     0.12     0.36           0.36    0.42
C12         53.49   48.81   17.88          75.33   17.16   37.36          41.11   65.32            0.34     0.33     0.18            0.20     0.10     0.16           0.24    0.28
C13         62.66   70.83   65.47          87.40  -12.62   -6.87          14.37   208.56            0.37     0.43     0.56            0.21     0.08     0.25           0.29    0.33
C14         69.26   64.34   63.05          84.14   16.16  -10.18          19.10   327.79            0.41     0.36     0.50            0.19     0.17     0.22           0.29    0.33
C15         75.66   80.13   47.78          91.74   -3.24   19.07          19.35   99.64            0.48     0.51     0.44            0.23     0.03     0.14           0.24    0.27
C16         50.22   51.78   42.61          77.15    0.79    0.15           0.83   145.31            0.30     0.30     0.35            0.18     0.10     0.22           0.28    0.30
C17         64.40   60.81   44.11          82.28   13.43    7.13          15.21   27.96            0.40     0.35     0.42            0.19     0.12     0.25           0.29    0.34
C18         58.49   67.37   46.13          85.69  -15.06   10.58          18.40   144.91            0.27     0.33     0.29            0.17     0.18     0.15           0.26    0.29
C19         54.27   54.75   59.84          78.90    3.78  -16.06          16.50   283.23            0.24     0.26     0.49            0.15     0.12     0.24           0.28    0.31
C20          1.86    1.56    0.76          12.97    9.33    8.08          12.35   40.90            0.02     0.02     0.01            0.09     0.08     0.11           0.15    0.17
C21         23.91   18.00    5.02          49.50   31.79   34.27          46.74   47.15            0.13     0.10     0.06            0.12     0.17     0.13           0.22    0.25
C22         36.14   32.65   17.68          63.87   16.21   18.05          24.26   48.08            0.15     0.14     0.17            0.11     0.05     0.29           0.27    0.32
D1           4.29    4.45    2.34          25.09    0.05    9.88           9.88   89.69            0.03     0.03     0.01            0.09     0.12     0.14           0.18    0.20
D2           4.34    4.52    1.47          25.32   -0.26   19.02          19.02   90.78            0.04     0.04     0.02            0.12     0.16     0.14           0.22    0.25
D3           5.37    5.63    1.04          28.45   -0.72   30.13          30.14   91.37            0.05     0.05     0.01            0.12     0.20     0.20           0.27    0.31
D4           4.34    4.52    0.91          25.32   -0.28   26.66          26.66   90.60            0.04     0.04     0.01            0.13     0.14     0.30           0.30    0.36
D5          27.39   28.40   14.08          60.25    0.03   20.54          20.54   89.91            0.18     0.19     0.17            0.17     0.16     0.23           0.29    0.33
D6          27.47   28.61    7.92          60.44   -0.48   40.24          40.24   90.69            0.12     0.10     0.04            0.09     0.15     0.17           0.22    0.24
D7          27.25   28.59    3.76          60.41   -1.28   60.33          60.34   91.22            0.13     0.14     0.02            0.12     0.09     0.19           0.21    0.24
D8          26.89   28.47    1.98          60.31   -2.29   73.86          73.89   91.78            0.17     0.17     0.01            0.15     0.13     0.27           0.28    0.34
D9          56.30   58.30   39.40          80.90    0.22   10.76          10.76   88.82            0.37     0.40     0.29            0.22     0.05     0.13           0.24    0.26
D10         56.02   58.03   31.48          80.76    0.15   21.78          21.78   89.60            0.35     0.35     0.29            0.19     0.07     0.20           0.26    0.29
D11         55.40   57.80   25.39          80.63   -0.83   31.58          31.59   91.51            0.33     0.32     0.25            0.18     0.07     0.26           0.29    0.32
D12         54.72   57.74    6.53          80.59   -2.39   80.66          80.69   91.70            0.34     0.36     0.06            0.20     0.08     0.25           0.28    0.33
D13         53.22   63.04   62.75          83.46  -18.58  -11.06          21.62   210.77            0.25     0.33     0.42            0.18     0.14     0.14           0.23    0.27
D14         63.59   55.58   59.46          79.37   24.14  -14.87          28.35   328.37            0.41     0.35     0.47            0.20     0.15     0.19           0.28    0.31
D15         73.36   77.91   38.81          90.74   -3.62   28.49          28.73   97.24            0.39     0.41     0.25            0.19     0.03     0.10           0.19    0.22
D16         38.07   39.45   32.57          69.08    0.09   -0.02           0.19   163.11            0.23     0.24     0.23            0.17     0.12     0.16           0.24    0.26
D17         57.32   51.47   34.34          76.97   19.72   10.97          22.57   29.09            0.30     0.25     0.29            0.15     0.13     0.24           0.28    0.31
D18         47.71   58.24   36.67          80.87  -22.09   14.41          26.37   146.89            0.30     0.37     0.27            0.20     0.14     0.16           0.26    0.29
D19         42.72   42.57   54.33          71.26    5.05  -23.54          24.08   282.11            0.22     0.22     0.43            0.15     0.12     0.22           0.26    0.29
D20         14.48   10.94    2.81          39.48   26.65   30.84          40.76   49.18            0.06     0.05     0.03            0.09     0.07     0.12           0.15    0.17
D21         22.41   21.46   11.88          53.45    8.06   14.92          16.95   61.62            0.09     0.09     0.08            0.09     0.09     0.16           0.19    0.21
D22         39.44   37.44   20.21          67.60   10.79   19.02          21.86   60.44            0.17     0.14     0.14            0.11     0.13     0.24           0.25    0.29
E1           3.90    4.40    2.39          24.97   -4.88    9.23          10.44   117.88            0.02     0.02     0.02            0.05     0.13     0.10           0.15    0.17
E2           3.69    4.55    1.54          25.41  -10.01   18.35          20.91   118.62            0.03     0.03     0.01            0.11     0.08     0.11           0.16    0.18
E3           4.16    5.61    1.12          28.42  -16.01   28.91          33.04   118.98            0.05     0.06     0.01            0.15     0.12     0.25           0.26    0.31
E4           3.44    4.54    1.00          25.38  -13.71   25.42          28.89   118.34            0.03     0.03     0.01            0.10     0.11     0.20           0.21    0.25
E5          13.08   14.74    7.95          45.27   -7.22   13.98          15.73   117.32            0.09     0.12     0.08            0.16     0.10     0.18           0.24    0.26
E6          11.85   14.64    4.86          45.14  -14.94   27.57          31.36   118.45            0.07     0.08     0.03            0.11     0.15     0.21           0.25    0.28
E7          10.81   14.67    2.64          45.18  -22.57   42.01          47.69   118.25            0.07     0.10     0.02            0.13     0.11     0.25           0.27    0.31
E8          10.19   14.86    1.72          45.44  -28.40   50.89          58.27   119.16            0.07     0.09     0.01            0.12     0.09     0.24           0.24    0.28
E9          38.81   41.62   29.00          70.61   -4.14    8.19           9.17   116.80            0.22     0.24     0.21            0.17     0.09     0.17           0.23    0.25
E10         37.55   41.72   24.40          70.68   -8.49   16.22          18.30   117.64            0.29     0.31     0.22            0.21     0.08     0.13           0.23    0.26
E11         35.95   41.28   20.00          70.38  -12.43   24.23          27.24   117.15            0.26     0.30     0.24            0.21     0.08     0.23           0.27    0.32
E12         31.74   41.43    9.75          70.47  -27.50   50.96          57.90   118.36            0.31     0.36     0.12            0.25     0.13     0.37           0.42    0.47
E13         44.13   55.00   59.59          79.04  -24.31  -15.57          28.86   212.65            0.31     0.41     0.51            0.23     0.17     0.18           0.31    0.34
E14         57.41   46.53   55.34          73.89   33.19  -20.08          38.79   328.83            0.35     0.25     0.51            0.16     0.20     0.28           0.35    0.38
E15         71.23   75.61   30.67          89.67   -3.51   38.40          38.56   95.23            0.48     0.51     0.26            0.23     0.02     0.22           0.28    0.32
E16         27.17   28.22   23.76          60.08   -0.13   -0.88           0.90   261.04            0.22     0.22     0.24            0.20     0.10     0.15           0.25    0.27
E17         50.11   42.23   25.76          71.03   26.87   14.37          30.48   28.14            0.27     0.21     0.23            0.15     0.15     0.22           0.27    0.30
E18         37.84   49.25   28.38          75.61  -28.79   17.82          33.86   148.25            0.26     0.36     0.24            0.22     0.21     0.20           0.33    0.36
E19         32.42   31.52   48.30          62.94    7.43  -31.19          32.06   283.40            0.16     0.16     0.36            0.14     0.08     0.21           0.24    0.26
E20         24.95   16.99    1.28          48.25   41.67   60.98          73.85   55.65            0.18     0.12     0.01            0.15     0.16     0.19           0.23    0.29
E21         17.77   14.60    2.77          45.08   21.23   40.77          45.97   62.49            0.10     0.09     0.03            0.12     0.19     0.14           0.24    0.26
E22         30.39   26.00    8.33          58.04   21.14   34.53          40.48   58.52            0.12     0.11     0.06            0.11     0.08     0.16           0.18    0.21
F1           1.56    1.97    1.39          15.34   -8.50    2.71           8.92   162.31            0.02     0.02     0.01            0.10     0.11     0.13           0.17    0.19
F2           1.23    1.94    1.14          15.14  -17.41    5.71          18.32   161.84            0.01     0.02     0.01            0.08     0.11     0.17           0.19    0.21
F3           1.41    2.61    1.33          18.40  -26.19    8.78          27.62   161.46            0.02     0.02     0.01            0.11     0.16     0.17           0.21    0.26
F4           1.02    1.98    0.96          15.38  -25.45    8.72          26.90   161.08            0.01     0.02     0.01            0.10     0.17     0.16           0.23    0.25
F5           6.93    8.63    6.00          35.26  -13.03    4.91          13.93   159.34            0.06     0.07     0.07            0.14     0.12     0.14           0.20    0.23
F6           5.56    8.45    5.12          34.90  -26.15    8.59          27.53   161.82            0.05     0.07     0.05            0.13     0.07     0.21           0.22    0.26
F7           4.66    8.62    4.30          35.23  -38.78   13.62          41.10   160.65            0.06     0.09     0.04            0.18     0.17     0.26           0.31    0.36
F8           3.19    8.29    3.17          34.57  -57.54   19.70          60.82   161.10            0.04     0.10     0.02            0.19     0.22     0.32           0.36    0.43
F9          38.55   41.78   32.45          70.72   -5.46    2.99           6.23   151.24            0.23     0.26     0.25            0.18     0.07     0.13           0.21    0.23
F10         36.69   41.55   31.05          70.55  -10.76    4.85          11.81   155.73            0.24     0.27     0.25            0.19     0.06     0.17           0.24    0.26
F11         34.82   41.45   29.67          70.49  -16.74    6.91          18.11   157.57            0.24     0.29     0.29            0.20     0.09     0.16           0.23    0.27
F12         29.54   41.35   26.20          70.42  -35.44   12.56          37.60   160.49            0.25     0.35     0.28            0.24     0.21     0.20           0.34    0.38
F13         36.88   48.13   56.36          74.90  -28.88  -19.40          34.80   213.89            0.28     0.38     0.49            0.24     0.15     0.12           0.27    0.31
F14         51.99   39.28   51.31          68.95   40.80  -24.23          47.45   329.29            0.36     0.28     0.50            0.20     0.20     0.26           0.34    0.38
F15         69.28   73.32   24.41          88.60   -3.03   47.09          47.19   93.69            0.40     0.42     0.19            0.20     0.02     0.20           0.26    0.29
F16         19.58   20.34   17.50          52.22   -0.13   -1.64           1.65   265.32            0.12     0.14     0.16            0.16     0.15     0.23           0.29    0.32
F17         44.17   35.02   19.19          65.77   32.99   18.00          37.58   28.61            0.25     0.18     0.19            0.14     0.16     0.21           0.27    0.30
F18         30.15   41.77   21.97          70.71  -34.41   20.84          40.23   148.80            0.30     0.40     0.25            0.27     0.18     0.19           0.35    0.38
F19         24.61   23.23   42.73          55.31    9.82  -37.66          38.92   284.61            0.17     0.15     0.41            0.16     0.10     0.29           0.31    0.34
