targets/wolf_faust/reflective/R030507.it8
IT8.7/2
ORIGINATOR "Wolf Faust"
DESCRIPTOR "L* a* b* Batch average data (light D50, viewing angle 2, black backing)"
MANUFACTURER "Wolf Faust - http://www.coloraid.de"
CREATED "May 23, 2003"
PROD_DATE "2003:05"
SERIAL "5x7 R030507"
MATERIAL "Kodak Professional Digital 3"
KEYWORD "MEAN_DE" # Mean Delta E of samples compared to batch average
NUMBER_OF_FIELDS 17
BEGIN_DATA_FORMAT
SAMPLE_ID   XYZ_X   XYZ_Y   XYZ_Z          LAB_L   LAB_A   LAB_B          LAB_C   LAB_H          STDEV_X  STDEV_Y  STDEV_Z          STDEV_L  STDEV_A  STDEV_B        MEAN_DE  STDEV_DE
END_DATA_FORMAT
NUMBER_OF_SETS 288
BEGIN_DATA
A1           3.48    2.89    1.96          19.60   11.79    3.86          12.41   18.13            0.08     0.07     0.05            0.28     0.19     0.16           0.35    0.38
A2           4.35    2.90    1.61          19.62   24.50    7.51          25.62   17.04            0.07     0.05     0.04            0.19     0.19     0.19           0.29    0.33 
A3           5.51    3.07    1.38          20.33   35.95   11.52          37.76   17.77            0.08     0.05     0.03            0.19     0.20     0.12           0.25    0.30
A4           5.89    3.21    1.38          20.87   37.95   12.48          39.95   18.20            0.07     0.04     0.03            0.15     0.29     0.14           0.30    0.36 
A5          12.78   11.11    7.57          39.77   14.54    5.97          15.72   22.32            0.14     0.15     0.17            0.24     0.20     0.34           0.44    0.47
A6          15.16   11.07    6.64          39.69   29.83    9.68          31.36   17.99            0.19     0.16     0.18            0.26     0.18     0.38           0.45    0.50 
A7          18.09   11.41    5.78          40.26   43.72   14.57          46.08   18.43            0.18     0.14     0.15            0.23     0.21     0.35           0.43    0.47
A8          21.39   11.35    4.74          40.17   60.59   19.67          63.70   17.99            0.14     0.09     0.13            0.15     0.07     0.47           0.43    0.50 
A9          42.10   41.17   31.81          70.29    7.35    3.23           8.03   23.69            0.30     0.33     0.42            0.23     0.16     0.33           0.39    0.43
A10         44.58   41.20   30.13          70.31   14.58    5.88          15.73   21.94            0.32     0.36     0.43            0.25     0.24     0.31           0.43    0.47
A11         46.67   41.06   29.10          70.22   20.96    7.34          22.21   19.31            0.28     0.32     0.39            0.22     0.21     0.36           0.42    0.47
A12         49.03   41.01   27.76          70.18   27.63    9.49          29.22   18.96            0.39     0.41     0.45            0.29     0.21     0.34           0.43    0.49 
A13         77.84   81.75   67.61          92.47   -1.97   -0.14           1.98   183.96            0.18     0.19     0.17            0.09     0.04     0.10           0.12    0.14
A14         77.84   80.57   67.36          91.94    0.31   -0.81           0.87   290.95            0.21     0.22     0.20            0.10     0.04     0.11           0.13    0.15 
A15         78.48   82.22   65.89          92.67   -1.56    1.82           2.40   130.66            0.23     0.24     0.18            0.10     0.03     0.11           0.14    0.16
A16         77.89   80.88   66.50          92.08   -0.21    0.23           0.32   135.20            0.19     0.21     0.17            0.09     0.04     0.12           0.14    0.16
A17         77.29   80.07   65.38          91.72    0.16    0.66           0.68   75.67            0.21     0.22     0.19            0.10     0.03     0.10           0.13    0.15
A18         77.45   81.49   65.77          92.35   -2.24    1.38           2.63   148.50            0.18     0.19     0.17            0.08     0.02     0.09           0.11    0.12 
A19         76.72   79.73   67.12          91.56   -0.33   -1.23           1.28   255.13            0.24     0.25     0.23            0.11     0.05     0.09           0.13    0.15
A20          1.30    1.04    0.70           9.36    9.80    2.84          10.21   16.18            0.02     0.02     0.01            0.14     0.15     0.15           0.22    0.26 
A21          5.19    3.27    0.76          21.08   28.90   21.99          36.32   37.27            0.08     0.06     0.01            0.21     0.22     0.25           0.35    0.39
A22         10.45    5.92    0.82          29.21   43.53   35.06          55.89   38.84            0.10     0.06     0.02            0.17     0.18     0.17           0.28    0.30
B1           3.28    2.85    1.51          19.44    9.32    8.40          12.54   42.05            0.07     0.07     0.04            0.27     0.19     0.08           0.32    0.34
B2           3.92    2.90    0.99          19.64   18.31   15.64          24.08   40.51            0.06     0.05     0.02            0.20     0.23     0.13           0.31    0.33
B3           4.56    2.95    0.65          19.84   26.31   21.98          34.28   39.88            0.05     0.03     0.01            0.13     0.23     0.16           0.28    0.31
B4           5.07    3.17    0.55          20.71   29.14   25.29          38.58   40.95            0.07     0.05     0.01            0.20     0.24     0.27           0.37    0.42
B5          12.98   11.17    5.62          39.87   15.43   14.67          21.29   43.55            0.18     0.17     0.14            0.29     0.24     0.29           0.42    0.47
B6          15.04   11.23    3.65          39.97   27.91   25.77          37.99   42.71            0.19     0.17     0.11            0.28     0.23     0.30           0.44    0.47
B7          17.75   11.40    2.20          40.24   42.04   37.25          56.17   41.54            0.16     0.14     0.05            0.22     0.14     0.18           0.30    0.32
B8          20.86   11.44    1.06          40.31   57.40   50.24          76.28   41.20            0.13     0.10     0.01            0.16     0.08     0.14           0.20    0.23
B9          41.74   40.97   29.54          70.15    6.88    6.54           9.50   43.50            0.26     0.28     0.44            0.19     0.15     0.42           0.43    0.48
B10         44.00   41.21   26.14          70.32   12.86   12.50          17.94   44.16            0.31     0.34     0.46            0.24     0.16     0.45           0.48    0.54
B11         45.60   40.68   23.08          69.95   19.06   17.40          25.81   42.40            0.31     0.35     0.42            0.25     0.21     0.46           0.50    0.56
B12         47.85   40.79   20.01          70.03   25.04   23.60          34.41   43.30            0.30     0.34     0.36            0.24     0.24     0.37           0.45    0.50
B13         71.57   77.24   66.52          90.43   -6.05   -2.63           6.59   203.48            0.15     0.15     0.14            0.07     0.06     0.11           0.13    0.14
B14         73.94   73.57   65.43          88.72    6.29   -4.56           7.77   324.05            0.22     0.25     0.15            0.12     0.13     0.15           0.20    0.24
B15         76.55   80.71   57.65          92.00   -2.55    8.75           9.11   106.28            0.21     0.21     0.29            0.10     0.03     0.21           0.21    0.23
B16         64.75   67.10   54.70          85.55    0.10    0.72           0.73   81.53            0.24     0.26     0.33            0.13     0.05     0.18           0.20    0.23
B17         71.40   71.53   55.63          87.74    5.19    3.50           6.26   33.98            0.22     0.24     0.30            0.12     0.11     0.17           0.21    0.23
B18         69.25   75.44   56.73          89.60   -7.38    5.55           9.24   143.06            0.19     0.19     0.29            0.09     0.06     0.19           0.18    0.22
B19         66.98   68.80   64.05          86.41    1.40   -7.23           7.37   280.96            0.23     0.25     0.20            0.12     0.10     0.10           0.16    0.19
B20          2.82    2.01    0.71          15.56   18.00   13.44          22.46   36.74            0.05     0.04     0.01            0.20     0.24     0.20           0.32    0.37
B21          8.61    5.00    0.77          26.73   39.30   31.60          50.42   38.80            0.10     0.07     0.01            0.19     0.18     0.17           0.28    0.31
B22         29.75   25.08   11.26          57.15   22.56   23.17          32.34   45.76            0.27     0.27     0.26            0.27     0.18     0.44           0.48    0.54
C1           4.47    4.30    2.22          24.64    4.39   10.15          11.06   66.60            0.09     0.09     0.06            0.28     0.19     0.13           0.33    0.36
C2           4.77    4.25    1.33          24.48    9.02   19.29          21.30   64.95            0.09     0.09     0.03            0.28     0.17     0.19           0.33    0.38
C3           5.63    4.75    0.84          26.02   12.90   29.04          31.78   66.05            0.09     0.08     0.01            0.25     0.16     0.27           0.36    0.40
C4           5.05    4.25    0.75          24.48   12.60   28.08          30.78   65.83            0.09     0.08     0.01            0.24     0.20     0.29           0.39    0.43
C5          23.99   22.75   10.27          54.81    9.27   22.26          24.11   67.39            0.25     0.28     0.24            0.29     0.20     0.37           0.46    0.51
C6          26.35   22.97    5.34          55.04   18.27   42.19          45.98   66.58            0.26     0.29     0.15            0.30     0.28     0.28           0.44    0.50
C7          28.71   23.15    2.36          55.23   26.86   61.68          67.28   66.47            0.21     0.23     0.04            0.23     0.22     0.14           0.31    0.35
C8          29.94   23.24    1.42          55.32   31.15   71.35          77.86   66.41            0.25     0.26     0.02            0.27     0.25     0.27           0.41    0.46
C9          48.27   48.32   32.45          75.03    4.64   10.42          11.41   65.99            0.34     0.38     0.44            0.24     0.15     0.33           0.38    0.44
C10         49.82   48.58   26.42          75.19    8.17   20.41          21.98   68.17            0.29     0.33     0.45            0.21     0.15     0.47           0.46    0.54
C11         51.17   48.35   21.34          75.04   12.36   29.55          32.03   67.30            0.31     0.37     0.40            0.23     0.22     0.48           0.51    0.57
C12         52.80   48.70   16.98          75.26   15.67   39.30          42.30   68.26            0.30     0.35     0.33            0.22     0.19     0.43           0.43    0.52
C13         62.02   69.88   64.41          86.94  -12.07   -6.67          13.79   208.92            0.17     0.17     0.13            0.08     0.10     0.08           0.14    0.15
C14         67.97   63.52   62.19          83.72   15.18  -10.08          18.23   326.42            0.24     0.30     0.17            0.16     0.21     0.17           0.26    0.31
C15         74.00   78.51   47.22          91.01   -3.48   18.46          18.79   100.69            0.28     0.30     0.40            0.14     0.03     0.35           0.33    0.38
C16         49.96   51.55   42.10          77.01    0.69    0.56           0.91   64.08            0.34     0.36     0.45            0.22     0.10     0.27           0.32    0.36
C17         63.30   60.17   43.77          81.93   12.46    6.94          14.27   29.11            0.34     0.37     0.39            0.20     0.12     0.20           0.27    0.31
C18         57.99   66.59   45.70          85.30  -14.56   10.40          17.90   144.47            0.27     0.26     0.39            0.13     0.12     0.31           0.32    0.36
C19         53.98   54.51   59.05          78.76    3.63  -15.51          15.93   283.19            0.29     0.33     0.20            0.19     0.20     0.22           0.32    0.35
C20          1.67    1.40    0.68          11.92    9.00    7.79          11.90   40.91            0.04     0.03     0.01            0.20     0.19     0.18           0.29    0.33
C21         23.51   17.58    4.45          48.98   32.28   36.49          48.72   48.51            0.24     0.23     0.13            0.28     0.25     0.33           0.46    0.50
C22         35.19   31.82   16.43          63.20   15.94   19.76          25.39   51.11            0.33     0.36     0.36            0.30     0.18     0.42           0.48    0.55
D1           4.00    4.18    2.16          24.25   -0.35   10.02          10.02   92.01            0.08     0.08     0.06            0.28     0.16     0.15           0.33    0.35
D2           4.05    4.25    1.36          24.48   -0.69   18.88          18.90   92.08            0.08     0.09     0.03            0.29     0.16     0.19           0.35    0.38
D3           4.73    4.97    0.95          26.65   -0.79   28.33          28.34   91.60            0.09     0.09     0.01            0.27     0.13     0.33           0.40    0.44
D4           3.97    4.17    0.84          24.22   -0.75   26.09          26.10   91.66            0.08     0.09     0.01            0.28     0.13     0.35           0.41    0.46
D5          26.91   28.01   13.35          59.90   -0.41   21.90          21.90   91.09            0.26     0.31     0.28            0.28     0.19     0.36           0.44    0.49
D6          26.82   27.98    7.12          59.87   -0.64   42.42          42.43   90.86            0.28     0.34     0.19            0.30     0.23     0.34           0.47    0.51
D7          26.48   27.78    3.57          59.69   -1.24   60.32          60.34   91.18            0.27     0.31     0.08            0.28     0.19     0.15           0.34    0.37
D8          26.54   28.07    1.91          59.95   -2.16   73.98          74.01   91.67            0.26     0.27     0.02            0.24     0.11     0.27           0.33    0.38
D9          55.15   57.15   38.29          80.26    0.12   11.14          11.14   89.40            0.21     0.25     0.38            0.14     0.13     0.35           0.36    0.40
D10         54.88   57.00   30.34          80.18   -0.18   22.55          22.55   90.46            0.34     0.38     0.44            0.21     0.11     0.38           0.38    0.45
D11         54.74   56.87   24.23          80.11   -0.24   32.78          32.78   90.43            0.32     0.37     0.44            0.21     0.14     0.51           0.47    0.57
D12         54.00   56.78    6.33          80.06   -1.91   80.64          80.66   91.36            0.22     0.26     0.10            0.15     0.12     0.30           0.30    0.35
D13         52.84   62.31   61.93          83.08  -17.89  -10.92          20.96   211.41            0.19     0.19     0.17            0.10     0.09     0.14           0.17    0.19
D14         62.15   54.40   58.55          78.69   23.73  -15.12          28.14   327.51            0.25     0.31     0.16            0.18     0.25     0.21           0.33    0.38
D15         71.72   76.32   38.17          90.01   -3.88   28.09          28.36   97.87            0.29     0.30     0.46            0.14     0.03     0.45           0.41    0.47
D16         37.77   39.01   32.05          68.75    0.53    0.20           0.63   127.24            0.34     0.36     0.45            0.26     0.10     0.29           0.37    0.40
D17         55.92   50.29   33.62          76.25   19.35   10.77          22.15   29.11            0.30     0.33     0.41            0.20     0.17     0.31           0.37    0.41
D18         47.39   57.59   36.00          80.51  -21.42   14.72          25.99   145.51            0.22     0.22     0.42            0.12     0.10     0.44           0.40    0.47
D19         42.28   41.92   53.53          70.81    5.66  -23.45          24.13   283.57            0.22     0.28     0.18            0.19     0.21     0.18           0.28    0.33
D20         14.13   10.65    2.62          38.99   26.61   31.48          41.22   49.79            0.21     0.19     0.07            0.32     0.19     0.14           0.35    0.40
D21         21.80   21.03   11.17          52.99    7.27   16.25          17.80   65.90            0.27     0.29     0.28            0.32     0.19     0.35           0.44    0.51
D22         39.17   37.19   19.54          67.42   10.75   20.09          22.78   61.85            0.31     0.35     0.39            0.26     0.20     0.45           0.49    0.55
E1           3.73    4.26    2.20          24.50   -5.48   10.12          11.51   118.45            0.08     0.09     0.06            0.30     0.15     0.18           0.35    0.38
E2           3.38    4.20    1.41          24.33  -10.23   18.01          20.71   119.58            0.07     0.09     0.03            0.29     0.17     0.15           0.33    0.37
E3           3.64    4.90    1.02          26.46  -15.30   27.03          31.06   119.51            0.07     0.09     0.01            0.27     0.12     0.33           0.38    0.44
E4           3.15    4.20    0.92          24.32  -14.01   24.80          28.49   119.47            0.06     0.08     0.01            0.27     0.19     0.30           0.39    0.44
E5          12.56   14.23    7.23          44.56   -7.60   15.60          17.36   115.98            0.21     0.25     0.20            0.36     0.15     0.26           0.41    0.47
E6          11.36   14.12    4.36          44.40  -15.24   29.10          32.85   117.65            0.19     0.24     0.12            0.34     0.12     0.20           0.36    0.41
E7          10.34   14.14    2.52          44.43  -22.90   41.65          47.54   118.80            0.17     0.22     0.05            0.32     0.12     0.12           0.32    0.36
E8           9.68   14.17    1.63          44.47  -28.27   50.15          57.57   119.41            0.13     0.17     0.02            0.25     0.12     0.25           0.33    0.37
E9          38.14   40.89   27.88          70.10   -4.09    9.15          10.02   114.12            0.22     0.24     0.40            0.17     0.17     0.42           0.42    0.48
E10         36.76   40.75   23.32          70.00   -8.14   17.02          18.87   115.58            0.25     0.29     0.38            0.20     0.15     0.42           0.45    0.49
E11         35.45   40.77   18.89          70.01  -12.54   25.95          28.82   115.79            0.26     0.31     0.37            0.22     0.12     0.45           0.44    0.51
E12         31.09   40.46    9.12          69.79  -26.96   51.94          58.52   117.43            0.23     0.26     0.20            0.19     0.12     0.41           0.41    0.47
E13         44.26   54.74   58.95          78.89  -23.32  -15.18          27.82   213.07            0.16     0.16     0.16            0.09     0.10     0.14           0.17    0.20
E14         56.25   45.82   54.47          73.43   32.33  -19.95          37.99   328.31            0.23     0.28     0.15            0.18     0.27     0.18           0.33    0.37
E15         69.46   73.86   29.75          88.86   -3.76   38.45          38.63   95.59            0.24     0.27     0.46            0.13     0.04     0.58           0.49    0.60
E16         27.37   28.28   23.13          60.14    0.38    0.39           0.60   93.65            0.32     0.34     0.42            0.31     0.18     0.31           0.43    0.47
E17         48.90   41.39   24.83          70.45   26.11   15.03          30.13   29.92            0.34     0.37     0.41            0.26     0.21     0.40           0.46    0.52
E18         37.83   48.88   27.45          75.38  -27.84   18.98          33.69   145.72            0.26     0.26     0.46            0.16     0.16     0.54           0.51    0.59
E19         32.58   31.54   47.81          62.96    7.91  -30.60          31.61   284.50            0.19     0.23     0.15            0.19     0.23     0.20           0.31    0.36
E20         25.30   17.31    1.25          48.64   41.47   61.94          74.54   56.19            0.18     0.17     0.01            0.22     0.20     0.23           0.33    0.38
E21         17.27   14.12    2.54          44.40   21.48   41.48          46.71   62.62            0.18     0.18     0.07            0.26     0.22     0.13           0.32    0.36
E22         30.34   25.89    7.70          57.93   21.43   36.75          42.54   59.75            0.23     0.27     0.20            0.26     0.27     0.43           0.53    0.56
F1           1.43    1.79    1.26          14.35   -7.96    2.65           8.39   161.63            0.03     0.04     0.03            0.20     0.15     0.18           0.28    0.30
F2           1.14    1.82    1.03          14.52  -17.76    6.15          18.80   160.90            0.02     0.03     0.02            0.17     0.23     0.07           0.26    0.29
F3           1.19    2.25    1.13          16.76  -25.66    8.62          27.07   161.44            0.02     0.04     0.02            0.20     0.22     0.13           0.28    0.32
F4           0.89    1.78    0.87          14.31  -25.68    8.42          27.02   161.84            0.02     0.03     0.01            0.19     0.28     0.17           0.31    0.37
F5           6.55    8.24    5.53          34.47  -13.50    5.78          14.69   156.84            0.12     0.14     0.14            0.29     0.13     0.24           0.35    0.40
F6           5.25    8.09    4.67          34.17  -26.76    9.73          28.47   160.02            0.10     0.15     0.12            0.32     0.17     0.22           0.38    0.42
F7           4.29    8.18    3.93          34.35  -39.88   14.34          42.38   160.22            0.08     0.13     0.10            0.28     0.14     0.24           0.35    0.39
F8           3.06    8.10    3.01          34.20  -58.03   20.24          61.46   160.77            0.02     0.05     0.06            0.11     0.12     0.30           0.29    0.34
F9          37.64   40.63   31.41          69.92   -4.91    3.19           5.87   147.05            0.29     0.32     0.45            0.22     0.15     0.36           0.39    0.45
F10         36.00   40.94   30.62          70.14  -11.24    4.80          12.23   156.88            0.26     0.30     0.44            0.21     0.11     0.36           0.39    0.43
F11         33.87   40.38   28.91          69.74  -16.78    6.85          18.13   157.82            0.25     0.28     0.41            0.20     0.13     0.40           0.40    0.46
F12         28.65   40.20   25.09          69.61  -35.35   13.12          37.71   159.64            0.26     0.27     0.40            0.20     0.18     0.40           0.40    0.48
F13         36.91   47.82   55.76          74.71  -27.96  -19.10          33.85   214.34            0.17     0.18     0.15            0.11     0.09     0.16           0.20    0.22
F14         50.97   38.67   50.51          68.51   40.01  -24.10          46.71   328.93            0.25     0.29     0.17            0.21     0.27     0.20           0.34    0.40
F15         67.40   71.42   23.09          87.69   -3.19   47.96          48.07   93.80            0.25     0.28     0.43            0.14     0.06     0.62           0.57    0.64
F16         19.54   20.27   16.54          52.14   -0.05    0.44           0.50   119.64            0.27     0.29     0.34            0.33     0.14     0.33           0.44    0.48
F17         43.06   34.32   18.17          65.22   32.10   19.26          37.43   30.96            0.31     0.32     0.40            0.25     0.19     0.54           0.54    0.62
F18         29.93   41.21   20.87          70.33  -33.55   22.37          40.32   146.32            0.24     0.26     0.40            0.19     0.16     0.54           0.51    0.60
F19         24.63   23.15   42.24          55.23   10.24  -37.17          38.56   285.40            0.21     0.25     0.21            0.25     0.27     0.19           0.38    0.42
