targets/wolf_faust/reflective/R030508.it8
IT8.7/2
ORIGINATOR "Wolf Faust"
DESCRIPTOR "L* a* b* Batch average data (light D50, viewing angle 2, black backing)"
MANUFACTURER "Wolf Faust - http://www.coloraid.de"
CREATED "May 23, 2003"
PROD_DATE "2003:05"
SERIAL "5x7 R030508"
MATERIAL "Kodak Professional Digital 3"
KEYWORD "MEAN_DE" # Mean Delta E of samples compared to batch average
NUMBER_OF_FIELDS 17
BEGIN_DATA_FORMAT
SAMPLE_ID   XYZ_X   XYZ_Y   XYZ_Z          LAB_L   LAB_A   LAB_B          LAB_C   LAB_H          STDEV_X  STDEV_Y  STDEV_Z          STDEV_L  STDEV_A  STDEV_B        MEAN_DE  STDEV_DE
END_DATA_FORMAT
NUMBER_OF_SETS 288
BEGIN_DATA
A1           3.48    2.89    1.96          19.61   11.73    3.89          12.36   18.35            0.04     0.04     0.02            0.15     0.14     0.11           0.20    0.24
A2           4.40    2.95    1.64          19.84   24.27    7.60          25.44   17.39            0.04     0.03     0.02            0.12     0.12     0.15           0.20    0.22 
A3           5.46    3.05    1.41          20.25   35.76   10.93          37.39   16.99            0.04     0.02     0.01            0.09     0.13     0.07           0.14    0.17
A4           5.91    3.22    1.47          20.90   38.08   11.44          39.76   16.72            0.03     0.02     0.01            0.08     0.10     0.14           0.16    0.19 
A5          12.88   11.19    7.94          39.89   14.70    4.73          15.44   17.83            0.06     0.06     0.06            0.10     0.15     0.14           0.21    0.23
A6          15.30   11.21    6.78          39.93   29.59    9.48          31.08   17.77            0.08     0.08     0.07            0.13     0.21     0.20           0.28    0.31 
A7          17.87   11.31    5.96          40.10   43.26   13.46          45.31   17.29            0.09     0.07     0.08            0.12     0.15     0.28           0.31    0.34
A8          21.63   11.52    5.02          40.45   60.51   18.69          63.33   17.16            0.08     0.07     0.06            0.11     0.11     0.21           0.23    0.26 
A9          42.21   41.29   32.28          70.38    7.33    2.66           7.80   19.94            0.13     0.12     0.15            0.09     0.17     0.20           0.25    0.28
A10         44.20   41.01   30.99          70.18   14.03    4.30          14.68   17.05            0.14     0.14     0.16            0.10     0.16     0.13           0.20    0.23
A11         46.52   41.04   29.54          70.20   20.60    6.62          21.63   17.81            0.10     0.12     0.14            0.08     0.18     0.12           0.21    0.23
A12         48.78   40.65   28.02          69.93   28.00    8.63          29.29   17.13            0.11     0.13     0.20            0.09     0.18     0.26           0.31    0.33 
A13         77.35   81.28   67.38          92.26   -2.05   -0.28           2.07   187.80            0.11     0.11     0.15            0.05     0.03     0.15           0.14    0.16
A14         77.52   80.25   67.16          91.80    0.28   -0.87           0.91   288.03            0.23     0.24     0.16            0.11     0.03     0.08           0.12    0.14 
A15         78.09   81.79   65.73          92.48   -1.54    1.64           2.26   133.31            0.19     0.20     0.16            0.09     0.02     0.12           0.13    0.15
A16         77.45   80.37   66.31          91.85   -0.09    0.02           0.13   168.13            0.14     0.15     0.17            0.07     0.04     0.10           0.11    0.13
A17         77.00   79.80   65.22          91.60    0.12    0.59           0.60   78.38            0.15     0.16     0.17            0.07     0.02     0.12           0.12    0.14
A18         76.94   80.99   65.55          92.13   -2.31    1.19           2.60   152.70            0.15     0.15     0.13            0.07     0.02     0.13           0.13    0.14 
A19         76.36   79.40   66.92          91.42   -0.42   -1.30           1.37   252.21            0.20     0.21     0.13            0.09     0.04     0.10           0.11    0.14
A20          1.33    1.06    0.70           9.45   10.21    3.09          10.67   16.83            0.02     0.02     0.01            0.13     0.15     0.12           0.19    0.23 
A21          5.26    3.29    0.74          21.17   29.42   22.55          37.07   37.47            0.04     0.04     0.01            0.14     0.17     0.10           0.21    0.24
A22         10.47    5.93    0.81          29.23   43.57   35.18          56.00   38.92            0.05     0.04     0.01            0.11     0.18     0.07           0.17    0.22
B1           3.38    2.94    1.55          19.79    9.40    8.48          12.66   42.04            0.04     0.04     0.02            0.15     0.16     0.15           0.23    0.26
B2           3.97    2.95    1.00          19.86   18.18   15.87          24.13   41.11            0.04     0.02     0.01            0.10     0.18     0.13           0.20    0.24
B3           4.59    2.96    0.62          19.89   26.45   22.57          34.77   40.48            0.04     0.03     0.01            0.13     0.17     0.16           0.23    0.27
B4           5.20    3.23    0.55          20.94   29.63   25.79          39.29   41.03            0.03     0.02     0.01            0.08     0.18     0.11           0.20    0.22
B5          12.90   11.03    5.75          39.63   15.98   13.60          20.98   40.42            0.07     0.06     0.05            0.11     0.16     0.17           0.23    0.26
B6          14.98   11.21    3.89          39.93   27.74   24.20          36.81   41.10            0.09     0.07     0.03            0.12     0.16     0.17           0.24    0.26
B7          17.46   11.28    2.34          40.04   41.31   35.63          54.55   40.78            0.08     0.07     0.03            0.12     0.18     0.13           0.22    0.25
B8          20.85   11.42    1.08          40.29   57.46   49.91          76.11   40.98            0.05     0.04     0.01            0.07     0.08     0.12           0.14    0.16
B9          41.59   40.89   29.91          70.10    6.68    5.85           8.88   41.20            0.13     0.16     0.15            0.11     0.17     0.12           0.21    0.24
B10         43.64   40.82   26.77          70.05   12.98   10.95          16.98   40.14            0.15     0.18     0.18            0.13     0.18     0.24           0.29    0.32
B11         45.55   40.74   23.84          70.00   18.75   16.06          24.69   40.58            0.16     0.20     0.18            0.14     0.20     0.14           0.25    0.28
B12         47.89   40.82   20.78          70.05   25.05   22.08          33.40   41.39            0.11     0.11     0.11            0.08     0.09     0.17           0.19    0.21
B13         70.81   76.54   66.16          90.11   -6.26   -2.86           6.88   204.51            0.12     0.11     0.16            0.05     0.06     0.12           0.13    0.14
B14         73.24   72.69   65.00          88.30    6.64   -4.87           8.23   323.71            0.15     0.15     0.19            0.07     0.06     0.11           0.13    0.15
B15         76.29   80.41   57.78          91.87   -2.50    8.38           8.75   106.63            0.14     0.15     0.10            0.07     0.03     0.12           0.13    0.14
B16         64.02   66.28   54.72          85.14    0.25   -0.03           0.29   207.52            0.16     0.17     0.20            0.09     0.10     0.14           0.17    0.19
B17         70.86   70.80   55.60          87.39    5.58    2.92           6.30   27.60            0.16     0.18     0.20            0.09     0.08     0.17           0.18    0.21
B18         68.67   74.89   56.70          89.34   -7.55    5.14           9.13   145.76            0.15     0.16     0.14            0.08     0.05     0.07           0.11    0.11
B19         66.18   67.96   63.66          85.99    1.46   -7.59           7.73   280.90            0.17     0.18     0.15            0.09     0.09     0.10           0.15    0.16
B20          2.80    1.98    0.70          15.39   18.31   13.33          22.65   36.06            0.04     0.03     0.01            0.17     0.16     0.16           0.26    0.28
B21          8.70    5.05    0.77          26.86   39.49   31.80          50.70   38.84            0.04     0.04     0.01            0.11     0.15     0.09           0.19    0.20
B22         29.83   25.28   11.68          57.35   22.00   22.23          31.28   45.29            0.10     0.13     0.11            0.12     0.21     0.15           0.24    0.28
C1           4.52    4.32    2.23          24.71    4.84   10.18          11.27   64.54            0.05     0.05     0.03            0.15     0.14     0.11           0.20    0.23
C2           4.73    4.28    1.35          24.59    8.07   19.25          20.87   67.24            0.06     0.05     0.01            0.16     0.11     0.17           0.23    0.26
C3           5.61    4.77    0.84          26.08   12.30   29.18          31.67   67.15            0.06     0.05     0.01            0.15     0.19     0.22           0.28    0.32
C4           5.13    4.34    0.75          24.77   12.27   28.46          30.99   66.68            0.06     0.05     0.01            0.15     0.13     0.19           0.23    0.27
C5          24.22   22.93   10.77          55.00    9.42   20.96          22.98   65.81            0.11     0.11     0.08            0.12     0.18     0.10           0.22    0.24
C6          26.51   23.14    5.58          55.21   18.16   41.29          45.11   66.26            0.08     0.07     0.03            0.08     0.11     0.12           0.16    0.18
C7          28.61   23.07    2.35          55.14   26.85   61.57          67.17   66.44            0.12     0.12     0.02            0.12     0.15     0.13           0.21    0.23
C8          29.78   23.17    1.41          55.24   30.91   71.34          77.75   66.58            0.09     0.10     0.01            0.10     0.17     0.11           0.20    0.23
C9          48.55   48.75   32.99          75.29    4.29   10.07          10.94   66.92            0.16     0.18     0.18            0.12     0.12     0.19           0.23    0.25
C10         50.13   48.62   27.15          75.22    8.88   19.21          21.16   65.19            0.19     0.21     0.14            0.13     0.11     0.11           0.17    0.20
C11         51.25   48.48   21.89          75.12   12.24   28.61          31.12   66.84            0.16     0.18     0.16            0.12     0.14     0.14           0.21    0.23
C12         52.44   48.23   17.30          74.97   16.04   38.03          41.27   67.13            0.15     0.17     0.15            0.11     0.10     0.21           0.22    0.25
C13         61.91   69.72   64.25          86.86  -12.01   -6.65          13.73   208.97            0.15     0.15     0.12            0.07     0.10     0.09           0.14    0.15
C14         67.66   63.25   61.86          83.57   15.12  -10.01          18.13   326.50            0.13     0.13     0.11            0.07     0.07     0.09           0.12    0.13
C15         73.79   78.29   47.26          90.91   -3.48   18.25          18.57   100.79            0.13     0.14     0.17            0.06     0.02     0.14           0.13    0.16
C16         49.95   51.51   42.11          76.99    0.73    0.51           0.90   34.89            0.10     0.13     0.15            0.08     0.10     0.13           0.16    0.18
C17         63.11   59.99   43.64          81.83   12.43    6.95          14.24   29.19            0.12     0.13     0.16            0.07     0.08     0.10           0.14    0.15
C18         57.81   66.37   45.46          85.19  -14.53   10.51          17.93   144.12            0.17     0.17     0.19            0.09     0.08     0.15           0.18    0.19
C19         53.94   54.46   58.94          78.73    3.68  -15.46          15.89   283.40            0.15     0.16     0.15            0.09     0.12     0.06           0.15    0.16
C20          1.69    1.41    0.68          12.01    9.07    7.90          12.03   41.06            0.02     0.02     0.01            0.12     0.19     0.10           0.22    0.24
C21         23.54   17.58    4.61          48.98   32.40   35.57          48.11   47.67            0.09     0.10     0.06            0.12     0.16     0.14           0.22    0.25
C22         35.34   31.93   16.92          63.29   16.05   18.78          24.71   49.48            0.12     0.13     0.11            0.11     0.22     0.18           0.28    0.30
D1           4.12    4.26    2.18          24.53    0.07   10.27          10.27   89.64            0.05     0.05     0.03            0.17     0.16     0.13           0.24    0.27
D2           4.04    4.23    1.36          24.43   -0.58   18.83          18.84   91.76            0.04     0.04     0.01            0.13     0.13     0.11           0.20    0.21
D3           4.63    4.88    0.93          26.38   -0.91   28.19          28.20   91.85            0.03     0.04     0.01            0.11     0.17     0.17           0.23    0.27
D4           4.06    4.24    0.83          24.46   -0.41   26.55          26.56   90.89            0.04     0.04     0.01            0.13     0.15     0.21           0.27    0.29
D5          26.95   27.94   13.69          59.83    0.05   20.84          20.84   89.87            0.11     0.13     0.09            0.11     0.14     0.13           0.21    0.22
D6          26.68   27.89    7.54          59.79   -0.85   40.60          40.61   91.19            0.09     0.10     0.06            0.09     0.11     0.15           0.19    0.21
D7          26.75   28.13    3.62          60.01   -1.53   60.52          60.54   91.45            0.12     0.13     0.02            0.11     0.12     0.12           0.18    0.20
D8          26.67   28.21    1.90          60.08   -2.16   74.23          74.26   91.67            0.12     0.10     0.01            0.09     0.13     0.14           0.19    0.21
D9          55.06   57.02   38.67          80.19    0.20   10.50          10.50   88.90            0.20     0.21     0.24            0.12     0.14     0.19           0.24    0.26
D10         54.86   56.98   30.81          80.17   -0.22   21.80          21.80   90.58            0.15     0.17     0.16            0.09     0.13     0.17           0.20    0.23
D11         54.69   57.03   24.65          80.20   -0.76   32.16          32.16   91.36            0.17     0.17     0.15            0.09     0.09     0.18           0.21    0.22
D12         54.01   56.94    6.64          80.14   -2.26   79.41          79.44   91.63            0.10     0.09     0.05            0.05     0.08     0.16           0.16    0.19
D13         52.85   62.26   61.73          83.05  -17.77  -10.78          20.79   211.24            0.12     0.12     0.13            0.07     0.07     0.11           0.13    0.15
D14         62.11   54.52   58.46          78.76   23.36  -14.90          27.70   327.46            0.13     0.14     0.12            0.08     0.11     0.11           0.16    0.18
D15         71.46   76.03   38.09          89.87   -3.88   27.97          28.24   97.89            0.11     0.11     0.17            0.05     0.02     0.24           0.21    0.24
D16         37.90   39.23   32.01          68.92    0.22    0.55           0.61   67.96            0.14     0.16     0.19            0.12     0.17     0.19           0.24    0.28
D17         56.09   50.61   33.79          76.44   18.93   10.87          21.84   29.87            0.14     0.15     0.20            0.09     0.11     0.22           0.22    0.26
D18         47.52   57.68   36.10          80.56  -21.28   14.66          25.84   145.44            0.16     0.15     0.17            0.08     0.10     0.21           0.22    0.25
D19         42.63   42.40   53.66          71.14    5.27  -23.02          23.62   282.88            0.14     0.13     0.12            0.09     0.15     0.10           0.17    0.20
D20         14.24   10.71    2.64          39.09   26.82   31.48          41.36   49.57            0.10     0.09     0.04            0.15     0.17     0.16           0.25    0.28
D21         21.92   21.05   11.51          53.00    7.73   15.24          17.09   63.10            0.09     0.11     0.08            0.12     0.19     0.12           0.23    0.25
D22         39.03   36.93   19.97          67.23   11.14   18.87          21.91   59.45            0.10     0.11     0.14            0.08     0.14     0.20           0.23    0.26
E1           3.80    4.30    2.21          24.64   -5.01   10.24          11.40   116.05            0.05     0.05     0.03            0.18     0.09     0.09           0.19    0.22
E2           3.45    4.26    1.41          24.52   -9.86   18.29          20.78   118.31            0.04     0.05     0.01            0.16     0.11     0.13           0.20    0.23
E3           3.57    4.86    1.00          26.33  -15.74   27.09          31.34   120.16            0.04     0.05     0.01            0.15     0.11     0.18           0.23    0.26
E4           3.16    4.22    0.92          24.38  -13.97   24.96          28.61   119.23            0.04     0.05     0.01            0.15     0.14     0.21           0.26    0.30
E5          12.68   14.38    7.62          44.76   -7.61   14.35          16.25   117.95            0.07     0.08     0.06            0.12     0.17     0.14           0.23    0.25
E6          11.44   14.25    4.63          44.59  -15.51   27.93          31.95   119.05            0.07     0.08     0.04            0.11     0.12     0.11           0.18    0.19
E7          10.40   14.26    2.53          44.61  -23.22   41.90          47.91   118.99            0.07     0.09     0.02            0.12     0.12     0.11           0.16    0.20
E8           9.90   14.44    1.64          44.85  -28.19   50.78          58.08   119.04            0.08     0.08     0.01            0.12     0.15     0.17           0.22    0.25
E9          38.31   40.99   28.32          70.17   -3.82    8.54           9.36   114.14            0.16     0.16     0.19            0.11     0.15     0.18           0.23    0.26
E10         36.93   40.99   23.64          70.17   -8.34   16.74          18.70   116.48            0.22     0.23     0.21            0.16     0.13     0.17           0.24    0.27
E11         35.25   40.62   19.38          69.91  -12.78   24.72          27.83   117.34            0.12     0.13     0.14            0.09     0.11     0.22           0.24    0.27
E12         31.18   40.68    9.71          69.95  -27.28   50.17          57.11   118.53            0.16     0.17     0.08            0.12     0.11     0.21           0.24    0.27
E13         44.59   55.01   58.88          79.04  -23.01  -14.84          27.39   212.82            0.13     0.13     0.10            0.08     0.06     0.10           0.13    0.14
E14         56.55   46.37   54.68          73.78   31.52  -19.56          37.10   328.18            0.11     0.13     0.13            0.08     0.09     0.10           0.14    0.16
E15         69.29   73.71   30.16          88.79   -3.80   37.67          37.86   95.75            0.12     0.12     0.17            0.06     0.02     0.22           0.18    0.23
E16         28.04   29.06   23.71          60.83    0.09    0.49           0.52   79.72            0.15     0.15     0.13            0.14     0.16     0.11           0.21    0.23
E17         49.42   42.12   25.46          70.96   25.34   14.79          29.34   30.26            0.15     0.16     0.17            0.11     0.12     0.20           0.24    0.26
E18         38.23   49.24   27.86          75.60  -27.51   18.67          33.24   145.84            0.16     0.17     0.18            0.11     0.08     0.17           0.19    0.22
E19         33.12   32.21   48.17          63.51    7.44  -30.05          30.96   283.90            0.15     0.17     0.17            0.14     0.19     0.13           0.23    0.27
E20         25.08   17.18    1.23          48.48   41.24   61.93          74.40   56.34            0.11     0.10     0.01            0.12     0.14     0.11           0.21    0.22
E21         17.40   14.28    2.58          44.63   21.18   41.56          46.64   62.99            0.11     0.11     0.03            0.16     0.28     0.11           0.31    0.34
E22         29.78   25.51    8.02          57.57   20.87   34.90          40.66   59.12            0.09     0.11     0.08            0.10     0.19     0.17           0.25    0.28
F1           1.42    1.82    1.28          14.50   -8.82    2.68           9.22   163.13            0.02     0.03     0.01            0.14     0.15     0.14           0.21    0.25
F2           1.14    1.83    1.04          14.54  -17.66    6.12          18.69   160.88            0.02     0.03     0.01            0.15     0.15     0.13           0.21    0.25
F3           1.21    2.33    1.13          17.15  -26.61    9.30          28.19   160.74            0.02     0.03     0.01            0.14     0.23     0.14           0.26    0.30
F4           0.90    1.80    0.87          14.39  -25.70    8.55          27.08   161.60            0.01     0.02     0.01            0.09     0.16     0.10           0.18    0.21
F5           6.66    8.34    5.82          34.68  -13.33    4.74          14.14   160.43            0.06     0.07     0.05            0.14     0.16     0.12           0.22    0.24
F6           5.41    8.28    4.86          34.56  -26.53    9.39          28.14   160.51            0.04     0.05     0.05            0.11     0.15     0.10           0.18    0.21
F7           4.38    8.35    4.16          34.71  -40.17   13.57          42.40   161.34            0.04     0.06     0.04            0.12     0.08     0.08           0.15    0.16
F8           3.04    8.08    2.99          34.16  -58.23   20.29          61.67   160.79            0.02     0.04     0.02            0.08     0.08     0.14           0.16    0.18
F9          37.72   40.91   32.19          70.11   -5.50    2.34           5.98   157.03            0.22     0.21     0.22            0.15     0.10     0.17           0.21    0.25
F10         35.87   40.83   30.62          70.06  -11.33    4.66          12.26   157.66            0.14     0.14     0.13            0.10     0.12     0.09           0.16    0.18
F11         34.20   40.76   29.44          70.01  -16.78    6.45          17.98   158.98            0.10     0.11     0.14            0.08     0.12     0.14           0.18    0.20
F12         29.14   40.69   25.89          69.96  -34.96   12.30          37.06   160.62            0.12     0.14     0.11            0.10     0.07     0.09           0.13    0.15
F13         37.28   48.16   55.79          74.93  -27.69  -18.76          33.45   214.12            0.11     0.11     0.08            0.07     0.09     0.13           0.15    0.17
F14         51.15   38.98   50.66          68.74   39.51  -23.88          46.17   328.85            0.11     0.13     0.12            0.09     0.13     0.07           0.15    0.18
F15         67.25   71.29   23.43          87.62   -3.25   47.21          47.33   93.94            0.09     0.10     0.12            0.05     0.03     0.23           0.19    0.24
F16         20.05   20.77   16.96          52.70    0.09    0.42           0.48   78.01            0.12     0.12     0.16            0.13     0.19     0.17           0.26    0.29
F17         43.29   34.65   18.54          65.47   31.69   18.88          36.89   30.78            0.16     0.17     0.14            0.13     0.12     0.13           0.19    0.22
F18         30.44   41.71   21.24          70.67  -33.13   22.21          39.88   146.16            0.17     0.18     0.13            0.12     0.14     0.17           0.23    0.26
F19         25.18   23.71   42.58          55.80   10.12  -36.62          38.00   285.45            0.15     0.15     0.15            0.15     0.19     0.11           0.22    0.26
