targets/wolf_faust/reflective/R030507WhiteBacking.it8
IT8.7/2
ORIGINATOR "Wolf Faust"
DESCRIPTOR "L* a* b* Batch average data (light D50, viewing angle 2, white backing)"
MANUFACTURER "Wolf Faust - http://www.coloraid.de"
CREATED "May 23, 2003"
PROD_DATE "2003:05"
SERIAL "5x7 R030507"
MATERIAL "Kodak Professional Digital 3"
KEYWORD "MEAN_DE" # Mean Delta E of samples compared to batch average
NUMBER_OF_FIELDS 17
BEGIN_DATA_FORMAT
SAMPLE_ID   XYZ_X   XYZ_Y   XYZ_Z          LAB_L   LAB_A   LAB_B          LAB_C   LAB_H          STDEV_X  STDEV_Y  STDEV_Z          STDEV_L  STDEV_A  STDEV_B        MEAN_DE  STDEV_DE
END_DATA_FORMAT
NUMBER_OF_SETS 288
BEGIN_DATA
A1           3.53    2.93    1.98          19.77   11.80    4.03          12.47   18.86            0.07     0.06     0.05            0.26     0.16     0.14           0.31    0.34
A2           4.41    2.94    1.63          19.79   24.55    7.69          25.73   17.38            0.08     0.06     0.04            0.22     0.23     0.16           0.32    0.36 
A3           5.58    3.11    1.38          20.49   36.11   11.74          37.97   18.01            0.08     0.04     0.03            0.17     0.22     0.18           0.28    0.33
A4           5.98    3.27    1.39          21.08   38.04   12.69          40.10   18.44            0.08     0.04     0.03            0.16     0.31     0.19           0.33    0.40 
A5          12.90   11.22    7.58          39.95   14.59    6.23          15.87   23.12            0.18     0.17     0.19            0.28     0.16     0.37           0.46    0.50
A6          15.37   11.22    6.69          39.95   29.96    9.91          31.56   18.30            0.18     0.16     0.19            0.27     0.17     0.40           0.46    0.51 
A7          18.38   11.57    5.81          40.53   44.07   14.89          46.52   18.67            0.20     0.16     0.16            0.25     0.19     0.36           0.44    0.48
A8          21.82   11.56    4.77          40.51   61.11   20.11          64.33   18.21            0.15     0.10     0.14            0.16     0.11     0.59           0.54    0.62 
A9          42.77   41.80   32.14          70.73    7.47    3.48           8.25   24.95            0.32     0.34     0.45            0.23     0.14     0.33           0.38    0.43
A10         45.36   41.86   30.45          70.77   14.85    6.16          16.08   22.51            0.34     0.38     0.46            0.27     0.22     0.34           0.44    0.48
A11         47.54   41.75   29.41          70.70   21.29    7.68          22.63   19.85            0.34     0.37     0.45            0.26     0.20     0.37           0.44    0.49
A12         49.99   41.71   28.06          70.67   28.11    9.84          29.78   19.29            0.37     0.39     0.44            0.27     0.21     0.33           0.43    0.48 
A13         79.58   83.55   68.68          93.25   -1.91    0.24           1.93   172.91            0.22     0.23     0.20            0.10     0.03     0.10           0.12    0.14
A14         79.58   82.31   68.44          92.71    0.43   -0.48           0.65   312.83            0.26     0.27     0.24            0.12     0.04     0.12           0.16    0.17 
A15         80.23   83.99   66.91          93.45   -1.48    2.21           2.66   123.89            0.26     0.27     0.22            0.12     0.03     0.11           0.14    0.16
A16         79.62   82.62   67.56          92.85   -0.09    0.58           0.58   98.73            0.23     0.25     0.19            0.11     0.03     0.14           0.16    0.18
A17         78.98   81.76   66.38          92.47    0.28    1.02           1.05   74.58            0.22     0.22     0.20            0.10     0.03     0.11           0.13    0.15
A18         79.09   83.18   66.75          93.09   -2.18    1.75           2.79   141.34            0.19     0.20     0.19            0.09     0.03     0.12           0.13    0.15 
A19         78.34   81.37   68.13          92.29   -0.23   -0.91           0.94   255.47            0.24     0.25     0.20            0.11     0.05     0.09           0.13    0.15
A20          1.33    1.06    0.71           9.51    9.81    2.97          10.24   16.85            0.02     0.02     0.01            0.14     0.17     0.12           0.23    0.25 
A21          5.28    3.32    0.77          21.28   29.15   22.25          36.68   37.35            0.09     0.06     0.01            0.23     0.20     0.25           0.33    0.39
A22         10.61    6.00    0.81          29.42   43.85   35.39          56.35   38.91            0.10     0.07     0.01            0.17     0.19     0.14           0.27    0.29
B1           3.32    2.88    1.51          19.56    9.31    8.58          12.66   42.66            0.07     0.06     0.04            0.24     0.21     0.14           0.32    0.35
B2           3.97    2.93    1.00          19.78   18.39   15.82          24.26   40.69            0.07     0.06     0.02            0.24     0.20     0.18           0.33    0.36
B3           4.63    2.99    0.65          20.01   26.50   22.23          34.59   39.99            0.07     0.04     0.01            0.18     0.21     0.20           0.31    0.34
B4           5.15    3.21    0.55          20.86   29.35   25.53          38.90   41.02            0.08     0.06     0.01            0.22     0.19     0.31           0.38    0.43
B5          13.17   11.33    5.66          40.13   15.58   14.91          21.57   43.74            0.20     0.19     0.14            0.32     0.20     0.26           0.41    0.45
B6          15.27   11.39    3.67          40.22   28.17   26.06          38.38   42.77            0.21     0.19     0.11            0.31     0.22     0.25           0.43    0.45
B7          18.05   11.57    2.21          40.53   42.37   37.59          56.64   41.58            0.18     0.15     0.06            0.25     0.16     0.18           0.32    0.35
B8          21.28   11.65    1.06          40.66   57.94   50.81          77.07   41.25            0.15     0.11     0.02            0.18     0.09     0.12           0.21    0.23
B9          42.40   41.57   29.76          70.58    7.06    6.90           9.87   44.33            0.33     0.37     0.44            0.25     0.14     0.33           0.39    0.44
B10         44.85   41.96   26.53          70.84   13.09   12.72          18.25   44.17            0.32     0.36     0.47            0.25     0.18     0.43           0.49    0.53
B11         46.46   41.37   23.31          70.44   19.43   17.82          26.36   42.52            0.38     0.41     0.48            0.29     0.18     0.48           0.53    0.59
B12         48.73   41.41   20.11          70.46   25.58   24.16          35.19   43.36            0.37     0.40     0.39            0.28     0.23     0.39           0.47    0.53
B13         72.98   78.75   67.50          91.12   -6.07   -2.35           6.51   201.20            0.18     0.19     0.15            0.09     0.06     0.09           0.12    0.14
B14         75.49   75.02   66.42          89.40    6.50   -4.31           7.80   326.45            0.24     0.29     0.12            0.14     0.13     0.19           0.22    0.26
B15         78.24   82.43   58.53          92.77   -2.45    9.16           9.49   104.97            0.24     0.24     0.33            0.11     0.03     0.19           0.20    0.22
B16         66.09   68.45   55.57          86.23    0.19    0.96           0.98   78.85            0.34     0.35     0.40            0.18     0.08     0.15           0.22    0.25
B17         72.89   72.94   56.42          88.42    5.40    3.84           6.62   35.39            0.28     0.30     0.34            0.15     0.09     0.13           0.19    0.21
B18         70.64   76.93   57.46          90.29   -7.40    5.99           9.52   141.01            0.18     0.19     0.25            0.09     0.06     0.16           0.18    0.20
B19         68.27   70.10   64.99          87.04    1.48   -7.03           7.19   281.86            0.22     0.26     0.19            0.12     0.10     0.08           0.15    0.18
B20          2.84    2.03    0.71          15.65   18.03   13.50          22.52   36.82            0.06     0.04     0.01            0.20     0.27     0.25           0.36    0.42
B21          8.76    5.08    0.78          26.96   39.61   31.82          50.81   38.78            0.10     0.07     0.01            0.18     0.17     0.18           0.26    0.31
B22         30.21   25.42   11.31          57.48   22.88   23.57          32.85   45.85            0.27     0.26     0.27            0.26     0.16     0.43           0.46    0.53
C1           4.50    4.32    2.22          24.71    4.50   10.28          11.23   66.38            0.10     0.10     0.06            0.30     0.15     0.12           0.33    0.36
C2           4.82    4.29    1.33          24.62    9.08   19.45          21.47   64.97            0.08     0.08     0.03            0.27     0.21     0.15           0.33    0.37
C3           5.71    4.81    0.85          26.17   13.06   29.19          31.98   65.89            0.10     0.09     0.01            0.26     0.16     0.31           0.39    0.43
C4           5.12    4.30    0.76          24.63   12.71   28.24          30.97   65.77            0.10     0.09     0.01            0.27     0.17     0.35           0.42    0.47
C5          24.39   23.11   10.38          55.19    9.37   22.52          24.40   67.41            0.26     0.29     0.25            0.30     0.23     0.36           0.47    0.52
C6          26.77   23.28    5.38          55.36   18.61   42.57          46.46   66.39            0.28     0.31     0.15            0.32     0.24     0.28           0.44    0.49
C7          29.19   23.48    2.37          55.56   27.26   62.16          67.87   66.32            0.27     0.27     0.05            0.27     0.19     0.13           0.33    0.36
C8          30.45   23.58    1.43          55.66   31.63   71.82          78.47   66.23            0.26     0.28     0.02            0.28     0.26     0.34           0.47    0.51
C9          49.13   49.12   32.79          75.53    4.84   10.77          11.81   65.81            0.33     0.38     0.43            0.24     0.19     0.31           0.39    0.43
C10         50.75   49.41   26.68          75.71    8.42   20.85          22.48   68.00            0.34     0.38     0.50            0.24     0.14     0.47           0.49    0.54
C11         52.23   49.27   21.68          75.62   12.68   29.86          32.45   66.99            0.36     0.41     0.43            0.26     0.20     0.45           0.48    0.56
C12         53.83   49.51   17.13          75.77   16.16   39.80          42.95   67.90            0.36     0.41     0.37            0.25     0.20     0.44           0.48    0.54
C13         63.20   71.24   65.39          87.60  -12.24   -6.45          13.83   207.79            0.17     0.17     0.16            0.08     0.10     0.10           0.15    0.16
C14         69.35   64.71   63.07          84.33   15.50   -9.87          18.37   327.51            0.26     0.32     0.19            0.16     0.20     0.18           0.28    0.31
C15         75.60   80.13   47.82          91.75   -3.36   19.02          19.32   100.03            0.27     0.27     0.42            0.12     0.03     0.36           0.34    0.38
C16         50.83   52.43   42.60          77.53    0.75    0.83           1.13   46.73            0.39     0.42     0.49            0.25     0.11     0.25           0.34    0.37
C17         64.61   61.30   44.32          82.54   12.80    7.33          14.75   29.79            0.35     0.38     0.42            0.21     0.15     0.22           0.30    0.34
C18         58.97   67.75   46.13          85.88  -14.72   10.90          18.32   143.51            0.29     0.28     0.42            0.14     0.11     0.33           0.34    0.38
C19         54.88   55.42   59.85          79.28    3.68  -15.41          15.85   283.41            0.32     0.35     0.22            0.20     0.21     0.22           0.33    0.36
C20          1.69    1.41    0.68          12.03    9.07    7.91          12.03   41.10            0.04     0.03     0.01            0.22     0.19     0.20           0.31    0.35
C21         23.88   17.82    4.48          49.28   32.64   36.84          49.22   48.45            0.25     0.24     0.14            0.29     0.20     0.33           0.44    0.49
C22         35.75   32.28   16.56          63.58   16.21   20.11          25.83   51.13            0.36     0.38     0.37            0.31     0.19     0.40           0.48    0.54
D1           4.07    4.25    2.19          24.47   -0.35   10.16          10.17   91.99            0.09     0.10     0.06            0.30     0.21     0.12           0.36    0.39
D2           4.09    4.28    1.37          24.58   -0.58   19.02          19.03   91.73            0.08     0.09     0.03            0.28     0.17     0.18           0.34    0.37
D3           4.79    5.03    0.96          26.81   -0.76   28.50          28.51   91.53            0.10     0.11     0.01            0.32     0.18     0.37           0.46    0.52
D4           4.02    4.22    0.84          24.38   -0.70   26.20          26.21   91.54            0.08     0.09     0.02            0.28     0.17     0.38           0.43    0.50
D5          27.27   28.37   13.44          60.23   -0.37   22.22          22.22   90.95            0.25     0.29     0.28            0.26     0.17     0.37           0.43    0.48
D6          27.23   28.38    7.18          60.23   -0.55   42.82          42.83   90.73            0.33     0.39     0.21            0.34     0.21     0.35           0.48    0.53
D7          26.88   28.17    3.59          60.04   -1.14   60.77          60.78   91.07            0.29     0.33     0.08            0.30     0.20     0.17           0.37    0.39
D8          26.88   28.41    1.92          60.25   -2.07   74.35          74.38   91.59            0.26     0.27     0.02            0.24     0.11     0.32           0.38    0.42
D9          56.07   58.05   38.57          80.77    0.24   11.63          11.64   88.82            0.33     0.38     0.47            0.21     0.14     0.33           0.37    0.42
D10         55.91   58.01   30.64          80.74   -0.05   23.05          23.05   90.14            0.35     0.40     0.48            0.23     0.12     0.42           0.42    0.49
D11         55.78   57.89   24.48          80.68   -0.09   33.31          33.31   90.16            0.33     0.38     0.43            0.21     0.15     0.49           0.47    0.55
D12         55.07   57.82    6.40          80.64   -1.70   81.31          81.33   91.20            0.25     0.30     0.12            0.16     0.12     0.30           0.33    0.36
D13         53.79   63.49   62.82          83.70  -18.14  -10.72          21.07   210.59            0.22     0.23     0.17            0.12     0.10     0.14           0.19    0.21
D14         63.34   55.35   59.36          79.24   24.14  -14.99          28.42   328.16            0.30     0.35     0.21            0.20     0.24     0.22           0.33    0.38
D15         73.28   77.88   38.59          90.72   -3.73   28.78          29.02   97.39            0.32     0.33     0.50            0.15     0.02     0.45           0.40    0.48
D16         38.27   39.50   32.26          69.11    0.59    0.50           0.80   36.84            0.36     0.40     0.45            0.29     0.12     0.28           0.38    0.42
D17         57.04   51.18   33.99          76.79   19.76   11.18          22.70   29.48            0.37     0.39     0.49            0.24     0.15     0.35           0.40    0.44
D18         48.20   58.62   36.36          81.08  -21.64   15.20          26.45   144.92            0.24     0.24     0.43            0.13     0.12     0.41           0.40    0.45
D19         42.95   42.58   54.24          71.27    5.70  -23.44          24.12   283.66            0.22     0.28     0.18            0.19     0.20     0.18           0.28    0.33
D20         14.34   10.80    2.64          39.24   26.80   31.73          41.54   49.81            0.21     0.19     0.07            0.32     0.18     0.20           0.38    0.42
D21         22.18   21.38   11.33          53.36    7.37   16.42          18.00   65.82            0.26     0.28     0.27            0.30     0.15     0.36           0.44    0.49
D22         39.74   37.67   19.60          67.77   11.00   20.58          23.33   61.86            0.37     0.42     0.45            0.31     0.20     0.44           0.50    0.57
E1           3.78    4.31    2.21          24.66   -5.41   10.27          11.61   117.78            0.09     0.11     0.07            0.34     0.15     0.18           0.38    0.41
E2           3.42    4.25    1.42          24.48  -10.23   18.19          20.87   119.34            0.07     0.09     0.03            0.28     0.16     0.21           0.34    0.39
E3           3.69    4.96    1.02          26.62  -15.32   27.25          31.26   119.34            0.07     0.10     0.01            0.27     0.13     0.34           0.39    0.45
E4           3.18    4.25    0.93          24.48  -14.07   25.02          28.70   119.36            0.06     0.08     0.01            0.26     0.18     0.32           0.40    0.45
E5          12.72   14.41    7.29          44.81   -7.58   15.75          17.49   115.71            0.23     0.27     0.20            0.38     0.15     0.25           0.42    0.48
E6          11.53   14.34    4.41          44.71  -15.34   29.34          33.11   117.61            0.19     0.25     0.13            0.35     0.16     0.19           0.38    0.43
E7          10.45   14.28    2.53          44.63  -22.99   41.91          47.80   118.74            0.20     0.26     0.06            0.37     0.13     0.23           0.41    0.45
E8           9.84   14.39    1.65          44.78  -28.33   50.56          57.95   119.27            0.14     0.17     0.02            0.25     0.12     0.26           0.33    0.38
E9          38.77   41.55   28.19          70.56   -4.06    9.44          10.27   113.31            0.29     0.33     0.46            0.23     0.15     0.42           0.45    0.50
E10         37.27   41.29   23.45          70.38   -8.10   17.44          19.23   114.92            0.32     0.36     0.41            0.25     0.14     0.38           0.43    0.48
E11         36.06   41.45   19.17          70.49  -12.56   26.18          29.04   115.64            0.25     0.30     0.36            0.21     0.14     0.47           0.48    0.54
E12         31.58   41.10    9.21          70.25  -27.09   52.43          59.02   117.33            0.26     0.29     0.21            0.20     0.14     0.45           0.45    0.51
E13         44.93   55.65   59.78          79.42  -23.65  -15.11          28.06   212.58            0.19     0.19     0.17            0.11     0.11     0.10           0.17    0.19
E14         57.28   46.55   55.15          73.90   32.80  -19.86          38.35   328.81            0.33     0.38     0.25            0.24     0.28     0.21           0.37    0.43
E15         70.97   75.37   30.07          89.56   -3.58   39.17          39.33   95.22            0.26     0.29     0.48            0.13     0.02     0.56           0.49    0.58
E16         27.73   28.66   23.33          60.47    0.41    0.59           0.75   49.21            0.32     0.34     0.43            0.30     0.16     0.33           0.44    0.48
E17         49.84   42.08   25.08          70.92   26.60   15.39          30.74   30.05            0.36     0.38     0.42            0.26     0.20     0.39           0.46    0.51
E18         38.45   49.72   27.75          75.90  -28.10   19.36          34.13   145.43            0.27     0.29     0.48            0.18     0.14     0.54           0.53    0.59
E19         33.03   31.98   48.42          63.32    7.95  -30.67          31.68   284.53            0.22     0.26     0.19            0.21     0.23     0.20           0.32    0.37
E20         25.69   17.52    1.26          48.90   41.99   62.33          75.15   56.03            0.21     0.19     0.02            0.24     0.20     0.26           0.37    0.41
E21         17.54   14.33    2.57          44.71   21.64   41.74          47.02   62.60            0.18     0.19     0.07            0.26     0.25     0.17           0.35    0.40
E22         30.84   26.27    7.77          58.29   21.73   37.10          43.00   59.65            0.26     0.30     0.22            0.28     0.25     0.47           0.56    0.60
F1           1.45    1.81    1.27          14.46   -8.01    2.77           8.48   160.90            0.03     0.04     0.03            0.21     0.16     0.16           0.29    0.31
F2           1.15    1.85    1.05          14.68  -17.78    6.25          18.84   160.65            0.02     0.04     0.02            0.20     0.23     0.11           0.30    0.33
F3           1.21    2.29    1.14          16.95  -25.84    8.79          27.29   161.21            0.02     0.05     0.02            0.22     0.26     0.15           0.33    0.38
F4           0.90    1.81    0.88          14.48  -25.91    8.61          27.31   161.63            0.02     0.03     0.01            0.18     0.29     0.15           0.33    0.38
F5           6.64    8.35    5.57          34.70  -13.55    5.98          14.82   156.19            0.13     0.16     0.15            0.31     0.15     0.30           0.42    0.46
F6           5.35    8.25    4.75          34.49  -26.90    9.85          28.65   159.89            0.11     0.16     0.12            0.33     0.15     0.16           0.36    0.40
F7           4.36    8.31    3.98          34.61  -40.09   14.45          42.61   160.18            0.09     0.15     0.12            0.32     0.19     0.25           0.41    0.45
F8           3.10    8.21    3.03          34.43  -58.34   20.47          61.83   160.67            0.03     0.06     0.06            0.13     0.13     0.29           0.31    0.35
F9          38.25   41.29   31.76          70.37   -4.93    3.45           6.02   145.11            0.31     0.35     0.49            0.24     0.12     0.37           0.41    0.46
F10         36.51   41.52   30.86          70.54  -11.29    5.12          12.40   155.61            0.33     0.37     0.49            0.26     0.14     0.34           0.41    0.45
F11         34.39   41.02   29.23          70.19  -16.92    7.10          18.35   157.25            0.29     0.33     0.46            0.23     0.13     0.43           0.45    0.51
F12         29.09   40.85   25.35          70.07  -35.66   13.46          38.11   159.33            0.29     0.32     0.41            0.23     0.16     0.38           0.40    0.47
F13         37.51   48.67   56.54          75.24  -28.30  -19.00          34.09   213.87            0.21     0.22     0.17            0.14     0.10     0.17           0.21    0.24
F14         51.92   39.31   51.16          68.98   40.51  -24.03          47.10   329.32            0.29     0.32     0.21            0.23     0.27     0.20           0.35    0.40
F15         68.86   72.84   23.32          88.37   -2.96   48.71          48.80   93.48            0.31     0.34     0.44            0.17     0.06     0.60           0.57    0.62
F16         19.79   20.54   16.67          52.44   -0.07    0.66           0.68   96.30            0.30     0.31     0.37            0.35     0.14     0.36           0.47    0.52
F17         43.89   34.89   18.34          65.66   32.62   19.67          38.09   31.08            0.34     0.35     0.40            0.28     0.21     0.49           0.52    0.60
F18         30.39   41.88   21.07          70.78  -33.82   22.76          40.77   146.07            0.24     0.27     0.40            0.19     0.15     0.53           0.51    0.59
F19         24.96   23.47   42.75          55.55   10.25  -37.27          38.65   285.38            0.23     0.27     0.25            0.27     0.26     0.19           0.39    0.43
