targets/wolf_faust/reflective/R030510.it8
IT8.7/2
ORIGINATOR "Wolf Faust"
DESCRIPTOR "L* a* b* Batch average data (light D50, viewing angle 2)"
MANUFACTURER "Wolf Faust - http://www.coloraid.de"
CREATED "October 19, 2003"
PROD_DATE "2003:05"
SAMPLE_BACKING "white"
SERIAL "DIN A4  R030510"
MATERIAL "Kodak Professional Digital 3 - Non-Glossy"
NUMBER_OF_FIELDS 9
BEGIN_DATA_FORMAT
SAMPLE_ID   XYZ_X   XYZ_Y   XYZ_Z          LAB_L   LAB_A   LAB_B          LAB_C   LAB_H
END_DATA_FORMAT
NUMBER_OF_SETS 288
BEGIN_DATA
A1           3.23    2.70    1.87          18.82   11.14    3.47          11.67   17.29
A2           4.10    2.77    1.58          19.11   23.14    7.00          24.18   16.83 
A3           6.08    3.61    1.74          22.34   33.70   10.89          35.42   17.91
A4           4.42    2.78    1.46          19.13   27.56    8.41          28.82   16.97 
A5          12.07   10.47    7.26          38.66   14.51    5.32          15.46   20.13
A6          14.37   10.52    6.27          38.76   29.06    9.70          30.65   18.46 
A7          17.18   10.84    5.57          39.31   42.93   13.95          45.14   18.00
A8          21.50   11.21    4.49          39.93   62.10   20.68          65.46   18.41 
A9          40.29   39.32   30.58          68.98    7.49    2.87           8.03   20.98
A10         42.90   39.83   29.65          69.35   13.84    4.97          14.71   19.75
A11         45.46   39.92   28.69          69.41   21.00    6.63          22.02   17.53
A12         49.39   40.58   27.07          69.88   29.89   10.13          31.57   18.72 
A13         77.90   82.36   70.14          92.73   -3.00   -1.97           3.59   213.35
A14         79.69   81.64   69.90          92.41    1.92   -2.31           3.01   309.80 
A15         80.57   84.21   67.11          93.54   -1.23    2.18           2.50   119.55
A16         79.98   82.85   68.02          92.95    0.19    0.32           0.37   58.90
A17         78.68   80.79   66.30          92.03    1.56    0.34           1.61   12.01
A18         77.00   81.68   66.63          92.43   -3.50    0.71           3.57   168.52 
A19         75.73   78.71   69.16          91.10   -0.33   -3.91           3.92   265.15
A20          1.29    1.07    0.72           9.60    8.22    2.98           8.75   19.88 
A21          4.92    3.17    0.76          20.72   27.18   21.32          34.54   38.12
A22          9.90    5.75    0.83          28.78   41.08   34.04          53.35   39.65
B1           3.13    2.72    1.49          18.89    9.10    7.71          11.93   40.25
B2           3.71    2.75    0.96          19.02   17.79   15.00          23.27   40.13
B3           5.41    3.62    0.86          22.37   25.99   22.53          34.40   40.92
B4           4.01    2.81    0.80          19.26   21.25   18.17          27.95   40.53
B5          12.24   10.53    5.29          38.78   15.14   14.41          20.90   43.59
B6          14.19   10.60    3.58          38.89   27.41   24.39          36.69   41.65
B7          16.89   10.82    2.13          39.27   41.53   36.22          55.10   41.09
B8          20.74   11.06    0.90          39.68   59.56   51.64          78.83   40.93
B9          39.97   39.32   28.45          68.98    6.51    6.29           9.05   43.98
B10         42.33   39.66   25.40          69.23   12.67   11.91          17.39   43.22
B11         44.71   39.87   22.56          69.37   19.02   17.41          25.78   42.47
B12         48.15   40.38   19.23          69.74   27.13   24.76          36.73   42.37
B13         71.55   77.70   68.87          90.64   -7.00   -4.44           8.29   212.38
B14         75.26   73.88   67.63          88.87    8.36   -6.36          10.50   322.75
B15         78.32   82.52   57.26          92.80   -2.46   10.53          10.81   103.18
B16         63.31   65.64   53.52          84.81    0.05    0.69           0.70   85.47
B17         72.06   71.42   54.77          87.69    6.81    4.31           8.07   32.30
B18         68.60   75.52   55.85          89.63   -8.95    6.53          11.08   143.92
B19         65.83   67.42   65.75          85.72    1.85  -10.04          10.21   280.42
B20          2.73    2.00    0.75          15.48   16.65   12.60          20.88   37.11
B21          8.19    4.87    0.82          26.35   37.24   30.08          47.87   38.93
B22         28.47   24.10   10.92          56.19   21.80   22.57          31.38   45.98
C1           4.12    3.97    2.04          23.59    4.20   10.03          10.88   67.32
C2           4.46    4.03    1.27          23.76    8.09   18.79          20.47   66.72
C3           5.40    4.68    1.05          25.79   11.13   25.33          27.67   66.28
C4           4.60    4.01    1.00          23.70   10.25   22.50          24.73   65.51
C5          23.08   22.00   10.07          54.02    8.64   21.54          23.21   68.15
C6          25.24   22.14    5.08          54.17   17.38   42.00          45.46   67.52
C7          27.81   22.40    2.29          54.44   26.71   60.94          66.54   66.33
C8          28.28   22.35    1.79          54.40   28.75   65.57          71.59   66.32
C9          46.96   47.24   31.66          74.34    4.00   10.44          11.19   69.00
C10         48.93   47.75   26.19          74.67    8.00   19.91          21.46   68.10
C11         50.91   48.07   21.04          74.87   12.45   29.86          32.35   67.37
C12         53.22   48.40   15.95          75.08   17.56   41.39          44.96   67.01
C13         62.44   70.68   66.75          87.33  -12.82   -8.19          15.21   212.60
C14         69.54   64.36   64.40          84.15   16.69  -11.46          20.25   325.53
C15         76.02   80.58   47.12          91.94   -3.38   20.19          20.47   99.51
C16         49.34   51.02   41.43          76.69    0.39    0.85           0.94   65.63
C17         64.14   60.44   43.23          82.08   13.73    7.87          15.82   29.81
C18         57.71   66.95   45.21          85.48  -16.06   11.32          19.65   144.83
C19         53.59   54.01   60.84          78.47    3.90  -17.80          18.23   282.37
C20          1.66    1.43    0.76          12.16    7.67    6.62          10.14   40.74
C21         22.79   17.01    4.36          48.27   32.13   35.76          48.07   48.06
C22         34.50   31.29   16.18          62.75   15.52   19.60          25.00   51.61
D1           3.77    3.95    2.08          23.52   -0.57    9.54           9.56   93.39
D2           3.84    4.02    1.34          23.73   -0.53   17.89          17.90   91.69
D3           4.78    5.00    1.17          26.72   -0.48   25.20          25.21   91.10
D4           3.85    4.02    1.09          23.72   -0.31   21.25          21.25   90.85
D5          25.79   27.02   13.02          58.99   -1.09   21.24          21.27   92.94
D6          25.71   26.95    7.06          58.93   -1.14   41.06          41.08   91.59
D7          25.82   27.31    3.44          59.25   -2.11   60.39          60.43   92.00
D8          25.55   27.18    2.32          59.14   -2.71   68.73          68.78   92.26
D9          53.62   55.78   37.47          79.49   -0.43   10.92          10.93   92.23
D10         53.81   55.99   29.76          79.61   -0.45   22.48          22.49   91.15
D11         53.48   55.85   23.73          79.53   -0.94   32.69          32.70   91.65
D12         54.03   57.01    5.46          80.19   -2.40   84.94          84.98   91.62
D13         53.36   63.19   64.11          83.54  -18.55  -12.23          22.22   213.40
D14         63.72   55.26   60.83          79.19   25.21  -16.54          30.15   326.73
D15         73.72   78.38   38.30          90.95   -3.81   29.55          29.79   97.35
D16         37.31   38.60   31.38          68.46    0.29    0.73           0.81   68.12
D17         56.92   50.79   33.47          76.55   20.51   11.53          23.53   29.34
D18         47.52   58.34   35.93          80.93  -22.84   15.53          27.62   145.79
D19         42.68   42.27   55.41          71.06    5.82  -25.04          25.70   283.07
D20         13.65   10.32    2.48          38.41   26.03   31.67          41.00   50.58
D21         21.17   20.50   11.04          52.40    6.80   15.64          17.05   66.51
D22         38.13   36.16   19.11          66.64   10.79   19.67          22.43   61.26
E1           3.53    4.01    2.15          23.71   -5.19    9.15          10.53   119.58
E2           3.24    4.00    1.37          23.68   -9.65   17.38          19.88   119.04
E3           3.81    4.96    1.27          26.61  -13.40   23.70          27.23   119.47
E4           3.15    3.99    1.17          23.65  -11.03   20.00          22.84   118.86
E5          11.90   13.54    7.05          43.56   -7.78   14.61          16.55   118.04
E6          10.72   13.47    4.33          43.46  -15.85   27.66          31.88   119.82
E7           9.89   13.71    2.42          43.81  -23.75   41.49          47.81   119.79
E8           9.70   13.87    1.97          44.04  -26.26   45.88          52.87   119.79
E9          36.62   39.35   26.94          69.00   -4.31    8.85           9.84   115.99
E10         35.27   39.43   22.56          69.06   -9.05   16.84          19.12   118.24
E11         34.02   39.53   18.76          69.13  -13.63   24.73          28.24   118.87
E12         30.09   40.10    8.46          69.54  -29.57   53.90          61.48   118.75
E13         45.20   56.01   61.11          79.62  -23.74  -16.08          28.67   214.12
E14         58.39   47.45   57.14          74.48   33.01  -20.95          39.10   327.60
E15         71.72   76.24   30.61          89.97   -3.73   39.01          39.19   95.47
E16         27.91   28.96   23.56          60.75   -0.04    0.62           0.64   96.58
E17         50.45   42.56   25.42          71.26   26.79   15.38          30.89   29.85
E18         38.57   50.21   28.21          76.20  -29.01   19.12          34.74   146.61
E19         33.57   32.56   49.93          63.81    7.75  -31.57          32.50   283.79
E20         24.01   16.69    1.43          47.86   39.31   58.36          70.37   56.04
E21         16.56   13.54    2.46          43.57   21.18   40.73          45.90   62.53
E22         29.10   24.86    7.44          56.94   20.99   36.07          41.73   59.80
F1           1.40    1.73    1.21          14.01   -7.48    2.81           8.00   159.33
F2           1.10    1.72    1.00          13.97  -16.77    5.71          17.72   161.17
F3           1.32    2.29    1.22          16.93  -22.27    7.69          23.56   160.95
F4           1.11    1.74    1.00          14.03  -16.61    5.80          17.60   160.76
F5           6.07    7.64    5.39          33.22  -13.31    4.34          14.00   161.95
F6           5.04    7.77    4.50          33.49  -26.33    9.51          28.00   160.14
F7           4.21    8.01    3.87          34.01  -39.54   14.11          41.99   160.36
F8           3.48    8.14    3.26          34.27  -51.40   18.56          54.66   160.15
F9          35.81   39.16   30.58          68.86   -6.39    2.66           6.92   157.42
F10         34.42   39.39   29.60          69.03  -11.83    4.51          12.67   159.12
F11         32.73   39.41   28.10          69.05  -17.80    6.97          19.12   158.62
F12         27.44   39.60   24.61          69.18  -38.28   13.24          40.51   160.92
F13         37.85   49.14   57.77          75.54  -28.48  -19.76          34.66   214.77
F14         52.83   39.89   52.99          69.39   41.09  -25.32          48.26   328.36
F15         69.35   73.52   23.89          88.69   -3.28   48.20          48.31   93.89
F16         20.03   20.79   16.94          52.71   -0.05    0.49           0.54   100.58
F17         44.31   35.08   18.68          65.81   33.19   19.17          38.33   30.01
F18         30.66   42.58   21.54          71.27  -34.90   22.66          41.61   147.01
F19         25.60   24.08   44.05          56.17   10.27  -37.82          39.19   285.20
F20         25.00   23.93   10.89          56.02    8.39   22.34          23.87   69.40
F21         33.18   29.91    9.92          61.58   15.99   35.07          38.54   65.49
F22         37.75   35.09   14.51          65.82   13.10   29.02          31.84   65.70
G1           2.16    2.70    2.40          18.79   -9.12   -1.53           9.25   189.48
G2           1.76    2.72    2.62          18.88  -18.64   -3.15          18.91   189.58
G3           1.88    3.26    3.29          21.07  -25.33   -4.37          25.71   189.78
G4           1.62    2.74    2.66          18.98  -22.78   -3.32          23.02   188.28
G5           8.40   10.34    9.03          38.44  -13.05   -1.78          13.18   187.75
G6           7.25   10.54    9.67          38.80  -25.19   -3.38          25.42   187.63
G7           6.10   10.62   10.44          38.92  -37.51   -5.69          37.95   188.62
G8           5.13   10.76   11.19          39.17  -49.78   -7.61          50.36   188.69
G9          35.96   39.28   32.82          68.95   -6.28   -0.61           6.31   185.53
G10         33.99   39.35   33.84          69.00  -13.16   -2.04          13.32   188.79
G11         32.11   39.20   34.56          68.89  -19.34   -3.26          19.62   189.57
G12         27.70   39.75   37.30          69.29  -37.73   -6.44          38.28   189.69
G13         31.51   42.85   54.27          71.45  -32.56  -23.15          39.95   215.41
G14         47.85   33.54   48.92          64.60   48.45  -29.06          56.50   329.05
G15         68.05   71.72   18.38          87.83   -2.39   57.79          57.84   92.37
G16         13.90   14.44   11.67          44.86   -0.20    0.73           0.78   106.90
G17         39.01   28.98   13.18          60.77   38.92   23.84          45.64   31.49
G18         24.15   35.85   16.11          66.40  -40.00   26.06          47.74   146.92
G19         19.30   17.40   38.71          48.76   13.31  -43.73          45.71   286.92
G20         35.23   33.78   13.60          64.78    9.25   29.64          31.05   72.67
G21         33.93   32.31    8.61          63.59    9.94   43.09          44.22   77.02
G22         46.88   43.11    2.72          71.63   15.46   86.99          88.35   79.92
H1           2.27    2.64    3.02          18.54   -5.66   -6.85           8.89   230.43
H2           2.09    2.73    4.04          18.95  -11.13  -12.88          17.02   229.15
H3           2.15    3.12    5.73          20.53  -16.70  -19.23          25.47   229.02
H4           1.88    2.71    4.76          18.82  -15.47  -17.23          23.16   228.08
H5           9.00   10.31   11.20          38.39   -7.63   -9.00          11.81   229.71
H6           8.18   10.44   14.52          38.62  -15.74  -17.89          23.83   228.67
H7           7.48   10.62   18.70          38.93  -23.51  -27.22          35.97   229.19
H8           6.93   10.89   23.57          39.40  -30.89  -36.19          47.58   229.52
H9          36.57   39.42   36.07          69.05   -4.69   -5.14           6.96   227.58
H10         35.24   39.42   39.44          69.05   -9.12   -9.72          13.33   226.82
H11         33.80   39.26   43.67          68.94  -13.58  -15.32          20.47   228.44
H12         31.85   39.78   53.22          69.31  -22.09  -25.71          33.89   229.33
H13         26.06   37.10   50.62          67.35  -36.02  -26.23          44.56   216.06
H14         42.77   27.58   44.62          59.51   55.86  -32.75          64.76   329.62
H15         66.25   69.26   13.66          86.63   -1.17   67.15          67.16   91.00
H16          9.32    9.61    7.79          37.14    0.42    0.54           0.71   128.02
H17         34.11   23.54    9.00          55.62   44.90   27.94          52.89   31.89
H18         18.80   29.96   11.73          61.62  -44.62   29.46          53.47   146.57
H19         14.18   11.99   33.40          41.20   17.36  -49.32          52.29   289.39
H20         40.22   40.51   14.27          69.83    3.62   36.56          36.74   84.34
H21         29.90   31.05   19.12          62.55   -0.12   12.59          12.59   90.57
H22         34.18   37.13   10.42          67.37   -5.51   43.43          43.78   97.24
I1           3.88    3.95    5.19          23.50    1.04  -11.45          11.50   275.23
I2           3.94    3.95    7.92          23.50    1.90  -23.47          23.55   274.63
I3           4.02    3.96   11.27          23.53    2.94  -34.82          34.94   274.82
I4           4.32    4.08   17.82          23.94    5.39  -51.11          51.40   276.01
I5          13.00   13.37   14.02          43.31    0.72   -8.49           8.52   274.90
I6          13.09   13.36   18.27          43.30    1.33  -18.75          18.80   274.06
I7          13.19   13.41   22.77          43.37    1.75  -27.85          27.91   273.58
I8          13.78   13.61   34.56          43.66    4.23  -46.77          46.96   275.17
I9          38.37   39.60   35.64          69.18    0.60   -4.32           4.36   277.89
I10         38.26   39.39   39.43          69.03    0.88   -9.74           9.79   275.18
I11         38.40   39.50   43.71          69.11    1.01  -15.07          15.11   273.82
I12         38.99   39.72   54.02          69.27    2.20  -26.65          26.74   274.72
I13         21.19   31.59   46.56          63.00  -38.79  -29.05          48.46   216.83
I14         38.49   22.91   40.64          54.98   62.21  -35.56          71.66   330.25
I15         64.38   66.59    9.93          85.30    0.38   75.91          75.91   89.71
I16          5.85    6.08    4.88          29.60   -0.06    0.69           0.83   107.14
I17         30.07   19.34    5.69          51.08   49.91   33.63          60.18   33.97
I18         14.11   24.39    8.22          56.48  -48.91   32.27          58.60   146.59
I19         10.22    8.02   28.62          34.02   21.02  -54.26          58.20   291.17
I20         40.71   44.62   14.63          72.64   -6.99   40.49          41.09   99.80
I21         10.32   14.01    3.20          44.24  -22.28   36.21          42.52   121.61
I22         27.08   35.34   15.85          66.01  -26.07   26.01          36.83   135.08
J1           1.99    1.77    2.71          14.20    7.05  -11.94          13.88   300.62
J2           2.27    1.74    4.58          14.04   13.76  -24.46          28.07   299.37
J3           2.64    1.76    7.41          14.14   20.68  -37.59          42.90   298.82
J4           3.63    1.81   16.14          14.48   36.24  -63.54          73.15   299.70
J5          10.67   10.31   11.27          38.38    5.62   -9.23          10.81   301.35
J6          11.39   10.36   14.69          38.48   10.48  -18.59          21.34   299.42
J7          12.20   10.42   18.98          38.58   15.75  -28.43          32.50   298.98
J8          14.13   10.37   31.62          38.50   28.69  -51.29          58.77   299.22
J9          39.06   39.52   35.55          69.13    3.03   -4.27           5.24   305.27
J10         40.23   39.91   39.17          69.40    5.49   -8.77          10.34   302.07
J11         41.24   39.85   43.95          69.36    8.79  -14.94          17.34   300.48
J12         43.39   39.92   54.12          69.41   15.02  -26.51          30.47   299.53
J13         17.12   26.76   42.85          58.75  -41.19  -31.87          52.08   217.73
J14         34.46   18.92   36.70          50.59   67.81  -37.85          77.66   330.83
J15         62.48   63.73    6.93          83.82    2.38   84.54          84.57   88.39
J16          3.42    3.56    2.84          22.17   -0.21    0.78           0.98   116.71
J17         26.37   15.75    3.39          46.64   54.55   39.02          67.07   35.58
J18         10.33   19.48    5.49          51.24  -52.33   34.87          62.89   146.32
J19          7.31    5.15   24.20          27.14   25.65  -58.49          63.87   293.67
J20         28.70   37.46   21.15          67.62  -26.60   17.14          31.65   147.22
J21          4.37    7.81    1.67          33.58  -35.47   30.97          47.09   138.87
J22          1.39    2.02    0.97          15.60  -14.38    9.03          16.98   147.88
K1           4.73    3.95    4.61          23.50   12.83   -8.33          15.31   327.02
K2           5.98    4.03    6.65          23.77   26.54  -17.80          31.96   326.16
K3           7.41    4.14    9.17          24.14   39.57  -26.95          47.88   325.75
K4           7.79    4.19    9.79          24.28   42.55  -28.80          51.39   325.91
K5          14.92   13.55   13.63          43.57   11.66   -7.02          13.62   329.00
K6          16.89   13.52   16.90          43.53   23.17  -15.25          27.74   326.65
K7          19.29   13.68   20.77          43.77   34.77  -23.22          41.81   326.27
K8          26.01   14.01   32.92          44.25   63.37  -43.35          76.78   325.62
K9          40.34   39.64   35.20          69.21    6.65   -3.63           7.58   331.39
K10         42.71   39.80   38.92          69.32   13.38   -8.57          15.89   327.36
K11         44.94   39.52   42.71          69.13   20.71  -13.80          24.89   326.33
K12         51.47   40.02   53.34          69.48   37.12  -25.55          45.06   325.47
K13         13.78   22.39   39.00          54.44  -42.22  -34.34          54.42   219.12
K14         30.36   15.25   32.46          45.98   73.01  -39.68          83.10   331.47
K15         60.35   60.47    4.68          82.10    4.87   92.30          92.43   86.98
K16          1.89    1.94    1.53          15.16    0.43    0.77           0.89   86.41
K17         22.87   12.63    1.80          42.20   58.62   44.49          73.59   37.20
K18          7.40   15.20    3.55          45.91  -54.36   36.65          65.56   146.01
K19          5.12    3.04   19.91          20.20   31.95  -62.09          69.83   297.22
K20          2.24    2.92    1.77          19.71  -11.23    6.06          12.77   151.66
K21          1.27    1.69    1.41          13.79  -10.33   -0.11          10.34   180.53
K22          1.57    2.02    2.62          15.60   -9.53   -8.79          12.97   222.67
L1           3.26    2.67    2.40          18.69   12.21   -1.72          12.34   352.00
L2           4.09    2.69    2.59          18.74   24.59   -3.16          24.80   352.67
L3           6.05    3.56    3.54          22.17   34.16   -4.21          34.43   352.99
L4           4.36    2.72    2.67          18.89   27.80   -3.53          28.03   352.78
L5          12.09   10.34    8.99          38.44   15.62   -1.65          15.72   353.99
L6          14.66   10.41    9.68          38.56   31.71   -3.84          31.94   353.09
L7          17.87   10.73   10.69          39.13   47.45   -6.14          47.85   352.63
L8          22.45   11.11   11.96          39.76   67.22   -8.91          67.81   352.45
L9          40.49   39.28   32.46          68.95    8.23   -0.07           8.23   269.54
L10         43.32   39.75   33.54          69.29   15.30   -1.09          15.34   355.95
L11         45.77   39.78   34.82          69.31   22.31   -2.91          22.50   352.56
L12         50.04   39.75   36.09          69.29   34.20   -4.76          34.53   352.07
L13         10.50   17.53   34.31          48.92  -41.06  -37.34          55.50   222.28
L14         26.07   12.00   27.74          41.21   76.68  -40.42          86.68   332.20
L15         57.30   55.93    2.97          79.57    8.42   98.72          99.07   85.13
L16          0.81    0.83    0.69           7.48    0.39   -0.07           0.53   165.66
L17         19.31    9.89    0.82          37.64   61.32   49.50          78.80   38.91
L18          4.66   10.58    2.05          38.87  -54.34   36.21          65.30   146.33
L19          3.52    1.69   15.62          13.74   37.60  -63.54          73.84   300.61
L20          0.72    0.77    0.78           6.99   -0.99   -2.65           2.83   249.61
