targets/wolf_faust/reflective/R030508WhiteBacking.it8
IT8.7/2
ORIGINATOR "Wolf Faust"
DESCRIPTOR "L* a* b* Batch average data (light D50, viewing angle 2, white backing)"
MANUFACTURER "Wolf Faust - http://www.coloraid.de"
CREATED "May 23, 2003"
PROD_DATE "2003:05"
SERIAL "5x7 R030508"
MATERIAL "Kodak Professional Digital 3"
KEYWORD "MEAN_DE" # Mean Delta E of samples compared to batch average
NUMBER_OF_FIELDS 17
BEGIN_DATA_FORMAT
SAMPLE_ID   XYZ_X   XYZ_Y   XYZ_Z          LAB_L   LAB_A   LAB_B          LAB_C   LAB_H          STDEV_X  STDEV_Y  STDEV_Z          STDEV_L  STDEV_A  STDEV_B        MEAN_DE  STDEV_DE
END_DATA_FORMAT
NUMBER_OF_SETS 288
BEGIN_DATA
A1           3.53    2.93    1.98          19.75   11.86    3.96          12.50   18.47            0.04     0.04     0.03            0.15     0.16     0.09           0.20    0.24
A2           4.47    2.99    1.66          19.99   24.48    7.70          25.67   17.46            0.05     0.04     0.02            0.14     0.14     0.12           0.21    0.23 
A3           5.54    3.09    1.43          20.41   36.00   11.06          37.66   17.08            0.04     0.02     0.01            0.09     0.11     0.08           0.14    0.16
A4           5.99    3.26    1.48          21.06   38.31   11.59          40.03   16.83            0.04     0.02     0.01            0.09     0.10     0.15           0.18    0.20 
A5          13.05   11.32    8.00          40.11   14.86    4.87          15.64   18.13            0.06     0.06     0.06            0.10     0.14     0.15           0.21    0.23
A6          15.52   11.36    6.83          40.18   29.81    9.70          31.34   18.02            0.08     0.07     0.08            0.11     0.19     0.23           0.27    0.32 
A7          18.15   11.47    6.00          40.36   43.60   13.71          45.70   17.46            0.10     0.07     0.08            0.12     0.16     0.26           0.30    0.33
A8          22.03   11.72    5.05          40.77   60.99   19.04          63.89   17.34            0.07     0.07     0.06            0.10     0.11     0.24           0.24    0.28 
A9          42.82   41.84   32.56          70.76    7.50    2.90           8.04   21.15            0.15     0.15     0.17            0.10     0.17     0.18           0.24    0.27
A10         44.91   41.61   31.26          70.60   14.29    4.60          15.01   17.85            0.13     0.12     0.17            0.08     0.17     0.16           0.22    0.25
A11         47.30   41.65   29.81          70.63   20.94    6.93          22.06   18.31            0.09     0.11     0.13            0.07     0.19     0.12           0.21    0.24
A12         49.65   41.29   28.27          70.38   28.44    8.99          29.83   17.54            0.10     0.13     0.20            0.09     0.19     0.26           0.31    0.33 
A13         78.84   82.81   68.26          92.93   -1.97    0.07           1.98   178.09            0.14     0.14     0.11            0.06     0.03     0.15           0.14    0.16
A14         79.02   81.75   68.00          92.46    0.39   -0.50           0.64   308.86            0.20     0.21     0.14            0.09     0.03     0.10           0.13    0.14 
A15         79.60   83.33   66.55          93.16   -1.46    2.04           2.51   125.60            0.15     0.16     0.10            0.07     0.02     0.11           0.11    0.13
A16         78.98   81.91   67.14          92.53    0.01    0.42           0.42   87.60            0.18     0.19     0.12            0.09     0.04     0.09           0.11    0.13
A17         78.49   81.28   66.08          92.25    0.23    0.93           0.96   75.74            0.17     0.18     0.10            0.08     0.03     0.11           0.12    0.14
A18         78.39   82.48   66.36          92.79   -2.23    1.58           2.74   144.79            0.16     0.16     0.12            0.07     0.02     0.13           0.13    0.15 
A19         77.81   80.86   67.75          92.07   -0.32   -0.95           1.00   251.24            0.18     0.18     0.12            0.08     0.04     0.10           0.11    0.13
A20          1.35    1.07    0.70           9.55   10.29    3.17          10.77   17.16            0.02     0.02     0.01            0.13     0.13     0.13           0.19    0.22 
A21          5.34    3.33    0.74          21.34   29.59   22.74          37.32   37.54            0.04     0.04     0.01            0.13     0.17     0.12           0.21    0.24
A22         10.64    6.02    0.81          29.47   43.80   35.47          56.36   39.00            0.04     0.03     0.01            0.09     0.19     0.08           0.18    0.22
B1           3.43    2.98    1.57          19.95    9.47    8.58          12.78   42.18            0.04     0.04     0.02            0.15     0.16     0.16           0.23    0.27
B2           4.04    3.00    1.01          20.02   18.37   16.02          24.38   41.09            0.04     0.03     0.01            0.11     0.17     0.12           0.21    0.24
B3           4.65    3.00    0.62          20.04   26.62   22.76          35.02   40.53            0.05     0.04     0.01            0.13     0.19     0.15           0.23    0.28
B4           5.27    3.27    0.55          21.10   29.83   26.02          39.59   41.09            0.03     0.02     0.01            0.08     0.18     0.10           0.19    0.22
B5          13.07   11.16    5.80          39.86   16.12   13.79          21.22   40.55            0.06     0.06     0.05            0.09     0.17     0.19           0.25    0.27
B6          15.20   11.36    3.93          40.18   27.97   24.39          37.11   41.09            0.08     0.07     0.04            0.11     0.13     0.14           0.19    0.22
B7          17.74   11.44    2.36          40.31   41.65   35.94          55.01   40.79            0.07     0.07     0.03            0.11     0.20     0.15           0.24    0.27
B8          21.23   11.62    1.09          40.60   57.94   50.35          76.76   40.99            0.04     0.04     0.01            0.06     0.07     0.10           0.12    0.13
B9          42.27   41.50   30.21          70.53    6.85    6.12           9.19   41.78            0.11     0.12     0.13            0.08     0.16     0.11           0.18    0.21
B10         44.36   41.43   27.02          70.48   13.24   11.26          17.38   40.36            0.12     0.15     0.18            0.11     0.17     0.26           0.29    0.33
B11         46.33   41.35   24.06          70.42   19.12   16.39          25.18   40.59            0.13     0.16     0.17            0.11     0.15     0.21           0.24    0.28
B12         48.78   41.48   20.96          70.51   25.52   22.50          34.02   41.41            0.08     0.09     0.11            0.06     0.09     0.16           0.17    0.19
B13         72.11   77.94   67.06          90.75   -6.29   -2.58           6.79   202.31            0.12     0.11     0.10            0.05     0.06     0.11           0.12    0.13
B14         74.71   74.07   65.87          88.96    6.84   -4.57           8.22   326.25            0.10     0.10     0.11            0.05     0.05     0.10           0.10    0.12
B15         77.79   81.93   58.47          92.54   -2.40    8.84           9.16   105.21            0.12     0.12     0.13            0.06     0.02     0.13           0.13    0.15
B16         65.19   67.44   55.40          85.73    0.35    0.27           0.46   36.83            0.12     0.12     0.16            0.06     0.10     0.13           0.15    0.17
B17         72.22   72.07   56.32          88.00    5.79    3.23           6.63   29.13            0.12     0.14     0.20            0.07     0.09     0.19           0.19    0.22
B18         69.91   76.22   57.38          89.96   -7.56    5.51           9.35   143.90            0.11     0.11     0.12            0.05     0.06     0.08           0.10    0.12
B19         67.35   69.12   64.44          86.56    1.55   -7.34           7.50   281.94            0.15     0.15     0.11            0.07     0.09     0.11           0.15    0.16
B20          2.84    2.01    0.70          15.55   18.47   13.51          22.89   36.18            0.04     0.03     0.01            0.15     0.18     0.13           0.24    0.27
B21          8.84    5.12    0.77          27.08   39.76   32.09          51.10   38.91            0.03     0.03     0.01            0.08     0.16     0.08           0.17    0.20
B22         30.29   25.62   11.76          57.67   22.35   22.55          31.75   45.25            0.06     0.07     0.10            0.07     0.18     0.21           0.23    0.28
C1           4.58    4.37    2.25          24.87    4.94   10.28          11.40   64.33            0.05     0.05     0.03            0.16     0.13     0.10           0.19    0.23
C2           4.79    4.34    1.36          24.75    8.18   19.39          21.04   67.11            0.05     0.05     0.01            0.15     0.11     0.16           0.21    0.24
C3           5.68    4.84    0.85          26.27   12.40   29.37          31.88   67.12            0.06     0.06     0.01            0.16     0.18     0.21           0.28    0.32
C4           5.19    4.39    0.76          24.93   12.36   28.63          31.19   66.65            0.05     0.04     0.00            0.13     0.14     0.20           0.24    0.27
C5          24.56   23.23   10.87          55.31    9.59   21.21          23.28   65.68            0.10     0.10     0.08            0.10     0.18     0.11           0.21    0.24
C6          26.92   23.46    5.64          55.54   18.41   41.60          45.49   66.13            0.10     0.08     0.03            0.08     0.12     0.13           0.17    0.19
C7          29.09   23.41    2.37          55.49   27.19   61.97          67.67   66.31            0.11     0.10     0.02            0.10     0.14     0.11           0.18    0.21
C8          30.29   23.51    1.42          55.59   31.30   71.78          78.31   66.44            0.09     0.09     0.01            0.10     0.17     0.13           0.20    0.24
C9          49.36   49.49   33.32          75.75    4.46   10.38          11.30   66.74            0.15     0.16     0.17            0.10     0.12     0.17           0.21    0.23
C10         51.00   49.39   27.40          75.69    9.14   19.60          21.63   65.00            0.16     0.18     0.13            0.11     0.10     0.13           0.17    0.20
C11         52.18   49.26   22.08          75.61   12.58   29.07          31.68   66.61            0.15     0.18     0.17            0.11     0.15     0.15           0.21    0.24
C12         53.44   49.02   17.47          75.47   16.45   38.51          41.88   66.87            0.12     0.14     0.13            0.09     0.10     0.19           0.20    0.23
C13         62.96   70.92   65.06          87.45  -12.11   -6.40          13.70   207.87            0.15     0.12     0.09            0.06     0.10     0.10           0.13    0.15
C14         68.93   64.34   62.61          84.14   15.42   -9.75          18.24   327.69            0.10     0.12     0.09            0.06     0.07     0.07           0.11    0.12
C15         75.24   79.75   47.81          91.57   -3.35   18.74          19.04   100.14            0.10     0.10     0.14            0.05     0.03     0.13           0.11    0.14
C16         50.78   52.34   42.57          77.48    0.82    0.78           1.14   43.40            0.08     0.09     0.13            0.05     0.10     0.12           0.15    0.16
C17         64.27   60.98   44.07          82.37   12.76    7.34          14.72   29.91            0.10     0.12     0.14            0.06     0.08     0.09           0.12    0.14
C18         58.79   67.50   45.98          85.75  -14.61   10.86          18.20   143.39            0.15     0.13     0.17            0.07     0.08     0.16           0.17    0.19
C19         54.82   55.32   59.64          79.22    3.77  -15.31          15.76   283.83            0.16     0.17     0.14            0.10     0.11     0.07           0.15    0.16
C20          1.71    1.43    0.68          12.11    9.17    8.00          12.17   41.12            0.02     0.02     0.01            0.12     0.20     0.12           0.24    0.26
C21         23.92   17.84    4.65          49.30   32.73   35.89          48.58   47.64            0.08     0.09     0.06            0.11     0.16     0.16           0.22    0.25
C22         35.91   32.41   17.09          63.68   16.27   19.04          25.05   49.49            0.13     0.13     0.13            0.10     0.18     0.21           0.28    0.30
D1           4.17    4.31    2.20          24.68    0.15   10.36          10.36   89.20            0.05     0.05     0.03            0.17     0.15     0.13           0.24    0.26
D2           4.10    4.29    1.37          24.60   -0.51   18.92          18.93   91.55            0.04     0.04     0.02            0.13     0.14     0.09           0.19    0.21
D3           4.69    4.94    0.94          26.56   -0.84   28.33          28.34   91.71            0.04     0.04     0.01            0.11     0.17     0.15           0.23    0.25
D4           4.12    4.30    0.84          24.63   -0.38   26.67          26.67   90.82            0.05     0.04     0.01            0.13     0.15     0.22           0.27    0.30
D5          27.30   28.26   13.81          60.13    0.17   21.04          21.04   89.53            0.11     0.12     0.09            0.11     0.13     0.14           0.20    0.22
D6          27.09   28.28    7.61          60.14   -0.70   40.90          40.90   90.98            0.09     0.10     0.07            0.09     0.12     0.16           0.20    0.22
D7          27.08   28.45    3.64          60.30   -1.41   60.85          60.86   91.33            0.11     0.10     0.03            0.09     0.14     0.09           0.17    0.19
D8          27.04   28.58    1.93          60.41   -2.03   74.58          74.61   91.56            0.12     0.10     0.01            0.09     0.14     0.17           0.21    0.24
D9          56.00   57.94   39.07          80.71    0.33   10.85          10.86   88.29            0.19     0.19     0.22            0.11     0.15     0.17           0.23    0.25
D10         55.81   57.91   31.12          80.69   -0.06   22.21          22.21   90.15            0.15     0.16     0.17            0.09     0.13     0.17           0.21    0.24
D11         55.66   57.96   24.90          80.72   -0.57   32.61          32.61   90.99            0.17     0.16     0.16            0.09     0.10     0.17           0.19    0.22
D12         55.01   57.89    6.72          80.68   -2.04   80.00          80.02   91.46            0.11     0.10     0.04            0.06     0.08     0.17           0.17    0.19
D13         53.71   63.31   62.52          83.61  -17.94  -10.58          20.83   210.55            0.12     0.12     0.13            0.06     0.05     0.11           0.12    0.14
D14         63.29   55.47   59.13          79.31   23.70  -14.64          27.86   328.30            0.07     0.07     0.09            0.04     0.10     0.12           0.14    0.16
D15         72.88   77.45   38.51          90.53   -3.72   28.54          28.78   97.44            0.11     0.12     0.17            0.05     0.02     0.22           0.20    0.23
D16         38.46   39.79   32.34          69.32    0.29    0.75           0.82   68.76            0.12     0.14     0.18            0.10     0.15     0.19           0.23    0.26
D17         57.13   51.44   34.12          76.94   19.32   11.24          22.36   30.19            0.11     0.11     0.18            0.07     0.12     0.22           0.22    0.26
D18         48.25   58.58   36.49          81.06  -21.42   14.98          26.14   145.03            0.15     0.14     0.14            0.08     0.10     0.18           0.19    0.22
D19         43.26   43.01   54.27          71.57    5.33  -22.95          23.56   283.08            0.13     0.10     0.08            0.07     0.16     0.11           0.18    0.20
D20         14.45   10.86    2.67          39.34   27.05   31.71          41.68   49.54            0.10     0.09     0.04            0.15     0.16     0.15           0.24    0.27
D21         22.24   21.34   11.64          53.32    7.85   15.43          17.31   63.04            0.10     0.12     0.11            0.13     0.15     0.15           0.22    0.25
D22         39.66   37.47   20.16          67.63   11.38   19.17          22.29   59.30            0.09     0.09     0.14            0.07     0.15     0.20           0.24    0.26
E1           3.85    4.35    2.23          24.80   -4.97   10.32          11.45   115.72            0.05     0.05     0.03            0.17     0.09     0.09           0.18    0.21
E2           3.48    4.29    1.42          24.61   -9.84   18.33          20.81   118.22            0.04     0.05     0.01            0.15     0.11     0.14           0.21    0.23
E3           3.63    4.92    1.01          26.51  -15.75   27.23          31.46   120.05            0.05     0.06     0.01            0.16     0.09     0.20           0.24    0.28
E4           3.20    4.26    0.93          24.52  -13.99   25.06          28.70   119.18            0.04     0.05     0.01            0.16     0.13     0.21           0.25    0.29
E5          12.85   14.54    7.69          45.00   -7.58   14.49          16.35   117.59            0.07     0.08     0.06            0.12     0.17     0.10           0.20    0.23
E6          11.58   14.41    4.67          44.82  -15.51   28.08          32.08   118.91            0.06     0.07     0.04            0.10     0.12     0.11           0.18    0.19
E7          10.52   14.42    2.56          44.83  -23.26   42.08          48.08   118.93            0.07     0.09     0.02            0.12     0.11     0.09           0.15    0.18
E8           9.99   14.57    1.65          45.04  -28.27   50.92          58.24   119.04            0.06     0.07     0.01            0.10     0.14     0.17           0.19    0.24
E9          38.89   41.58   28.60          70.58   -3.76    8.78           9.55   113.16            0.16     0.15     0.18            0.11     0.14     0.17           0.22    0.24
E10         37.47   41.57   23.86          70.57   -8.29   17.02          18.94   115.98            0.22     0.22     0.22            0.16     0.13     0.19           0.25    0.28
E11         35.79   41.22   19.61          70.33  -12.76   24.96          28.03   117.07            0.15     0.16     0.16            0.11     0.09     0.19           0.21    0.24
E12         31.62   41.24    9.81          70.34  -27.37   50.52          57.47   118.45            0.17     0.17     0.08            0.12     0.11     0.20           0.22    0.26
E13         45.24   55.85   59.62          79.53  -23.23  -14.76          27.52   212.43            0.15     0.16     0.14            0.09     0.07     0.11           0.15    0.16
E14         57.60   47.17   55.28          74.30   31.89  -19.32          37.28   328.79            0.10     0.10     0.11            0.07     0.09     0.09           0.13    0.14
E15         70.61   75.00   30.40          89.39   -3.61   38.33          38.50   95.38            0.08     0.08     0.14            0.04     0.02     0.22           0.17    0.22
E16         28.43   29.44   23.93          61.17    0.15    0.67           0.71   77.74            0.15     0.15     0.12            0.14     0.16     0.10           0.20    0.23
E17         50.33   42.80   25.69          71.42   25.77   15.18          29.91   30.50            0.13     0.15     0.18            0.10     0.13     0.21           0.24    0.27
E18         38.79   49.98   28.16          76.05  -27.68   18.95          33.54   145.61            0.16     0.17     0.18            0.10     0.10     0.19           0.21    0.24
E19         33.56   32.63   48.67          63.86    7.50  -30.04          30.96   284.01            0.13     0.15     0.10            0.12     0.19     0.14           0.23    0.27
E20         25.52   17.44    1.24          48.82   41.64   62.34          74.97   56.26            0.11     0.10     0.01            0.13     0.14     0.12           0.21    0.23
E21         17.65   14.46    2.60          44.89   21.40   41.81          46.97   62.90            0.11     0.11     0.03            0.16     0.29     0.11           0.32    0.34
E22         30.25   25.86    8.09          57.90   21.18   35.21          41.09   58.96            0.08     0.10     0.08            0.09     0.19     0.17           0.24    0.27
F1           1.44    1.84    1.30          14.64   -8.85    2.76           9.27   162.67            0.02     0.02     0.01            0.12     0.11     0.13           0.19    0.21
F2           1.16    1.85    1.05          14.68  -17.69    6.22          18.76   160.62            0.02     0.03     0.01            0.13     0.12     0.13           0.19    0.22
F3           1.22    2.35    1.14          17.22  -26.63    9.31          28.21   160.74            0.02     0.03     0.01            0.14     0.15     0.15           0.22    0.26
F4           0.91    1.82    0.88          14.49  -25.73    8.59          27.13   161.55            0.01     0.02     0.01            0.09     0.13     0.11           0.16    0.20
F5           6.73    8.43    5.87          34.85  -13.33    4.84          14.18   160.06            0.06     0.07     0.05            0.14     0.15     0.16           0.24    0.26
F6           5.46    8.37    4.89          34.73  -26.60    9.47          28.24   160.40            0.04     0.06     0.04            0.12     0.13     0.07           0.17    0.19
F7           4.42    8.43    4.19          34.87  -40.29   13.64          42.53   161.30            0.03     0.06     0.03            0.12     0.06     0.11           0.15    0.18
F8           3.07    8.17    3.02          34.33  -58.42   20.40          61.88   160.75            0.02     0.04     0.02            0.07     0.07     0.13           0.14    0.16
F9          38.24   41.47   32.49          70.50   -5.48    2.56           6.05   154.96            0.20     0.19     0.20            0.13     0.08     0.16           0.19    0.22
F10         36.35   41.36   30.91          70.43  -11.35    4.84          12.34   156.89            0.13     0.14     0.13            0.10     0.12     0.08           0.16    0.18
F11         34.64   41.28   29.68          70.37  -16.83    6.68          18.11   158.36            0.13     0.12     0.12            0.09     0.11     0.13           0.17    0.19
F12         29.49   41.21   26.11          70.32  -35.21   12.55          37.38   160.38            0.11     0.12     0.11            0.08     0.09     0.08           0.12    0.14
F13         37.78   48.86   56.45          75.37  -27.94  -18.70          33.62   213.79            0.10     0.10     0.06            0.06     0.07     0.12           0.13    0.15
F14         52.04   39.59   51.17          69.18   39.96  -23.69          46.46   329.34            0.08     0.10     0.09            0.07     0.13     0.09           0.15    0.18
F15         68.56   72.56   23.67          88.24   -3.04   47.83          47.93   93.64            0.08     0.08     0.10            0.04     0.03     0.22           0.18    0.23
F16         20.31   21.03   17.10          52.98    0.15    0.58           0.63   75.17            0.12     0.12     0.16            0.13     0.19     0.18           0.26    0.30
F17         44.09   35.20   18.71          65.90   32.17   19.26          37.49   30.91            0.13     0.14     0.12            0.11     0.13     0.13           0.18    0.21
F18         30.86   42.29   21.46          71.07  -33.31   22.48          40.18   145.99            0.16     0.16     0.12            0.11     0.13     0.17           0.22    0.24
F19         25.48   23.99   42.99          56.08   10.18  -36.64          38.03   285.53            0.14     0.13     0.13            0.13     0.21     0.11           0.22    0.27
