targets/wolf_faust/reflective/R031123.it8
IT8.7/2
ORIGINATOR "Wolf Faust"
DESCRIPTOR "Kodak Professional Paper, L* a* b* (light D50, viewing angle 2)"
MANUFACTURER "Wolf Faust - http://www.coloraid.de"
CREATED "June 06, 2004"
PROD_DATE "2003:11"
SAMPLE_BACKING "black"
SERIAL "5x7 R031123 Batch Average Data"
MATERIAL "Kodak Professional Digital 3"
KEYWORD "MEAN_DE" # Mean Delta E of samples compared to batch average
NUMBER_OF_FIELDS 17
BEGIN_DATA_FORMAT
SAMPLE_ID   XYZ_X   XYZ_Y   XYZ_Z          LAB_L   LAB_A   LAB_B          LAB_C   LAB_H          STDEV_X  STDEV_Y  STDEV_Z          STDEV_L  STDEV_A  STDEV_B        MEAN_DE  STDEV_DE
END_DATA_FORMAT
NUMBER_OF_SETS 288
BEGIN_DATA
A1           3.42    2.89    2.06          19.61   10.87    2.97          11.27   15.31            0.03     0.03     0.02            0.12     0.17     0.16           0.24    0.26
A2           4.27    2.91    1.66          19.67   23.16    7.12          24.23   17.08            0.04     0.03     0.02            0.12     0.19     0.12           0.22    0.25 
A3           5.35    3.04    1.42          20.19   34.74   10.82          36.39   17.30            0.05     0.03     0.02            0.13     0.19     0.15           0.25    0.28
A4           5.83    3.26    1.50          21.04   36.62   11.32          38.33   17.17            0.04     0.02     0.02            0.09     0.15     0.10           0.18    0.20 
A5          12.53   10.93    7.93          39.46   14.18    4.01          14.73   15.78            0.09     0.08     0.06            0.14     0.22     0.10           0.24    0.28
A6          15.11   11.17    6.97          39.86   28.77    8.57          30.02   16.59            0.07     0.06     0.05            0.10     0.17     0.14           0.22    0.25 
A7          17.75   11.30    6.05          40.09   42.67   12.99          44.61   16.94            0.06     0.07     0.05            0.11     0.22     0.16           0.27    0.29
A8          21.77   11.61    5.08          40.59   60.57   18.58          63.35   17.05            0.08     0.06     0.04            0.10     0.11     0.17           0.21    0.23 
A9          41.16   40.39   31.73          69.75    6.88    2.41           7.29   19.32            0.14     0.13     0.11            0.09     0.15     0.12           0.19    0.21
A10         44.04   41.09   30.70          70.24   13.34    4.85          14.20   19.99            0.18     0.18     0.16            0.12     0.14     0.13           0.21    0.23
A11         46.23   40.73   29.26          69.98   20.72    6.69          21.77   17.89            0.10     0.13     0.09            0.09     0.15     0.14           0.19    0.22
A12         49.40   41.12   28.23          70.26   28.28    8.84          29.63   17.36            0.12     0.14     0.14            0.10     0.12     0.15           0.20    0.22 
A13         78.50   82.27   68.60          92.69   -1.63   -0.65           1.76   201.81            0.16     0.16     0.13            0.07     0.03     0.09           0.10    0.12
A14         78.38   80.93   68.28          92.10    0.67   -1.38           1.54   295.83            0.15     0.15     0.12            0.06     0.05     0.08           0.10    0.11 
A15         78.80   82.44   66.23          92.77   -1.37    1.67           2.16   129.39            0.12     0.12     0.11            0.05     0.03     0.09           0.09    0.11
A16         78.27   81.17   67.06          92.21    0.02   -0.08           0.12   264.17            0.13     0.12     0.13            0.05     0.04     0.10           0.11    0.12
A17         77.88   80.72   66.07          92.01    0.08    0.51           0.52   80.58            0.11     0.10     0.09            0.05     0.04     0.08           0.09    0.10
A18         76.97   81.10   65.24          92.18   -2.45    1.57           2.91   147.29            0.58     0.60     0.38            0.27     0.03     0.15           0.21    0.31 
A19         77.04   79.93   67.99          91.66   -0.07   -1.88           1.88   267.99            0.10     0.11     0.10            0.05     0.05     0.09           0.10    0.12
A20          1.31    1.07    0.72           9.56    9.20    2.86           9.63   17.25            0.02     0.01     0.01            0.11     0.14     0.14           0.19    0.23 
A21          5.14    3.29    0.77          21.19   27.93   21.98          35.55   38.20            0.04     0.03     0.01            0.11     0.25     0.16           0.29    0.32
A22         10.50    6.04    0.83          29.51   42.64   35.32          55.37   39.64            0.07     0.04     0.01            0.10     0.17     0.15           0.22    0.24
B1           3.27    2.85    1.59          19.45    9.12    7.51          11.81   39.50            0.03     0.03     0.01            0.13     0.26     0.15           0.30    0.33
B2           3.85    2.88    1.02          19.54   17.73   15.08          23.28   40.37            0.04     0.03     0.01            0.12     0.27     0.16           0.30    0.34
B3           4.55    2.95    0.60          19.86   26.08   22.86          34.68   41.24            0.03     0.03     0.01            0.13     0.25     0.12           0.25    0.31
B4           5.14    3.17    0.49          20.70   29.95   26.39          39.92   41.39            0.04     0.03     0.01            0.12     0.17     0.18           0.25    0.27
B5          12.62   10.92    5.82          39.45   14.84   12.96          19.70   41.12            0.10     0.09     0.05            0.15     0.11     0.15           0.21    0.24
B6          14.84   11.16    3.86          39.85   27.21   24.21          36.42   41.66            0.10     0.07     0.04            0.12     0.21     0.12           0.25    0.27
B7          17.66   11.42    2.36          40.28   41.34   35.84          54.72   40.92            0.09     0.06     0.02            0.11     0.20     0.15           0.24    0.27
B8          21.23   11.70    1.11          40.73   57.39   50.29          76.30   41.23            0.07     0.06     0.01            0.09     0.11     0.15           0.18    0.21
B9          41.55   40.99   30.04          70.17    6.24    5.75           8.49   42.66            0.17     0.17     0.16            0.12     0.09     0.13           0.18    0.20
B10         43.83   41.19   26.69          70.31   12.43   11.53          16.96   42.84            0.19     0.18     0.13            0.12     0.13     0.09           0.19    0.20
B11         46.03   41.18   23.72          70.30   18.80   16.79          25.21   41.77            0.17     0.17     0.16            0.12     0.15     0.21           0.26    0.29
B12         48.33   41.06   20.72          70.22   25.56   22.47          34.03   41.33            0.09     0.13     0.12            0.09     0.15     0.22           0.23    0.28
B13         70.83   76.66   67.08          90.17   -6.46   -3.61           7.40   209.16            0.12     0.11     0.09            0.05     0.05     0.13           0.13    0.15
B14         73.92   73.07   65.95          88.48    7.28   -5.47           9.10   323.10            0.14     0.15     0.10            0.07     0.06     0.08           0.11    0.12
B15         76.61   80.72   57.36          92.01   -2.44    9.05           9.37   105.07            0.11     0.12     0.14            0.05     0.02     0.15           0.13    0.16
B16         63.61   65.95   54.21          84.97    0.04    0.23           0.25   75.92            0.11     0.09     0.14            0.05     0.09     0.12           0.14    0.15
B17         71.16   70.95   55.18          87.46    5.89    3.48           6.84   30.60            0.11     0.11     0.13            0.05     0.05     0.11           0.12    0.13
B18         68.18   74.57   56.11          89.19   -7.96    5.49           9.67   145.39            0.16     0.15     0.16            0.07     0.09     0.16           0.18    0.20
B19         66.13   67.83   64.35          85.92    1.62   -8.37           8.52   280.95            0.14     0.15     0.06            0.07     0.10     0.13           0.16    0.18
B20          2.80    2.01    0.71          15.54   17.82   13.42          22.30   36.99            0.04     0.03     0.01            0.16     0.18     0.18           0.26    0.30
B21          8.62    5.03    0.78          26.82   38.96   31.59          50.16   39.03            0.07     0.05     0.01            0.13     0.20     0.20           0.28    0.31
B22         29.28   24.87   11.71          56.94   21.64   21.44          30.47   44.73            0.12     0.10     0.07            0.10     0.22     0.11           0.23    0.26
C1           4.32    4.17    2.17          24.24    4.20    9.92          10.77   67.06            0.03     0.03     0.02            0.10     0.22     0.08           0.21    0.25
C2           4.61    4.20    1.38          24.31    7.76   18.32          19.89   67.04            0.04     0.03     0.01            0.10     0.23     0.16           0.26    0.30
C3           5.48    4.68    0.81          25.80   12.10   29.25          31.66   67.53            0.05     0.04     0.01            0.13     0.22     0.19           0.27    0.32
C4           5.00    4.21    0.68          24.36   12.50   29.19          31.76   66.81            0.05     0.04     0.01            0.13     0.16     0.20           0.25    0.29
C5          23.68   22.49   10.73          54.55    9.03   20.32          22.23   66.04            0.15     0.14     0.07            0.15     0.15     0.13           0.22    0.25
C6          26.17   22.99    5.56          55.06   17.43   41.11          44.66   67.02            0.11     0.07     0.03            0.08     0.21     0.09           0.21    0.24
C7          28.39   23.03    2.42          55.10   26.14   60.95          66.31   66.79            0.10     0.10     0.02            0.10     0.15     0.15           0.21    0.24
C8          29.87   23.10    1.33          55.17   31.54   72.26          78.85   66.42            0.09     0.09     0.06            0.09     0.16     0.60           0.39    0.63
C9          48.03   48.29   33.01          75.00    4.09    9.54          10.38   66.80            0.14     0.14     0.14            0.09     0.12     0.13           0.17    0.20
C10         49.86   48.67   27.06          75.25    8.02   19.41          21.00   67.55            0.13     0.13     0.15            0.08     0.07     0.17           0.17    0.20
C11         51.51   48.90   21.99          75.39   11.77   28.87          31.18   67.82            0.16     0.17     0.13            0.11     0.09     0.21           0.22    0.26
C12         52.97   48.58   17.51          75.19   16.46   37.93          41.35   66.54            0.13     0.12     0.06            0.07     0.11     0.13           0.15    0.18
C13         61.74   69.65   64.95          86.82  -12.25   -7.38          14.30   211.06            0.13     0.14     0.14            0.07     0.08     0.13           0.15    0.17
C14         68.55   63.95   62.83          83.94   15.49  -10.32          18.61   326.35            0.14     0.17     0.13            0.09     0.11     0.09           0.14    0.16
C15         74.16   78.63   47.06          91.07   -3.39   18.74          19.04   100.25            0.13     0.13     0.07            0.06     0.01     0.13           0.13    0.14
C16         49.78   51.61   41.89          77.05    0.05    0.88           0.89   87.09            0.15     0.12     0.13            0.07     0.10     0.11           0.13    0.16
C17         63.66   60.54   43.39          82.13   12.39    7.76          14.62   32.06            0.15     0.16     0.16            0.09     0.07     0.15           0.17    0.19
C18         57.38   66.05   45.21          85.02  -14.87   10.52          18.22   144.72            0.22     0.22     0.15            0.11     0.10     0.13           0.18    0.20
C19         53.72   54.32   59.42          78.65    3.46  -16.08          16.44   282.15            0.14     0.12     0.11            0.07     0.11     0.08           0.14    0.16
C20          1.67    1.42    0.69          12.10    8.36    7.86          11.48   43.24            0.02     0.02     0.00            0.12     0.15     0.14           0.21    0.23
C21         23.46   17.65    4.73          49.07   31.63   35.08          47.24   47.96            0.10     0.07     0.03            0.09     0.13     0.12           0.17    0.19
C22         35.19   32.04   17.31          63.37   15.20   18.01          23.57   49.84            0.13     0.12     0.10            0.10     0.18     0.12           0.22    0.24
D1           4.02    4.18    2.20          24.27   -0.22    9.68           9.68   91.29            0.03     0.04     0.02            0.11     0.21     0.16           0.26    0.29
D2           3.98    4.20    1.40          24.32   -1.04   18.11          18.14   93.30            0.04     0.04     0.01            0.11     0.20     0.08           0.21    0.24
D3           4.59    4.86    0.90          26.34   -1.35   28.59          28.62   92.70            0.04     0.04     0.01            0.13     0.14     0.15           0.21    0.24
D4           3.95    4.16    0.76          24.19   -0.89   27.45          27.47   91.85            0.03     0.03     0.01            0.11     0.13     0.15           0.20    0.23
D5          26.74   28.00   13.93          59.89   -1.04   20.32          20.34   92.94            0.10     0.11     0.12            0.10     0.17     0.18           0.24    0.27
D6          26.62   27.92    7.59          59.81   -1.23   40.43          40.45   91.74            0.12     0.12     0.06            0.10     0.17     0.19           0.24    0.27
D7          26.58   28.04    3.72          59.93   -1.84   59.75          59.78   91.77            0.10     0.10     0.03            0.09     0.13     0.10           0.17    0.19
D8          26.42   27.93    1.78          59.82   -2.05   75.11          75.13   91.57            0.11     0.10     0.01            0.09     0.09     0.12           0.14    0.17
D9          54.69   56.73   38.37          80.02   -0.02   10.61          10.61   90.09            0.22     0.21     0.17            0.12     0.15     0.15           0.22    0.24
D10         54.60   56.77   30.62          80.05   -0.36   21.88          21.89   90.94            0.17     0.16     0.15            0.09     0.08     0.17           0.19    0.21
D11         54.72   57.20   24.86          80.29   -1.09   31.95          31.97   91.96            0.19     0.17     0.14            0.10     0.10     0.18           0.21    0.23
D12         54.33   57.28    6.42          80.34   -2.28   80.71          80.74   91.62            0.15     0.14     0.03            0.08     0.07     0.15           0.15    0.18
D13         52.50   62.01   62.34          82.92  -18.07  -11.60          21.48   212.70            0.18     0.16     0.11            0.09     0.12     0.14           0.17    0.20
D14         62.72   54.83   59.07          78.94   23.99  -15.22          28.41   327.62            0.09     0.13     0.08            0.08     0.15     0.09           0.16    0.19
D15         71.90   76.47   38.07          90.08   -3.83   28.36          28.62   97.69            0.09     0.10     0.12            0.04     0.02     0.13           0.11    0.14
D16         37.54   38.98   31.91          68.74   -0.15    0.39           0.44   105.12            0.17     0.14     0.21            0.10     0.17     0.16           0.23    0.25
D17         56.52   50.88   33.71          76.60   19.28   11.26          22.33   30.28            0.09     0.10     0.14            0.06     0.12     0.13           0.17    0.19
D18         46.83   57.12   35.84          80.24  -21.84   14.48          26.20   146.45            0.22     0.21     0.13            0.12     0.14     0.14           0.21    0.23
D19         42.16   41.89   53.81          70.80    5.37  -23.78          24.38   282.73            0.12     0.13     0.11            0.09     0.09     0.10           0.14    0.16
D20         14.02   10.59    2.67          38.88   26.36   30.93          40.64   49.56            0.07     0.07     0.02            0.12     0.20     0.13           0.23    0.27
D21         21.55   20.80   11.86          52.73    7.15   13.73          15.49   62.48            0.10     0.10     0.08            0.11     0.15     0.18           0.22    0.26
D22         38.82   37.01   19.95          67.28   10.22   19.00          21.58   61.73            0.12     0.12     0.09            0.09     0.15     0.11           0.17    0.21
E1           3.67    4.20    2.33          24.33   -5.61    8.63          10.29   123.03            0.03     0.04     0.01            0.11     0.15     0.14           0.21    0.23
E2           3.34    4.17    1.48          24.24  -10.45   17.00          19.96   121.58            0.04     0.05     0.02            0.15     0.13     0.16           0.22    0.25
E3           3.55    4.83    0.95          26.24  -15.76   27.69          31.86   119.64            0.03     0.04     0.01            0.12     0.10     0.15           0.19    0.21
E4           3.00    4.05    0.83          23.83  -14.44   25.54          29.34   119.48            0.03     0.04     0.01            0.13     0.16     0.18           0.24    0.27
E5          12.39   14.15    7.57          44.45   -8.23   14.03          16.27   120.40            0.10     0.10     0.06            0.15     0.18     0.15           0.24    0.28
E6          11.25   14.15    4.60          44.44  -16.20   27.83          32.21   120.21            0.07     0.08     0.04            0.12     0.10     0.10           0.17    0.18
E7          10.17   14.01    2.60          44.25  -23.45   40.70          46.97   119.95            0.06     0.08     0.01            0.11     0.10     0.16           0.20    0.22
E8           9.43   13.98    1.50          44.21  -29.20   51.23          58.96   119.68            0.05     0.05     0.01            0.07     0.10     0.17           0.18    0.21
E9          37.84   40.68   28.00          69.95   -4.41    8.70           9.76   116.89            0.18     0.16     0.14            0.11     0.15     0.10           0.19    0.21
E10         36.27   40.39   23.83          69.74   -8.65   15.65          17.88   118.93            0.13     0.13     0.13            0.10     0.17     0.16           0.22    0.25
E11         35.04   40.50   19.66          69.82  -13.12   23.99          27.35   118.68            0.18     0.17     0.15            0.12     0.12     0.15           0.21    0.23
E12         30.34   40.02    9.45          69.48  -28.38   50.26          57.72   119.46            0.16     0.17     0.07            0.12     0.09     0.15           0.20    0.22
E13         44.37   54.81   59.42          78.93  -23.18  -15.58          27.93   213.91            0.12     0.12     0.13            0.07     0.08     0.13           0.13    0.16
E14         56.78   46.18   54.83          73.66   32.62  -19.93          38.23   328.58            0.09     0.08     0.06            0.05     0.08     0.09           0.11    0.13
E15         69.73   74.16   30.13          89.00   -3.79   38.08          38.27   95.69            0.16     0.16     0.12            0.08     0.02     0.19           0.19    0.21
E16         27.61   28.59   23.46          60.42    0.15    0.26           0.35   60.80            0.10     0.09     0.11            0.08     0.15     0.13           0.19    0.22
E17         49.56   41.99   25.14          70.86   26.11   15.19          30.20   30.19            0.13     0.13     0.12            0.09     0.13     0.13           0.18    0.21
E18         37.82   48.92   27.73          75.40  -27.97   18.54          33.56   146.47            0.19     0.20     0.17            0.13     0.08     0.17           0.21    0.23
E19         32.59   31.51   47.96          62.94    8.04  -30.81          31.84   284.63            0.10     0.10     0.07            0.08     0.13     0.09           0.16    0.18
E20         24.86   16.88    1.21          48.10   41.91   61.58          74.49   55.76            0.09     0.09     0.01            0.12     0.16     0.14           0.21    0.24
E21         17.27   14.24    2.65          44.57   20.75   40.85          45.82   63.08            0.11     0.10     0.02            0.14     0.18     0.09           0.22    0.25
E22         30.06   25.83    8.18          57.88   20.58   34.80          40.43   59.40            0.11     0.10     0.07            0.10     0.13     0.13           0.19    0.21
F1           1.46    1.84    1.32          14.63   -8.30    2.45           8.66   163.54            0.05     0.05     0.03            0.26     0.25     0.12           0.27    0.38
F2           1.13    1.82    1.07          14.50  -17.89    5.55          18.73   162.76            0.01     0.02     0.01            0.10     0.09     0.11           0.15    0.17
F3           1.19    2.26    1.17          16.78  -25.83    8.16          27.09   162.46            0.01     0.01     0.01            0.06     0.09     0.08           0.13    0.14
F4           0.91    1.81    0.90          14.47  -25.58    8.26          26.88   162.11            0.01     0.02     0.01            0.10     0.15     0.11           0.19    0.21
F5           6.47    8.11    5.88          34.20  -13.22    3.66          13.72   164.53            0.05     0.05     0.05            0.11     0.12     0.12           0.17    0.20
F6           5.32    8.20    4.95          34.40  -26.89    8.61          28.23   162.24            0.04     0.05     0.04            0.11     0.05     0.11           0.15    0.17
F7           4.24    8.09    4.11          34.16  -39.73   12.88          41.77   162.04            0.03     0.05     0.03            0.10     0.08     0.09           0.14    0.16
F8           3.07    8.17    3.14          34.33  -58.47   19.53          61.65   161.53            0.02     0.03     0.02            0.07     0.09     0.09           0.13    0.15
F9          37.26   40.46   31.86          69.79   -5.62    2.28           6.07   157.92            0.15     0.15     0.13            0.11     0.10     0.15           0.19    0.21
F10         35.40   40.30   30.64          69.68  -11.28    3.97          11.96   160.61            0.18     0.17     0.19            0.12     0.14     0.14           0.21    0.23
F11         33.76   40.41   29.42          69.76  -17.27    6.05          18.30   160.69            0.17     0.19     0.14            0.13     0.08     0.11           0.17    0.19
F12         28.04   39.63   25.32          69.21  -36.00   12.02          37.96   161.53            0.13     0.14     0.10            0.10     0.11     0.14           0.19    0.20
F13         36.96   47.85   56.21          74.73  -27.87  -19.55          34.04   215.04            0.10     0.11     0.10            0.07     0.10     0.09           0.13    0.15
F14         51.52   39.03   50.78          68.77   40.32  -23.95          46.90   329.29            0.08     0.09     0.09            0.07     0.11     0.07           0.13    0.15
F15         67.87   71.96   23.43          87.95   -3.29   47.77          47.88   93.94            0.12     0.12     0.08            0.06     0.02     0.15           0.13    0.16
F16         19.74   20.51   16.83          52.41   -0.18    0.23           0.33   120.91            0.13     0.12     0.14            0.13     0.18     0.15           0.25    0.27
F17         43.75   34.91   18.40          65.68   32.15   19.54          37.62   31.30            0.08     0.09     0.11            0.07     0.13     0.16           0.20    0.22
F18         29.99   41.34   21.13          70.42  -33.72   21.99          40.26   146.89            0.11     0.11     0.11            0.08     0.10     0.16           0.18    0.20
F19         24.69   23.17   42.33          55.24   10.41  -37.26          38.69   285.61            0.10     0.09     0.08            0.09     0.16     0.07           0.16    0.19
