targets/wolf_faust/reflective/R031126.it8
IT8.7/2
ORIGINATOR "Wolf Faust"
DESCRIPTOR "L* a* b* Batch average data (light D50, viewing angle 2)"
MANUFACTURER "Wolf Faust - http://www.coloraid.de"
CREATED "February 02, 2004"
PROD_DATE "2003:11"
SAMPLE_BACKING "black"
SERIAL "5x7 R031126"
MATERIAL "Kodak Professional Digital 3"
KEYWORD "MEAN_DE" # Mean Delta E of samples compared to batch average
NUMBER_OF_FIELDS 17
BEGIN_DATA_FORMAT
SAMPLE_ID   XYZ_X   XYZ_Y   XYZ_Z          LAB_L   LAB_A   LAB_B          LAB_C   LAB_H          STDEV_X  STDEV_Y  STDEV_Z          STDEV_L  STDEV_A  STDEV_B        MEAN_DE  STDEV_DE
END_DATA_FORMAT
NUMBER_OF_SETS 288
BEGIN_DATA
A1           3.42    2.89    2.05          19.58   10.86    2.97          11.26   15.28            0.07     0.05     0.03            0.21     0.30     0.23           0.37    0.43
A2           4.35    2.93    1.69          19.77   23.78    6.95          24.77   16.29            0.07     0.04     0.03            0.18     0.34     0.24           0.39    0.45 
A3           5.25    2.97    1.41          19.94   34.59   10.43          36.13   16.77            0.07     0.04     0.02            0.16     0.27     0.20           0.31    0.37
A4           5.73    3.21    1.52          20.86   36.28   10.67          37.82   16.39            0.07     0.04     0.02            0.16     0.19     0.15           0.25    0.29 
A5          12.71   11.07    7.91          39.69   14.41    4.50          15.09   17.35            0.20     0.18     0.12            0.30     0.23     0.17           0.36    0.41
A6          15.13   11.10    6.89          39.74   29.41    8.69          30.66   16.46            0.17     0.15     0.08            0.25     0.18     0.26           0.36    0.40 
A7          17.76   11.32    6.13          40.11   42.62   12.68          44.47   16.57            0.15     0.11     0.08            0.18     0.24     0.21           0.33    0.37
A8          21.63   11.45    5.07          40.33   61.00   18.20          63.66   16.61            0.09     0.07     0.05            0.11     0.08     0.23           0.24    0.27 
A9          41.66   40.68   32.45          69.95    7.52    1.68           7.70   12.58            0.20     0.22     0.16            0.15     0.10     0.18           0.22    0.26
A10         43.90   40.73   31.28          69.99   14.01    3.51          14.44   14.05            0.22     0.22     0.17            0.16     0.10     0.13           0.21    0.23
A11         46.13   40.68   29.91          69.95   20.59    5.59          21.34   15.19            0.20     0.22     0.22            0.15     0.15     0.17           0.25    0.28
A12         49.24   40.95   28.41          70.14   28.35    8.34          29.55   16.40            0.18     0.21     0.24            0.15     0.17     0.19           0.23    0.29 
A13         78.56   82.42   68.96          92.76   -1.80   -0.87           2.00   205.74            0.18     0.20     0.14            0.09     0.02     0.07           0.09    0.11
A14         78.42   80.96   68.58          92.12    0.71   -1.63           1.78   293.37            0.10     0.10     0.11            0.04     0.06     0.08           0.09    0.11 
A15         78.86   82.56   66.45          92.82   -1.47    1.55           2.14   133.33            0.13     0.14     0.12            0.06     0.02     0.06           0.07    0.09
A16         78.38   81.34   67.27          92.28   -0.09   -0.14           0.18   232.25            0.13     0.15     0.08            0.07     0.04     0.09           0.10    0.12
A17         77.93   80.76   66.23          92.02    0.12    0.38           0.40   72.99            0.14     0.15     0.11            0.07     0.03     0.06           0.08    0.09
A18         77.04   81.27   65.55          92.25   -2.63    1.41           2.98   151.86            0.16     0.17     0.12            0.08     0.04     0.08           0.11    0.12 
A19         76.98   79.88   68.25          91.63   -0.09   -2.17           2.17   267.58            0.12     0.13     0.10            0.06     0.03     0.08           0.09    0.11
A20          1.32    1.05    0.71           9.43    9.90    2.77          10.29   15.62            0.03     0.02     0.01            0.17     0.13     0.22           0.25    0.31 
A21          5.18    3.29    0.78          21.17   28.47   21.78          35.85   37.42            0.08     0.05     0.01            0.18     0.33     0.26           0.38    0.46
A22         10.38    5.92    0.83          29.20   43.03   34.72          55.29   38.90            0.08     0.06     0.01            0.15     0.19     0.15           0.25    0.28
B1           3.27    2.85    1.62          19.45    8.97    7.14          11.47   38.55            0.06     0.04     0.02            0.18     0.24     0.27           0.36    0.41
B2           3.85    2.87    1.02          19.53   17.69   15.07          23.24   40.43            0.06     0.03     0.01            0.14     0.31     0.19           0.32    0.39
B3           4.54    2.94    0.61          19.80   26.26   22.63          34.67   40.76            0.05     0.03     0.01            0.13     0.21     0.23           0.30    0.34
B4           5.27    3.21    0.49          20.86   30.94   26.69          40.87   40.78            0.07     0.04     0.01            0.15     0.32     0.21           0.34    0.41
B5          12.81   11.06    5.85          39.68   15.15   13.25          20.13   41.17            0.18     0.17     0.09            0.29     0.19     0.16           0.35    0.38
B6          15.00   11.16    3.92          39.85   28.19   23.87          36.94   40.26            0.14     0.11     0.06            0.19     0.21     0.10           0.28    0.30
B7          17.53   11.29    2.34          40.06   41.61   35.65          54.79   40.59            0.12     0.09     0.03            0.15     0.10     0.17           0.22    0.25
B8          20.84   11.37    1.08          40.19   57.86   49.80          76.34   40.72            0.08     0.06     0.01            0.10     0.11     0.12           0.17    0.19
B9          41.47   40.82   30.14          70.05    6.51    5.39           8.46   39.61            0.21     0.22     0.22            0.16     0.12     0.18           0.23    0.27
B10         43.89   41.16   27.18          70.29   12.68   10.65          16.56   40.04            0.14     0.14     0.14            0.10     0.12     0.15           0.19    0.21
B11         45.69   40.94   24.26          70.13   18.54   15.53          24.19   39.95            0.16     0.18     0.20            0.13     0.17     0.20           0.26    0.29
B12         48.24   40.99   20.91          70.17   25.50   22.01          33.69   40.80            0.16     0.21     0.16            0.14     0.20     0.14           0.25    0.28
B13         71.12   76.99   67.44          90.32   -6.51   -3.69           7.48   209.51            0.07     0.09     0.09            0.04     0.09     0.09           0.12    0.13
B14         73.89   72.94   66.21          88.42    7.47   -5.82           9.47   322.10            0.13     0.14     0.14            0.07     0.08     0.13           0.15    0.17
B15         76.61   80.76   57.83          92.02   -2.51    8.60           8.96   106.27            0.11     0.11     0.08            0.05     0.03     0.11           0.10    0.12
B16         63.62   65.85   54.50          84.92    0.29   -0.17           0.35   297.66            0.17     0.16     0.21            0.08     0.08     0.14           0.16    0.18
B17         70.97   70.68   55.53          87.33    6.05    2.89           6.71   25.53            0.15     0.17     0.18            0.08     0.09     0.09           0.14    0.16
B18         68.43   74.82   56.63          89.31   -7.91    5.16           9.45   146.90            0.16     0.17     0.18            0.08     0.07     0.09           0.13    0.14
B19         66.27   67.87   64.77          85.94    1.85   -8.73           8.92   281.97            0.11     0.11     0.10            0.06     0.09     0.06           0.10    0.12
B20          2.81    2.00    0.72          15.47   18.13   13.09          22.37   35.83            0.06     0.04     0.01            0.20     0.28     0.24           0.34    0.42
B21          8.52    4.98    0.79          26.67   38.79   31.05          49.69   38.67            0.10     0.05     0.01            0.16     0.24     0.23           0.30    0.37
B22         29.38   24.85   11.96          56.93   22.12   20.67          30.27   43.07            0.16     0.18     0.12            0.18     0.17     0.20           0.29    0.32
C1           4.31    4.16    2.19          24.18    4.25    9.59          10.49   66.07            0.06     0.05     0.02            0.17     0.19     0.22           0.28    0.34
C2           4.70    4.25    1.38          24.48    8.14   18.69          20.39   66.47            0.06     0.05     0.02            0.17     0.16     0.22           0.29    0.33
C3           5.58    4.67    0.84          25.79   13.30   28.74          31.67   65.16            0.08     0.07     0.01            0.21     0.18     0.29           0.35    0.40
C4           5.10    4.26    0.68          24.53   13.03   29.51          32.26   66.17            0.08     0.07     0.01            0.23     0.19     0.33           0.36    0.44
C5          23.95   22.75   10.93          54.81    9.07   20.13          22.08   65.73            0.25     0.25     0.15            0.26     0.09     0.19           0.29    0.33
C6          26.19   22.90    5.53          54.97   17.88   41.16          44.87   66.52            0.20     0.21     0.09            0.22     0.20     0.19           0.31    0.35
C7          28.31   22.82    2.36          54.89   26.78   61.03          66.65   66.31            0.18     0.18     0.02            0.19     0.17     0.17           0.26    0.30
C8          29.58   22.88    1.30          54.95   31.37   72.17          78.69   66.50            0.11     0.11     0.01            0.11     0.15     0.13           0.20    0.23
C9          48.08   48.27   33.57          75.00    4.26    8.70           9.69   63.91            0.22     0.24     0.23            0.15     0.10     0.21           0.23    0.27
C10         49.53   48.13   27.43          74.91    8.59   18.20          20.13   64.72            0.16     0.16     0.17            0.10     0.08     0.15           0.18    0.20
C11         51.21   48.41   22.26          75.08   12.32   27.82          30.42   66.10            0.15     0.17     0.17            0.10     0.11     0.29           0.28    0.32
C12         52.75   48.36   17.67          75.05   16.49   37.34          40.82   66.17            0.15     0.19     0.15            0.12     0.15     0.18           0.23    0.26
C13         61.55   69.62   65.25          86.81  -12.63   -7.69          14.79   211.32            0.17     0.16     0.07            0.08     0.11     0.11           0.16    0.18
C14         68.02   63.09   62.82          83.49   16.26  -11.08          19.68   325.72            0.14     0.17     0.11            0.09     0.15     0.13           0.19    0.22
C15         73.89   78.39   47.52          90.96   -3.46   18.01          18.34   100.88            0.19     0.20     0.24            0.09     0.02     0.24           0.22    0.26
C16         49.12   50.73   42.29          76.51    0.56   -0.55           0.79   316.90            0.19     0.20     0.21            0.12     0.08     0.17           0.21    0.23
C17         63.10   59.66   44.01          81.65   13.18    6.19          14.56   25.14            0.13     0.18     0.18            0.10     0.17     0.14           0.21    0.24
C18         57.10   65.88   45.81          84.93  -15.18    9.65          17.99   147.55            0.22     0.19     0.17            0.10     0.12     0.14           0.18    0.21
C19         53.09   53.51   59.45          78.17    3.88  -16.92          17.36   282.91            0.12     0.14     0.08            0.08     0.12     0.07           0.14    0.16
C20          1.66    1.39    0.69          11.89    8.96    7.42          11.63   39.63            0.03     0.02     0.01            0.14     0.15     0.15           0.22    0.25
C21         23.20   17.37    4.68          48.72   32.05   34.77          47.29   47.33            0.19     0.17     0.06            0.21     0.19     0.20           0.32    0.35
C22         35.29   31.98   17.62          63.33   15.72   17.24          23.33   47.64            0.23     0.25     0.18            0.20     0.17     0.25           0.33    0.36
D1           4.03    4.19    2.24          24.28   -0.16    9.37           9.38   90.97            0.05     0.05     0.03            0.16     0.18     0.19           0.27    0.31
D2           4.05    4.24    1.42          24.45   -0.53   18.08          18.09   91.68            0.06     0.05     0.01            0.17     0.11     0.22           0.27    0.30
D3           4.67    4.93    0.95          26.54   -1.07   28.26          28.28   92.16            0.07     0.07     0.01            0.20     0.17     0.27           0.32    0.38
D4           3.99    4.23    0.76          24.42   -1.26   27.69          27.72   92.61            0.07     0.07     0.01            0.23     0.13     0.29           0.31    0.39
D5          26.73   27.79   14.17          59.69   -0.23   19.34          19.34   90.68            0.28     0.31     0.19            0.28     0.09     0.25           0.34    0.39
D6          26.76   27.93    7.59          59.82   -0.68   40.44          40.45   90.97            0.28     0.29     0.13            0.26     0.07     0.19           0.29    0.33
D7          26.38   27.78    3.67          59.69   -1.67   59.67          59.70   91.61            0.17     0.18     0.03            0.16     0.09     0.21           0.24    0.28
D8          26.26   27.84    1.77          59.74   -2.41   75.05          75.09   91.84            0.12     0.10     0.01            0.09     0.16     0.18           0.23    0.25
D9          54.89   56.96   39.12          80.16   -0.08    9.85           9.85   90.45            0.20     0.23     0.19            0.13     0.07     0.13           0.17    0.20
D10         54.25   56.49   31.61          79.89   -0.56   20.08          20.09   91.59            0.23     0.25     0.15            0.14     0.08     0.14           0.18    0.22
D11         54.10   56.50   25.40          79.90   -0.95   30.30          30.31   91.80            0.17     0.19     0.25            0.11     0.12     0.27           0.29    0.32
D12         54.09   56.98    6.17          80.17   -2.15   81.57          81.60   91.51            0.18     0.17     0.07            0.10     0.06     0.22           0.21    0.24
D13         52.79   62.42   62.72          83.14  -18.27  -11.60          21.64   212.41            0.18     0.16     0.11            0.08     0.13     0.10           0.16    0.18
D14         62.39   54.32   59.18          78.65   24.49  -15.83          29.16   327.13            0.08     0.14     0.08            0.08     0.22     0.14           0.23    0.28
D15         71.73   76.34   38.73          90.02   -3.92   27.36          27.64   98.15            0.12     0.13     0.20            0.06     0.02     0.26           0.20    0.27
D16         37.46   38.70   32.31          68.54    0.45   -0.56           0.72   308.83            0.20     0.21     0.13            0.15     0.09     0.11           0.18    0.21
D17         56.13   50.32   34.18          76.26   19.79   10.00          22.17   26.81            0.15     0.20     0.20            0.12     0.18     0.17           0.22    0.28
D18         47.09   57.45   36.45          80.43  -21.89   13.94          25.95   147.51            0.14     0.12     0.15            0.07     0.12     0.14           0.18    0.20
D19         42.04   41.61   53.97          70.60    5.87  -24.30          25.00   283.57            0.16     0.19     0.13            0.14     0.12     0.13           0.19    0.22
D20         13.95   10.57    2.72          38.85   26.06   30.48          40.10   49.47            0.13     0.12     0.04            0.20     0.10     0.17           0.26    0.29
D21         21.70   20.95   11.76          52.90    7.16   14.32          16.01   63.45            0.22     0.23     0.14            0.25     0.09     0.07           0.25    0.27
D22         38.69   36.72   20.38          67.07   10.75   17.74          20.74   58.79            0.24     0.26     0.23            0.20     0.13     0.19           0.26    0.30
E1           3.74    4.25    2.29          24.47   -5.25    9.23          10.62   119.64            0.05     0.06     0.03            0.17     0.10     0.22           0.25    0.30
E2           3.39    4.19    1.46          24.28   -9.87   17.38          19.99   119.61            0.05     0.06     0.02            0.18     0.15     0.23           0.28    0.33
E3           3.63    4.90    1.00          26.45  -15.42   27.23          31.30   119.52            0.06     0.07     0.01            0.20     0.13     0.29           0.31    0.38
E4           3.02    4.14    0.84          24.14  -15.38   25.91          30.13   120.68            0.06     0.07     0.01            0.23     0.12     0.31           0.32    0.40
E5          12.43   14.16    7.63          44.46   -8.03   13.79          15.95   120.20            0.22     0.24     0.13            0.34     0.16     0.14           0.34    0.40
E6          11.39   14.17    4.56          44.47  -15.35   28.08          32.00   118.66            0.20     0.22     0.08            0.31     0.12     0.14           0.30    0.36
E7          10.23   14.07    2.57          44.33  -23.33   41.07          47.23   119.60            0.15     0.18     0.03            0.25     0.11     0.25           0.30    0.37
E8           9.50   14.11    1.50          44.39  -29.36   51.55          59.33   119.66            0.11     0.11     0.01            0.16     0.20     0.17           0.24    0.31
E9          37.82   40.42   28.77          69.77   -3.69    7.11           8.01   117.44            0.24     0.26     0.21            0.18     0.09     0.11           0.20    0.23
E10         36.52   40.56   24.09          69.86   -8.34   15.37          17.49   118.49            0.23     0.23     0.20            0.16     0.12     0.11           0.20    0.23
E11         35.11   40.57   20.07          69.87  -13.10   23.21          26.66   119.44            0.20     0.19     0.19            0.14     0.11     0.29           0.30    0.34
E12         30.70   40.45    9.52          69.79  -28.38   50.56          57.98   119.31            0.20     0.20     0.08            0.14     0.16     0.12           0.21    0.24
E13         44.52   55.13   59.75          79.11  -23.52  -15.60          28.22   213.57            0.24     0.21     0.08            0.12     0.17     0.15           0.22    0.26
E14         56.69   46.04   55.16          73.57   32.80  -20.43          38.64   328.08            0.14     0.19     0.11            0.13     0.22     0.15           0.25    0.29
E15         69.66   74.15   30.57          88.99   -3.91   37.38          37.59   95.97            0.11     0.12     0.16            0.06     0.02     0.22           0.18    0.23
E16         27.63   28.58   23.85          60.41    0.29   -0.50           0.59   298.20            0.19     0.20     0.16            0.18     0.16     0.19           0.27    0.31
E17         49.42   41.80   25.60          70.73   26.29   14.16          29.86   28.30            0.14     0.17     0.13            0.12     0.17     0.16           0.22    0.26
E18         38.03   49.24   28.25          75.60  -28.15   18.03          33.43   147.37            0.20     0.19     0.20            0.12     0.15     0.20           0.22    0.28
E19         32.61   31.50   48.23          62.92    8.18  -31.14          32.19   284.71            0.18     0.20     0.16            0.16     0.11     0.13           0.20    0.23
E20         24.97   17.04    1.24          48.31   41.49   61.48          74.17   55.98            0.13     0.12     0.01            0.15     0.13     0.14           0.21    0.24
E21         17.17   14.09    2.67          44.36   21.13   40.37          45.56   62.38            0.22     0.21     0.06            0.30     0.16     0.19           0.35    0.39
E22         29.78   25.47    8.09          57.53   21.03   34.57          40.46   58.68            0.26     0.27     0.11            0.26     0.15     0.11           0.28    0.32
F1           1.45    1.83    1.30          14.56   -8.23    2.59           8.63   162.54            0.02     0.02     0.01            0.13     0.06     0.16           0.18    0.22
F2           1.14    1.82    1.06          14.53  -17.61    5.79          18.54   161.82            0.01     0.02     0.01            0.12     0.10     0.15           0.20    0.22
F3           1.20    2.29    1.17          16.94  -26.00    8.39          27.32   162.11            0.02     0.03     0.01            0.15     0.21     0.14           0.24    0.29
F4           0.91    1.79    0.90          14.33  -24.92    7.95          26.16   162.31            0.01     0.02     0.01            0.13     0.23     0.13           0.25    0.30
F5           6.58    8.20    5.86          34.39  -12.89    4.07          13.52   162.49            0.12     0.14     0.10            0.29     0.13     0.20           0.33    0.37
F6           5.26    8.06    4.88          34.11  -26.32    8.46          27.65   162.18            0.07     0.10     0.05            0.20     0.11     0.16           0.24    0.28
F7           4.28    8.15    4.09          34.28  -39.65   13.24          41.80   161.53            0.07     0.11     0.05            0.23     0.14     0.11           0.26    0.29
F8           3.11    8.25    3.16          34.49  -58.42   19.67          61.64   161.39            0.02     0.03     0.02            0.06     0.08     0.15           0.16    0.18
F9          37.52   40.64   32.37          69.92   -5.32    1.73           5.60   161.99            0.19     0.20     0.20            0.14     0.10     0.12           0.18    0.22
F10         35.87   40.74   31.18          70.00  -11.06    3.68          11.66   161.60            0.19     0.19     0.16            0.13     0.11     0.16           0.22    0.24
F11         34.10   40.67   30.06          69.94  -16.86    5.34          17.69   162.43            0.26     0.29     0.17            0.21     0.06     0.19           0.25    0.29
F12         28.51   40.21   25.88          69.62  -35.97   11.74          37.83   161.93            0.25     0.25     0.22            0.18     0.23     0.19           0.30    0.35
F13         37.46   48.48   56.60          75.13  -27.97  -19.26          33.96   214.55            0.16     0.15     0.08            0.10     0.13     0.12           0.16    0.20
F14         51.32   38.71   51.03          68.54   40.79  -24.63          47.65   328.88            0.12     0.15     0.10            0.11     0.18     0.13           0.21    0.25
F15         67.77   71.94   23.91          87.94   -3.47   46.87          47.00   94.23            0.10     0.11     0.18            0.05     0.02     0.24           0.19    0.25
F16         19.82   20.44   17.17          52.33    0.57   -0.69           0.91   308.87            0.21     0.21     0.14            0.24     0.19     0.14           0.30    0.34
F17         43.44   34.51   18.73          65.36   32.59   18.28          37.36   29.28            0.11     0.12     0.14            0.09     0.11     0.29           0.28    0.32
F18         30.46   41.93   21.63          70.82  -33.70   21.70          40.08   147.22            0.15     0.14     0.12            0.10     0.15     0.11           0.19    0.21
F19         24.80   23.16   42.57          55.23   10.95  -37.59          39.16   286.24            0.18     0.19     0.13            0.20     0.14     0.18           0.24    0.30
