targets/wolf_faust/reflective/R031123WhiteBacking.it8
IT8.7/2
ORIGINATOR "Wolf Faust"
DESCRIPTOR "Kodak Professional Paper, L* a* b* (light D50, viewing angle 2)"
MANUFACTURER "Wolf Faust - http://www.coloraid.de"
CREATED "June 06, 2004"
PROD_DATE "2003:11"
SAMPLE_BACKING "white"
SERIAL "5x7 R031123 Batch Average Data"
MATERIAL "Kodak Professional Digital 3"
NUMBER_OF_FIELDS 9
BEGIN_DATA_FORMAT
SAMPLE_ID   XYZ_X   XYZ_Y   XYZ_Z          LAB_L   LAB_A   LAB_B          LAB_C   LAB_H
END_DATA_FORMAT
NUMBER_OF_SETS 288
BEGIN_DATA
A1           3.48    2.93    2.07          19.78   10.94    3.17          11.39   16.16
A2           4.34    2.95    1.67          19.85   23.29    7.31          24.41   17.44 
A3           5.44    3.08    1.42          20.38   35.01   11.09          36.73   17.57
A4           5.93    3.31    1.50          21.23   36.88   11.57          38.65   17.42 
A5          12.72   11.09    8.00          39.74   14.28    4.23          14.90   16.49
A6          15.37   11.35    7.03          40.16   29.04    8.81          30.35   16.87 
A7          18.06   11.48    6.10          40.38   43.10   13.28          45.10   17.12
A8          22.23   11.82    5.12          40.94   61.19   18.98          64.06   17.24 
A9          41.98   41.17   32.20          70.29    7.01    2.63           7.49   20.57
A10         44.92   41.86   31.11          70.77   13.59    5.13          14.53   20.69
A11         47.19   41.50   29.66          70.53   21.08    6.98          22.21   18.33
A12         50.48   41.91   28.62          70.81   28.78    9.17          30.21   17.66 
A13         80.48   84.31   69.99          93.59   -1.58   -0.37           1.62   193.22
A14         80.37   82.94   69.68          92.99    0.77   -1.12           1.36   304.66 
A15         80.78   84.48   67.55          93.66   -1.31    1.98           2.37   123.50
A16         80.21   83.13   68.42          93.07    0.12    0.16           0.22   109.37
A17         79.89   82.76   67.40          92.91    0.17    0.83           0.85   78.05
A18         79.05   83.25   66.65          93.12   -2.40    1.89           3.06   141.78 
A19         78.96   81.88   69.39          92.52    0.02   -1.67           1.67   270.57
A20          1.33    1.08    0.72           9.66    9.32    3.01           9.79   17.92 
A21          5.22    3.33    0.77          21.32   28.22   22.28          35.96   38.29
A22         10.68    6.12    0.83          29.72   43.03   35.72          55.93   39.69
B1           3.32    2.89    1.59          19.61    9.20    7.72          12.01   40.03
B2           3.91    2.92    1.02          19.71   17.86   15.33          23.54   40.65
B3           4.62    3.00    0.60          20.03   26.27   23.12          34.99   41.36
B4           5.22    3.21    0.49          20.87   30.20   26.66          40.28   41.43
B5          12.81   11.08    5.86          39.72   14.98   13.25          19.99   41.49
B6          15.08   11.32    3.88          40.12   27.50   24.56          36.87   41.76
B7          17.99   11.60    2.37          40.58   41.80   36.33          55.39   41.00
B8          21.66   11.89    1.11          41.04   58.08   50.83          77.18   41.20
B9          42.38   41.77   30.46          70.71    6.39    6.03           8.79   43.34
B10         44.69   41.94   27.02          70.83   12.67   11.86          17.35   43.09
B11         46.99   41.95   24.02          70.84   19.17   17.17          25.73   41.85
B12         49.42   41.87   20.98          70.78   26.08   22.93          34.73   41.32
B13         72.52   78.51   68.42          91.01   -6.55   -3.38           7.38   207.31
B14         75.73   74.78   67.30          89.29    7.49   -5.32           9.19   324.60
B15         78.49   82.65   58.37          92.86   -2.37    9.48           9.78   104.05
B16         65.02   67.39   55.15          85.70    0.09    0.48           0.50   79.02
B17         72.86   72.56   56.17          88.24    6.10    3.79           7.19   31.85
B18         69.80   76.35   57.12          90.02   -8.04    5.88           9.96   143.84
B19         67.64   69.36   65.63          86.68    1.68   -8.27           8.43   281.49
B20          2.84    2.04    0.71          15.68   17.95   13.63          22.54   37.22
B21          8.76    5.11    0.78          27.03   39.28   31.93          50.63   39.11
B22         29.84   25.29   11.82          57.36   22.00   21.84          31.00   44.78
C1           4.39    4.23    2.18          24.43    4.24   10.17          11.02   67.35
C2           4.68    4.26    1.39          24.51    7.84   18.59          20.18   67.12
C3           5.55    4.73    0.81          25.95   12.25   29.52          31.96   67.46
C4           5.08    4.27    0.68          24.54   12.66   29.49          32.09   66.77
C5          24.09   22.86   10.83          54.93    9.19   20.67          22.62   66.04
C6          26.66   23.37    5.59          55.45   17.74   41.65          45.27   66.93
C7          28.93   23.42    2.43          55.51   26.52   61.56          67.03   66.69
C8          30.44   23.46    1.31          55.55   32.07   73.06          79.79   66.30
C9          49.02   49.24   33.48          75.60    4.23    9.87          10.74   66.78
C10         50.95   49.69   27.46          75.88    8.22   19.82          21.46   67.48
C11         52.62   49.86   22.23          75.98   12.13   29.43          31.83   67.60
C12         54.21   49.58   17.67          75.81   16.94   38.63          42.18   66.33
C13         63.17   71.32   66.25          87.64  -12.47   -7.19          14.40   209.96
C14         70.16   65.37   64.08          84.68   15.78  -10.26          18.82   326.98
C15         75.99   80.51   47.83          91.91   -3.31   19.31          19.59   99.72
C16         50.85   52.71   42.58          77.70    0.07    1.14           1.14   86.53
C17         65.14   61.85   44.10          82.83   12.72    8.10          15.08   32.48
C18         58.72   67.62   45.99          85.82  -15.06   10.96          18.63   143.96
C19         54.89   55.50   60.62          79.33    3.50  -16.10          16.48   282.28
C20          1.71    1.45    0.70          12.29    8.40    8.01          11.61   43.62
C21         23.89   17.94    4.76          49.42   32.05   35.53          47.85   47.95
C22         35.85   32.60   17.50          63.83   15.42   18.38          23.99   50.02
D1           4.08    4.24    2.21          24.46   -0.23    9.95           9.95   91.29
D2           4.04    4.26    1.40          24.51   -1.02   18.41          18.44   93.17
D3           4.66    4.93    0.90          26.55   -1.30   28.94          28.97   92.57
D4           4.01    4.22    0.76          24.39   -0.84   27.78          27.79   91.72
D5          27.22   28.49   14.06          60.33   -0.99   20.72          20.75   92.74
D6          27.11   28.41    7.65          60.26   -1.13   40.97          40.99   91.58
D7          27.05   28.50    3.72          60.33   -1.73   60.41          60.44   91.64
D8          26.93   28.43    1.78          60.27   -1.91   75.83          75.85   91.45
D9          55.85   57.89   38.94          80.68    0.07   10.98          10.98   89.62
D10         55.75   57.92   31.02          80.69   -0.24   22.37          22.37   90.61
D11         55.91   58.38   25.14          80.95   -0.95   32.57          32.58   91.67
D12         55.59   58.50    6.46          81.02   -2.03   81.73          81.75   91.43
D13         53.66   63.47   63.55          83.69  -18.41  -11.45          21.68   211.87
D14         64.14   55.96   60.21          79.59   24.44  -15.24          28.81   328.05
D15         73.67   78.28   38.61          90.91   -3.70   29.05          29.29   97.26
D16         38.24   39.72   32.35          69.27   -0.19    0.65           0.69   104.55
D17         57.75   51.88   34.19          77.21   19.71   11.61          22.88   30.49
D18         47.88   58.46   36.35          80.99  -22.13   15.05          26.76   145.78
D19         43.01   42.74   54.84          71.38    5.41  -23.88          24.49   282.78
D20         14.25   10.75    2.68          39.15   26.65   31.30          41.11   49.58
D21         21.92   21.15   11.98          53.11    7.27   14.05          15.82   62.62
D22         39.62   37.73   20.18          67.82   10.42   19.45          22.07   61.83
E1           3.73    4.26    2.34          24.53   -5.64    8.88          10.52   122.42
E2           3.39    4.24    1.48          24.44  -10.51   17.33          20.27   121.23
E3           3.61    4.91    0.95          26.47  -15.82   28.04          32.20   119.44
E4           3.05    4.11    0.83          24.03  -14.47   25.90          29.67   119.20
E5          12.58   14.38    7.62          44.77   -8.34   14.40          16.64   120.07
E6          11.43   14.37    4.63          44.76  -16.28   28.21          32.57   119.99
E7          10.38   14.29    2.62          44.64  -23.52   41.26          47.50   119.69
E8           9.61   14.24    1.51          44.58  -29.32   51.80          59.52   119.51
E9          38.53   41.43   28.35          70.48   -4.48    9.02          10.08   116.41
E10         36.96   41.16   24.12          70.29   -8.71   16.03          18.25   118.51
E11         35.67   41.24   19.81          70.34  -13.22   24.56          27.89   118.28
E12         30.97   40.85    9.52          70.07  -28.58   51.04          58.50   119.24
E13         45.29   56.06   60.54          79.65  -23.59  -15.47          28.21   213.26
E14         57.92   46.98   55.79          74.18   33.18  -20.05          38.77   328.85
E15         71.46   75.91   30.48          89.82   -3.62   38.94          39.11   95.32
E16         28.11   29.12   23.74          60.89    0.13    0.54           0.58   74.82
E17         50.66   42.81   25.46          71.42   26.62   15.59          30.85   30.35
E18         38.61   50.01   28.06          76.07  -28.34   19.15          34.21   145.95
E19         33.19   32.10   48.84          63.42    8.08  -30.98          32.02   284.61
E20         25.36   17.16    1.21          48.46   42.48   62.17          75.30   55.66
E21         17.58   14.47    2.66          44.91   20.99   41.34          46.37   63.08
E22         30.61   26.25    8.24          58.28   20.93   35.27          41.01   59.32
F1           1.47    1.85    1.31          14.69   -8.43    2.62           8.83   162.73
F2           1.15    1.85    1.08          14.69  -18.01    5.82          18.93   162.09
F3           1.21    2.30    1.17          16.97  -26.05    8.46          27.39   162.02
F4           0.93    1.85    0.90          14.67  -25.78    8.53          27.15   161.70
F5           6.57    8.24    5.91          34.48  -13.37    3.96          13.95   163.51
F6           5.42    8.37    4.99          34.74  -27.18    9.00          28.63   161.67
F7           4.32    8.25    4.14          34.50  -40.06   13.32          42.21   161.61
F8           3.14    8.36    3.15          34.72  -58.92   20.08          62.25   161.18
F9          37.97   41.24   32.32          70.34   -5.69    2.54           6.23   155.95
F10         36.08   41.09   31.07          70.24  -11.40    4.26          12.18   159.51
F11         34.39   41.21   29.80          70.33  -17.49    6.42          18.63   159.86
F12         28.63   40.52   25.62          69.84  -36.44   12.58          38.55   160.96
F13         37.73   48.96   57.27          75.42  -28.36  -19.45          34.39   214.44
F14         52.67   39.81   51.79          69.33   40.92  -24.11          47.50   329.49
F15         69.54   73.63   23.72          88.75   -3.10   48.60          48.69   93.65
F16         20.08   20.86   17.03          52.80   -0.20    0.44           0.51   110.91
F17         44.71   35.57   18.64          66.19   32.72   19.91          38.30   31.32
F18         30.62   42.27   21.35          71.06  -34.12   22.65          40.95   146.42
F19         25.14   23.60   43.11          55.69   10.45  -37.48          38.91   285.57
F20         26.38   25.26   11.72          57.33    8.55   22.06          23.66   68.81
F21         34.57   31.20   10.59          62.67   16.09   34.77          38.31   65.16
F22         39.36   36.72   15.81          67.07   12.85   27.91          30.73   65.28
G1           2.25    2.86    2.57          19.49   -9.99   -1.75          10.14   189.94
G2           1.84    2.89    2.80          19.60  -19.76   -3.35          20.04   189.62
G3           1.52    2.96    3.10          19.87  -29.35   -5.11          29.79   189.87
G4           1.62    3.26    3.48          21.05  -31.72   -5.74          32.23   190.26
G5           9.02   11.09    9.78          39.73  -13.21   -2.16          13.39   189.30
G6           7.63   11.02   10.53          39.61  -25.09   -4.81          25.55   190.84
G7           6.32   10.97   11.23          39.53  -37.78   -7.13          38.45   190.70
G8           4.76   10.86   12.02          39.35  -55.09   -9.80          55.96   190.09
G9          38.15   41.48   34.44          70.51   -5.83   -0.30           5.84   182.98
G10         35.71   41.23   35.33          70.34  -13.09   -1.88          13.23   188.16
G11         33.81   41.12   35.65          70.26  -19.21   -2.47          19.37   187.33
G12         28.53   40.35   37.74          69.72  -36.30   -6.30          36.85   189.85
G13         30.83   42.04   53.61          70.90  -32.67  -23.39          40.18   215.61
G14         47.27   33.02   47.36          64.17   48.69  -27.97          56.15   330.12
G15         67.77   71.33   18.19          87.64   -2.19   57.88          57.92   92.16
G16         13.60   14.19   11.74          44.51   -0.52   -0.08           0.54   190.31
G17         39.09   29.03   13.18          60.81   38.98   23.90          45.73   31.52
G18         23.59   35.01   15.97          65.76  -39.66   25.27          47.03   147.50
G19         18.42   16.60   37.38          47.75   13.15  -43.67          45.61   286.76
G20         36.85   35.35   14.57          66.02    9.32   29.21          30.66   72.31
G21         35.65   34.00    9.34          64.96    9.88   42.85          43.97   77.01
G22         48.48   44.48    2.84          72.55   15.91   87.63          89.06   79.71
H1           2.45    2.86    3.22          19.48   -6.02   -6.66           8.97   227.89
H2           2.18    2.90    4.31          19.62  -12.12  -13.36          18.04   227.80
H3           1.95    2.92    5.69          19.72  -17.73  -20.42          27.05   229.03
H4           2.03    3.16    6.70          20.67  -20.01  -23.39          30.78   229.46
H5           9.70   11.15   12.07          39.83   -8.12   -9.12          12.21   228.33
H6           8.61   11.04   15.44          39.64  -16.36  -18.44          24.65   228.43
H7           7.67   10.95   19.19          39.50  -24.15  -27.30          36.45   228.50
H8           6.73   11.00   25.51          39.58  -33.69  -39.40          51.84   229.47
H9          38.21   41.21   37.31          70.32   -4.82   -4.67           6.72   224.07
H10         36.89   41.16   41.00          70.29   -8.93   -9.63          13.14   227.16
H11         35.01   40.53   44.57          69.85  -13.34  -14.86          19.97   228.10
H12         32.82   40.63   53.32          69.91  -21.20  -24.78          32.61   229.45
H13         25.42   36.29   50.09          66.74  -36.00  -26.69          44.82   216.55
H14         42.30   27.24   43.06          59.19   55.83  -31.38          64.04   330.66
H15         65.83   68.63   13.27          86.32   -0.78   67.67          67.67   90.66
H16          8.98    9.36    7.61          36.66   -0.39    0.46           0.62   129.98
H17         34.10   23.57    8.71          55.65   44.74   29.02          53.33   32.97
H18         18.15   28.95   11.33          60.74  -44.24   29.15          52.98   146.62
H19         13.43   11.36   32.21          40.18   17.04  -49.30          52.16   289.06
H20         41.85   42.21   15.25          71.02    3.48   36.10          36.27   84.50
H21         31.06   32.22   20.37          63.52    0.00   11.63          11.64   89.98
H22         35.54   38.61   11.44          68.47   -5.61   42.12          42.49   97.58
I1           4.24    4.35    5.73          24.80    0.64  -11.86          11.88   273.06
I2           4.31    4.32    8.61          24.70    2.01  -23.99          24.08   274.78
I3           4.28    4.27   11.91          24.53    2.34  -35.01          35.09   273.82
I4           4.48    4.33   20.40          24.72    4.27  -55.32          55.49   274.42
I5          13.97   14.47   15.26          44.91    0.06   -8.94           8.94   270.39
I6          14.02   14.41   19.54          44.82    0.77  -18.87          18.89   272.33
I7          14.10   14.37   24.07          44.76    1.51  -27.89          27.93   273.09
I8          14.26   14.26   34.96          44.61    3.17  -45.71          45.81   273.96
I9          39.91   41.34   36.83          70.41    0.17   -3.85           3.86   272.54
I10         40.16   41.46   40.77          70.49    0.59   -8.98           9.00   273.77
I11         39.91   41.10   44.85          70.25    0.88  -14.51          14.54   273.46
I12         40.26   41.10   54.05          70.25    1.94  -24.98          25.06   274.44
I13         20.43   30.63   46.19          62.19  -38.98  -30.00          49.19   217.59
I14         37.41   22.04   38.53          54.07   62.65  -34.35          71.45   331.26
I15         63.97   65.87    9.44          84.93    1.03   76.94          76.94   89.23
I16          5.39    5.63    4.60          28.45   -0.38    0.25           0.47   143.84
I17         29.55   18.89    5.36          50.56   50.23   34.35          60.85   34.36
I18         13.34   23.21    7.78          55.29  -48.66   31.89          58.18   146.76
I19          9.42    7.27   27.24          32.42   21.59  -54.74          58.84   291.52
I20         42.19   46.18   15.94          73.66   -6.87   38.97          39.58   100.00
I21         10.76   14.54    3.47          44.99  -22.18   35.60          41.94   121.92
I22         27.84   36.25   17.11          66.71  -26.06   24.24          35.59   137.08
J1           2.06    1.84    2.90          14.62    6.76  -12.76          14.44   297.92
J2           2.37    1.82    4.95          14.50   13.86  -25.71          29.21   298.32
J3           2.75    1.85    7.78          14.67   20.51  -38.12          43.29   298.28
J4           3.57    1.81   16.04          14.47   35.31  -63.31          72.49   299.15
J5          11.30   11.01   12.09          39.59    5.06   -9.59          10.84   297.82
J6          12.03   10.94   15.62          39.48   10.75  -19.19          22.00   299.26
J7          12.82   10.96   19.75          39.51   15.92  -28.47          32.62   299.21
J8          14.81   11.14   31.95          39.81   27.18  -49.54          56.51   298.75
J9          41.19   41.55   37.40          70.56    3.45   -4.38           5.58   308.26
J10         41.82   41.55   40.60          70.56    5.36   -8.65          10.18   301.80
J11         42.52   41.26   45.00          70.35    8.37  -14.51          16.75   299.97
J12         44.51   41.31   53.96          70.39   14.04  -24.65          28.37   299.67
J13         16.10   25.34   41.98          57.41  -41.10  -33.10          52.77   218.84
J14         32.83   17.65   34.11          49.06   68.68  -36.81          77.92   331.81
J15         61.94   62.74    6.41          83.31    3.37   85.87          85.93   87.75
J16          2.92    3.05    2.51          20.26   -0.38    0.06           0.41   174.55
J17         25.41   14.96    2.98          45.58   55.10   40.05          68.12   36.01
J18          9.41   18.03    5.06          49.53  -52.26   34.11          62.41   146.87
J19          6.40    4.30   22.41          24.65   27.20  -59.44          65.37   294.59
J20         29.70   38.43   22.29          68.34  -25.86   16.13          30.48   148.04
J21          4.14    7.92    1.43          33.82  -39.66   34.16          52.34   139.26
J22          1.28    2.08    0.92          15.88  -18.92   10.29          21.53   151.45
K1           5.19    4.32    5.15          24.72   13.28   -9.12          16.11   325.53
K2           6.42    4.36    7.29          24.83   26.71  -18.67          32.59   325.06
K3           7.76    4.37    9.56          24.85   39.74  -27.07          48.08   325.73
K4           9.30    4.48   12.32          25.20   51.68  -35.07          62.45   325.84
K5          15.80   14.47   14.56          44.90   11.11   -7.17          13.22   327.17
K6          18.00   14.44   17.99          44.85   23.44  -15.45          28.07   326.60
K7          20.52   14.68   21.89          45.20   34.71  -23.00          41.64   326.47
K8          26.87   14.91   32.91          45.51   61.48  -41.17          73.99   326.19
K9          42.11   41.29   36.56          70.38    7.01   -3.54           7.85   333.22
K10         44.52   41.60   40.33          70.60   13.21   -8.23          15.56   328.07
K11         47.14   41.68   44.05          70.65   20.40  -12.84          24.11   327.80
K12         52.54   41.55   53.09          70.56   35.29  -23.42          42.35   326.43
K13         12.64   20.73   37.84          52.65  -41.92  -35.86          55.17   220.55
K14         28.53   14.04   29.71          44.29   73.33  -38.34          82.75   332.39
K15         59.60   59.16    4.31          81.38    6.17   93.14          93.35   86.21
K16          1.41    1.47    1.22          12.43   -0.20   -0.09           0.26   204.19
K17         21.63   11.78    1.51          40.86   58.73   45.28          74.16   37.63
K18          6.43   13.60    3.16          43.65  -54.38   35.42          64.89   146.92
K19          4.38    2.44   18.11          17.66   33.30  -62.62          70.92   298.01
K20          2.32    3.08    1.89          20.38  -12.52    5.97          13.87   154.52
K21          1.28    1.74    1.49          14.03  -11.21   -0.69          11.23   183.53
K22          1.61    2.10    2.83          16.02  -10.19   -9.76          14.11   223.74
L1           3.57    2.94    2.67          19.80   12.32   -2.01          12.48   350.74
L2           4.48    2.96    2.95          19.89   25.13   -4.01          25.44   350.94
L3           5.71    3.17    3.46          20.72   36.59   -6.17          37.11   350.43
L4           6.24    3.41    3.66          21.63   38.56   -5.95          39.02   351.22
L5          12.98   11.12    9.77          39.79   15.82   -2.02          15.95   352.72
L6          15.78   11.22   10.86          39.96   32.31   -5.27          32.74   350.74
L7          19.02   11.49   11.77          40.39   47.99   -7.27          48.54   351.38
L8          23.24   11.73   12.82          40.78   66.41   -9.62          67.10   351.76
L9          42.97   41.69   35.10          70.66    8.39   -1.00           8.45   353.18
L10         45.63   41.90   35.72          70.80   15.48   -1.62          15.57   354.02
L11         47.84   41.59   36.15          70.59   22.61   -2.60          22.76   353.44
L12         51.77   41.92   37.60          70.81   32.19   -4.21          32.47   352.54
L13          9.00   15.24   32.09          45.96  -40.29  -39.15          56.18   224.18
L14         24.11   10.91   25.05          39.44   76.07  -38.83          85.40   332.96
L15         52.49   49.46    2.17          75.73   12.85   98.66          99.49   82.58
L16          0.45    0.47    0.39           4.25   -0.24    0.01           0.26   181.38
L17         16.68    8.41    0.51          34.82   59.57   50.48          78.08   40.27
L18          3.24    7.67    1.32          33.29  -51.07   34.58          61.68   145.90
L19          2.77    1.20   13.33          10.54   38.79  -63.16          74.12   301.56
L20          0.70    0.77    0.79           6.93   -1.56   -2.89           3.29   241.60
