targets/wolf_faust/reflective/R031125WhiteBacking.it8
IT8.7/2
ORIGINATOR "Wolf Faust"
DESCRIPTOR "L* a* b* Batch average data (light D50, viewing angle 2)"
MANUFACTURER "Wolf Faust - http://www.coloraid.de"
CREATED "December 02, 2003"
PROD_DATE "2003:11"
SAMPLE_BACKING "white"
SERIAL "5x7 R031125"
MATERIAL "Kodak Professional Digital 3"
NUMBER_OF_FIELDS 9
BEGIN_DATA_FORMAT
SAMPLE_ID   XYZ_X   XYZ_Y   XYZ_Z          LAB_L   LAB_A   LAB_B          LAB_C   LAB_H
END_DATA_FORMAT
NUMBER_OF_SETS 288
BEGIN_DATA
A1           3.48    2.90    2.03          19.66   11.47    3.33          11.94   16.20
A2           4.35    2.94    1.67          19.80   23.75    7.17          24.81   16.80 
A3           5.36    3.02    1.43          20.13   35.08   10.50          36.61   16.66
A4           5.93    3.31    1.52          21.25   36.84   11.40          38.57   17.19 
A5          12.85   11.09    7.96          39.74   15.17    4.37          15.79   16.08
A6          15.38   11.25    7.08          40.01   29.74    8.37          30.89   15.71 
A7          18.08   11.42    6.04          40.28   43.58   13.36          45.58   17.05
A8          22.11   11.72    5.13          40.76   61.36   18.65          64.13   16.90 
A9          42.58   41.64   32.83          70.62    7.37    2.26           7.71   17.01
A10         44.70   41.35   31.67          70.42   14.47    3.66          14.93   14.20
A11         47.60   41.81   30.21          70.74   21.31    6.47          22.27   16.90
A12         50.10   41.51   28.79          70.53   28.99    8.39          30.18   16.15 
A13         80.32   84.21   69.90          93.54   -1.71   -0.37           1.75   192.32
A14         80.11   82.61   69.47          92.84    0.89   -1.18           1.48   306.99 
A15         80.59   84.32   67.20          93.59   -1.39    2.18           2.59   122.50
A16         80.06   83.01   68.13          93.02    0.04    0.34           0.35   82.99
A17         79.69   82.48   67.38          92.79    0.31    0.63           0.70   63.69
A18         78.86   83.08   66.34          93.05   -2.45    2.06           3.20   140.02 
A19         78.67   81.56   69.21          92.38    0.06   -1.75           1.75   272.04
A20          1.32    1.05    0.72           9.44    9.94    2.72          10.31   15.28 
A21          5.22    3.30    0.75          21.22   28.72   22.45          36.45   38.01
A22         10.57    6.01    0.83          29.43   43.43   35.22          55.92   39.04
B1           3.38    2.95    1.62          19.82    9.27    7.86          12.16   40.28
B2           3.96    2.95    1.01          19.83   18.09   15.75          23.99   41.05
B3           4.64    2.99    0.61          20.01   26.59   22.96          35.13   40.81
B4           5.39    3.27    0.49          21.08   31.31   27.18          41.46   40.96
B5          13.04   11.20    5.80          39.92   15.59   13.87          20.87   41.67
B6          15.00   11.15    3.86          39.83   28.27   24.20          37.21   40.56
B7          17.63   11.34    2.31          40.15   41.74   36.09          55.18   40.85
B8          21.19   11.54    1.07          40.47   58.35   50.40          77.11   40.82
B9          42.26   41.48   30.50          70.51    6.90    5.63           8.91   39.22
B10         44.63   41.74   27.09          70.69   13.09   11.50          17.43   41.29
B11         46.50   41.51   24.44          70.53   19.11   15.88          24.84   39.72
B12         49.06   41.52   20.98          70.54   26.15   22.51          34.50   40.72
B13         73.28   79.15   68.51          91.30   -6.21   -2.97           6.89   205.55
B14         75.70   74.76   67.20          89.28    7.46   -5.25           9.12   324.85
B15         78.34   82.52   58.21          92.80   -2.42    9.56           9.86   104.21
B16         65.49   67.73   55.15          85.87    0.42    0.78           0.90   61.06
B17         72.73   72.49   56.06          88.20    5.98    3.85           7.11   32.77
B18         70.43   76.85   57.19          90.25   -7.69    6.21           9.89   141.09
B19         68.17   69.75   65.81          86.87    2.02   -8.11           8.36   283.98
B20          2.87    2.03    0.71          15.63   18.55   13.55          22.97   36.16
B21          8.68    5.05    0.79          26.89   39.22   31.55          50.34   38.81
B22         30.03   25.41   12.04          57.47   22.24   21.38          30.85   43.88
C1           4.44    4.27    2.19          24.54    4.54   10.26          11.22   66.15
C2           4.84    4.35    1.37          24.80    8.59   19.35          21.18   66.06
C3           5.59    4.73    0.83          25.96   12.60   29.12          31.73   66.60
C4           5.22    4.34    0.68          24.77   13.38   29.97          32.82   65.94
C5          24.37   23.05   10.83          55.13    9.53   21.00          23.06   65.59
C6          26.60   23.20    5.58          55.27   18.29   41.40          45.26   66.16
C7          28.57   23.06    2.39          55.13   26.75   61.18          66.77   66.38
C8          30.38   23.44    1.30          55.53   31.93   73.13          79.80   66.41
C9          49.33   49.30   33.55          75.63    4.93    9.82          10.99   63.36
C10         50.74   49.36   27.50          75.68    8.53   19.40          21.19   66.26
C11         52.25   49.24   22.55          75.60   12.81   28.14          30.92   65.53
C12         53.69   49.03   17.44          75.47   17.08   38.57          42.18   66.12
C13         63.56   71.76   66.37          87.85  -12.48   -6.94          14.28   209.10
C14         69.78   64.77   63.85          84.37   16.29  -10.56          19.41   327.03
C15         75.65   80.17   47.80          91.76   -3.34   19.08          19.37   99.92
C16         50.55   52.18   42.56          77.39    0.64    0.63           0.90   43.99
C17         64.63   61.18   44.13          82.48   13.10    7.45          15.07   29.63
C18         58.79   67.70   46.08          85.86  -15.06   10.92          18.61   144.06
C19         54.88   55.26   60.58          79.19    4.06  -16.30          16.80   283.97
C20          1.71    1.42    0.68          12.08    9.46    7.94          12.35   39.99
C21         23.85   17.76    4.78          49.20   32.80   35.03          47.99   46.88
C22         35.83   32.38   17.67          63.66   16.12   17.70          23.94   47.67
D1           4.15    4.29    2.22          24.62    0.11   10.06          10.06   89.36
D2           4.10    4.30    1.41          24.63   -0.55   18.51          18.52   91.70
D3           4.73    4.98    0.93          26.69   -0.99   28.71          28.73   91.97
D4           4.08    4.28    0.75          24.56   -0.63   28.13          28.14   91.28
D5          27.40   28.50   14.32          60.34   -0.32   20.05          20.05   90.93
D6          27.20   28.32    7.67          60.18   -0.43   40.74          40.75   90.60
D7          27.01   28.48    3.72          60.32   -1.82   60.41          60.43   91.73
D8          26.73   28.29    1.76          60.15   -2.18   75.80          75.83   91.65
D9          55.92   57.94   39.48          80.71    0.12   10.31          10.32   89.31
D10         55.69   57.73   31.54          80.59    0.06   21.38          21.38   89.83
D11         55.72   58.02   25.24          80.75   -0.57   32.06          32.06   91.03
D12         55.33   58.21    6.25          80.86   -1.99   82.37          82.39   91.39
D13         54.30   64.15   63.82          84.04  -18.33  -11.09          21.43   211.18
D14         63.88   55.58   60.04          79.37   24.79  -15.45          29.21   328.06
D15         73.46   78.07   39.09          90.81   -3.74   28.24          28.49   97.54
D16         38.56   39.84   32.76          69.36    0.47    0.18           0.52   20.28
D17         57.44   51.51   34.61          76.98   19.93   10.61          22.57   28.03
D18         48.49   59.03   36.99          81.31  -21.82   14.72          26.32   146.00
D19         43.36   42.87   55.01          71.47    6.07  -23.91          24.67   284.23
D20         14.36   10.81    2.78          39.26   26.82   30.65          40.73   48.81
D21         22.15   21.32   11.89          53.30    7.51   14.63          16.44   62.81
D22         39.49   37.49   20.43          67.64   10.79   18.62          21.52   59.90
E1           3.79    4.31    2.28          24.66   -5.31    9.60          10.97   118.97
E2           3.43    4.25    1.45          24.48   -9.99   17.82          20.43   119.28
E3           3.72    5.04    1.00          26.84  -15.69   27.88          32.00   119.37
E4           3.20    4.31    0.84          24.67  -14.67   26.85          30.60   118.65
E5          12.68   14.40    7.69          44.80   -7.80   14.15          16.16   118.88
E6          11.68   14.49    4.65          44.93  -15.20   28.36          32.17   118.20
E7          10.48   14.35    2.56          44.73  -23.16   41.86          47.84   118.95
E8           9.76   14.44    1.50          44.86  -29.34   52.30          59.96   119.29
E9          38.91   41.59   28.85          70.59   -3.75    8.40           9.19   114.04
E10         37.32   41.46   24.41          70.50   -8.45   15.87          17.97   118.03
E11         36.12   41.51   20.32          70.54  -12.55   23.84          26.94   117.76
E12         31.35   41.25    9.45          70.35  -28.39   51.77          59.04   118.74
E13         45.91   56.78   60.89          80.06  -23.60  -15.11          28.03   212.63
E14         58.05   47.14   56.06          74.28   33.06  -20.16          38.72   328.62
E15         71.18   75.67   30.98          89.71   -3.73   37.97          38.15   95.61
E16         28.39   29.31   24.10          61.06    0.48    0.17           0.53   22.90
E17         50.66   42.87   25.98          71.46   26.45   14.75          30.28   29.15
E18         39.21   50.64   28.65          76.46  -28.10   18.85          33.83   146.15
E19         33.65   32.50   49.25          63.76    8.26  -30.88          31.97   284.98
E20         25.06   17.07    1.23          48.35   41.71   61.73          74.50   55.95
E21         17.34   14.22    2.69          44.54   21.28   40.47          45.73   62.26
E22         30.37   25.98    8.17          58.02   21.13   35.10          40.97   58.95
F1           1.46    1.83    1.32          14.57   -8.06    2.39           8.41   163.52
F2           1.17    1.84    1.07          14.65  -17.31    5.79          18.25   161.52
F3           1.23    2.32    1.17          17.09  -25.78    8.59          27.18   161.57
F4           0.94    1.84    0.89          14.61  -25.24    8.52          26.64   161.34
F5           6.64    8.29    5.84          34.58  -13.08    4.49          13.83   161.04
F6           5.43    8.27    5.00          34.55  -26.22    8.62          27.60   161.80
F7           4.41    8.33    4.16          34.65  -39.48   13.42          41.70   161.22
F8           3.26    8.61    3.24          35.23  -59.10   20.37          62.52   160.98
F9          38.27   41.35   32.87          70.42   -5.03    1.85           5.36   159.85
F10         36.28   41.09   31.07          70.24  -10.74    4.27          11.56   158.33
F11         34.75   41.39   30.15          70.45  -16.81    6.07          17.88   160.15
F12         29.17   41.17   26.15          70.30  -36.32   12.43          38.39   161.10
F13         38.26   49.62   57.62          75.84  -28.44  -19.09          34.26   213.87
F14         52.48   39.57   51.86          69.16   41.16  -24.48          47.89   329.26
F15         69.23   73.36   23.92          88.62   -3.22   48.02          48.13   93.84
F16         20.18   20.87   17.07          52.81    0.24    0.36           0.47   52.46
F17         44.39   35.28   18.70          65.97   32.76   19.40          38.07   30.64
F18         31.06   42.78   21.56          71.41  -34.00   22.84          40.96   146.10
F19         25.41   23.76   43.40          55.85   10.88  -37.56          39.11   286.15
F20         26.49   25.19   11.77          57.26    9.24   21.83          23.71   67.05
F21         34.65   31.27   10.83          62.73   16.10   34.11          37.72   64.73
F22         39.05   36.33   15.76          66.77   13.15   27.54          30.52   64.48
G1           2.27    2.87    2.60          19.53   -9.89   -1.90          10.07   190.87
G2           1.86    2.88    2.83          19.55  -19.24   -3.69          19.59   190.86
G3           1.53    2.95    3.14          19.83  -28.67   -5.52          29.20   190.90
G4           1.64    3.27    3.44          21.09  -31.31   -5.39          31.77   189.76
G5           9.12   11.09    9.82          39.73  -12.40   -2.29          12.61   190.45
G6           7.82   11.14   10.59          39.81  -24.16   -4.65          24.61   190.90
G7           6.44   11.12   11.23          39.78  -37.53   -6.72          38.13   190.15
G8           4.99   11.31   12.48          40.10  -55.44   -9.84          56.30   190.06
G9          38.13   41.32   34.66          70.40   -5.42   -0.81           5.48   188.53
G10         35.77   41.17   35.50          70.29  -12.67   -2.21          12.86   189.88
G11         33.96   41.15   36.39          70.28  -18.81   -3.46          19.13   190.43
G12         29.43   41.40   38.61          70.45  -35.98   -6.21          36.52   189.80
G13         31.67   43.06   54.19          71.60  -32.60  -22.81          39.79   214.98
G14         46.98   32.67   47.48          63.89   49.08  -28.60          56.80   329.77
G15         67.34   70.96   18.33          87.47   -2.36   57.28          57.33   92.36
G16         13.84   14.24   11.82          44.58    0.66   -0.21           0.70   308.53
G17         38.77   28.71   13.30          60.53   39.19   23.11          45.50   30.53
G18         24.24   35.77   16.12          66.34  -39.37   25.93          47.14   146.63
G19         18.76   16.73   37.71          47.91   14.25  -43.86          46.11   288.00
G20         36.69   35.09   14.59          65.82    9.63   28.83          30.39   71.52
G21         35.29   33.44    9.43          64.52   10.59   41.75          43.07   75.77
G22         47.56   43.65    2.81          71.99   15.78   86.87          88.29   79.70
H1           2.51    2.91    3.28          19.67   -5.64   -6.79           8.83   230.25
H2           2.24    2.91    4.39          19.68  -11.18  -13.68          17.67   230.76
H3           1.99    2.93    5.72          19.78  -17.17  -20.45          26.70   229.99
H4           2.06    3.18    6.75          20.74  -19.57  -23.45          30.55   230.16
H5           9.77   11.13   12.07          39.80   -7.44   -9.16          11.80   230.93
H6           8.83   11.18   15.57          39.89  -15.48  -18.36          24.02   229.86
H7           7.90   11.14   19.43          39.82  -23.45  -27.26          35.96   229.29
H8           6.92   11.26   26.06          40.02  -33.63  -39.60          51.95   229.66
H9          38.60   41.31   38.12          70.39   -3.89   -5.65           6.86   235.43
H10         37.16   41.20   41.24          70.32   -8.20   -9.89          12.85   230.35
H11         35.58   41.05   45.17          70.21  -12.97  -14.97          19.81   229.11
H12         33.29   41.20   53.72          70.32  -21.31  -24.51          32.48   229.00
H13         25.86   36.92   50.47          67.22  -36.25  -26.28          44.77   215.95
H14         41.75   26.61   42.95          58.61   56.67  -32.23          65.20   330.37
H15         65.45   68.37   13.49          86.19   -1.06   66.83          66.84   90.91
H16          8.98    9.19    7.70          36.35    1.00   -0.46           1.12   336.15
H17         33.54   23.00    8.79          55.08   45.29   27.73          53.11   31.48
H18         18.52   29.47   11.57          61.19  -44.21   29.18          52.97   146.57
H19         13.52   11.24   32.32          39.98   18.44  -49.81          53.11   290.31
H20         41.78   42.04   15.52          70.90    3.79   35.23          35.44   83.87
H21         31.34   32.27   20.52          63.57    0.82   11.42          11.45   85.89
H22         35.33   38.28   11.38          68.23   -5.27   41.88          42.21   97.17
I1           4.21    4.28    5.72          24.59    1.10  -12.16          12.22   275.18
I2           4.25    4.29    8.65          24.61    1.58  -24.28          24.33   273.73
I3           4.35    4.29   12.04          24.62    2.90  -35.24          35.36   274.71
I4           4.58    4.43   20.76          25.05    4.21  -55.47          55.63   274.34
I5          14.23   14.59   15.41          45.07    1.01   -9.02           9.08   276.39
I6          14.26   14.50   19.63          44.95    1.72  -18.85          18.93   275.22
I7          14.26   14.39   24.44          44.79    2.39  -28.49          28.60   274.79
I8          14.55   14.53   35.36          44.98    3.36  -45.64          45.77   274.21
I9          40.24   41.39   37.49          70.44    1.03   -4.71           4.82   282.31
I10         40.22   41.39   41.56          70.44    0.98  -10.08          10.13   275.52
I11         40.36   41.28   45.29          70.37    1.73  -14.84          14.94   276.66
I12         40.84   41.62   54.49          70.61    2.20  -24.84          24.94   275.05
I13         20.60   31.00   46.38          62.50  -39.46  -29.70          49.39   216.97
I14         37.22   21.81   38.82          53.83   63.07  -35.15          72.21   330.87
I15         63.43   65.40    9.31          84.69    0.85   76.96          76.96   89.37
I16          5.34    5.53    4.53          28.20    0.02    0.23           0.27   99.38
I17         29.19   18.59    5.27          50.20   50.40   34.18          60.89   34.14
I18         13.43   23.38    7.72          55.46  -48.83   32.43          58.62   146.42
I19          9.41    7.20   27.32          32.25   22.24  -55.16          59.48   291.96
I20         42.49   46.23   16.05          73.69   -6.14   38.78          39.26   98.99
I21         10.81   14.50    3.39          44.95  -21.58   36.06          42.02   120.90
I22         28.34   36.51   17.19          66.91  -24.90   24.38          34.85   135.61
J1           2.13    1.88    2.97          14.86    7.27  -12.83          14.74   299.53
J2           2.43    1.87    4.91          14.77   13.92  -25.01          28.62   299.09
J3           2.82    1.87    7.90          14.81   21.21  -38.39          43.86   298.92
J4           3.68    1.86   16.44          14.75   35.78  -63.77          73.12   299.29
J5          11.63   11.24   12.27          39.98    5.79   -9.45          11.08   301.50
J6          12.21   11.05   15.92          39.67   11.11  -19.58          22.51   299.58
J7          13.02   11.09   20.23          39.73   16.27  -29.09          33.33   299.21
J8          15.06   11.18   32.26          39.89   28.36  -49.88          57.38   299.62
J9          41.21   41.42   37.92          70.47    3.90   -5.25           6.54   306.61
J10         41.92   41.45   41.10          70.49    5.97   -9.41          11.14   302.38
J11         42.82   41.32   45.05          70.40    9.06  -14.50          17.10   302.01
J12         44.56   41.19   54.05          70.31   14.55  -24.88          28.82   300.31
J13         16.52   26.03   42.47          58.06  -41.56  -32.58          52.81   218.09
J14         32.63   17.41   34.33          48.78   69.22  -37.61          78.78   331.48
J15         61.46   62.41    6.44          83.13    3.01   85.44          85.49   87.98
J16          2.94    3.01    2.52          20.09    0.66   -0.29           0.73   301.94
J17         25.08   14.69    2.98          45.20   55.37   39.44          67.98   35.46
J18          9.71   18.49    5.11          50.08  -52.24   34.81          62.77   146.32
J19          6.50    4.30   22.64          24.64   28.30  -59.88          66.23   295.29
J20         30.22   38.98   22.54          68.74  -25.61   16.33          30.38   147.47
J21          4.25    8.03    1.47          34.04  -39.04   33.99          51.77   138.96
J22          1.30    2.07    0.91          15.86  -18.24   10.34          20.97   150.45
K1           5.19    4.33    5.14          24.75   13.17   -9.04          15.97   325.55
K2           6.47    4.35    7.31          24.78   27.35  -18.83          33.21   325.44
K3           7.92    4.45    9.92          25.10   40.16  -27.84          48.86   325.26
K4           9.36    4.51   12.44          25.30   51.72  -35.22          62.58   325.75
K5          16.06   14.54   14.93          45.00   12.18   -7.96          14.56   326.83
K6          18.22   14.55   18.43          45.02   23.94  -16.14          28.88   326.01
K7          20.62   14.62   22.31          45.11   35.63  -23.97          42.95   326.07
K8          27.03   14.97   33.44          45.60   61.73  -41.80          74.55   325.89
K9          42.81   41.82   37.41          70.75    7.52   -4.07           8.56   331.59
K10         44.75   41.58   40.37          70.58   13.92   -8.31          16.21   329.18
K11         47.14   41.54   44.50          70.55   20.83  -13.57          24.86   326.92
K12         52.66   41.69   53.33          70.65   35.18  -23.52          42.31   326.24
K13         12.69   20.94   37.91          52.88  -42.59  -35.56          55.48   219.87
K14         28.51   13.94   30.09          44.15   73.83  -39.18          83.58   332.04
K15         58.93   58.60    4.20          81.07    5.90   93.27          93.46   86.38
K16          1.36    1.42    1.19          12.09   -0.16   -0.26           0.35   239.50
K17         21.35   11.58    1.47          40.54   58.81   45.24          74.20   37.57
K18          6.37   13.55    3.09          43.58  -54.68   35.84          65.38   146.75
K19          4.39    2.43   18.26          17.60   33.75  -63.04          71.51   298.16
K20          2.29    3.02    1.94          20.11  -11.93    4.95          12.92   157.47
K21          1.30    1.74    1.51          14.08  -10.65   -0.80          10.68   184.31
K22          1.65    2.12    2.86          16.13   -9.50   -9.80          13.65   225.89
L1           3.63    2.98    2.73          19.96   12.60   -2.17          12.79   350.23
L2           4.54    2.97    3.00          19.94   25.67   -4.32          26.03   350.44
L3           5.73    3.18    3.56          20.75   36.70   -6.78          37.32   349.54
L4           6.33    3.45    3.67          21.77   38.94   -5.76          39.36   351.58
L5          13.19   11.24   10.06          39.99   16.31   -2.63          16.52   350.85
L6          15.98   11.33   10.93          40.14   32.67   -5.15          33.07   351.04
L7          19.03   11.49   11.85          40.39   48.06   -7.51          48.64   351.12
L8          23.26   11.71   13.03          40.75   66.61  -10.25          67.39   351.25
L9          42.79   41.39   34.82          70.45    8.76   -0.96           8.81   353.78
L10         45.25   41.59   35.86          70.58   15.36   -2.20          15.52   351.84
L11         47.39   41.14   36.62          70.28   22.72   -3.80          23.03   350.51
L12         51.58   41.69   38.02          70.66   32.37   -5.06          32.76   351.12
L13          9.21   15.70   32.52          46.58  -41.15  -38.74          56.52   223.27
L14         24.18   10.87   25.48          39.36   76.65  -39.73          86.34   332.60
L15         51.58   48.90    2.16          75.39   11.97   98.22          98.94   83.05
L16          0.45    0.47    0.38           4.23    0.04    0.07           0.10   91.90
L17         16.41    8.25    0.50          34.50   59.43   50.03          77.69   40.09
L18          3.33    7.84    1.32          33.64  -51.12   35.16          62.05   145.48
L19          2.82    1.20   13.56          10.58   39.56  -63.73          75.01   301.83
L20          0.72    0.77    0.78           6.99   -1.04   -2.61           2.82   248.15
