targets/wolf_faust/reflective/R031124WhiteBacking.it8
IT8.7/2
ORIGINATOR "Wolf Faust"
DESCRIPTOR "L* a* b* Batch average data (light D50, viewing angle 2)"
MANUFACTURER "Wolf Faust - http://www.coloraid.de"
CREATED "April 27, 2004"
PROD_DATE "2003:11"
SAMPLE_BACKING "white"
SERIAL "5x7 R031124 Batch Average Data"
MATERIAL "Kodak Professional Digital 3"
NUMBER_OF_FIELDS 9
BEGIN_DATA_FORMAT
SAMPLE_ID   XYZ_X   XYZ_Y   XYZ_Z          LAB_L   LAB_A   LAB_B          LAB_C   LAB_H
END_DATA_FORMAT
NUMBER_OF_SETS 288
BEGIN_DATA
A1           3.34    2.81    2.00          19.26   11.05    2.91          11.43   14.77
A2           4.27    2.88    1.66          19.56   23.62    6.92          24.61   16.32 
A3           5.26    2.97    1.42          19.94   34.71   10.37          36.23   16.64
A4           5.81    3.24    1.54          20.97   36.66   10.73          38.19   16.32 
A5          12.57   10.94    7.83          39.48   14.42    4.43          15.08   17.10
A6          15.24   11.21    6.86          39.93   29.28    9.12          30.67   17.31 
A7          17.89   11.29    6.09          40.07   43.51   12.79          45.35   16.38
A8          22.04   11.71    4.98          40.75   61.12   19.40          64.13   17.61 
A9          42.03   41.07   32.43          70.23    7.43    2.18           7.75   16.34
A10         44.38   41.18   31.20          70.30   14.06    4.17          14.67   16.53
A11         46.92   41.26   29.80          70.36   21.06    6.47          22.03   17.07
A12         50.05   41.56   28.37          70.57   28.71    9.15          30.14   17.67 
A13         79.75   83.58   69.57          93.27   -1.65   -0.54           1.74   198.12
A14         79.68   82.13   69.18          92.63    0.96   -1.29           1.61   306.79 
A15         80.25   83.92   67.00          93.42   -1.31    2.07           2.45   122.35
A16         79.68   82.55   67.92          92.82    0.16    0.19           0.26   78.45
A17         79.22   81.94   67.05          92.55    0.41    0.53           0.67   51.54
A18         78.52   82.70   66.07          92.88   -2.41    2.02           3.14   140.00 
A19         78.28   81.13   68.92          92.19    0.11   -1.81           1.82   273.47
A20          1.30    1.06    0.72           9.44    9.45    2.68           9.82   15.82 
A21          5.13    3.26    0.77          21.05   28.33   21.84          35.77   37.63
A22         10.50    5.98    0.82          29.37   43.21   35.17          55.71   39.15
B1           3.23    2.82    1.58          19.32    8.84    7.36          11.51   39.78
B2           3.87    2.89    1.02          19.59   17.78   15.10          23.33   40.33
B3           4.59    2.97    0.61          19.94   26.26   22.84          34.80   41.01
B4           5.22    3.19    0.49          20.80   30.54   26.56          40.48   41.01
B5          12.83   11.05    5.86          39.66   15.38   13.14          20.22   40.51
B6          14.89   11.14    3.94          39.82   27.69   23.68          36.43   40.54
B7          17.68   11.37    2.30          40.20   41.80   36.22          55.31   40.91
B8          21.27   11.61    1.08          40.59   58.18   50.49          77.03   40.95
B9          41.62   40.88   29.97          70.09    6.78    5.73           8.88   40.23
B10         43.79   41.05   27.05          70.21   12.74   10.74          16.66   40.12
B11         46.68   41.66   24.19          70.64   19.16   16.52          25.30   40.76
B12         48.94   41.44   20.84          70.48   26.09   22.68          34.57   40.99
B13         72.59   78.41   68.17          90.97   -6.21   -3.24           7.01   207.50
B14         75.23   74.27   66.83          89.05    7.49   -5.30           9.18   324.69
B15         77.88   82.01   57.89          92.58   -2.37    9.50           9.79   104.03
B16         65.02   67.23   54.72          85.62    0.44    0.80           0.92   61.21
B17         72.31   72.03   55.71          87.98    6.06    3.83           7.17   32.31
B18         69.78   76.17   56.70          89.94   -7.72    6.17           9.89   141.37
B19         67.55   69.11   65.31          86.56    2.02   -8.17           8.42   283.87
B20          2.74    1.96    0.73          15.26   17.79   12.58          21.79   35.27
B21          8.56    4.99    0.80          26.72   38.93   30.99          49.76   38.52
B22         29.84   25.32   12.06          57.39   21.85   21.17          30.43   44.10
C1           4.34    4.17    2.17          24.22    4.53    9.91          10.90   65.43
C2           4.64    4.20    1.39          24.33    7.96   18.28          19.94   66.47
C3           5.49    4.64    0.83          25.70   12.60   28.78          31.42   66.35
C4           5.03    4.22    0.68          24.37   12.77   29.24          31.91   66.42
C5          24.12   22.90   10.90          54.97    9.15   20.49          22.44   65.94
C6          26.33   22.94    5.56          55.01   18.30   41.07          44.96   65.98
C7          28.65   23.02    2.39          55.09   27.22   61.11          66.90   65.99
C8          30.09   23.18    1.31          55.26   31.98   72.66          79.38   66.24
C9          48.35   48.43   33.01          75.10    4.57    9.69          10.72   64.74
C10         50.39   48.98   27.55          75.44    8.61   18.91          20.78   65.51
C11         52.07   49.17   22.31          75.56   12.53   28.54          31.17   66.30
C12         53.72   49.13   17.64          75.53   16.88   38.23          41.79   66.18
C13         62.12   70.35   65.73          87.17  -12.85   -7.52          14.89   210.32
C14         69.31   64.31   63.47          84.13   16.32  -10.61          19.47   326.97
C15         75.39   79.87   47.93          91.62   -3.26   18.69          18.97   99.90
C16         49.83   51.60   42.54          77.04    0.22    0.05           0.26   142.72
C17         64.40   60.93   44.21          82.34   13.18    7.12          14.98   28.39
C18         57.65   66.62   45.95          85.31  -15.47   10.14          18.50   146.75
C19         53.72   54.30   59.92          78.63    3.53  -16.60          16.97   282.00
C20          1.69    1.42    0.69          12.06    8.94    7.79          11.86   41.05
C21         23.54   17.64    4.74          49.05   32.07   34.99          47.47   47.50
C22         35.69   32.35   17.55          63.63   15.79   17.91          23.88   48.60
D1           3.98    4.16    2.21          24.20   -0.45    9.46           9.47   92.75
D2           3.99    4.20    1.40          24.32   -0.77   18.06          18.08   92.43
D3           4.67    4.97    0.95          26.64   -1.50   28.42          28.46   93.03
D4           3.98    4.18    0.76          24.25   -0.64   27.49          27.50   91.33
D5          26.93   28.04   14.06          59.92   -0.42   20.04          20.04   91.20
D6          27.05   28.26    7.69          60.12   -0.79   40.59          40.59   91.12
D7          26.67   28.10    3.65          59.98   -1.72   60.25          60.27   91.64
D8          26.66   28.25    1.78          60.12   -2.36   75.55          75.59   91.79
D9          55.37   57.41   38.91          80.41    0.04   10.55          10.55   89.80
D10         55.43   57.59   31.17          80.51   -0.26   21.82          21.82   90.69
D11         55.33   57.64   25.32          80.54   -0.62   31.56          31.56   91.12
D12         54.99   57.80    6.21          80.63   -1.87   82.17          82.19   91.30
D13         53.16   62.95   63.15          83.42  -18.52  -11.53          21.82   211.91
D14         63.36   55.07   59.62          79.08   24.88  -15.53          29.33   328.03
D15         73.13   77.69   38.86          90.64   -3.69   28.27          28.51   97.43
D16         37.82   39.13   32.38          68.84    0.29   -0.14           0.35   271.42
D17         57.11   51.14   34.23          76.76   20.08   10.77          22.79   28.22
D18         47.48   58.01   36.51          80.74  -22.17   14.40          26.44   147.00
D19         42.40   42.01   54.31          70.88    5.73  -24.18          24.85   283.34
D20         13.97   10.56    2.76          38.83   26.29   30.10          39.97   48.86
D21         21.85   21.13   11.89          53.09    7.01   14.27          15.90   63.82
D22         39.33   37.23   20.45          67.45   11.11   18.26          21.38   58.68
E1           3.69    4.21    2.26          24.34   -5.40    9.23          10.69   120.31
E2           3.36    4.17    1.44          24.23  -10.07   17.48          20.17   119.94
E3           3.62    4.92    0.98          26.50  -15.80   27.58          31.79   119.81
E4           3.12    4.22    0.84          24.39  -14.75   26.29          30.15   119.29
E5          12.43   14.14    7.61          44.43   -7.90   13.85          15.94   119.70
E6          11.25   14.06    4.59          44.32  -15.69   27.64          31.78   119.58
E7          10.27   14.12    2.60          44.41  -23.39   40.99          47.19   119.70
E8           9.41   14.02    1.50          44.26  -29.53   51.35          59.24   119.91
E9          38.05   40.79   28.38          70.03   -4.07    8.20           9.16   116.38
E10         36.89   41.03   24.27          70.19   -8.55   15.61          17.80   118.73
E11         35.36   40.95   19.99          70.14  -13.40   23.85          27.36   119.33
E12         30.93   40.78    9.54          70.02  -28.48   50.87          58.30   119.24
E13         44.86   55.61   60.16          79.39  -23.73  -15.54          28.36   213.21
E14         57.58   46.64   55.53          73.96   33.28  -20.16          38.91   328.80
E15         70.94   75.37   30.63          89.57   -3.65   38.29          38.46   95.44
E16         27.77   28.77   23.76          60.58    0.09   -0.04           0.18   210.45
E17         50.32   42.50   25.62          71.21   26.64   14.93          30.54   29.27
E18         38.29   49.65   28.20          75.86  -28.42   18.54          33.93   146.88
E19         32.84   31.77   48.50          63.15    8.00  -31.06          32.07   284.44
E20         25.22   17.12    1.23          48.41   42.13   61.79          74.79   55.71
E21         17.39   14.28    2.69          44.63   21.18   40.64          45.83   62.47
E22         30.24   25.93    8.25          57.97   20.86   34.71          40.49   58.99
F1           1.42    1.78    1.27          14.31   -8.04    2.50           8.42   162.72
F2           1.14    1.80    1.07          14.38  -17.18    5.44          18.02   162.42
F3           1.19    2.25    1.16          16.76  -25.69    8.17          26.95   162.36
F4           0.92    1.81    0.90          14.46  -25.29    8.25          26.60   161.94
F5           6.51    8.14    5.91          34.28  -13.12    3.64          13.62   164.51
F6           5.34    8.20    4.94          34.40  -26.60    8.65          27.98   161.99
F7           4.31    8.19    4.12          34.37  -39.70   13.17          41.83   161.65
F8           3.16    8.37    3.20          34.74  -58.72   19.82          61.97   161.35
F9          37.52   40.70   32.39          69.97   -5.50    1.78           5.79   162.07
F10         36.06   40.96   31.16          70.15  -11.10    3.97          11.79   160.31
F11         33.92   40.56   29.83          69.86  -17.15    5.57          18.03   162.00
F12         28.58   40.42   25.70          69.76  -36.32   12.30          38.34   161.29
F13         37.25   48.43   56.84          75.10  -28.51  -19.56          34.57   214.46
F14         52.04   39.17   51.28          68.87   41.26  -24.34          47.90   329.46
F15         69.04   73.13   23.92          88.51   -3.15   47.83          47.93   93.77
F16         19.75   20.47   17.05          52.37    0.03   -0.36           0.37   273.86
F17         44.18   35.02   18.72          65.76   33.03   18.99          38.10   29.90
F18         30.31   41.92   21.49          70.82  -34.23   21.96          40.67   147.31
F19         24.75   23.20   42.65          55.28   10.54  -37.61          39.06   285.66
F20         26.01   24.92   11.83          57.00    8.45   21.20          22.82   68.26
F21         34.26   30.91   10.86          62.44   16.05   33.51          37.16   64.41
F22         39.13   36.26   15.89          66.72   13.62   27.13          30.36   63.33
G1           2.26    2.85    2.58          19.42   -9.65   -1.91           9.83   191.19
G2           1.79    2.78    2.78          19.15  -19.14   -3.98          19.55   191.74
G3           1.52    2.94    3.09          19.80  -28.88   -5.21          29.35   190.23
G4           1.58    3.15    3.39          20.64  -30.98   -5.83          31.52   190.65
G5           9.00   11.03    9.87          39.62  -12.91   -2.64          13.18   191.58
G6           7.53   10.82   10.40          39.27  -24.54   -4.97          25.04   191.46
G7           6.24   10.81   10.91          39.26  -37.45   -6.60          38.03   190.00
G8           4.76   10.82   12.03          39.27  -54.86   -9.96          55.76   190.29
G9          37.76   40.97   34.57          70.16   -5.54   -1.11           5.65   191.27
G10         35.26   40.64   35.05          69.92  -12.83   -2.20          13.02   189.73
G11         33.46   40.58   35.77          69.88  -18.80   -3.29          19.08   189.93
G12         28.53   40.29   37.90          69.68  -36.12   -6.58          36.72   190.33
G13         30.62   41.79   53.25          70.73  -32.68  -23.30          40.14   215.48
G14         46.84   32.63   47.04          63.86   48.80  -28.13          56.33   330.04
G15         67.05   70.58   17.94          87.28   -2.19   57.82          57.86   92.17
G16         13.50   14.05   11.58          44.31   -0.30    0.05           0.36   176.84
G17         38.70   28.71   12.98          60.52   38.99   23.97          45.77   31.59
G18         23.49   34.85   15.73          65.63  -39.57   25.64          47.15   147.06
G19         18.29   16.46   37.12          47.57   13.29  -43.65          45.63   286.94
G20         36.25   34.67   14.42          65.49    9.61   28.69          30.26   71.48
G21         35.01   33.29    9.32          64.40   10.16   41.96          43.17   76.38
G22         47.69   43.61    2.80          71.97   16.23   86.90          88.40   79.42
H1           2.39    2.80    3.21          19.20   -5.93   -7.07           9.23   230.03
H2           2.15    2.85    4.31          19.42  -11.86  -13.69          18.12   229.09
H3           1.94    2.86    5.66          19.47  -16.84  -20.72          26.70   230.89
H4           1.97    3.05    6.51          20.24  -19.46  -23.30          30.36   230.13
H5           9.52   10.96   12.06          39.51   -8.19   -9.66          12.66   229.69
H6           8.50   10.84   15.24          39.31  -15.85  -18.54          24.39   229.47
H7           7.59   10.75   19.11          39.15  -23.41  -27.74          36.30   229.84
H8           6.66   10.81   25.24          39.25  -33.03  -39.49          51.48   230.09
H9          38.08   40.78   37.40          70.02   -3.95   -5.31           6.62   233.36
H10         36.66   40.65   41.02          69.93   -8.17  -10.28          13.13   231.51
H11         35.17   40.60   45.04          69.89  -13.01  -15.35          20.12   229.73
H12         32.82   40.60   53.07          69.89  -21.13  -24.54          32.38   229.27
H13         25.07   35.88   49.58          66.43  -36.15  -26.64          44.91   216.39
H14         41.67   26.66   42.53          58.65   56.24  -31.63          64.53   330.65
H15         65.20   67.98   13.09          86.00   -0.77   67.59          67.59   90.65
H16          8.70    9.04    7.43          36.06   -0.12    0.13           0.22   139.20
H17         33.61   23.13    8.49          55.21   44.96   29.06          53.53   32.88
H18         17.90   28.63   11.16          60.45  -44.31   29.15          53.04   146.65
H19         13.18   11.09   31.79          39.74   17.29  -49.42          52.36   289.29
H20         41.47   41.84   15.38          70.76    3.44   35.35          35.51   84.44
H21         31.00   32.07   20.29          63.40    0.28   11.61          11.61   88.62
H22         35.16   38.25   11.49          68.20   -5.72   41.53          41.92   97.85
I1           4.12    4.20    5.63          24.32    0.94  -12.20          12.24   274.40
I2           4.21    4.22    8.53          24.39    1.98  -24.23          24.31   274.67
I3           4.21    4.16   11.74          24.19    2.90  -35.13          35.24   274.72
I4           4.43    4.27   20.15          24.54    4.31  -55.10          55.27   274.47
I5          13.81   14.20   15.11          44.52    0.74   -9.22           9.25   274.56
I6          13.87   14.14   19.51          44.43    1.55  -19.49          19.56   274.54
I7          13.98   14.13   24.06          44.42    2.24  -28.44          28.52   274.51
I8          14.17   14.32   34.83          44.69    2.26  -45.39          45.44   272.85
I9          39.57   40.83   37.52          70.06    0.61   -5.41           5.45   276.46
I10         39.71   40.90   41.03          70.11    0.84   -9.99          10.02   274.80
I11         40.00   41.06   44.92          70.22    1.30  -14.65          14.71   275.05
I12         39.93   40.78   53.71          70.02    1.88  -25.00          25.07   274.29
I13         20.07   30.20   45.63          61.83  -39.14  -29.97          49.29   217.45
I14         36.92   21.62   38.15          53.62   62.97  -34.61          71.85   331.21
I15         63.30   65.17    9.24          84.57    1.07   76.99          77.00   89.21
I16          5.21    5.41    4.46          27.88   -0.13    0.03           0.20   200.64
I17         29.09   18.49    5.22          50.09   50.47   34.26          61.00   34.17
I18         13.12   22.90    7.63          54.97  -48.74   31.95          58.27   146.76
I19          9.19    7.03   26.79          31.88   22.01  -54.90          59.15   291.85
I20         41.86   45.82   15.86          73.43   -6.87   38.76          39.36   100.05
I21         10.61   14.28    3.44          44.63  -21.71   35.16          41.32   121.69
I22         27.71   35.92   17.20          66.46  -25.48   23.58          34.72   137.22
J1           2.05    1.81    2.90          14.43    7.32  -13.02          14.93   299.34
J2           2.35    1.81    4.78          14.48   13.60  -24.84          28.33   298.70
J3           2.74    1.81    7.79          14.47   21.31  -38.52          44.02   298.95
J4           3.54    1.80   15.88          14.39   35.13  -63.06          72.19   299.12
J5          11.32   10.98   12.20          39.54    5.45   -9.98          11.37   298.62
J6          12.07   11.00   15.77          39.59   10.54  -19.37          22.05   298.55
J7          12.83   10.93   19.86          39.47   16.16  -28.77          33.00   299.32
J8          14.63   10.89   31.59          39.40   27.92  -49.70          57.01   299.32
J9          40.73   40.95   37.37          70.14    3.85   -5.06           6.36   307.27
J10         41.34   40.86   40.58          70.08    6.02   -9.46          11.21   302.46
J11         42.44   41.12   44.68          70.26    8.54  -14.29          16.65   300.87
J12         44.47   41.16   53.73          70.29   14.36  -24.57          28.46   300.31
J13         16.11   25.37   41.78          57.43  -41.11  -32.80          52.59   218.58
J14         32.53   17.44   33.87          48.81   68.74  -36.89          78.01   331.78
J15         61.45   62.28    6.42          83.06    3.29   85.43          85.49   87.80
J16          2.92    3.03    2.52          20.15    0.02   -0.16           0.21   258.47
J17         25.11   14.73    2.98          45.27   55.22   39.54          67.92   35.60
J18          9.47   18.09    5.07          49.60  -52.03   34.16          62.25   146.71
J19          6.39    4.28   22.27          24.57   27.47  -59.29          65.34   294.85
J20         29.69   38.33   22.16          68.26  -25.58   16.25          30.31   147.59
J21          4.12    7.84    1.47          33.66  -39.21   33.43          51.53   139.55
J22          1.25    2.00    0.89          15.49  -18.15   10.14          20.78   150.81
K1           5.12    4.33    5.08          24.72   12.40   -8.77          15.18   324.72
K2           6.36    4.31    7.18          24.68   26.70  -18.48          32.48   325.31
K3           7.76    4.36    9.62          24.83   39.90  -27.30          48.34   325.62
K4           9.29    4.49   12.26          25.22   51.53  -34.84          62.20   325.94
K5          15.67   14.30   14.63          44.66   11.36   -7.75          13.75   325.68
K6          17.85   14.40   18.07          44.80   22.88  -15.74          27.77   325.48
K7          20.27   14.36   21.84          44.75   35.47  -23.67          42.64   326.28
K8          26.58   14.71   32.66          45.23   61.49  -41.26          74.05   326.14
K9          42.26   41.31   36.77          70.39    7.44   -3.82           8.37   332.86
K10         44.42   41.20   40.48          70.32   14.11   -8.91          16.69   327.73
K11         46.73   41.16   44.01          70.29   20.81  -13.42          24.76   327.18
K12         52.18   41.22   52.78          70.33   35.33  -23.47          42.41   326.41
K13         12.45   20.49   37.37          52.38  -42.03  -35.67          55.13   220.33
K14         28.19   13.80   29.37          43.94   73.47  -38.39          82.89   332.41
K15         59.03   58.57    4.21          81.05    6.23   93.18          93.39   86.18
K16          1.36    1.41    1.18          12.00    0.08   -0.31           0.34   278.98
K17         21.29   11.53    1.46          40.46   58.85   45.21          74.21   37.53
K18          6.29   13.36    3.08          43.30  -54.32   35.37          64.82   146.93
K19          4.29    2.37   17.80          17.31   33.55  -62.50          70.94   298.22
K20          2.27    2.98    1.87          19.96  -11.60    5.41          12.80   155.00
K21          1.25    1.69    1.44          13.76  -10.76   -0.58          10.78   183.10
K22          1.61    2.08    2.82          15.88   -9.62   -9.91          13.82   225.84
L1           3.50    2.85    2.66          19.44   12.76   -2.57          13.02   348.62
L2           4.43    2.91    2.96          19.69   25.29   -4.41          25.67   350.12
L3           5.67    3.15    3.27          20.63   36.58   -5.04          36.92   352.16
L4           6.19    3.38    3.59          21.52   38.48   -5.67          38.89   351.62
L5          12.77   10.93    9.82          39.46   15.85   -2.76          16.08   350.13
L6          15.78   11.25   10.78          40.00   32.10   -4.93          32.48   351.27
L7          18.78   11.33   11.66          40.14   47.85   -7.38          48.42   351.24
L8          23.11   11.63   12.92          40.63   66.49  -10.17          67.26   351.30
L9          42.42   40.99   34.85          70.17    8.86   -1.49           8.98   350.47
L10         45.22   41.40   35.88          70.46   15.81   -2.45          16.00   351.19
L11         47.55   41.32   36.35          70.40   22.59   -3.20          22.82   351.93
L12         51.23   41.31   37.59          70.39   32.58   -4.93          32.95   351.39
L13          8.98   15.26   31.89          45.99  -40.52  -38.80          56.11   223.76
L14         23.92   10.79   24.86          39.23   76.11  -38.85          85.46   332.96
L15         51.94   48.97    2.16          75.43   12.72   98.29          99.11   82.63
L16          0.46    0.48    0.39           4.32   -0.03    0.05           0.13   150.72
L17         16.47    8.28    0.51          34.56   59.44   49.94          77.64   40.03
L18          3.27    7.70    1.32          33.34  -50.76   34.70          61.49   145.65
L19          2.78    1.20   13.27          10.58   38.69  -62.93          73.87   301.59
L20          0.70    0.75    0.79           6.79   -1.13   -3.13           3.33   250.07
