targets/wolf_faust/reflective/R031126WhiteBacking.it8
IT8.7/2
ORIGINATOR "Wolf Faust"
DESCRIPTOR "L* a* b* Batch average data (light D50, viewing angle 2)"
MANUFACTURER "Wolf Faust - http://www.coloraid.de"
CREATED "February 02, 2004"
PROD_DATE "2003:11"
SAMPLE_BACKING "white"
SERIAL "5x7 R031126"
MATERIAL "Kodak Professional Digital 3"
NUMBER_OF_FIELDS 9
BEGIN_DATA_FORMAT
SAMPLE_ID   XYZ_X   XYZ_Y   XYZ_Z          LAB_L   LAB_A   LAB_B          LAB_C   LAB_H
END_DATA_FORMAT
NUMBER_OF_SETS 288
BEGIN_DATA
A1           3.47    2.93    2.07          19.74   10.98    3.04          11.39   15.48
A2           4.39    2.96    1.70          19.88   23.88    7.04          24.90   16.43 
A3           5.35    3.02    1.43          20.12   34.96   10.57          36.52   16.81
A4           5.84    3.25    1.54          21.03   36.69   10.80          38.24   16.40 
A5          12.91   11.24    7.98          39.98   14.48    4.71          15.23   18.03
A6          15.39   11.30    6.99          40.08   29.53    8.87          30.83   16.72 
A7          18.04   11.47    6.20          40.36   43.02   12.79          44.88   16.56
A8          22.03   11.65    5.10          40.65   61.50   18.59          64.25   16.82 
A9          42.44   41.45   32.83          70.49    7.56    2.02           7.83   14.98
A10         44.77   41.51   31.70          70.53   14.20    3.80          14.70   14.99
A11         47.04   41.42   30.31          70.47   20.91    5.85          21.71   15.65
A12         50.34   41.81   28.88          70.74   28.72    8.60          29.98   16.68 
A13         80.27   84.16   70.09          93.52   -1.71   -0.58           1.80   198.86
A14         80.16   82.69   69.72          92.88    0.83   -1.35           1.59   301.83 
A15         80.71   84.43   67.58          93.64   -1.37    1.92           2.36   125.65
A16         80.20   83.17   68.39          93.09    0.01    0.22           0.23   119.61
A17         79.75   82.57   67.38          92.83    0.25    0.70           0.74   69.51
A18         78.77   83.04   66.66          93.03   -2.55    1.72           3.08   146.00 
A19         78.61   81.53   69.35          92.37    0.00   -1.89           1.90   269.96
A20          1.34    1.07    0.72           9.54    9.95    2.83          10.35   15.85 
A21          5.28    3.35    0.79          21.40   28.63   21.99          36.10   37.53
A22         10.57    6.02    0.84          29.46   43.38   34.99          55.74   38.89
B1           3.32    2.90    1.64          19.64    9.04    7.30          11.62   38.90
B2           3.91    2.91    1.03          19.69   17.90   15.15          23.45   40.25
B3           4.62    2.99    0.62          20.00   26.43   22.85          34.94   40.86
B4           5.36    3.25    0.50          21.02   31.20   26.88          41.18   40.74
B5          13.02   11.21    5.89          39.93   15.44   13.46          20.48   41.08
B6          15.27   11.34    3.97          40.14   28.49   24.04          37.28   40.15
B7          17.80   11.43    2.38          40.30   42.00   35.78          55.18   40.43
B8          21.25   11.58    1.09          40.53   58.34   50.21          76.97   40.71
B9          42.31   41.62   30.65          70.61    6.63    5.56           8.65   39.94
B10         44.77   41.93   27.66          70.82   12.96   10.76          16.85   39.69
B11         46.69   41.75   24.65          70.70   18.93   15.79          24.65   39.83
B12         49.17   41.68   21.15          70.65   25.95   22.36          34.26   40.75
B13         72.71   78.71   68.60          91.10   -6.54   -3.39           7.37   207.41
B14         75.54   74.51   67.33          89.16    7.65   -5.57           9.47   323.94
B15         78.40   82.57   58.78          92.83   -2.40    9.01           9.33   104.90
B16         64.98   67.21   55.42          85.61    0.39    0.05           0.42   127.79
B17         72.44   72.06   56.36          88.00    6.27    3.18           7.04   26.87
B18         69.90   76.41   57.43          90.05   -7.96    5.61           9.74   144.86
B19         67.60   69.21   65.78          86.61    1.91   -8.53           8.74   282.62
B20          2.84    2.02    0.72          15.57   18.37   13.19          22.61   35.68
B21          8.67    5.05    0.80          26.89   39.10   31.28          50.07   38.66
B22         29.94   25.28   12.11          57.35   22.40   20.96          30.68   43.09
C1           4.40    4.24    2.23          24.46    4.24    9.72          10.60   66.45
C2           4.78    4.32    1.39          24.69    8.23   18.85          20.57   66.42
C3           5.66    4.74    0.85          25.99   13.38   28.91          31.86   65.18
C4           5.22    4.36    0.69          24.82   13.14   29.81          32.58   66.21
C5          24.35   23.10   11.04          55.18    9.22   20.43          22.42   65.72
C6          26.62   23.25    5.59          55.33   18.13   41.44          45.23   66.37
C7          28.89   23.26    2.40          55.34   27.09   61.49          67.19   66.22
C8          30.14   23.27    1.32          55.34   31.82   72.67          79.33   66.35
C9          48.88   49.04   33.86          75.47    4.40    9.09          10.10   64.17
C10         50.57   49.06   27.83          75.49    8.86   18.53          20.54   64.44
C11         52.28   49.34   22.53          75.66   12.62   28.29          30.97   65.95
C12         53.83   49.22   17.85          75.59   16.95   37.86          41.48   65.88
C13         62.83   71.10   66.37          87.53  -12.78   -7.49          14.81   210.36
C14         69.47   64.35   63.83          84.15   16.58  -10.92          19.85   326.62
C15         75.60   80.13   48.30          91.74   -3.35   18.47          18.77   100.29
C16         49.96   51.57   42.81          77.02    0.61   -0.31           0.71   333.81
C17         64.37   60.76   44.52          82.25   13.50    6.58          15.02   26.01
C18         58.26   67.24   46.52          85.63  -15.34   10.00          18.31   146.90
C19         54.14   54.56   60.39          78.79    3.93  -16.81          17.26   283.14
C20          1.69    1.41    0.70          12.03    9.05    7.53          11.77   39.75
C21         23.64   17.66    4.73          49.09   32.39   35.12          47.78   47.32
C22         35.95   32.54   17.81          63.78   15.99   17.60          23.78   47.75
D1           4.10    4.27    2.25          24.54   -0.23    9.68           9.68   91.34
D2           4.12    4.32    1.45          24.70   -0.56   18.17          18.18   91.78
D3           4.74    5.00    0.96          26.75   -1.07   28.43          28.45   92.15
D4           4.08    4.32    0.77          24.69   -1.10   27.99          28.01   92.26
D5          27.22   28.29   14.30          60.15   -0.22   19.78          19.78   90.64
D6          27.13   28.31    7.67          60.17   -0.65   40.72          40.73   90.92
D7          26.77   28.19    3.71          60.06   -1.66   60.03          60.05   91.59
D8          26.68   28.26    1.78          60.12   -2.30   75.53          75.57   91.74
D9          55.97   58.07   39.61          80.78   -0.05   10.26          10.26   90.26
D10         55.38   57.63   32.03          80.53   -0.48   20.55          20.55   91.33
D11         55.21   57.59   25.72          80.51   -0.81   30.80          30.81   91.51
D12         55.23   58.07    6.24          80.78   -1.90   82.29          82.31   91.32
D13         53.77   63.61   63.68          83.76  -18.47  -11.43          21.72   211.76
D14         63.66   55.36   60.04          79.25   24.81  -15.66          29.33   327.74
D15         73.27   77.89   39.22          90.73   -3.77   27.94          28.20   97.68
D16         38.10   39.37   32.73          69.02    0.44   -0.36           0.58   321.64
D17         57.18   51.19   34.56          76.80   20.09   10.36          22.60   27.28
D18         48.01   58.57   36.93          81.05  -22.04   14.35          26.30   146.92
D19         42.80   42.35   54.79          71.11    5.91  -24.28          24.99   283.68
D20         14.19   10.74    2.75          39.15   26.27   30.71          40.41   49.45
D21         22.08   21.31   11.93          53.29    7.27   14.48          16.21   63.33
D22         39.44   37.38   20.65          67.56   11.00   18.03          21.12   58.60
E1           3.79    4.31    2.33          24.67   -5.24    9.22          10.61   119.62
E2           3.44    4.25    1.47          24.48   -9.95   17.55          20.18   119.55
E3           3.70    4.99    1.01          26.71  -15.43   27.50          31.53   119.29
E4           3.07    4.21    0.85          24.34  -15.40   26.10          30.31   120.55
E5          12.60   14.34    7.73          44.72   -8.04   13.86          16.02   120.11
E6          11.56   14.37    4.62          44.76  -15.35   28.26          32.16   118.51
E7          10.37   14.26    2.61          44.60  -23.41   41.26          47.43   119.57
E8           9.60   14.26    1.51          44.60  -29.45   51.80          59.59   119.62
E9          38.49   41.11   29.24          70.26   -3.66    7.19           8.07   116.95
E10         37.17   41.24   24.39          70.35   -8.29   15.66          17.71   117.90
E11         35.71   41.24   20.40          70.34  -13.10   23.34          26.77   119.31
E12         31.20   41.10    9.63          70.25  -28.49   50.98          58.40   119.20
E13         45.33   56.17   60.68          79.71  -23.77  -15.50          28.37   213.10
E14         57.78   46.82   55.93          74.08   33.28  -20.38          39.02   328.52
E15         71.22   75.70   30.93          89.72   -3.72   38.07          38.25   95.59
E16         28.09   29.04   24.16          60.82    0.35   -0.35           0.50   317.89
E17         50.49   42.63   25.97          71.30   26.72   14.48          30.39   28.46
E18         38.72   50.15   28.64          76.16  -28.35   18.36          33.78   147.08
E19         33.18   32.05   48.94          63.38    8.21  -31.17          32.23   284.76
E20         25.44   17.33    1.26          48.68   41.92   61.87          74.74   55.88
E21         17.47   14.32    2.70          44.68   21.36   40.64          45.91   62.28
E22         30.33   25.90    8.18          57.95   21.31   34.93          40.92   58.61
F1           1.48    1.86    1.32          14.72   -8.27    2.62           8.68   162.45
F2           1.16    1.85    1.08          14.69  -17.69    5.78          18.61   161.90
F3           1.22    2.33    1.18          17.11  -26.24    8.51          27.59   162.03
F4           0.93    1.82    0.91          14.50  -25.23    8.07          26.49   162.25
F5           6.68    8.33    5.93          34.65  -12.95    4.20          13.61   162.04
F6           5.37    8.22    4.95          34.44  -26.48    8.68          27.87   161.86
F7           4.35    8.27    4.15          34.53  -39.81   13.30          41.98   161.52
F8           3.15    8.36    3.20          34.72  -58.74   19.72          61.96   161.44
F9          38.26   41.41   32.86          70.46   -5.26    1.93           5.61   159.87
F10         36.47   41.42   31.58          70.47  -11.13    3.88          11.78   160.77
F11         34.76   41.44   30.60          70.48  -16.92    5.42          17.77   162.24
F12         28.98   40.90   26.19          70.11  -36.25   12.04          38.20   161.63
F13         38.06   49.34   57.49          75.66  -28.32  -19.26          34.24   214.22
F14         52.29   39.38   51.73          69.02   41.25  -24.57          48.01   329.22
F15         69.32   73.47   24.24          88.67   -3.25   47.51          47.63   93.92
F16         20.13   20.76   17.35          52.68    0.57   -0.50           0.78   318.37
F17         44.30   35.10   18.95          65.83   33.10   18.60          37.97   29.33
F18         31.00   42.68   21.91          71.34  -33.93   22.05          40.46   146.98
F19         25.20   23.53   43.17          55.62   10.97  -37.68          39.24   286.23
F20         26.31   25.16   11.83          57.24    8.64   21.59          23.26   68.20
F21         34.49   31.05   11.01          62.55   16.36   33.24          37.05   63.80
F22         39.11   36.45   15.92          66.86   12.96   27.29          30.21   64.59
G1           2.30    2.90    2.65          19.64   -9.69   -2.16           9.93   192.56
G2           1.84    2.88    2.87          19.56  -19.62   -3.99          20.02   191.48
G3           1.53    2.97    3.12          19.93  -29.13   -5.21          29.59   190.15
G4           1.62    3.22    3.49          20.90  -31.07   -6.07          31.66   191.05
G5           9.07   11.06    9.99          39.68  -12.67   -2.94          13.00   193.07
G6           7.65   10.99   10.62          39.57  -24.70   -5.16          25.23   191.79
G7           6.36   10.92   11.36          39.45  -37.01   -7.68          37.80   191.73
G8           4.88   11.02   12.40          39.62  -54.75  -10.44          55.73   190.80
G9          38.12   41.36   35.00          70.43   -5.58   -1.25           5.72   192.64
G10         36.01   41.35   35.93          70.42  -12.41   -2.59          12.68   191.80
G11         34.22   41.35   36.38          70.42  -18.52   -3.21          18.80   189.84
G12         28.90   40.75   38.72          70.00  -36.07   -7.13          36.77   191.18
G13         31.02   42.30   53.73          71.08  -32.74  -23.21          40.13   215.33
G14         47.10   32.86   47.48          64.05   48.75  -28.33          56.38   329.84
G15         67.47   71.08   18.38          87.52   -2.34   57.25          57.30   92.34
G16         13.64   14.15   11.86          44.44    0.01   -0.55           0.56   268.42
G17         38.90   28.84   13.36          60.64   39.10   23.14          45.43   30.61
G18         23.75   35.21   16.13          65.91  -39.66   25.16          46.97   147.61
G19         18.51   16.62   37.51          47.78   13.52  -43.80          45.84   287.15
G20         36.44   35.02   14.74          65.77    9.05   28.35          29.76   72.31
G21         35.24   33.45    9.46          64.52   10.40   41.68          42.96   75.99
G22         47.66   43.68    2.80          72.01   15.96   86.97          88.42   79.60
H1           2.52    2.92    3.26          19.71   -5.52   -6.53           8.55   229.76
H2           2.16    2.83    4.32          19.37  -11.60  -13.84          18.06   230.02
H3           1.96    2.89    5.75          19.61  -17.00  -20.90          26.94   230.88
H4           2.03    3.11    6.78          20.49  -19.13  -24.02          30.71   231.47
H5           9.73   11.14   12.04          39.81   -7.78   -9.06          11.95   229.32
H6           8.69   11.00   15.41          39.58  -15.37  -18.49          24.05   230.26
H7           7.82   11.04   19.43          39.65  -23.45  -27.57          36.19   229.61
H8           6.74   10.98   25.41          39.55  -33.49  -39.29          51.63   229.56
H9          38.06   40.96   37.52          70.14   -4.55   -5.26           6.96   229.09
H10         37.38   41.44   40.99          70.48   -8.17   -9.29          12.38   228.68
H11         35.47   40.98   45.24          70.16  -13.13  -15.13          20.04   229.03
H12         33.01   40.78   53.39          70.02  -20.99  -24.67          32.39   229.61
H13         25.57   36.52   50.14          66.91  -36.13  -26.44          44.78   216.20
H14         41.84   26.75   42.89          58.74   56.38  -31.93          64.79   330.47
H15         65.52   68.42   13.51          86.21   -0.99   66.82          66.82   90.85
H16          8.93    9.17    7.70          36.30    0.78   -0.53           0.95   325.40
H17         33.71   23.16    8.81          55.24   45.17   27.94          53.11   31.74
H18         18.36   29.22   11.57          60.98  -44.14   28.81          52.71   146.87
H19         13.45   11.26   32.17          40.01   17.90  -49.54          52.67   289.87
H20         41.21   41.66   15.43          70.64    3.19   35.01          35.16   84.80
H21         31.22   32.25   20.47          63.55    0.45   11.49          11.50   87.74
H22         35.31   38.31   11.42          68.25   -5.41   41.82          42.17   97.37
I1           4.25    4.31    5.82          24.68    1.26  -12.50          12.57   275.76
I2           4.26    4.29    8.63          24.62    1.72  -24.17          24.23   274.07
I3           4.33    4.33   12.03          24.73    2.22  -35.05          35.12   273.63
I4           4.45    4.27   20.22          24.54    4.64  -55.27          55.47   274.80
I5          14.18   14.59   15.39          45.06    0.70   -9.00           9.03   274.43
I6          14.24   14.52   19.79          44.97    1.46  -19.14          19.20   274.35
I7          14.18   14.39   24.25          44.79    1.88  -28.16          28.22   273.82
I8          14.45   14.48   35.18          44.91    3.03  -45.50          45.60   273.81
I9          40.24   41.49   37.32          70.52    0.74   -4.35           4.42   279.66
I10         40.12   41.26   41.48          70.35    1.07  -10.13          10.19   276.04
I11         40.44   41.43   45.59          70.48    1.53  -15.01          15.09   275.80
I12         40.26   41.08   54.12          70.23    2.04  -25.09          25.17   274.64
I13         20.52   30.80   46.16          62.34  -39.15  -29.72          49.15   217.21
I14         37.44   22.05   38.83          54.08   62.71  -34.73          71.68   331.02
I15         63.63   65.60    9.49          84.79    0.86   76.53          76.53   89.36
I16          5.38    5.57    4.61          28.31    0.10   -0.03           0.19   235.73
I17         29.38   18.73    5.35          50.36   50.40   34.07          60.84   34.06
I18         13.45   23.36    7.81          55.44  -48.61   32.04          58.22   146.62
I19          9.43    7.24   27.25          32.35   21.91  -54.86          59.08   291.77
I20         42.08   45.99   16.10          73.54   -6.69   38.39          38.97   99.88
I21         10.67   14.38    3.44          44.77  -21.89   35.45          41.66   121.69
I22         27.94   36.16   17.39          66.64  -25.33   23.47          34.53   137.19
J1           2.13    1.89    2.93          14.89    7.10  -12.49          14.37   299.65
J2           2.45    1.88    4.99          14.87   14.01  -25.28          28.90   299.00
J3           2.80    1.86    7.94          14.75   21.24  -38.64          44.09   298.79
J4           3.65    1.88   16.25          14.83   34.91  -63.20          72.20   298.91
J5          11.46   11.12   12.42          39.78    5.38  -10.22          11.54   297.76
J6          12.17   11.04   15.94          39.65   10.92  -19.67          22.50   299.03
J7          13.18   11.20   20.39          39.92   16.56  -29.10          33.48   299.65
J8          15.01   11.20   32.11          39.91   27.98  -49.61          56.95   299.43
J9          41.19   41.48   37.67          70.51    3.66   -4.83           6.06   307.13
J10         41.90   41.51   41.32          70.53    5.75   -9.62          11.21   300.88
J11         42.56   41.23   45.16          70.33    8.57  -14.74          17.05   300.19
J12         44.58   41.32   54.09          70.40   14.24  -24.77          28.58   299.90
J13         16.26   25.61   42.06          57.67  -41.29  -32.75          52.70   218.42
J14         32.69   17.48   34.19          48.87   69.06  -37.26          78.47   331.65
J15         61.66   62.53    6.42          83.20    3.20   85.65          85.71   87.86
J16          2.89    2.98    2.49          19.97    0.34   -0.26           0.47   286.03
J17         25.19   14.77    2.97          45.32   55.36   39.69          68.12   35.64
J18          9.54   18.21    5.07          49.75  -52.15   34.47          62.51   146.54
J19          6.41    4.27   22.41          24.54   27.79  -59.61          65.77   294.99
J20         30.01   38.67   22.48          68.51  -25.43   16.05          30.06   147.75
J21          4.05    7.77    1.48          33.49  -39.59   33.01          51.55   140.18
J22          1.32    2.09    0.92          15.98  -18.37   10.47          21.14   150.32
K1           5.14    4.30    5.14          24.65   12.90   -9.19          15.84   324.53
K2           6.49    4.36    7.27          24.84   27.40  -18.57          33.10   325.87
K3           7.89    4.45    9.81          25.10   39.89  -27.46          48.42   325.46
K4           9.34    4.51   12.39          25.29   51.63  -35.12          62.44   325.78
K5          16.06   14.58   15.13          45.06   11.93   -8.35          14.57   325.01
K6          18.23   14.62   18.38          45.11   23.57  -15.87          28.41   326.04
K7          20.47   14.61   22.20          45.10   34.92  -23.77          42.25   325.76
K8          26.60   14.70   33.00          45.22   61.62  -41.80          74.46   325.85
K9          42.19   41.30   37.18          70.39    7.23   -4.38           8.45   328.77
K10         44.79   41.71   40.58          70.67   13.64   -8.42          16.04   328.32
K11         46.87   41.48   44.25          70.51   20.27  -13.34          24.26   326.66
K12         52.56   41.54   53.24          70.55   35.36  -23.59          42.51   326.29
K13         12.57   20.70   37.61          52.61  -42.21  -35.62          55.23   220.16
K14         28.61   14.06   29.98          44.31   73.54  -38.73          83.12   332.23
K15         59.06   58.63    4.19          81.09    6.14   93.34          93.54   86.24
K16          1.38    1.43    1.19          12.18   -0.13   -0.09           0.24   186.59
K17         21.49   11.67    1.48          40.68   58.81   45.41          74.30   37.67
K18          6.36   13.48    3.08          43.48  -54.33   35.70          65.01   146.69
K19          4.33    2.40   18.01          17.44   33.59  -62.74          71.17   298.16
K20          2.32    3.07    1.88          20.30  -12.20    5.85          13.53   154.40
K21          1.28    1.73    1.48          14.01  -10.95   -0.63          10.97   183.28
K22          1.63    2.10    2.88          16.00   -9.66  -10.18          14.04   226.51
L1           3.57    2.91    2.71          19.67   12.84   -2.56          13.10   348.74
L2           4.51    2.97    2.98          19.93   25.21   -4.19          25.56   350.57
L3           5.71    3.17    3.40          20.70   36.64   -5.81          37.09   351.00
L4           6.26    3.43    3.73          21.68   38.54   -6.31          39.05   350.71
L5          13.24   11.32   10.24          40.11   16.10   -3.03          16.39   349.35
L6          15.79   11.27   10.97          40.03   32.05   -5.46          32.51   350.33
L7          19.18   11.53   12.02          40.45   48.56   -7.90          49.20   350.76
L8          23.32   11.75   13.18          40.82   66.61  -10.56          67.44   350.99
L9          42.98   41.66   35.20          70.64    8.50   -1.18           8.59   352.11
L10         45.44   41.60   35.73          70.59   15.85   -2.00          15.97   352.80
L11         47.72   41.55   37.16          70.56   22.39   -4.05          22.76   349.74
L12         51.56   41.58   38.28          70.58   32.63   -5.54          33.10   350.37
L13          9.00   15.30   31.97          46.04  -40.62  -38.84          56.20   223.72
L14         24.12   10.87   25.20          39.36   76.43  -39.23          85.91   332.83
L15         51.83   49.01    2.17          75.46   12.32   98.20          98.97   82.85
L16          0.45    0.47    0.39           4.26   -0.09   -0.05           0.14   211.33
L17         16.45    8.27    0.51          34.54   59.47   49.90          77.63   40.00
L18          3.23    7.64    1.32          33.23  -50.93   34.50          61.52   145.88
L19          2.78    1.20   13.32          10.54   38.87  -63.13          74.14   301.62
L20          0.70    0.76    0.79           6.87   -1.20   -3.06           3.29   248.53
