targets/wolf_faust/reflective/R031125.it8
IT8.7/2
ORIGINATOR "Wolf Faust"
DESCRIPTOR "L* a* b* Batch average data (light D50, viewing angle 2)"
MANUFACTURER "Wolf Faust - http://www.coloraid.de"
CREATED "December 02, 2003"
PROD_DATE "2003:11"
SAMPLE_BACKING "black"
SERIAL "5x7 R031125"
MATERIAL "Kodak Professional Digital 3"
KEYWORD "MEAN_DE" # Mean Delta E of samples compared to batch average
NUMBER_OF_FIELDS 17
BEGIN_DATA_FORMAT
SAMPLE_ID   XYZ_X   XYZ_Y   XYZ_Z          LAB_L   LAB_A   LAB_B          LAB_C   LAB_H          STDEV_X  STDEV_Y  STDEV_Z          STDEV_L  STDEV_A  STDEV_B        MEAN_DE  STDEV_DE
END_DATA_FORMAT
NUMBER_OF_SETS 288
BEGIN_DATA
A1           3.44    2.87    2.02          19.52   11.46    3.18          11.89   15.54            0.02     0.02     0.01            0.09     0.25     0.11           0.26    0.28
A2           4.31    2.91    1.67          19.67   23.63    7.02          24.65   16.55            0.03     0.02     0.01            0.09     0.13     0.15           0.19    0.22 
A3           5.29    2.99    1.43          20.01   34.82   10.35          36.33   16.56            0.04     0.02     0.01            0.09     0.19     0.10           0.21    0.23
A4           5.86    3.27    1.52          21.09   36.66   11.19          38.33   16.97            0.04     0.03     0.01            0.11     0.15     0.14           0.22    0.23 
A5          12.68   10.96    7.91          39.51   15.02    4.19          15.59   15.59            0.07     0.07     0.05            0.12     0.15     0.14           0.21    0.24
A6          15.16   11.11    7.02          39.76   29.54    8.18          30.65   15.48            0.07     0.07     0.03            0.12     0.21     0.16           0.25    0.29 
A7          17.79   11.25    6.00          40.00   43.24   13.10          45.18   16.85            0.07     0.07     0.03            0.12     0.20     0.24           0.28    0.34
A8          21.70   11.52    5.09          40.45   60.82   18.31          63.52   16.76            0.07     0.06     0.03            0.09     0.09     0.19           0.20    0.23 
A9          41.86   40.97   32.46          70.16    7.24    2.01           7.52   15.50            0.20     0.20     0.17            0.14     0.12     0.17           0.23    0.25
A10         43.93   40.70   31.27          69.96   14.19    3.48          14.62   13.78            0.15     0.15     0.17            0.11     0.14     0.24           0.27    0.30
A11         46.79   41.16   29.92          70.29   20.98    6.17          21.86   16.38            0.09     0.11     0.12            0.08     0.12     0.17           0.19    0.22
A12         49.16   40.83   28.49          70.05   28.52    8.07          29.64   15.80            0.13     0.17     0.10            0.12     0.19     0.18           0.25    0.29 
A13         78.55   82.39   68.79          92.75   -1.76   -0.73           1.91   202.54            0.14     0.15     0.08            0.06     0.03     0.10           0.10    0.12
A14         78.38   80.89   68.38          92.08    0.77   -1.50           1.69   297.23            0.13     0.13     0.11            0.06     0.03     0.07           0.08    0.10 
A15         78.90   82.60   66.22          92.84   -1.46    1.80           2.32   129.18            0.11     0.12     0.11            0.05     0.02     0.12           0.11    0.13
A16         78.39   81.33   67.12          92.28   -0.05   -0.00           0.10   187.23            0.08     0.09     0.08            0.04     0.04     0.09           0.09    0.11
A17         78.00   80.79   66.36          92.04    0.21    0.28           0.36   53.05            0.18     0.18     0.14            0.08     0.04     0.08           0.11    0.12
A18         77.23   81.39   65.35          92.31   -2.50    1.70           3.02   145.86            0.08     0.09     0.08            0.04     0.04     0.09           0.08    0.10 
A19         77.05   79.92   68.17          91.65   -0.02   -2.06           2.06   269.49            0.10     0.11     0.08            0.05     0.03     0.06           0.07    0.08
A20          1.31    1.05    0.72           9.43    9.81    2.64          10.16   15.08            0.01     0.01     0.01            0.11     0.13     0.09           0.17    0.19 
A21          5.15    3.27    0.75          21.08   28.53   22.26          36.18   37.96            0.03     0.03     0.01            0.10     0.18     0.14           0.22    0.25
A22         10.42    5.93    0.82          29.25   43.11   34.97          55.51   39.04            0.07     0.05     0.01            0.12     0.11     0.12           0.17    0.20
B1           3.34    2.91    1.61          19.68    9.25    7.70          12.03   39.77            0.01     0.02     0.01            0.06     0.23     0.15           0.25    0.28
B2           3.91    2.91    1.00          19.68   17.95   15.55          23.75   40.91            0.02     0.02     0.01            0.10     0.13     0.12           0.18    0.20
B3           4.57    2.96    0.61          19.87   26.39   22.77          34.86   40.78            0.03     0.02     0.01            0.09     0.18     0.11           0.20    0.23
B4           5.31    3.23    0.48          20.93   31.08   26.96          41.14   40.94            0.03     0.02     0.00            0.08     0.14     0.10           0.17    0.19
B5          12.86   11.06    5.76          39.68   15.45   13.64          20.61   41.45            0.08     0.08     0.05            0.13     0.23     0.17           0.27    0.31
B6          14.79   11.02    3.85          39.61   27.94   23.91          36.78   40.55            0.07     0.06     0.03            0.10     0.19     0.11           0.21    0.24
B7          17.34   11.17    2.30          39.87   41.40   35.71          54.68   40.78            0.05     0.05     0.02            0.08     0.13     0.13           0.18    0.20
B8          20.79   11.35    1.06          40.16   57.79   49.95          76.38   40.84            0.08     0.06     0.01            0.10     0.09     0.14           0.18    0.20
B9          41.55   40.83   30.20          70.05    6.73    5.31           8.57   38.31            0.11     0.11     0.10            0.08     0.16     0.13           0.20    0.22
B10         43.83   41.05   26.80          70.21   12.84   11.17          17.02   41.03            0.09     0.11     0.11            0.08     0.11     0.13           0.17    0.19
B11         45.65   40.83   24.19          70.06   18.77   15.51          24.35   39.57            0.09     0.12     0.10            0.08     0.12     0.14           0.17    0.20
B12         48.16   40.86   20.79          70.08   25.68   22.10          33.88   40.71            0.11     0.16     0.12            0.11     0.20     0.16           0.25    0.28
B13         71.75   77.49   67.44          90.55   -6.16   -3.28           6.98   208.06            0.13     0.13     0.11            0.06     0.06     0.08           0.10    0.11
B14         74.10   73.26   66.18          88.57    7.24   -5.52           9.11   322.68            0.12     0.13     0.10            0.06     0.09     0.08           0.12    0.14
B15         76.67   80.81   57.43          92.05   -2.50    9.05           9.39   105.45            0.13     0.14     0.13            0.06     0.02     0.15           0.14    0.17
B16         64.23   66.46   54.41          85.23    0.33    0.46           0.57   53.63            0.13     0.13     0.14            0.06     0.08     0.12           0.13    0.16
B17         71.22   71.08   55.28          87.52    5.75    3.49           6.73   31.22            0.08     0.10     0.11            0.05     0.11     0.11           0.15    0.16
B18         68.99   75.29   56.38          89.53   -7.65    5.79           9.60   142.88            0.11     0.11     0.11            0.05     0.06     0.13           0.14    0.15
B19         66.85   68.42   64.83          86.22    1.94   -8.31           8.53   283.16            0.12     0.10     0.06            0.05     0.09     0.07           0.10    0.12
B20          2.83    2.01    0.71          15.52   18.42   13.41          22.79   36.06            0.02     0.02     0.01            0.11     0.12     0.12           0.19    0.20
B21          8.56    4.99    0.78          26.72   38.91   31.29          49.93   38.81            0.05     0.04     0.01            0.13     0.19     0.12           0.24    0.26
B22         29.53   25.03   11.94          57.11   21.93   21.05          30.40   43.82            0.12     0.12     0.07            0.12     0.16     0.12           0.20    0.23
C1           4.40    4.23    2.18          24.42    4.44   10.15          11.08   66.37            0.04     0.04     0.02            0.13     0.17     0.16           0.23    0.27
C2           4.78    4.30    1.36          24.65    8.49   19.17          20.96   66.11            0.04     0.03     0.01            0.09     0.18     0.09           0.21    0.22
C3           5.51    4.67    0.83          25.78   12.43   28.88          31.44   66.72            0.03     0.02     0.01            0.07     0.19     0.08           0.19    0.22
C4           5.15    4.29    0.67          24.61   13.25   29.74          32.56   65.98            0.05     0.04     0.01            0.13     0.13     0.16           0.22    0.25
C5          23.99   22.72   10.74          54.79    9.37   20.69          22.72   65.65            0.11     0.11     0.08            0.11     0.10     0.17           0.21    0.23
C6          26.17   22.86    5.54          54.93   18.02   40.98          44.77   66.27            0.07     0.05     0.03            0.06     0.13     0.15           0.18    0.21
C7          28.09   22.72    2.38          54.78   26.38   60.67          66.16   66.50            0.08     0.08     0.02            0.08     0.13     0.10           0.16    0.18
C8          29.86   23.11    1.30          55.19   31.44   72.60          79.11   66.58            0.08     0.08     0.01            0.09     0.14     0.08           0.16    0.18
C9          48.47   48.47   33.26          75.12    4.79    9.37          10.53   62.93            0.13     0.13     0.19            0.08     0.14     0.20           0.22    0.26
C10         49.78   48.50   27.19          75.14    8.27   19.00          20.72   66.48            0.16     0.15     0.12            0.09     0.12     0.14           0.18    0.21
C11         51.24   48.38   22.33          75.07   12.47   27.65          30.33   65.73            0.08     0.10     0.09            0.06     0.14     0.17           0.19    0.23
C12         52.66   48.21   17.31          74.96   16.64   37.98          41.47   66.34            0.07     0.08     0.09            0.05     0.10     0.19           0.19    0.22
C13         62.30   70.30   65.38          87.14  -12.33   -7.23          14.30   210.38            0.13     0.12     0.09            0.06     0.07     0.13           0.15    0.16
C14         68.35   63.54   62.91          83.73   15.97  -10.76          19.26   326.03            0.13     0.13     0.10            0.07     0.11     0.08           0.14    0.16
C15         74.04   78.53   47.26          91.02   -3.44   18.43          18.75   100.57            0.16     0.16     0.13            0.07     0.02     0.19           0.16    0.20
C16         49.70   51.33   42.07          76.88    0.56    0.36           0.67   32.81            0.10     0.12     0.13            0.07     0.10     0.12           0.15    0.17
C17         63.33   60.05   43.62          81.87   12.79    7.02          14.59   28.77            0.09     0.10     0.12            0.05     0.10     0.12           0.15    0.17
C18         57.64   66.36   45.48          85.18  -14.93   10.47          18.23   144.95            0.16     0.15     0.16            0.08     0.09     0.12           0.15    0.17
C19         53.93   54.32   59.72          78.65    4.00  -16.38          16.86   283.71            0.12     0.09     0.08            0.05     0.12     0.09           0.13    0.16
C20          1.70    1.41    0.68          12.01    9.36    7.83          12.20   39.92            0.02     0.03     0.01            0.17     0.17     0.14           0.24    0.28
C21         23.47   17.50    4.76          48.88   32.52   34.60          47.49   46.78            0.11     0.10     0.05            0.12     0.27     0.15           0.28    0.33
C22         35.27   31.92   17.53          63.28   15.88   17.36          23.52   47.56            0.14     0.15     0.09            0.12     0.16     0.10           0.18    0.22
D1           4.10    4.25    2.22          24.47    0.10    9.90           9.90   89.45            0.03     0.03     0.02            0.09     0.10     0.11           0.15    0.17
D2           4.06    4.25    1.41          24.49   -0.60   18.34          18.35   91.86            0.03     0.04     0.01            0.11     0.17     0.13           0.21    0.25
D3           4.66    4.92    0.93          26.51   -1.04   28.48          28.50   92.08            0.03     0.03     0.00            0.09     0.12     0.12           0.17    0.19
D4           4.03    4.23    0.75          24.42   -0.69   27.95          27.96   91.41            0.03     0.03     0.00            0.10     0.13     0.12           0.19    0.21
D5          26.98   28.09   14.19          59.97   -0.43   19.77          19.78   91.24            0.09     0.10     0.07            0.09     0.11     0.16           0.19    0.21
D6          26.78   27.91    7.62          59.81   -0.54   40.31          40.32   90.77            0.09     0.09     0.06            0.08     0.12     0.17           0.20    0.23
D7          26.59   28.08    3.70          59.96   -1.96   59.92          59.95   91.88            0.10     0.09     0.02            0.09     0.09     0.12           0.16    0.17
D8          26.33   27.89    1.75          59.79   -2.32   75.29          75.33   91.76            0.06     0.06     0.01            0.05     0.13     0.09           0.14    0.17
D9          54.93   56.96   39.04          80.16    0.03    9.95           9.95   89.82            0.07     0.07     0.16            0.04     0.08     0.20           0.18    0.21
D10         54.70   56.76   31.24          80.04   -0.07   20.91          20.91   90.20            0.09     0.10     0.15            0.05     0.05     0.19           0.17    0.20
D11         54.67   57.00   24.99          80.18   -0.73   31.52          31.52   91.33            0.14     0.14     0.14            0.08     0.11     0.18           0.19    0.22
D12         54.22   57.15    6.19          80.26   -2.24   81.62          81.65   91.57            0.12     0.11     0.03            0.06     0.08     0.12           0.15    0.16
D13         53.33   62.95   62.90          83.41  -18.07  -11.29          21.31   212.00            0.11     0.12     0.13            0.06     0.09     0.09           0.13    0.14
D14         62.65   54.64   59.23          78.83   24.29  -15.56          28.85   327.36            0.06     0.10     0.08            0.06     0.18     0.05           0.16    0.20
D15         71.92   76.52   38.67          90.10   -3.88   27.59          27.86   98.00            0.11     0.11     0.15            0.05     0.01     0.22           0.20    0.23
D16         37.93   39.22   32.38          68.91    0.40   -0.04           0.41   174.96            0.12     0.12     0.15            0.09     0.10     0.12           0.16    0.18
D17         56.38   50.67   34.25          76.48   19.49   10.26          22.03   27.75            0.09     0.13     0.10            0.08     0.14     0.12           0.17    0.20
D18         47.66   57.99   36.61          80.73  -21.60   14.24          25.87   146.60            0.13     0.14     0.12            0.08     0.07     0.14           0.15    0.18
D19         42.67   42.20   54.27          71.01    5.97  -23.90          24.63   284.01            0.17     0.18     0.09            0.12     0.15     0.15           0.22    0.24
D20         14.16   10.67    2.77          39.03   26.58   30.35          40.34   48.79            0.06     0.07     0.03            0.12     0.16     0.10           0.20    0.22
D21         21.84   21.04   11.80          52.99    7.39   14.36          16.15   62.77            0.09     0.10     0.05            0.11     0.12     0.13           0.19    0.21
D22         38.84   36.91   20.23          67.21   10.58   18.30          21.14   59.98            0.15     0.16     0.12            0.12     0.13     0.12           0.19    0.21
E1           3.74    4.26    2.27          24.51   -5.32    9.44          10.84   119.40            0.02     0.03     0.01            0.09     0.14     0.11           0.17    0.19
E2           3.39    4.20    1.44          24.33  -10.00   17.62          20.26   119.58            0.03     0.04     0.01            0.12     0.09     0.12           0.18    0.20
E3           3.67    4.97    1.00          26.66  -15.67   27.67          31.81   119.53            0.03     0.04     0.01            0.10     0.10     0.11           0.17    0.19
E4           3.16    4.26    0.83          24.51  -14.64   26.67          30.42   118.76            0.02     0.03     0.00            0.08     0.11     0.12           0.17    0.19
E5          12.51   14.21    7.63          44.53   -7.80   13.92          15.96   119.27            0.07     0.08     0.04            0.11     0.09     0.11           0.16    0.18
E6          11.52   14.30    4.62          44.65  -15.18   28.07          31.91   118.40            0.07     0.09     0.03            0.13     0.06     0.11           0.15    0.18
E7          10.34   14.16    2.55          44.47  -23.10   41.52          47.51   119.09            0.05     0.07     0.02            0.10     0.06     0.11           0.13    0.16
E8           9.63   14.25    1.49          44.60  -29.22   51.97          59.62   119.35            0.03     0.04     0.01            0.05     0.10     0.06           0.11    0.12
E9          38.31   40.97   28.56          70.15   -3.79    8.12           8.96   115.02            0.15     0.15     0.11            0.10     0.11     0.19           0.22    0.24
E10         36.72   40.80   24.17          70.04   -8.44   15.52          17.67   118.52            0.15     0.16     0.10            0.11     0.11     0.18           0.22    0.24
E11         35.57   40.89   20.15          70.10  -12.51   23.44          26.57   118.09            0.12     0.11     0.08            0.08     0.11     0.11           0.16    0.17
E12         30.84   40.59    9.38          69.88  -28.27   51.21          58.49   118.90            0.10     0.10     0.05            0.07     0.08     0.13           0.15    0.16
E13         45.14   55.75   60.02          79.47  -23.28  -15.26          27.83   213.24            0.10     0.11     0.10            0.06     0.08     0.08           0.12    0.13
E14         56.97   46.35   55.31          73.77   32.60  -20.25          38.38   328.16            0.12     0.14     0.13            0.09     0.12     0.07           0.14    0.17
E15         69.74   74.23   30.66          89.03   -3.90   37.31          37.51   95.96            0.09     0.10     0.08            0.05     0.02     0.17           0.15    0.18
E16         28.01   28.93   23.90          60.72    0.45   -0.04           0.47   209.52            0.12     0.11     0.12            0.10     0.18     0.11           0.20    0.23
E17         49.66   42.11   25.74          70.95   26.00   14.28          29.66   28.78            0.07     0.08     0.10            0.06     0.12     0.22           0.22    0.26
E18         38.57   49.78   28.33          75.93  -27.86   18.47          33.42   146.46            0.14     0.13     0.13            0.08     0.13     0.13           0.18    0.20
E19         33.13   31.99   48.60          63.34    8.24  -30.86          31.94   284.96            0.16     0.18     0.13            0.15     0.15     0.13           0.22    0.25
E20         24.64   16.83    1.23          48.04   41.23   61.26          73.84   56.06            0.09     0.09     0.01            0.12     0.15     0.12           0.19    0.23
E21         17.09   14.03    2.68          44.28   21.01   40.12          45.29   62.36            0.09     0.07     0.02            0.11     0.14     0.12           0.20    0.21
E22         29.92   25.65    8.12          57.70   20.83   34.73          40.50   59.05            0.13     0.14     0.07            0.13     0.13     0.16           0.21    0.24
F1           1.45    1.81    1.31          14.48   -8.03    2.29           8.35   164.07            0.01     0.01     0.01            0.08     0.14     0.12           0.18    0.20
F2           1.16    1.83    1.07          14.55  -17.23    5.67          18.14   161.78            0.01     0.01     0.01            0.06     0.14     0.07           0.15    0.17
F3           1.22    2.30    1.17          16.97  -25.63    8.44          26.99   161.77            0.01     0.02     0.01            0.09     0.09     0.12           0.15    0.18
F4           0.93    1.82    0.89          14.50  -25.08    8.38          26.44   161.53            0.01     0.02     0.01            0.10     0.15     0.13           0.21    0.23
F5           6.56    8.19    5.79          34.37  -13.01    4.35          13.72   161.52            0.04     0.05     0.03            0.10     0.11     0.11           0.16    0.19
F6           5.37    8.18    4.97          34.36  -26.08    8.44          27.41   162.06            0.04     0.05     0.03            0.10     0.12     0.10           0.17    0.19
F7           4.35    8.20    4.13          34.40  -39.24   13.21          41.40   161.40            0.02     0.04     0.02            0.08     0.12     0.07           0.15    0.16
F8           3.22    8.49    3.22          34.99  -58.80   20.10          62.14   161.13            0.02     0.04     0.02            0.08     0.07     0.19           0.19    0.22
F9          37.66   40.70   32.49          69.97   -5.05    1.63           5.31   162.13            0.13     0.13     0.14            0.09     0.16     0.14           0.20    0.23
F10         35.72   40.44   30.73          69.78  -10.66    4.01          11.39   159.40            0.14     0.14     0.16            0.10     0.14     0.13           0.20    0.21
F11         34.20   40.73   29.78          69.99  -16.70    5.87          17.70   160.63            0.14     0.15     0.12            0.10     0.11     0.11           0.16    0.19
F12         28.70   40.47   25.84          69.81  -36.02   12.12          38.01   161.40            0.12     0.12     0.12            0.08     0.14     0.15           0.20    0.23
F13         37.66   48.77   56.82          75.31  -28.09  -19.18          34.01   214.33            0.08     0.08     0.05            0.05     0.07     0.07           0.10    0.12
F14         51.47   38.89   51.16          68.67   40.65  -24.56          47.49   328.86            0.09     0.13     0.07            0.09     0.20     0.10           0.18    0.24
F15         67.77   71.92   23.66          87.93   -3.43   47.32          47.44   94.15            0.12     0.12     0.10            0.06     0.02     0.21           0.18    0.22
F16         19.98   20.66   16.99          52.58    0.27    0.14           0.36   89.06            0.09     0.10     0.09            0.11     0.18     0.18           0.24    0.27
F17         43.58   34.73   18.54          65.54   32.25   19.00          37.43   30.50            0.12     0.14     0.12            0.11     0.15     0.20           0.24    0.27
F18         30.59   42.09   21.36          70.93  -33.71   22.41          40.48   146.38            0.12     0.12     0.13            0.08     0.11     0.14           0.17    0.20
F19         25.11   23.48   42.91          55.57   10.82  -37.43          38.97   286.12            0.11     0.12     0.11            0.12     0.13     0.10           0.17    0.20
