targets/wolf_faust/reflective/R031124.it8
IT8.7/2
ORIGINATOR "Wolf Faust"
DESCRIPTOR "L* a* b* Batch average data (light D50, viewing angle 2)"
MANUFACTURER "Wolf Faust - http://www.coloraid.de"
CREATED "April 27, 2004"
PROD_DATE "2003:11"
SAMPLE_BACKING "black"
SERIAL "5x7 R031124 Batch Average Data"
MATERIAL "Kodak Professional Digital 3"
KEYWORD "MEAN_DE" # Mean Delta E of samples compared to batch average
NUMBER_OF_FIELDS 17
BEGIN_DATA_FORMAT
SAMPLE_ID   XYZ_X   XYZ_Y   XYZ_Z          LAB_L   LAB_A   LAB_B          LAB_C   LAB_H          STDEV_X  STDEV_Y  STDEV_Z          STDEV_L  STDEV_A  STDEV_B        MEAN_DE  STDEV_DE
END_DATA_FORMAT
NUMBER_OF_SETS 288
BEGIN_DATA
A1           3.32    2.79    1.99          19.19   11.05    2.90          11.43   14.72            0.02     0.02     0.02            0.09     0.15     0.07           0.17    0.19
A2           4.25    2.87    1.66          19.53   23.51    6.88          24.50   16.31            0.02     0.02     0.02            0.08     0.23     0.15           0.25    0.29 
A3           5.23    2.95    1.41          19.86   34.70   10.30          36.20   16.54            0.03     0.03     0.02            0.11     0.14     0.09           0.18    0.21
A4           5.78    3.23    1.53          20.93   36.50   10.68          38.03   16.32            0.05     0.03     0.01            0.13     0.22     0.17           0.27    0.31 
A5          12.53   10.90    7.81          39.42   14.36    4.42          15.03   17.12            0.05     0.05     0.04            0.08     0.20     0.17           0.24    0.27
A6          15.17   11.16    6.85          39.85   29.18    9.04          30.55   17.22            0.07     0.05     0.04            0.09     0.18     0.11           0.21    0.23 
A7          17.77   11.21    6.10          39.93   43.47   12.50          45.23   16.04            0.09     0.07     0.05            0.11     0.14     0.19           0.23    0.26
A8          21.84   11.62    4.97          40.60   60.84   19.17          63.79   17.49            0.11     0.08     0.04            0.13     0.08     0.19           0.22    0.24 
A9          41.73   40.81   32.23          70.04    7.34    2.15           7.65   16.36            0.13     0.14     0.15            0.10     0.12     0.12           0.17    0.20
A10         44.04   40.90   31.03          70.11   13.89    4.11          14.49   16.47            0.13     0.12     0.11            0.08     0.12     0.15           0.18    0.21
A11         46.53   40.98   29.67          70.16   20.80    6.34          21.74   16.96            0.15     0.15     0.13            0.11     0.10     0.10           0.16    0.17
A12         49.62   41.29   28.26          70.38   28.36    9.00          29.76   17.61            0.11     0.12     0.15            0.08     0.13     0.17           0.21    0.23 
A13         78.92   82.75   69.00          92.90   -1.72   -0.65           1.84   200.74            0.12     0.13     0.04            0.06     0.03     0.09           0.09    0.11
A14         78.83   81.30   68.65          92.27    0.86   -1.44           1.68   300.80            0.16     0.16     0.13            0.07     0.04     0.05           0.09    0.10 
A15         79.32   83.00   66.43          93.01   -1.39    1.90           2.35   126.19            0.14     0.15     0.10            0.06     0.02     0.08           0.09    0.10
A16         78.79   81.69   67.33          92.44    0.04    0.08           0.13   156.63            0.19     0.19     0.11            0.08     0.06     0.11           0.14    0.15
A17         78.36   81.11   66.47          92.18    0.29    0.43           0.53   54.90            0.16     0.17     0.11            0.07     0.06     0.13           0.13    0.16
A18         77.60   81.77   65.48          92.47   -2.47    1.87           3.10   142.98            0.14     0.15     0.12            0.07     0.03     0.08           0.10    0.11 
A19         77.39   80.25   68.35          91.80    0.02   -1.97           1.97   270.66            0.15     0.16     0.13            0.07     0.03     0.10           0.11    0.13
A20          1.30    1.05    0.72           9.43    9.40    2.70           9.79   16.03            0.01     0.01     0.01            0.08     0.11     0.08           0.14    0.16 
A21          5.10    3.25    0.77          21.00   28.23   21.77          35.65   37.64            0.03     0.02     0.01            0.08     0.15     0.18           0.21    0.25
A22         10.42    5.95    0.82          29.28   43.02   35.06          55.49   39.18            0.06     0.05     0.01            0.12     0.24     0.11           0.25    0.29
B1           3.22    2.81    1.58          19.29    8.85    7.30          11.47   39.49            0.02     0.02     0.01            0.09     0.17     0.09           0.19    0.21
B2           3.85    2.87    1.02          19.51   17.81   14.99          23.28   40.08            0.03     0.02     0.01            0.10     0.20     0.14           0.23    0.26
B3           4.56    2.95    0.61          19.85   26.26   22.71          34.71   40.86            0.03     0.02     0.01            0.10     0.19     0.13           0.22    0.25
B4           5.20    3.18    0.49          20.74   30.49   26.54          40.42   41.04            0.04     0.03     0.01            0.13     0.19     0.15           0.24    0.27
B5          12.79   11.01    5.86          39.60   15.34   13.06          20.14   40.40            0.05     0.05     0.02            0.08     0.11     0.12           0.17    0.19
B6          14.84   11.10    3.94          39.75   27.64   23.59          36.33   40.48            0.06     0.05     0.02            0.08     0.17     0.12           0.21    0.23
B7          17.57   11.33    2.30          40.13   41.55   36.16          55.08   41.03            0.05     0.06     0.02            0.09     0.17     0.15           0.23    0.25
B8          21.07   11.51    1.07          40.43   57.91   50.26          76.68   40.96            0.11     0.08     0.01            0.14     0.09     0.11           0.17    0.20
B9          41.31   40.61   29.88          69.90    6.67    5.56           8.68   39.83            0.15     0.16     0.13            0.11     0.08     0.10           0.15    0.17
B10         43.47   40.79   26.97          70.03   12.59   10.56          16.43   39.97            0.10     0.10     0.07            0.07     0.10     0.11           0.15    0.17
B11         46.26   41.36   24.03          70.43   18.90   16.46          25.06   41.06            0.12     0.14     0.12            0.09     0.09     0.16           0.19    0.21
B12         48.44   41.10   20.71          70.24   25.74   22.55          34.22   41.21            0.13     0.13     0.12            0.09     0.09     0.16           0.18    0.20
B13         71.81   77.56   67.58          90.58   -6.18   -3.36           7.04   208.52            0.07     0.07     0.06            0.03     0.06     0.08           0.09    0.11
B14         74.40   73.54   66.32          88.70    7.29   -5.43           9.09   323.36            0.09     0.08     0.08            0.04     0.04     0.09           0.09    0.11
B15         77.00   81.14   57.42          92.19   -2.46    9.31           9.63   104.81            0.13     0.13     0.13            0.06     0.02     0.15           0.13    0.16
B16         64.39   66.63   54.37          85.32    0.33    0.65           0.73   62.77            0.13     0.14     0.11            0.07     0.06     0.10           0.12    0.14
B17         71.53   71.34   55.38          87.65    5.86    3.60           6.88   31.54            0.14     0.14     0.11            0.07     0.04     0.08           0.10    0.12
B18         69.09   75.42   56.34          89.59   -7.69    5.94           9.72   142.35            0.12     0.12     0.11            0.06     0.06     0.10           0.11    0.13
B19         67.00   68.58   64.88          86.29    1.95   -8.23           8.46   283.33            0.10     0.11     0.10            0.05     0.07     0.07           0.10    0.12
B20          2.73    1.95    0.73          15.22   17.81   12.54          21.79   35.14            0.02     0.02     0.00            0.09     0.15     0.11           0.18    0.20
B21          8.51    4.96    0.80          26.63   38.84   30.89          49.62   38.49            0.03     0.03     0.01            0.08     0.08     0.10           0.13    0.15
B22         29.71   25.24   12.07          57.31   21.70   21.03          30.22   44.10            0.17     0.15     0.10            0.15     0.12     0.13           0.21    0.23
C1           4.33    4.17    2.16          24.23    4.40    9.96          10.88   66.17            0.04     0.05     0.02            0.15     0.11     0.14           0.20    0.24
C2           4.62    4.19    1.39          24.29    7.91   18.25          19.89   66.57            0.03     0.03     0.01            0.09     0.11     0.11           0.16    0.18
C3           5.45    4.61    0.82          25.60   12.57   28.71          31.34   66.36            0.03     0.03     0.01            0.09     0.18     0.10           0.19    0.22
C4           5.00    4.19    0.67          24.29   12.76   29.19          31.85   66.39            0.03     0.03     0.01            0.09     0.15     0.12           0.19    0.22
C5          23.98   22.77   10.87          54.84    9.11   20.37          22.31   65.90            0.08     0.08     0.05            0.08     0.10     0.08           0.14    0.15
C6          26.14   22.81    5.53          54.87   18.11   40.94          44.77   66.13            0.09     0.08     0.03            0.08     0.11     0.09           0.15    0.17
C7          28.47   22.90    2.38          54.97   27.02   61.00          66.72   66.11            0.14     0.14     0.02            0.15     0.14     0.12           0.21    0.23
C8          29.85   23.04    1.30          55.11   31.71   72.48          79.11   66.37            0.10     0.10     0.01            0.10     0.09     0.11           0.15    0.17
C9          47.94   48.08   32.84          74.88    4.39    9.58          10.54   65.40            0.23     0.23     0.19            0.14     0.11     0.15           0.22    0.23
C10         49.92   48.58   27.36          75.19    8.42   18.80          20.60   65.87            0.11     0.11     0.07            0.07     0.10     0.08           0.13    0.15
C11         51.59   48.79   22.23          75.32   12.28   28.29          30.84   66.54            0.08     0.09     0.09            0.06     0.08     0.14           0.15    0.17
C12         53.16   48.72   17.52          75.27   16.57   38.05          41.50   66.47            0.12     0.14     0.13            0.09     0.11     0.19           0.20    0.24
C13         61.56   69.69   65.20          86.85  -12.77   -7.57          14.84   210.68            0.13     0.12     0.10            0.06     0.09     0.05           0.10    0.12
C14         68.55   63.72   62.94          83.82   16.00  -10.63          19.21   326.40            0.20     0.19     0.20            0.10     0.11     0.09           0.15    0.18
C15         74.54   79.02   47.63          91.25   -3.37   18.39          18.70   100.37            0.16     0.16     0.17            0.07     0.03     0.12           0.13    0.14
C16         49.44   51.22   42.27          76.81    0.16   -0.01           0.18   160.91            0.19     0.19     0.15            0.11     0.06     0.10           0.14    0.16
C17         63.72   60.37   43.96          82.04   12.93    6.90          14.66   28.09            0.17     0.17     0.18            0.09     0.10     0.13           0.17    0.19
C18         57.20   66.07   45.67          85.03  -15.36    9.99          18.32   146.97            0.12     0.12     0.14            0.06     0.08     0.09           0.12    0.13
C19         53.33   53.91   59.52          78.41    3.48  -16.59          16.95   281.86            0.06     0.07     0.09            0.04     0.07     0.09           0.11    0.12
C20          1.69    1.41    0.69          12.05    8.89    7.79          11.83   41.23            0.01     0.01     0.01            0.08     0.10     0.06           0.13    0.14
C21         23.34   17.53    4.72          48.92   31.80   34.88          47.20   47.65            0.11     0.08     0.03            0.10     0.17     0.16           0.23    0.26
C22         35.47   32.18   17.53          63.49   15.62   17.71          23.61   48.60            0.15     0.15     0.13            0.12     0.09     0.16           0.21    0.22
D1           3.97    4.15    2.20          24.16   -0.46    9.52           9.53   92.75            0.03     0.03     0.01            0.10     0.13     0.10           0.17    0.19
D2           3.98    4.18    1.40          24.24   -0.65   18.03          18.04   92.07            0.03     0.03     0.01            0.10     0.13     0.10           0.18    0.19
D3           4.66    4.95    0.94          26.60   -1.52   28.39          28.43   93.07            0.03     0.03     0.01            0.07     0.12     0.13           0.17    0.19
D4           3.96    4.15    0.75          24.16   -0.61   27.45          27.46   91.27            0.03     0.03     0.01            0.10     0.12     0.15           0.19    0.22
D5          26.74   27.86   13.97          59.76   -0.51   19.98          19.99   91.47            0.11     0.10     0.06            0.09     0.09     0.11           0.15    0.17
D6          26.89   28.12    7.64          59.99   -0.89   40.53          40.54   91.26            0.11     0.11     0.04            0.10     0.14     0.08           0.16    0.18
D7          26.57   28.02    3.63          59.90   -1.80   60.24          60.26   91.71            0.12     0.12     0.02            0.11     0.10     0.13           0.18    0.20
D8          26.52   28.13    1.77          60.00   -2.45   75.46          75.50   91.86            0.14     0.13     0.01            0.12     0.13     0.15           0.20    0.23
D9          54.89   56.95   38.74          80.15   -0.05   10.34          10.34   90.29            0.22     0.22     0.18            0.13     0.08     0.12           0.17    0.19
D10         55.00   57.19   31.04          80.29   -0.36   21.64          21.64   90.95            0.13     0.14     0.10            0.08     0.08     0.10           0.14    0.15
D11         54.87   57.22   25.21          80.31   -0.77   31.35          31.36   91.40            0.09     0.09     0.08            0.05     0.10     0.16           0.17    0.20
D12         54.43   57.29    6.17          80.34   -2.05   81.84          81.87   91.43            0.09     0.10     0.03            0.05     0.06     0.10           0.12    0.13
D13         52.77   62.43   62.65          83.14  -18.37  -11.51          21.68   212.09            0.11     0.10     0.03            0.05     0.07     0.09           0.11    0.13
D14         62.72   54.57   59.18          78.80   24.62  -15.58          29.13   327.67            0.11     0.12     0.13            0.07     0.12     0.12           0.16    0.18
D15         72.31   76.90   38.59          90.27   -3.82   27.99          28.25   97.77            0.14     0.15     0.16            0.07     0.02     0.18           0.16    0.20
D16         37.54   38.86   32.21          68.65    0.23   -0.23           0.35   313.89            0.16     0.15     0.14            0.11     0.15     0.12           0.20    0.22
D17         56.53   50.70   34.06          76.50   19.77   10.57          22.42   28.13            0.17     0.18     0.16            0.11     0.09     0.11           0.17    0.19
D18         47.13   57.55   36.30          80.49  -22.03   14.26          26.25   147.09            0.17     0.14     0.14            0.08     0.15     0.15           0.20    0.22
D19         42.12   41.75   53.98          70.70    5.68  -24.14          24.79   283.23            0.08     0.08     0.09            0.06     0.08     0.11           0.13    0.15
D20         13.90   10.50    2.74          38.73   26.29   30.04          39.92   48.81            0.08     0.06     0.02            0.11     0.18     0.11           0.21    0.24
D21         21.78   21.06   11.90          53.01    7.03   14.11          15.77   63.52            0.10     0.09     0.08            0.10     0.12     0.15           0.19    0.21
D22         39.07   37.03   20.38          67.30   10.93   18.13          21.17   58.91            0.15     0.15     0.13            0.11     0.09     0.14           0.18    0.20
E1           3.68    4.20    2.26          24.31   -5.43    9.20          10.68   120.58            0.03     0.03     0.02            0.10     0.13     0.09           0.17    0.19
E2           3.34    4.15    1.44          24.16  -10.07   17.42          20.12   120.04            0.02     0.02     0.01            0.07     0.06     0.09           0.11    0.13
E3           3.61    4.91    0.98          26.46  -15.71   27.61          31.76   119.64            0.02     0.03     0.01            0.08     0.08     0.11           0.15    0.17
E4           3.10    4.20    0.84          24.31  -14.76   26.23          30.10   119.37            0.02     0.03     0.01            0.09     0.12     0.15           0.18    0.21
E5          12.40   14.10    7.59          44.38   -7.88   13.84          15.92   119.65            0.03     0.04     0.04            0.05     0.08     0.11           0.13    0.15
E6          11.22   14.02    4.57          44.27  -15.63   27.67          31.78   119.47            0.06     0.07     0.03            0.10     0.09     0.13           0.16    0.18
E7          10.26   14.09    2.59          44.37  -23.30   40.98          47.14   119.62            0.05     0.06     0.02            0.09     0.07     0.07           0.12    0.13
E8           9.40   13.99    1.49          44.22  -29.47   51.36          59.21   119.85            0.04     0.06     0.01            0.09     0.10     0.15           0.17    0.20
E9          37.81   40.56   28.26          69.87   -4.14    8.12           9.12   117.03            0.15     0.15     0.14            0.10     0.09     0.12           0.16    0.18
E10         36.62   40.75   24.14          70.00   -8.58   15.50          17.72   118.97            0.06     0.08     0.08            0.05     0.06     0.12           0.12    0.15
E11         35.14   40.70   19.89          69.97  -13.38   23.76          27.27   119.39            0.11     0.10     0.08            0.07     0.14     0.13           0.18    0.20
E12         30.77   40.55    9.52          69.86  -28.39   50.66          58.08   119.27            0.11     0.12     0.03            0.08     0.08     0.12           0.15    0.17
E13         44.51   55.13   59.72          79.12  -23.57  -15.56          28.25   213.44            0.14     0.13     0.08            0.07     0.09     0.11           0.14    0.16
E14         57.07   46.35   55.23          73.77   32.86  -20.17          38.56   328.46            0.13     0.16     0.10            0.10     0.17     0.17           0.23    0.26
E15         70.17   74.63   30.45          89.22   -3.79   37.96          38.15   95.70            0.14     0.13     0.11            0.06     0.02     0.17           0.15    0.18
E16         27.63   28.64   23.68          60.46    0.04   -0.07           0.18   247.89            0.14     0.13     0.10            0.12     0.16     0.08           0.19    0.21
E17         49.86   42.20   25.57          71.01   26.28   14.69          30.11   29.21            0.15     0.16     0.13            0.11     0.12     0.14           0.20    0.22
E18         38.03   49.29   28.09          75.63  -28.27   18.33          33.70   147.04            0.10     0.08     0.10            0.05     0.12     0.15           0.18    0.20
E19         32.69   31.63   48.24          63.04    7.97  -30.95          31.96   284.44            0.14     0.14     0.13            0.12     0.09     0.13           0.18    0.19
E20         25.01   17.00    1.23          48.26   41.91   61.61          74.52   55.78            0.06     0.05     0.01            0.07     0.12     0.08           0.15    0.16
E21         17.25   14.18    2.68          44.49   21.04   40.50          45.64   62.55            0.07     0.06     0.02            0.08     0.09     0.09           0.14    0.15
E22         30.01   25.77    8.20          57.82   20.65   34.65          40.34   59.20            0.10     0.11     0.06            0.10     0.11     0.14           0.18    0.21
F1           1.41    1.78    1.27          14.27   -8.08    2.44           8.44   163.22            0.02     0.02     0.02            0.13     0.10     0.08           0.16    0.19
F2           1.13    1.79    1.06          14.34  -17.16    5.42          17.99   162.46            0.01     0.01     0.01            0.07     0.07     0.08           0.12    0.13
F3           1.19    2.25    1.16          16.74  -25.59    8.13          26.85   162.38            0.02     0.02     0.01            0.10     0.11     0.07           0.15    0.17
F4           0.92    1.81    0.89          14.48  -25.28    8.29          26.60   161.84            0.01     0.01     0.01            0.08     0.11     0.13           0.17    0.19
F5           6.49    8.12    5.89          34.22  -13.09    3.61          13.57   164.59            0.03     0.04     0.04            0.08     0.12     0.09           0.14    0.17
F6           5.34    8.20    4.94          34.39  -26.57    8.63          27.93   162.01            0.02     0.02     0.01            0.04     0.10     0.09           0.11    0.14
F7           4.29    8.15    4.09          34.30  -39.59   13.24          41.74   161.50            0.03     0.04     0.03            0.09     0.11     0.08           0.14    0.16
F8           3.16    8.35    3.19          34.70  -58.60   19.78          61.85   161.35            0.02     0.04     0.03            0.08     0.07     0.18           0.18    0.21
F9          37.27   40.44   32.25          69.78   -5.53    1.67           5.78   163.20            0.11     0.11     0.15            0.08     0.10     0.13           0.16    0.18
F10         35.83   40.70   31.00          69.96  -11.08    3.91          11.75   160.57            0.14     0.12     0.13            0.08     0.15     0.12           0.18    0.21
F11         33.72   40.32   29.61          69.69  -17.09    5.64          18.00   161.75            0.10     0.11     0.09            0.08     0.09     0.11           0.16    0.17
F12         28.48   40.22   25.67          69.62  -36.09   12.12          38.07   161.44            0.13     0.14     0.12            0.10     0.11     0.15           0.19    0.21
F13         36.98   48.04   56.40          74.85  -28.32  -19.53          34.41   214.59            0.16     0.17     0.10            0.10     0.08     0.11           0.14    0.17
F14         51.55   38.87   51.01          68.65   40.92  -24.42          47.65   329.18            0.12     0.13     0.09            0.09     0.12     0.15           0.17    0.21
F15         68.23   72.35   23.72          88.14   -3.32   47.55          47.67   93.99            0.15     0.15     0.14            0.07     0.03     0.23           0.20    0.24
F16         19.64   20.38   16.97          52.26   -0.05   -0.36           0.39   263.68            0.10     0.09     0.08            0.11     0.13     0.09           0.16    0.19
F17         43.77   34.77   18.69          65.57   32.67   18.73          37.66   29.83            0.15     0.14     0.14            0.11     0.08     0.19           0.21    0.24
F18         30.18   41.69   21.43          70.66  -34.05   21.81          40.44   147.36            0.13     0.14     0.13            0.10     0.10     0.15           0.18    0.20
F19         24.60   23.06   42.42          55.14   10.51  -37.57          39.01   285.63            0.09     0.09     0.05            0.09     0.07     0.11           0.13    0.16
