targets/wolf_faust/reflective/R040807WhiteBacking.it8
IT8.7/2
ORIGINATOR "Wolf Faust"
DESCRIPTOR "Kodak Professional Paper, L* a* b* (light D50, viewing angle 2)"
MANUFACTURER "Wolf Faust - http://www.coloraid.de"
CREATED "November 09, 2004"
PROD_DATE "2004:08"
SAMPLE_BACKING "white"
SERIAL "5x7 R040807 Batch Average Data"
MATERIAL "Kodak Professional Digital 3"
NUMBER_OF_FIELDS 9
BEGIN_DATA_FORMAT
SAMPLE_ID   XYZ_X   XYZ_Y   XYZ_Z          LAB_L   LAB_A   LAB_B          LAB_C   LAB_H
END_DATA_FORMAT
NUMBER_OF_SETS 288
BEGIN_DATA
A1           3.40    2.83    1.92          19.36   11.54    3.93          12.19   18.78
A2           4.34    2.91    1.61          19.67   24.12    7.67          25.31   17.64 
A3           5.43    3.01    1.32          20.10   36.10   11.86          38.00   18.18
A4           5.98    3.28    1.39          21.13   37.87   12.71          39.94   18.55 
A5          12.76   11.06    7.47          39.69   14.80    6.22          16.05   22.79
A6          15.26   11.09    6.47          39.74   30.20   10.50          31.97   19.18 
A7          18.11   11.39    5.61          40.23   43.98   15.34          46.58   19.23
A8          21.66   11.51    4.72          40.42   60.75   20.20          64.02   18.39 
A9          42.54   41.60   31.17          70.59    7.38    4.73           8.77   32.68
A10         44.57   41.12   30.03          70.26   14.78    5.94          15.93   21.89
A11         47.19   41.31   28.68          70.40   21.64    8.35          23.19   21.10
A12         49.46   41.12   27.53          70.26   28.44   10.01          30.15   19.39 
A13         77.35   81.71   63.60          92.44   -2.85    3.60           4.59   128.38
A14         77.87   80.58   63.35          91.95    0.33    2.98           3.00   83.68 
A15         78.93   82.82   62.72          92.93   -1.82    5.30           5.60   109.00
A16         77.24   80.17   63.21          91.76   -0.12    2.80           2.81   92.35
A17         77.49   80.22   62.20          91.78    0.28    3.82           3.83   85.85
A18         77.01   81.44   61.96          92.33   -3.03    5.00           5.85   121.26 
A19         76.37   79.53   63.08          91.47   -0.63    2.43           2.51   104.56
A20          1.27    1.03    0.69           9.20    9.34    2.81           9.76   16.75 
A21          5.18    3.25    0.74          21.03   29.06   22.21          36.58   37.39
A22         10.52    5.94    0.80          29.26   43.87   35.30          56.31   38.82
B1           3.30    2.87    1.52          19.52    9.18    8.47          12.49   42.72
B2           3.92    2.90    0.99          19.62   18.32   15.69          24.12   40.56
B3           4.57    2.95    0.61          19.84   26.50   22.74          34.92   40.63
B4           5.30    3.25    0.53          21.00   30.55   26.24          40.27   40.67
B5          12.96   11.09    5.46          39.73   15.87   15.18          21.96   43.72
B6          15.10   11.15    3.71          39.83   28.85   25.15          38.27   41.08
B7          17.79   11.39    2.20          40.22   42.30   37.17          56.31   41.30
B8          21.18   11.67    1.12          40.69   57.30   49.98          76.04   41.10
B9          41.98   41.26   29.04          70.36    6.72    7.69          10.22   48.86
B10         44.44   41.47   25.85          70.50   13.37   13.32          18.87   44.89
B11         46.58   41.38   22.77          70.44   19.72   18.83          27.27   43.67
B12         48.54   41.21   19.97          70.33   25.65   24.21          35.28   43.35
B13         70.39   76.60   62.54          90.14   -7.28    0.65           7.31   174.87
B14         73.03   72.14   61.05          88.03    7.35   -1.52           7.50   348.32
B15         77.43   81.58   56.64          92.39   -2.44   10.46          10.74   103.11
B16         63.40   65.45   53.01          84.71    0.66    1.07           1.27   58.19
B17         71.21   70.60   54.11          87.29    6.72    4.34           8.00   32.82
B18         68.74   75.27   55.26          89.52   -8.16    6.96          10.72   139.55
B19         65.13   66.88   59.64          85.44    1.43   -4.58           4.80   287.37
B20          2.77    1.97    0.70          15.32   18.18   13.15          22.44   35.88
B21          8.70    5.03    0.77          26.82   39.67   31.79          50.84   38.71
B22         29.84   24.99   11.18          57.06   23.27   23.24          32.88   44.97
C1           4.44    4.26    2.13          24.51    4.60   10.77          11.71   66.88
C2           4.71    4.24    1.32          24.46    8.38   19.41          21.14   66.65
C3           5.62    4.74    0.84          25.98   12.89   29.04          31.77   66.06
C4           5.04    4.26    0.75          24.52   12.31   28.20          30.77   66.42
C5          24.09   22.70   10.11          54.76    9.90   22.69          24.76   66.43
C6          26.47   22.96    5.22          55.03   18.81   42.77          46.72   66.26
C7          28.92   23.11    2.32          55.18   27.87   61.95          67.93   65.78
C8          30.48   23.47    1.42          55.55   32.19   71.77          78.66   65.84
C9          49.47   49.48   32.38          75.75    4.80   11.77          12.72   67.81
C10         50.72   49.01   26.37          75.46    9.39   20.96          22.97   65.85
C11         51.91   48.69   21.08          75.26   13.41   30.43          33.26   66.22
C12         53.16   48.53   17.07          75.16   17.08   38.90          42.48   66.29
C13         60.98   69.30   60.68          86.65  -13.29   -3.53          13.75   194.88
C14         67.15   62.34   58.01          83.10   16.06   -6.98          17.52   336.51
C15         74.72   79.18   45.73          91.31   -3.29   20.75          21.01   99.01
C16         48.87   50.28   40.23          76.24    1.04    1.64           1.95   57.39
C17         62.94   59.19   41.82          81.40   13.92    8.48          16.30   31.34
C18         57.36   66.19   43.84          85.09  -15.22   12.32          19.58   141.02
C19         52.41   52.89   55.29          77.81    3.71  -13.27          13.78   285.61
C20          1.65    1.39    0.69          11.87    8.76    7.53          11.55   40.69
C21         23.54   17.44    4.42          48.81   33.12   36.37          49.19   47.69
C22         35.74   32.13   16.43          63.45   16.72   20.20          26.22   50.38
D1           4.00    4.17    2.10          24.21   -0.23   10.52          10.53   91.25
D2           4.06    4.25    1.37          24.48   -0.55   18.81          18.82   91.68
D3           4.62    4.86    0.95          26.34   -0.87   27.91          27.93   91.80
D4           3.99    4.21    0.83          24.36   -1.07   26.34          26.36   92.32
D5          26.96   27.95   13.03          59.85    0.04   22.66          22.66   89.89
D6          27.03   28.10    7.22          59.98   -0.25   42.21          42.21   90.34
D7          26.82   28.13    3.52          60.01   -1.25   61.19          61.20   91.17
D8          27.16   28.68    1.94          60.50   -2.01   74.56          74.59   91.54
D9          55.99   58.00   38.22          80.74    0.15   12.06          12.06   89.27
D10         56.09   58.13   30.10          80.81    0.09   24.03          24.03   89.78
D11         55.76   57.88   23.70          80.67   -0.11   34.72          34.72   90.19
D12         55.88   58.53    6.91          81.03   -1.37   79.80          79.82   90.99
D13         52.15   61.96   58.34          82.89  -18.89   -7.67          20.38   202.09
D14         61.63   53.77   54.79          78.32   24.13  -11.85          26.88   333.85
D15         72.38   76.84   36.20          90.25   -3.55   31.22          31.42   96.48
D16         37.03   38.19   30.13          68.16    0.67    2.16           2.26   72.54
D17         55.80   49.83   31.65          75.96   20.29   13.24          24.23   33.13
D18         47.04   57.35   34.16          80.37  -21.79   17.11          27.70   141.86
D19         41.37   41.12   50.30          70.26    5.31  -20.86          21.52   284.27
D20         14.14   10.61    2.52          38.91   27.02   32.14          41.99   49.94
D21         22.06   21.10   11.03          53.06    8.14   16.79          18.66   64.15
D22         39.27   37.09   19.13          67.35   11.37   20.85          23.75   61.39
E1           3.69    4.21    2.16          24.35   -5.46   10.23          11.60   118.08
E2           3.35    4.17    1.42          24.21  -10.17   17.69          20.41   119.90
E3           3.51    4.77    1.00          26.06  -15.64   26.54          30.81   120.51
E4           3.03    4.09    0.90          23.96  -14.49   24.48          28.45   120.63
E5          12.32   13.99    7.11          44.22   -7.71   15.48          17.29   116.49
E6          11.44   14.17    4.36          44.48  -14.97   29.24          32.85   117.11
E7          10.36   14.27    2.52          44.62  -23.60   42.04          48.21   119.31
E8           9.94   14.55    1.66          45.01  -28.58   50.85          58.33   119.34
E9          38.56   41.28   27.48          70.37   -3.91   10.28          11.00   110.83
E10         37.15   41.20   22.59          70.31   -8.22   18.97          20.67   113.44
E11         35.76   41.15   18.79          70.28  -12.68   26.63          29.50   115.45
E12         31.71   41.16    9.67          70.29  -26.79   50.91          57.52   117.75
E13         43.90   54.64   55.79          78.83  -24.10  -12.03          26.94   206.52
E14         55.74   45.32   51.00          73.10   32.45  -16.73          36.51   332.73
E15         70.13   74.33   28.21          89.08   -3.28   41.32          41.45   94.53
E16         27.10   27.99   21.80          59.88    0.45    2.49           2.54   79.56
E17         49.05   41.31   23.47          70.39   26.77   17.42          31.94   33.05
E18         37.77   48.80   26.05          75.33  -27.82   21.28          35.02   142.59
E19         31.91   30.99   44.96          62.49    7.53  -28.02          29.01   285.03
E20         25.65   17.32    1.23          48.66   42.85   62.26          75.59   55.46
E21         17.45   14.24    2.57          44.57   21.73   41.55          46.89   62.39
E22         30.24   25.61    7.63          57.67   22.18   36.57          42.77   58.76
F1           1.39    1.78    1.26          14.31   -8.88    2.62           9.26   163.58
F2           1.09    1.76    1.05          14.15  -17.88    5.28          18.64   163.54
F3           1.17    2.22    1.14          16.58  -25.60    8.20          26.89   162.24
F4           0.89    1.77    0.86          14.24  -25.62    8.47          26.98   161.71
F5           6.40    8.03    5.33          34.04  -13.23    6.01          14.53   155.58
F6           5.14    7.94    4.61          33.85  -26.66    9.51          28.31   160.36
F7           4.26    8.12    3.94          34.22  -39.67   14.03          42.08   160.52
F8           2.93    7.76    2.93          33.48  -57.17   19.57          60.43   161.10
F9          38.23   41.36   31.33          70.43   -5.21    4.18           6.69   141.27
F10         36.42   41.37   30.09          70.44  -11.14    6.14          12.72   151.13
F11         34.56   41.20   28.72          70.32  -16.90    8.15          18.76   154.27
F12         29.51   41.06   25.36          70.22  -34.67   13.69          37.28   158.46
F13         36.44   47.58   52.76          74.56  -28.86  -16.16          33.08   209.25
F14         50.53   38.25   47.34          68.21   40.15  -20.99          45.31   332.40
F15         68.26   72.02   21.92          87.98   -2.56   50.72          50.78   92.89
F16         19.24   19.90   15.63          51.72    0.28    1.91           1.94   81.36
F17         43.15   34.13   17.04          65.07   33.03   21.56          39.44   33.14
F18         29.81   41.03   19.73          70.20  -33.45   24.49          41.46   143.79
F19         24.10   22.75   39.88          54.82    9.73  -34.85          36.18   285.59
F20         26.23   24.93   10.98          57.00    9.30   23.78          25.53   68.63
F21         34.44   30.87    9.95          62.39   16.84   36.34          40.05   65.14
F22         39.25   36.26   14.67          66.72   14.02   30.16          33.26   65.06
G1           2.20    2.80    2.45          19.23  -10.05   -1.15          10.12   186.55
G2           1.77    2.79    2.65          19.19  -19.70   -2.92          19.92   188.44
G3           1.46    2.85    2.93          19.45  -28.98   -4.63          29.35   189.08
G4           1.51    3.07    3.14          20.31  -31.37   -4.69          31.72   188.50
G5           8.77   10.70    9.16          39.08  -12.57   -1.15          12.62   185.24
G6           7.37   10.72    9.65          39.10  -25.28   -2.80          25.43   186.31
G7           6.10   10.73   10.44          39.12  -38.35   -5.35          38.72   187.95
G8           4.83   10.87   11.44          39.36  -54.31   -8.05          54.90   188.43
G9          38.16   41.40   33.37          70.46   -5.57    1.16           5.69   168.23
G10         35.88   41.29   34.54          70.38  -12.68   -0.68          12.70   183.09
G11         33.93   41.13   34.67          70.27  -18.82   -1.06          18.86   183.23
G12         29.56   41.15   37.29          70.28  -34.76   -4.70          35.07   187.71
G13         30.05   41.15   49.70          70.28  -32.90  -20.15          38.58   211.48
G14         45.25   31.62   43.34          63.03   47.92  -25.11          54.10   332.35
G15         66.29   69.44   16.65          86.72   -1.47   59.79          59.81   91.41
G16         13.15   13.55   10.65          43.58    0.55    1.66           1.76   71.43
G17         37.57   27.68   11.84          59.59   39.36   25.64          46.97   33.08
G18         23.30   34.26   14.69          65.17  -38.41   27.45          47.21   144.45
G19         17.75   15.99   34.80          46.96   13.04  -41.43          43.44   287.48
G20         36.53   34.74   13.60          65.54   10.31   30.93          32.61   71.56
G21         35.32   33.35    8.79          64.45   10.99   43.91          45.26   75.95
G22         47.84   43.76    2.71          72.07   16.22   87.80          89.28   79.53
H1           2.36    2.79    3.05          19.19   -6.44   -5.98           8.80   222.86
H2           2.07    2.77    4.11          19.10  -12.39  -13.09          18.02   226.56
H3           1.83    2.77    5.24          19.11  -18.07  -19.28          26.42   226.85
H4           1.91    3.02    6.23          20.12  -20.30  -22.24          30.11   227.61
H5           9.30   10.72   11.24          39.11   -8.26   -7.88          11.42   223.65
H6           8.38   10.73   14.48          39.13  -16.13  -16.93          23.38   226.39
H7           7.53   10.79   18.51          39.22  -24.27  -26.31          35.80   227.31
H8           6.64   10.90   25.06          39.41  -33.88  -38.89          51.58   228.94
H9          38.76   41.45   37.01          70.49   -3.78   -3.97           5.48   226.43
H10         37.50   41.48   40.83          70.51   -7.95   -9.02          12.03   228.62
H11         35.90   41.41   45.22          70.46  -12.99  -14.59          19.54   228.33
H12         33.86   40.93   50.11          70.13  -18.49  -20.87          27.88   228.46
H13         24.23   34.92   46.30          65.69  -36.57  -24.11          43.80   213.40
H14         40.28   25.85   39.35          57.89   55.28  -28.86          62.36   332.43
H15         64.37   66.74   12.12          85.37    0.05   69.27          69.27   89.96
H16          8.33    8.62    6.80          35.23    0.23    1.32           1.35   79.19
H17         32.68   22.36    7.77          54.41   45.12   30.42          54.41   33.99
H18         17.39   27.68   10.35          59.60  -43.38   30.22          52.87   145.14
H19         12.57   10.68   29.80          39.03   16.33  -47.55          50.27   288.95
H20         41.27   41.50   14.32          70.52    3.87   37.63          37.82   84.13
H21         31.32   32.20   19.31          63.51    0.99   13.84          13.87   85.91
H22         35.47   38.38   10.62          68.30   -5.08   44.38          44.66   96.53
I1           4.06    4.18    5.27          24.27    0.43  -10.50          10.51   272.31
I2           4.10    4.19    7.97          24.29    0.90  -22.31          22.33   272.30
I3           4.14    4.14   11.31          24.14    1.99  -33.92          33.98   273.36
I4           4.34    4.20   19.43          24.33    4.10  -53.96          54.12   274.35
I5          13.83   14.21   14.41          44.53    0.81   -7.41           7.46   276.26
I6          13.84   14.17   18.44          44.48    1.08  -17.09          17.13   273.63
I7          13.91   14.12   23.36          44.40    1.91  -27.19          27.26   274.02
I8          14.35   14.35   33.18          44.73    3.22  -42.91          43.03   274.30
I9          40.09   41.17   36.48          70.30    1.21   -3.58           3.78   288.75
I10         40.50   41.43   40.71          70.48    1.69   -8.92           9.08   280.69
I11         40.62   41.47   45.20          70.51    1.95  -14.49          14.62   277.65
I12         40.70   41.39   50.43          70.45    2.45  -20.68          20.83   276.76
I13         19.61   29.64   42.90          61.35  -39.34  -27.46          47.98   214.91
I14         35.96   21.24   35.64          53.21   61.56  -31.84          69.30   332.65
I15         62.39   63.84    8.61          83.88    1.93   78.07          78.10   88.59
I16          5.10    5.27    4.12          27.50    0.16    1.36           1.39   81.84
I17         28.49   18.09    4.76          49.60   50.26   35.82          61.72   35.48
I18         12.92   22.30    7.10          54.35  -47.37   32.97          57.72   145.16
I19          8.91    6.92   25.42          31.63   20.73  -52.95          56.86   291.37
I20         41.99   45.68   14.73          73.34   -6.08   41.42          41.87   98.35
I21         10.66   14.34    3.30          44.71  -21.75   36.31          42.33   120.92
I22         28.20   36.42   16.17          66.84  -25.19   26.67          36.69   133.36
J1           2.02    1.81    2.76          14.43    6.59  -12.00          13.69   298.75
J2           2.33    1.81    4.58          14.47   13.19  -23.77          27.18   299.02
J3           2.67    1.82    7.41          14.52   19.81  -36.93          41.91   298.20
J4           3.55    1.86   15.51          14.71   33.93  -61.61          70.33   298.84
J5          11.23   10.90   11.34          39.41    5.35   -7.67           9.35   304.87
J6          12.07   10.98   15.18          39.54   10.72  -17.99          20.94   300.81
J7          12.89   11.06   19.35          39.67   15.67  -27.35          31.52   299.82
J8          14.58   11.06   30.18          39.67   26.40  -47.04          53.94   299.30
J9          40.92   41.20   36.84          70.31    3.69   -4.04           5.47   312.44
J10         42.12   41.55   40.64          70.56    6.28   -8.70          10.73   305.84
J11         43.06   41.44   44.99          70.49    9.39  -14.27          17.08   303.35
J12         44.09   41.45   50.26          70.49   12.43  -20.42          23.90   301.32
J13         15.48   24.56   39.15          56.64  -41.39  -30.73          51.55   216.60
J14         31.65   17.08   31.69          48.37   67.49  -34.40          75.75   332.99
J15         60.43   60.88    6.01          82.31    4.12   85.97          86.07   87.26
J16          2.74    2.84    2.30          19.41    0.04    0.40           0.42   80.09
J17         24.52   14.35    2.71          44.73   55.02   40.67          68.42   36.47
J18          9.14   17.35    4.73          48.70  -50.89   34.42          61.44   145.93
J19          6.08    4.13   21.06          24.09   26.18  -57.74          63.40   294.39
J20         29.84   38.50   21.04          68.39  -25.55   18.67          31.65   143.84
J21          4.06    7.76    1.46          33.47  -39.35   33.17          51.46   139.87
J22          1.23    1.96    0.88          15.27  -18.06    9.90          20.60   151.26
K1           5.10    4.25    4.84          24.49   13.12   -7.88          15.30   329.01
K2           6.39    4.35    6.84          24.79   26.52  -16.87          31.43   327.54
K3           7.75    4.35    9.29          24.80   39.95  -26.23          47.79   326.71
K4           9.24    4.45   12.03          25.10   51.62  -34.40          62.03   326.32
K5          15.80   14.31   14.02          44.67   12.10   -6.15          13.57   333.06
K6          18.00   14.47   17.49          44.89   23.30  -14.26          27.32   328.54
K7          20.41   14.53   21.53          44.99   35.12  -22.64          41.79   327.19
K8          25.81   14.76   31.26          45.31   57.98  -39.00          69.88   326.07
K9          42.40   41.32   36.38          70.40    7.79   -3.25           8.45   337.40
K10         44.45   41.14   39.72          70.27   14.36   -7.99          16.44   330.91
K11         46.95   41.20   43.75          70.31   21.33  -13.06          25.01   328.53
K12         50.20   41.10   49.33          70.24   30.50  -19.79          36.35   327.02
K13         12.06   19.96   35.27          51.79  -42.13  -33.78          54.00   218.73
K14         27.46   13.55   27.60          43.58   72.15  -36.11          80.68   333.41
K15         57.81   57.07    4.04          80.22    6.86   92.74          92.99   85.77
K16          1.31    1.35    1.12          11.63    0.08   -0.07           0.20   239.65
K17         20.78   11.25    1.37          40.01   58.35   45.56          74.03   37.98
K18          6.14   12.89    2.98          42.60  -52.89   34.95          63.40   146.54
K19          4.10    2.30   16.91          17.00   32.32  -61.03          69.06   297.91
K20          2.18    2.91    1.77          19.69  -12.35    6.00          13.73   154.10
K21          1.23    1.68    1.40          13.74  -11.47   -0.11          11.47   180.54
K22          1.52    2.00    2.66          15.48  -10.35   -9.40          13.99   222.24
L1           3.53    2.87    2.54          19.50   12.96   -1.48          13.05   353.48
L2           4.44    2.91    2.79          19.67   25.39   -3.20          25.59   352.82
L3           5.73    3.16    3.19          20.69   36.97   -4.37          37.23   353.25
L4           6.24    3.40    3.49          21.56   38.78   -4.92          39.09   352.77
L5          12.98   11.07    9.42          39.70   16.17   -0.99          16.20   356.50
L6          15.77   11.22   10.21          39.94   32.32   -3.21          32.48   354.32
L7          18.81   11.28   11.15          40.05   48.38   -6.00          48.75   352.94
L8          22.89   11.63   12.27          40.63   65.50   -8.31          66.03   352.77
L9          42.70   41.28   33.89          70.37    8.81    0.26           8.82   46.68
L10         44.98   41.28   34.32          70.37   15.47   -0.36          15.47   313.66
L11         47.77   41.33   35.77          70.41   23.20   -2.38          23.33   354.14
L12         50.85   41.18   36.78          70.30   31.98   -3.98          32.22   352.91
L13          8.92   15.16   30.61          45.86  -40.52  -37.06          54.91   222.45
L14         23.44   10.69   23.58          39.06   74.74  -36.80          83.31   333.78
L15         51.65   49.11    2.36          75.52   11.59   96.60          97.29   83.16
L16          0.47    0.49    0.42           4.42   -0.03   -0.30           0.31   265.03
L17         15.97    8.08    0.54          34.15   58.42   48.70          76.05   39.81
L18          3.36    7.80    1.47          33.57  -50.39   33.28          60.39   146.56
L19          2.73    1.23   12.88          10.75   37.13  -61.56          71.89   301.10
L20          0.69    0.74    0.76           6.72   -1.30   -2.77           3.06   244.85
