targets/wolf_faust/reflective/R040220.it8
IT8.7/2
ORIGINATOR "Wolf Faust"
DESCRIPTOR "L* a* b* Batch average data (light D50, viewing angle 2)"
MANUFACTURER "Wolf Faust - http://www.coloraid.de"
CREATED "March 15, 2004"
PROD_DATE "2004:02"
SAMPLE_BACKING "white"
SERIAL "DIN A4  R040220"
MATERIAL "Kodak Professional Digital 3 - Non-Glossy"
NUMBER_OF_FIELDS 9
BEGIN_DATA_FORMAT
SAMPLE_ID   XYZ_X   XYZ_Y   XYZ_Z          LAB_L   LAB_A   LAB_B          LAB_C   LAB_H
END_DATA_FORMAT
NUMBER_OF_SETS 288
BEGIN_DATA
A1           3.27    2.74    1.87          18.97   11.11    3.66          11.70   18.23
A2           4.19    2.81    1.57          19.26   23.78    7.41          24.91   17.31 
A3           6.12    3.61    1.74          22.33   34.28   10.86          35.96   17.58
A4           4.57    2.83    1.43          19.34   28.67    9.18          30.10   17.75 
A5          12.31   10.72    7.42          39.10   14.26    5.39          15.25   20.74
A6          14.70   10.80    6.34          39.24   29.02   10.24          30.78   19.43 
A7          17.28   10.97    5.67          39.52   42.55   13.81          44.74   17.98
A8          21.62   11.25    4.55          39.99   62.39   20.40          65.64   18.10 
A9          41.09   40.56   30.71          69.87    6.15    4.18           7.44   34.27
A10         43.64   40.73   29.68          69.98   13.25    6.03          14.56   24.46
A11         46.51   41.13   28.51          70.26   20.28    8.39          21.95   22.46
A12         49.68   41.18   27.19          70.30   28.83   10.67          30.75   20.31 
A13         77.35   81.90   67.97          92.53   -3.22   -0.35           3.24   186.21
A14         79.30   81.62   67.76          92.41    1.19   -0.38           1.25   342.36 
A15         79.93   83.74   64.71          93.34   -1.59    4.08           4.38   111.23
A16         80.09   83.31   67.53          93.15   -0.47    1.12           1.21   112.88
A17         78.54   81.07   64.94          92.16    0.74    1.84           1.99   68.01
A18         75.46   80.49   63.70          91.90   -4.33    2.57           5.04   149.36 
A19         74.84   78.22   67.07          90.88   -1.19   -2.37           2.66   243.29
A20          1.24    1.02    0.68           9.14    8.67    2.86           9.13   18.27 
A21          5.04    3.19    0.73          20.78   28.43   22.02          35.96   37.76
A22         10.01    5.65    0.75          28.52   43.07   34.93          55.46   39.04
B1           3.19    2.79    1.51          19.20    8.75    8.01          11.86   42.50
B2           3.87    2.88    0.94          19.55   17.96   16.25          24.22   42.14
B3           5.43    3.58    0.83          22.24   26.76   22.82          35.17   40.45
B4           4.04    2.82    0.77          19.29   21.46   18.68          28.45   41.03
B5          12.68   10.98    5.55          39.54   14.86   14.43          20.72   44.15
B6          14.58   10.91    3.62          39.43   27.43   25.05          37.15   42.40
B7          17.34   11.14    2.21          39.82   41.61   36.40          55.29   41.18
B8          21.12   11.38    0.98          40.22   59.09   51.34          78.28   40.99
B9          40.88   40.51   28.92          69.83    5.67    6.97           8.99   50.83
B10         43.41   41.11   25.92          70.25   11.42   12.76          17.13   48.17
B11         45.58   40.94   22.79          70.13   18.25   18.26          25.82   45.01
B12         48.22   40.90   19.46          70.10   25.73   24.89          35.80   44.05
B13         71.22   77.36   66.80          90.49   -7.02   -2.80           7.56   201.73
B14         75.14   74.38   65.69          89.10    7.10   -4.15           8.22   329.71
B15         77.99   82.22   56.77          92.67   -2.56   10.81          11.11   103.32
B16         63.18   65.73   52.99          84.86   -0.46    1.35           1.43   108.14
B17         71.54   71.29   53.95          87.62    5.98    5.08           7.86   40.23
B18         68.08   74.82   55.16          89.31   -8.69    6.70          10.97   142.41
B19         65.77   67.72   64.11          85.86    1.06   -8.23           8.30   277.35
B20          2.65    1.92    0.69          15.04   17.16   12.87          21.45   36.86
B21          8.30    4.85    0.77          26.30   38.46   30.89          49.33   38.77
B22         29.09   24.75   11.00          56.83   21.43   23.39          31.73   47.51
C1           4.32    4.15    2.05          24.15    4.56   10.86          11.78   67.21
C2           4.69    4.24    1.30          24.46    8.08   19.68          21.27   67.70
C3           5.58    4.82    1.02          26.23   11.37   26.56          28.90   66.83
C4           4.76    4.16    0.98          24.18   10.27   23.64          25.78   66.52
C5          23.62   22.58   10.05          54.64    8.38   22.67          24.18   69.71
C6          25.97   22.84    5.28          54.91   17.24   42.27          45.65   67.81
C7          28.28   22.95    2.34          55.02   26.07   61.45          66.75   67.01
C8          28.91   22.96    1.79          55.03   28.50   66.69          72.53   66.86
C9          47.76   48.21   31.47          74.96    3.55   11.79          12.32   73.22
C10         49.60   48.49   25.71          75.13    7.81   21.55          22.92   70.09
C11         51.40   48.77   20.80          75.30   11.85   31.09          33.27   69.13
C12         53.03   48.54   15.73          75.16   16.70   42.08          45.27   68.35
C13         61.79   70.06   64.81          87.03  -13.02   -6.89          14.73   207.88
C14         69.61   65.09   62.69          84.53   15.20   -9.16          17.75   328.93
C15         75.19   79.77   46.12          91.58   -3.48   20.74          21.03   99.54
C16         48.88   50.93   40.73          76.63   -0.60    1.66           1.78   110.01
C17         64.02   60.67   42.50          82.20   12.91    9.00          15.75   34.87
C18         56.65   65.75   44.13          84.87  -16.00   11.57          19.74   144.14
C19         53.07   53.97   59.34          78.44    2.68  -16.35          16.57   279.30
C20          1.61    1.39    0.72          11.89    7.58    6.99          10.31   42.70
C21         22.82   17.15    4.42          48.45   31.50   35.75          47.65   48.62
C22         34.91   31.91   16.16          63.27   14.69   20.53          25.25   54.41
D1           3.94    4.12    2.12          24.06   -0.47   10.10          10.11   92.69
D2           3.91    4.12    1.30          24.07   -0.95   18.95          18.98   92.88
D3           4.88    5.15    1.16          27.15   -1.07   26.17          26.20   92.33
D4           3.98    4.21    1.07          24.34   -1.17   22.62          22.65   92.96
D5          26.49   27.77   13.23          59.68   -1.19   21.83          21.87   93.11
D6          26.59   27.89    7.20          59.79   -1.23   41.97          41.99   91.68
D7          26.73   28.21    3.53          60.08   -1.91   61.24          61.27   91.79
D8          26.49   28.06    2.30          59.94   -2.28   70.29          70.33   91.86
D9          54.49   56.89   37.15          80.12   -0.93   12.44          12.47   94.27
D10         54.66   57.23   29.51          80.31   -1.31   24.10          24.13   93.11
D11         54.45   56.98   23.68          80.17   -1.25   33.90          33.93   92.11
D12         53.51   56.44    5.63          79.86   -2.31   83.57          83.60   91.58
D13         52.83   62.63   62.32          83.25  -18.66  -11.01          21.66   210.56
D14         64.32   56.71   59.62          80.01   23.04  -13.93          26.92   328.85
D15         72.84   77.48   37.63          90.54   -3.85   29.75          30.00   97.37
D16         37.50   39.24   31.23          68.92   -1.09    1.76           2.08   121.90
D17         56.85   51.33   32.78          76.88   18.94   13.11          23.04   34.70
D18         46.61   57.21   35.32          80.30  -22.66   15.30          27.34   145.97
D19         42.48   42.63   54.52          71.30    4.15  -23.67          24.03   279.93
D20         13.76   10.44    2.58          38.63   25.79   31.20          40.48   50.42
D21         21.17   20.59   10.83          52.50    6.40   16.47          17.67   68.75
D22         38.47   36.82   18.81          67.14    9.72   21.18          23.31   65.35
E1           3.58    4.13    2.12          24.08   -5.96   10.11          11.74   120.51
E2           3.39    4.23    1.35          24.42  -10.48   18.87          21.59   119.04
E3           3.98    5.21    1.27          27.33  -13.94   24.95          28.58   119.19
E4           3.33    4.26    1.17          24.50  -11.82   21.40          24.45   118.92
E5          12.26   14.12    7.16          44.40   -8.93   15.60          17.98   119.78
E6          11.21   14.06    4.36          44.32  -15.99   28.96          33.08   118.91
E7          10.25   14.17    2.47          44.48  -23.84   42.17          48.44   119.48
E8           9.96   14.26    1.95          44.61  -26.63   47.09          54.10   119.49
E9          37.17   40.30   26.96          69.68   -5.42    9.99          11.36   118.50
E10         35.95   40.43   22.59          69.77   -9.84   18.03          20.54   118.64
E11         34.61   40.36   18.56          69.72  -14.16   26.18          29.77   118.41
E12         30.05   39.90    8.61          69.40  -29.08   53.08          60.52   118.72
E13         45.15   55.88   59.84          79.55  -23.57  -14.95          27.91   212.39
E14         58.57   48.21   55.89          74.96   31.39  -18.81          36.60   329.07
E15         70.80   75.29   29.82          89.52   -3.78   39.49          39.67   95.47
E16         27.94   29.15   23.04          60.92   -0.67    1.90           2.03   109.23
E17         50.52   42.94   24.70          71.51   25.89   17.09          31.03   33.42
E18         38.04   49.46   27.38          75.74  -28.71   19.71          34.83   145.53
E19         33.54   32.77   49.31          63.97    6.94  -30.57          31.35   282.78
E20         24.13   16.86    1.40          48.08   38.87   59.13          70.77   56.68
E21         16.90   14.00    2.53          44.24   20.18   41.29          45.95   63.96
E22         29.23   25.22    7.55          57.29   19.97   36.23          41.37   61.13
F1           1.40    1.79    1.22          14.37   -8.90    3.25           9.48   159.91
F2           1.10    1.78    1.00          14.27  -18.02    6.20          19.06   161.00
F3           1.32    2.37    1.21          17.34  -24.11    8.51          25.57   160.56
F4           1.07    1.75    0.94          14.14  -18.49    6.92          19.74   159.47
F5           6.45    8.16    5.39          34.32  -13.89    6.22          15.22   155.90
F6           5.30    8.18    4.63          34.35  -26.96   10.22          28.83   159.23
F7           4.43    8.43    3.88          34.85  -40.15   15.51          43.04   158.88
F8           3.45    8.25    3.26          34.49  -52.96   18.94          56.24   160.32
F9          36.94   40.38   31.06          69.74   -6.42    3.42           7.28   152.08
F10         35.29   40.60   29.59          69.89  -12.59    6.00          13.95   154.53
F11         33.62   40.60   28.30          69.90  -18.34    8.10          20.05   156.17
F12         28.05   40.12   24.27          69.55  -37.48   14.51          40.19   158.84
F13         37.80   49.04   56.86          75.47  -28.35  -18.93          34.09   213.73
F14         53.29   40.87   52.25          70.09   39.25  -23.32          45.65   329.29
F15         68.85   73.02   23.41          88.45   -3.34   48.68          48.79   93.93
F16         20.28   21.23   16.82          53.20   -0.92    1.61           1.87   120.34
F17         44.37   35.58   18.12          66.20   31.71   21.07          38.07   33.59
F18         30.44   42.15   21.06          70.97  -34.45   23.10          41.48   146.17
F19         25.78   24.46   44.06          56.55    9.40  -37.18          38.35   284.19
F20         25.39   24.54   10.92          56.63    7.44   23.32          24.48   72.30
F21         33.59   30.59    9.85          62.16   14.90   36.28          39.22   67.67
F22         38.29   35.95   14.60          66.48   11.98   29.92          32.24   68.17
G1           2.17    2.77    2.42          19.09  -10.08   -1.16          10.15   186.57
G2           1.76    2.79    2.61          19.18  -19.95   -2.62          20.12   187.50
G3           1.80    3.28    3.22          21.13  -27.40   -3.81          27.67   187.92
G4           1.60    2.81    2.69          19.28  -24.51   -3.04          24.70   187.07
G5           8.68   10.73    8.96          39.12  -13.52   -0.39          13.53   181.69
G6           7.52   10.94    9.78          39.48  -25.55   -2.58          25.69   185.77
G7           6.34   11.10   10.47          39.75  -38.50   -4.38          38.75   186.49
G8           5.12   11.00   11.31          39.58  -51.65   -7.29          52.16   188.03
G9          37.20   40.78   33.44          70.02   -6.77    0.31           6.78   177.44
G10         35.02   40.69   33.91          69.96  -13.79   -0.48          13.80   182.01
G11         33.28   40.75   34.64          70.00  -19.96   -1.46          20.02   184.20
G12         28.23   40.18   36.68          69.60  -36.94   -5.05          37.28   187.79
G13         31.63   42.98   53.84          71.54  -32.52  -22.53          39.57   214.71
G14         48.25   34.28   48.48          65.18   47.05  -27.54          54.52   329.66
G15         67.20   70.89   18.00          87.43   -2.53   57.93          57.98   92.50
G16         14.12   14.81   11.52          45.37   -0.99    2.06           2.29   115.12
G17         39.10   29.37   13.04          61.10   37.74   24.83          45.18   33.33
G18         24.03   35.68   15.74          66.27  -39.99   26.72          48.10   146.25
G19         19.65   17.93   39.21          49.41   12.29  -43.29          45.00   285.85
G20         35.48   34.32   13.56          65.22    8.20   30.48          31.57   74.93
G21         34.20   32.69    8.74          63.91    9.50   43.14          44.18   77.59
G22         46.38   42.77    2.67          71.40   15.06   86.93          88.23   80.17
H1           2.35    2.78    3.04          19.12   -6.40   -5.96           8.75   222.97
H2           2.07    2.77    3.98          19.11  -12.36  -12.29          17.43   224.85
H3           2.16    3.24    5.89          21.00  -18.56  -19.16          26.69   225.90
H4           1.92    2.85    5.03          19.44  -17.34  -17.59          24.70   225.40
H5           9.34   10.77   11.21          39.20   -8.30   -7.65          11.30   222.65
H6           8.32   10.75   14.43          39.16  -16.78  -16.72          23.70   224.89
H7           7.55   10.87   18.66          39.37  -24.74  -26.38          36.17   226.83
H8           6.84   10.97   23.73          39.54  -32.39  -36.25          48.61   228.22
H9          37.31   40.52   35.62          69.84   -5.64   -3.15           6.47   209.17
H10         36.26   40.59   39.61          69.89   -9.30   -8.50          12.61   222.43
H11         34.55   40.25   43.96          69.64  -14.03  -14.46          20.15   225.86
H12         32.42   40.39   52.94          69.75  -21.94  -24.65          33.00   228.33
H13         25.97   37.04   50.39          67.31  -36.19  -26.03          44.58   215.73
H14         43.30   28.29   44.45          60.15   54.68  -31.44          63.07   330.10
H15         65.27   68.29   13.35          86.15   -1.30   67.16          67.17   91.11
H16          9.23    9.65    7.65          37.20   -0.63    1.21           1.39   121.55
H17         34.35   23.89    8.64          55.98   44.20   29.84          53.33   34.02
H18         18.42   29.41   11.42          61.15  -44.57   29.58          53.49   146.43
H19         14.21   12.16   33.68          41.47   16.39  -49.27          51.92   288.40
H20         40.49   41.13   13.96          70.26    2.59   38.12          38.21   86.11
H21         30.28   31.58   18.89          63.00   -0.64   13.85          13.87   92.64
H22         34.04   37.21   10.37          67.44   -6.25   43.68          44.12   98.15
I1           3.94    4.08    5.22          23.94    0.01  -10.84          10.84   269.99
I2           4.02    4.12    8.00          24.08    0.68  -22.76          22.77   271.69
I3           4.17    4.21   11.37          24.36    1.56  -33.72          33.76   272.65
I4           4.34    4.23   18.21          24.42    3.59  -51.17          51.29   274.01
I5          13.46   14.00   14.39          44.24   -0.28   -7.87           7.88   267.88
I6          13.63   14.06   18.65          44.32    0.48  -17.82          17.83   271.52
I7          13.73   14.05   23.28          44.30    1.17  -27.21          27.24   272.46
I8          14.22   14.22   35.34          44.54    3.22  -46.37          46.48   273.98
I9          38.68   40.26   35.65          69.65   -0.44   -3.51           3.55   262.76
I10         39.42   40.89   40.08          70.10   -0.03   -8.77           8.77   269.75
I11         39.37   40.70   44.29          69.97    0.38  -14.31          14.32   271.53
I12         39.46   40.53   53.49          69.85    1.20  -25.07          25.10   272.74
I13         21.28   31.82   46.91          63.19  -39.19  -29.14          48.83   216.63
I14         38.96   23.47   40.70          55.56   61.21  -34.64          70.33   330.49
I15         63.53   65.80    9.85          84.89    0.19   75.48          75.48   89.86
I16          5.81    6.10    4.79          29.67   -0.83    1.28           1.55   123.86
I17         30.08   19.50    5.72          51.26   49.16   33.81          59.67   34.51
I18         13.97   24.24    8.12          56.33  -49.13   32.38          58.84   146.61
I19         10.31    8.16   29.12          34.31   20.47  -54.58          58.29   290.56
I20         40.86   45.02   14.46          72.90   -7.64   41.36          42.06   100.47
I21         10.65   14.38    3.31          44.77  -22.02   36.31          42.47   121.24
I22         27.04   35.33   16.05          66.01  -26.20   25.52          36.58   135.77
J1           2.00    1.78    2.76          14.30    6.71  -12.23          13.95   298.73
J2           2.27    1.78    4.50          14.28   12.78  -23.64          26.88   298.38
J3           2.68    1.79    7.48          14.33   20.65  -37.56          42.86   298.80
J4           3.60    1.80   16.36          14.42   35.99  -64.18          73.58   299.28
J5          11.15   10.89   11.54          39.39    4.83   -8.31           9.63   300.11
J6          11.59   10.64   14.70          38.97    9.81  -17.76          20.29   298.90
J7          12.53   10.76   19.38          39.18   15.43  -28.25          32.19   298.64
J8          14.73   10.96   32.58          39.51   28.01  -51.01          58.20   298.77
J9          39.94   40.71   36.13          69.97    2.14   -3.63           4.23   300.54
J10         40.78   40.75   39.81          70.00    4.62   -8.57           9.74   298.30
J11         41.76   40.79   43.82          70.03    7.48  -13.63          15.55   298.75
J12         43.66   40.69   53.39          69.96   13.43  -24.77          28.18   298.47
J13         17.15   26.86   43.19          58.85  -41.40  -32.13          52.41   217.82
J14         34.87   19.30   36.88          51.04   67.27  -37.32          76.93   330.97
J15         61.65   62.97    6.90          83.42    2.19   83.96          83.99   88.51
J16          3.35    3.54    2.83          22.09   -0.95    0.74           1.25   142.88
J17         26.50   15.96    3.39          46.92   53.86   39.47          66.78   36.23
J18         10.18   19.27    5.54          51.01  -52.48   34.23          62.66   146.88
J19          7.31    5.17   24.58          27.20   25.38  -59.08          64.31   293.25
J20         28.96   37.83   20.51          67.89  -26.77   18.89          32.77   144.79
J21          4.45    8.00    1.64          33.98  -36.07   31.95          48.19   138.46
J22          1.34    1.99    0.94          15.46  -15.52    9.22          18.05   149.27
K1           4.94    4.13    4.77          24.11   12.88   -8.19          15.27   327.52
K2           6.14    4.14    6.89          24.13   26.63  -18.23          32.27   325.61
K3           7.51    4.21    9.30          24.34   39.60  -27.05          47.96   325.66
K4           7.73    4.12    9.85          24.07   42.83  -29.39          51.94   325.55
K5          15.27   14.07   13.79          44.33   10.46   -6.16          12.14   329.50
K6          17.41   14.05   17.37          44.30   22.68  -15.00          27.20   326.51
K7          19.86   14.16   21.50          44.46   34.65  -23.49          41.86   325.86
K8          26.37   14.50   33.70          44.95   61.84  -43.31          75.50   325.00
K9          41.24   40.82   35.29          70.05    5.81   -2.32           6.25   338.29
K10         43.83   41.04   39.31          70.20   12.89   -7.57          14.95   329.55
K11         45.68   40.73   42.70          69.98   19.14  -12.31          22.76   327.26
K12         51.62   40.94   52.66          70.13   34.73  -23.69          42.04   325.70
K13         13.67   22.30   39.27          54.34  -42.49  -34.87          54.97   219.37
K14         30.73   15.56   32.78          46.40   72.59  -39.44          82.61   331.48
K15         59.11   59.35    4.72          81.49    4.56   91.01          91.13   87.13
K16          1.75    1.84    1.49          14.62   -0.63    0.37           0.80   155.24
K17         22.94   12.77    1.80          42.42   58.02   44.80          73.30   37.67
K18          7.13   14.80    3.53          45.36  -54.66   35.83          65.36   146.76
K19          5.10    3.04   20.19          20.22   31.57  -62.65          70.16   296.74
K20          2.27    3.01    1.84          20.07  -12.17    5.89          13.53   154.17
K21          1.27    1.74    1.42          14.04  -11.44    0.21          11.45   178.94
K22          1.56    2.04    2.66          15.70  -10.15   -8.96          13.54   221.41
L1           3.35    2.75    2.42          19.00   12.33   -1.37          12.41   353.68
L2           4.21    2.79    2.68          19.18   24.48   -3.16          24.68   352.66
L3           6.17    3.62    3.67          22.36   34.68   -4.74          35.01   352.23
L4           4.54    2.78    2.77          19.14   29.05   -3.89          29.31   352.37
L5          12.59   10.87    9.20          39.35   15.05   -0.80          15.08   356.95
L6          15.16   10.87   10.07          39.36   31.24   -3.75          31.47   353.16
L7          18.15   10.95   10.94          39.49   47.34   -6.31          47.76   352.41
L8          22.94   11.45   12.46          40.33   66.99   -9.37          67.65   352.04
L9          41.24   40.33   33.06          69.70    7.31    0.33           7.32    2.59
L10         44.24   40.85   34.55          70.07   14.65   -1.22          14.70   355.22
L11         46.81   41.06   35.08          70.21   21.35   -1.73          21.42   355.37
L12         50.83   41.05   36.51          70.21   32.31   -3.75          32.53   353.37
L13         10.28   17.28   34.39          48.61  -41.36  -37.99          56.16   222.57
L14         26.36   12.20   28.16          41.53   76.54  -40.57          86.63   332.07
L15         55.70   54.22    2.89          78.59    8.69   97.68          98.07   84.92
L16          0.71    0.75    0.62           6.75   -0.25   -0.06           0.27   191.24
L17         19.22    9.92    0.80          37.70   60.65   49.93          78.56   39.46
L18          4.40   10.11    1.98          38.04  -54.26   35.50          64.85   146.80
L19          3.44    1.62   15.67          13.33   38.08  -64.37          74.80   300.61
L20          0.67    0.73    0.72           6.61   -1.32   -2.25           2.61   239.64
