targets/wolf_faust/reflective/R041016WhiteBacking.it8
IT8.7/2
ORIGINATOR "Wolf Faust"
DESCRIPTOR "Kodak Professional Paper, L* a* b* (light D50, viewing angle 2)"
MANUFACTURER "Wolf Faust - http://www.coloraid.de"
CREATED "November 09, 2004"
PROD_DATE "2004:10"
SAMPLE_BACKING "white"
SERIAL "5x7 R041016 Batch Average Data"
MATERIAL "Kodak Professional Ultra Endura"
NUMBER_OF_FIELDS 9
BEGIN_DATA_FORMAT
SAMPLE_ID   XYZ_X   XYZ_Y   XYZ_Z          LAB_L   LAB_A   LAB_B          LAB_C   LAB_H
END_DATA_FORMAT
NUMBER_OF_SETS 288
BEGIN_DATA
A1           3.45    2.91    2.01          19.67   10.96    3.50          11.51   17.72
A2           4.32    2.91    1.67          19.70   23.66    7.08          24.70   16.66 
A3           5.23    2.92    1.41          19.72   35.23   10.11          36.65   16.01
A4           5.95    3.21    1.46          20.85   38.73   11.39          40.38   16.39 
A5          12.72   11.21    8.07          39.92   13.47    4.27          14.14   17.60
A6          15.41   11.48    7.03          40.37   28.33    9.22          29.79   18.02 
A7          17.76   11.34    6.21          40.14   42.49   12.36          44.25   16.22
A8          22.21   11.45    4.90          40.33   63.67   19.12          66.48   16.71 
A9          42.21   41.58   32.95          70.58    6.47    2.00           6.78   17.20
A10         44.50   41.54   31.64          70.56   13.32    3.94          13.89   16.46
A11         47.25   41.64   30.20          70.62   20.84    6.29          21.77   16.80
A12         50.75   41.82   28.47          70.75   29.78    9.30          31.20   17.34 
A13         79.08   82.50   72.38          92.79   -0.91   -3.87           3.98   256.76
A14         79.88   82.13   72.26          92.63    1.35   -4.04           4.26   288.54 
A15         79.87   82.98   68.67          93.00   -0.28   -0.18           0.37   208.06
A16         79.44   82.21   68.40          92.67    0.33   -0.51           0.61   303.15
A17         79.14   81.67   68.31          92.43    0.78   -0.84           1.15   313.24
A18         78.26   81.84   68.14          92.50   -1.28   -0.56           1.40   203.36 
A19         78.50   81.13   72.03          92.19    0.55   -4.61           4.64   276.82
A20          1.33    1.07    0.71           9.59    9.71    3.18          10.22   18.11 
A21          5.16    3.28    0.74          21.13   28.41   22.47          36.23   38.34
A22         10.34    5.93    0.80          29.23   42.62   35.38          55.39   39.70
B1           3.36    2.96    1.62          19.87    8.63    7.95          11.74   42.68
B2           3.95    3.00    1.00          20.05   16.96   16.24          23.48   43.76
B3           4.51    2.93    0.59          19.76   25.99   22.89          34.63   41.37
B4           5.24    3.20    0.48          20.84   30.62   26.95          40.79   41.35
B5          12.98   11.28    5.89          40.05   14.63   13.66          20.02   43.05
B6          15.03   11.39    3.97          40.22   26.74   24.18          36.06   42.12
B7          17.47   11.34    2.30          40.15   40.88   36.14          54.57   41.47
B8          21.66   11.48    0.89          40.38   60.94   52.95          80.73   40.98
B9          41.93   41.55   30.60          70.56    5.70    5.56           7.96   44.30
B10         43.94   41.44   27.27          70.48   12.00   10.84          16.17   42.08
B11         46.30   41.51   24.27          70.53   18.56   16.18          24.63   41.08
B12         49.54   41.40   20.11          70.46   27.79   24.15          36.82   40.99
B13         72.47   77.64   71.30          90.62   -4.96   -6.67           8.31   233.35
B14         75.88   75.13   70.05          89.45    7.09   -7.55          10.36   313.21
B15         77.49   80.86   57.92          92.07   -0.95    8.59           8.64   96.33
B16         65.10   67.35   55.43          85.68    0.35    0.16           0.41   23.28
B17         72.70   72.48   56.16          88.20    5.94    3.73           7.02   32.14
B18         69.31   74.93   56.91          89.36   -6.24    4.95           7.97   141.57
B19         67.98   69.73   68.78          86.86    1.63  -10.87          10.99   278.53
B20          2.79    2.00    0.70          15.49   17.70   13.58          22.31   37.49
B21          8.52    4.99    0.76          26.69   38.67   31.70          50.00   39.35
B22         29.92   25.47   11.92          57.53   21.57   21.83          30.69   45.34
C1           4.46    4.36    2.24          24.82    3.54   10.30          10.89   71.04
C2           4.86    4.44    1.36          25.06    7.70   19.90          21.34   68.84
C3           5.62    4.84    0.84          26.27   11.65   29.61          31.82   68.52
C4           5.22    4.38    0.61          24.90   12.80   31.37          33.88   67.80
C5          24.29   23.24   11.03          55.32    8.38   20.69          22.32   67.96
C6          26.52   23.27    5.63          55.35   17.61   41.31          44.91   66.92
C7          28.67   23.25    2.37          55.33   26.28   61.75          67.11   66.95
C8          30.67   23.51    1.06          55.59   32.71   76.61          83.30   66.88
C9          48.92   49.20   33.71          75.57    4.07    9.48          10.32   66.75
C10         50.92   49.68   27.74          75.87    8.14   19.34          20.98   67.17
C11         52.35   49.61   22.43          75.83   12.08   28.77          31.21   67.23
C12         54.69   49.40   15.35          75.70   18.63   43.93          47.72   67.01
C13         62.68   70.10   69.45          87.05  -11.03  -11.16          15.69   225.35
C14         70.77   66.42   66.93          85.21   14.78  -12.02          19.05   320.89
C15         75.13   78.53   47.24          91.02   -1.19   18.45          18.49   93.69
C16         50.51   52.42   42.85          77.53   -0.10    0.52           0.53   100.68
C17         65.64   62.34   44.38          83.09   12.70    8.21          15.12   32.86
C18         57.66   65.55   45.60          84.76  -13.07    9.61          16.23   143.68
C19         55.08   56.00   63.88          79.62    2.72  -18.79          18.98   278.25
C20          1.74    1.48    0.69          12.47    8.51    8.54          12.06   45.10
C21         23.54   17.71    4.82          49.14   31.74   34.72          47.05   47.57
C22         35.91   32.66   17.54          63.89   15.40   18.38          23.98   50.05
D1           4.16    4.38    2.20          24.88   -0.87   10.73          10.77   94.61
D2           4.19    4.43    1.41          25.05   -1.23   19.33          19.37   93.65
D3           4.79    5.08    0.93          26.97   -1.44   29.22          29.25   92.83
D4           4.12    4.40    0.67          24.95   -1.71   30.31          30.36   93.23
D5          27.36   28.67   14.11          60.49   -1.11   20.88          20.91   93.05
D6          27.04   28.46    7.70          60.30   -1.61   40.84          40.87   92.25
D7          26.94   28.65    3.64          60.47   -2.75   61.21          61.27   92.57
D8          26.91   28.65    1.42          60.47   -2.85   80.17          80.22   92.04
D9          56.00   58.13   39.47          80.81   -0.12   10.51          10.51   90.64
D10         55.92   58.35   31.42          80.93   -0.85   22.17          22.19   92.20
D11         55.54   58.16   25.29          80.83   -1.34   32.10          32.13   92.38
D12         55.29   58.04   11.00          80.76   -1.69   64.66          64.68   91.50
D13         54.07   62.98   67.23          83.43  -16.28  -15.36          22.38   223.33
D14         64.93   57.24   62.86          80.31   23.12  -16.60          28.46   324.32
D15         72.86   76.00   37.82          89.86   -0.87   28.32          28.33   91.77
D16         38.42   39.83   32.57          69.35    0.04    0.45           0.48   80.07
D17         58.49   52.58   34.24          77.63   19.69   12.26          23.20   31.90
D18         47.44   56.69   35.90          80.01  -19.10   13.99          23.68   143.78
D19         43.75   43.70   58.30          72.03    4.79  -26.36          26.79   280.30
D20         14.21   10.83    2.65          39.29   25.79   31.76          40.91   50.92
D21         22.21   21.54   11.75          53.54    6.78   15.44          16.87   66.28
D22         39.89   37.84   20.35          67.91   10.91   19.25          22.13   60.44
E1           3.74    4.32    2.24          24.71   -6.20   10.12          11.87   121.49
E2           3.53    4.42    1.47          25.02  -10.86   18.49          21.44   120.43
E3           3.78    5.12    1.01          27.07  -15.85   28.18          32.33   119.36
E4           3.21    4.47    0.74          25.18  -16.59   29.49          33.84   119.36
E5          12.76   14.59    7.77          45.07   -8.43   14.30          16.60   120.53
E6          11.59   14.55    4.60          45.01  -16.18   28.79          33.03   119.33
E7          10.67   14.72    2.57          45.25  -23.95   42.65          48.92   119.32
E8           9.70   14.72    1.25          45.24  -31.41   56.07          64.27   119.26
E9          38.84   41.93   29.11          70.82   -4.98    8.37           9.74   120.74
E10         37.29   41.81   24.40          70.74   -9.61   16.31          18.93   120.50
E11         35.99   41.71   20.14          70.67  -13.56   24.44          27.95   119.03
E12         32.91   41.47   12.59          70.51  -23.43   42.27          48.33   119.00
E13         45.86   55.81   64.62          79.51  -21.36  -19.68          29.04   222.65
E14         59.50   49.22   58.65          75.59   30.90  -20.57          37.13   326.35
E15         70.83   73.48   29.79          88.67   -0.04   38.06          38.06   90.07
E16         28.33   29.50   24.23          61.22   -0.45    0.20           0.52   158.91
E17         52.01   44.13   25.81          72.32   26.34   16.51          31.09   32.09
E18         38.15   48.20   27.77          74.95  -24.95   17.70          30.59   144.65
E19         34.19   33.51   52.59          64.57    6.62  -33.20          33.85   281.27
E20         25.25   17.25    1.23          48.57   41.56   62.08          74.71   56.20
E21         17.37   14.40    2.64          44.80   20.32   41.36          46.09   63.83
E22         30.55   26.28    8.14          58.30   20.60   35.69          41.21   60.01
F1           1.49    1.88    1.30          14.86   -8.36    3.09           8.91   159.71
F2           1.21    1.94    1.08          15.19  -18.13    6.65          19.31   159.87
F3           1.31    2.47    1.18          17.78  -26.42    9.72          28.16   159.80
F4           1.02    1.96    0.92          15.26  -25.04    9.27          26.70   159.68
F5           6.81    8.57    5.89          35.15  -13.81    5.21          14.76   159.34
F6           5.58    8.59    4.97          35.18  -27.19    9.87          28.93   160.05
F7           4.49    8.59    4.14          35.18  -40.69   14.47          43.19   160.43
F8           3.38    8.55    3.19          35.11  -56.60   20.51          60.20   160.08
F9          38.07   41.55   32.70          70.56   -6.28    2.33           6.71   159.62
F10         36.17   41.44   31.09          70.49  -12.17    4.66          13.04   159.06
F11         34.55   41.44   30.15          70.48  -17.64    6.13          18.67   160.82
F12         30.61   41.41   27.07          70.46  -31.58   11.14          33.49   160.57
F13         38.34   48.86   61.55          75.37  -26.14  -23.85          35.38   222.38
F14         53.82   41.41   54.00          70.46   39.01  -24.56          46.10   327.80
F15         68.69   70.63   22.68          87.30    1.29   48.07          48.09   88.47
F16         20.13   20.95   17.19          52.89   -0.34    0.23           0.44   144.76
F17         45.66   36.24   18.67          66.70   33.24   20.71          39.17   31.93
F18         30.11   40.40   20.71          69.76  -30.42   21.71          37.37   144.48
F19         25.94   24.66   46.63          56.75    9.22  -39.93          40.98   283.01
F20         26.25   25.25   11.71          57.32    8.00   22.10          23.51   70.10
F21         34.78   31.45   10.67          62.88   15.93   34.87          38.34   65.44
F22         39.06   36.51   15.88          66.91   12.59   27.47          30.22   65.37
G1           2.38    3.00    2.62          20.05   -9.87   -1.13           9.94   186.54
G2           1.94    3.03    2.89          20.16  -19.96   -3.06          20.19   188.71
G3           1.64    3.16    3.15          20.66  -29.42   -4.16          29.72   188.04
G4           1.74    3.39    3.41          21.54  -30.56   -4.42          30.88   188.22
G5           9.19   11.34    9.81          40.15  -13.67   -1.53          13.76   186.38
G6           7.87   11.36   10.58          40.17  -25.24   -3.99          25.55   188.98
G7           6.56   11.38   11.28          40.21  -38.15   -6.11          38.64   189.10
G8           5.26   11.56   12.30          40.51  -53.93   -8.60          54.61   189.06
G9          38.51   42.03   35.22          70.89   -6.32   -0.76           6.37   186.88
G10         35.90   41.58   35.57          70.58  -13.48   -1.81          13.60   187.64
G11         34.39   41.88   36.46          70.79  -19.50   -2.70          19.68   187.87
G12         30.45   41.64   38.13          70.62  -32.87   -5.27          33.29   189.11
G13         31.71   42.38   58.15          71.14  -30.45  -27.74          41.20   222.34
G14         48.52   34.59   49.30          65.43   46.73  -28.06          54.51   329.02
G15         66.83   67.90   16.86          85.96    3.01   58.00          58.08   87.03
G16         13.65   14.28   11.63          44.63   -0.74    0.45           0.88   150.88
G17         40.11   29.69   12.98          61.38   39.70   25.47          47.17   32.68
G18         23.18   33.31   14.99          64.41  -35.68   25.38          43.79   144.58
G19         19.30   17.63   40.90          49.05   12.12  -46.13          47.69   284.72
G20         36.68   35.34   14.47          66.02    8.79   29.47          30.75   73.40
G21         35.30   33.70    9.29          64.72    9.75   42.60          43.71   77.10
G22         47.66   43.86    2.72          72.13   15.46   87.82          89.16   80.02
H1           2.56    2.99    3.34          20.02   -6.09   -6.60           8.98   227.29
H2           2.26    2.99    4.37          20.02  -12.21  -12.97          17.82   226.72
H3           2.05    3.05    5.72          20.26  -17.84  -19.64          26.53   227.75
H4           2.13    3.28    6.56          21.12  -19.65  -21.99          29.49   228.21
H5           9.79   11.31   12.10          40.10   -8.59   -8.74          12.25   225.50
H6           8.90   11.40   15.58          40.25  -16.46  -17.75          24.21   227.16
H7           8.02   11.43   19.62          40.29  -24.33  -26.85          36.23   227.82
H8           7.09   11.61   25.87          40.60  -34.50  -38.29          51.54   227.98
H9          38.30   41.35   38.13          70.42   -4.96   -5.62           7.49   228.56
H10         37.25   41.62   41.51          70.61   -9.15   -9.74          13.37   226.80
H11         36.02   41.81   45.98          70.74  -13.80  -15.01          20.39   227.41
H12         32.56   41.77   57.91          70.71  -25.61  -28.22          38.11   227.78
H13         26.32   36.81   54.73          67.13  -33.96  -31.09          46.04   222.47
H14         43.67   28.78   44.80          60.59   53.88  -31.11          62.21   330.00
H15         64.92   65.05   12.19          84.51    5.00   67.56          67.75   85.76
H16          9.03    9.43    7.68          36.80   -0.54    0.38           0.68   144.17
H17         35.17   24.18    8.62          56.27   45.76   30.39          54.93   33.59
H18         17.76   27.37   10.53          59.32  -40.16   29.16          49.63   144.02
H19         14.23   12.27   35.67          41.64   15.77  -51.84          54.19   286.92
H20         41.77   42.22   15.21          71.02    3.23   36.22          36.36   84.91
H21         31.18   32.38   20.33          63.65   -0.14   11.95          11.95   90.65
H22         35.79   39.01   11.34          68.76   -6.02   42.93          43.35   97.99
I1           4.31    4.44    5.80          25.08    0.45  -11.72          11.73   272.19
I2           4.35    4.42    8.75          25.01    1.21  -23.95          23.99   272.89
I3           4.42    4.45   12.08          25.10    1.80  -34.53          34.58   272.98
I4           4.80    4.65   21.47          25.72    4.07  -55.75          55.90   274.17
I5          14.14   14.63   15.44          45.12    0.22   -9.01           9.01   271.39
I6          14.37   14.79   19.90          45.35    0.67  -18.71          18.73   272.05
I7          14.46   14.76   24.54          45.30    1.41  -27.80          27.84   272.90
I8          14.72   14.81   38.33          45.38    2.64  -49.06          49.13   273.08
I9          40.04   41.55   37.74          70.56   -0.06   -4.85           4.85   269.31
I10         40.55   41.96   41.60          70.84    0.28   -9.44           9.45   271.69
I11         40.33   41.54   45.74          70.55    0.86  -15.06          15.09   273.27
I12         40.84   41.78   57.51          70.72    1.69  -27.80          27.85   273.49
I13         21.39   31.33   50.89          62.79  -36.93  -34.40          50.47   222.97
I14         38.87   23.50   40.21          55.59   60.81  -33.96          69.65   330.82
I15         62.86   61.91    8.33          82.87    7.40   77.34          77.69   84.53
I16          5.45    5.72    4.57          28.70   -0.75    0.85           1.13   131.82
I17         30.55   19.39    5.25          51.14   51.48   35.92          62.78   34.91
I18         13.06   21.86    6.98          53.87  -44.42   32.67          55.14   143.67
I19         10.20    8.08   30.63          34.15   20.31  -57.27          60.76   289.52
I20         42.16   46.27   15.87          73.72   -7.24   39.25          39.91   100.45
I21         11.04   14.89    3.34          45.48  -22.21   37.34          43.44   120.74
I22         28.63   37.13   17.18          67.37  -25.79   25.21          36.06   135.66
J1           2.13    1.89    3.01          14.89    7.20  -13.07          14.93   298.86
J2           2.45    1.90    5.01          14.93   13.74  -25.26          28.76   298.54
J3           2.81    1.88    7.90          14.83   21.07  -38.35          43.76   298.79
J4           3.87    1.95   17.83          15.22   36.69  -66.19          75.68   299.00
J5          11.55   11.37   12.31          40.20    4.18   -9.17          10.08   294.48
J6          12.45   11.46   16.15          40.34    9.86  -18.98          21.39   297.44
J7          13.09   11.25   20.29          40.00   15.57  -28.74          32.68   298.45
J8          15.32   11.38   34.31          40.21   28.55  -52.36          59.64   298.61
J9          40.76   41.38   37.64          70.44    2.67   -4.92           5.60   298.47
J10         41.89   41.64   41.35          70.62    5.30   -9.51          10.89   299.14
J11         42.77   41.55   45.68          70.56    8.25  -14.98          17.10   298.84
J12         44.87   41.41   56.50          70.46   14.79  -27.21          30.97   298.53
J13         17.11   26.20   46.64          58.23  -39.01  -37.37          54.02   223.77
J14         34.32   18.95   35.59          50.63   67.14  -36.23          76.29   331.65
J15         60.85   58.81    5.51          81.19    9.96   86.42          86.99   83.42
J16          2.99    3.15    2.55          20.63   -0.82    0.43           0.94   152.92
J17         26.50   15.50    2.97          46.31   56.49   41.41          70.04   36.25
J18          9.21   16.96    4.41          48.21  -48.25   35.36          59.82   143.77
J19          7.16    5.00   25.76          26.72   26.01  -62.01          67.24   292.75
J20         30.56   39.47   22.22          69.09  -25.88   17.56          31.28   145.85
J21          4.27    8.12    1.45          34.23  -39.57   34.58          52.55   138.85
J22          1.34    2.16    0.90          16.30  -18.95   11.31          22.07   149.17
K1           5.14    4.33    5.07          24.73   12.58   -8.70          15.30   325.36
K2           6.41    4.33    7.29          24.75   26.88  -18.81          32.81   325.01
K3           7.78    4.39    9.93          24.91   39.67  -28.21          48.68   324.59
K4           9.24    4.36   12.81          24.84   52.75  -37.07          64.47   324.91
K5          16.09   14.80   14.99          45.36   10.78   -7.48          13.12   325.26
K6          18.29   14.78   18.68          45.33   22.91  -16.15          28.03   324.82
K7          20.71   14.90   22.52          45.50   34.37  -23.69          41.75   325.42
K8          26.87   15.06   33.66          45.71   60.58  -41.93          73.67   325.31
K9          42.03   41.41   37.04          70.46    6.43   -4.07           7.61   327.70
K10         44.74   41.80   41.07          70.73   13.24   -8.96          15.99   325.93
K11         47.01   41.69   44.79          70.65   20.03  -13.74          24.28   325.55
K12         53.30   42.10   54.74          70.94   35.62  -24.53          43.25   325.44
K13         13.53   21.52   42.07          53.52  -39.80  -39.91          56.36   225.08
K14         29.72   14.90   30.62          45.50   72.66  -37.67          81.85   332.59
K15         58.40   55.14    3.37          79.12   13.03   95.14          96.02   82.20
K16          1.44    1.51    1.21          12.69   -0.46    0.48           0.68   135.51
K17         22.58   12.13    1.42          41.43   60.64   47.39          76.96   38.01
K18          6.22   12.67    2.55          42.27  -50.60   37.72          63.11   143.30
K19          4.99    2.89   21.01          19.58   32.95  -65.40          73.23   296.74
K20          2.37    3.15    1.87          20.63  -12.57    6.51          14.16   152.61
K21          1.35    1.86    1.48          14.76  -12.16    0.64          12.17   177.02
K22          1.71    2.24    2.90          16.71  -10.70   -9.10          14.05   220.36
L1           3.58    2.95    2.64          19.84   12.25   -1.72          12.37   352.03
L2           4.51    2.95    3.02          19.85   25.63   -4.61          26.04   349.80
L3           5.68    3.11    3.35          20.49   37.26   -5.83          37.71   351.11
L4           6.36    3.36    3.72          21.43   40.68   -6.64          41.22   350.73
L5          13.18   11.42   10.10          40.27   14.97   -2.28          15.15   351.37
L6          15.92   11.46   11.08          40.34   31.45   -5.27          31.89   350.49
L7          18.95   11.45   11.95          40.32   47.95   -7.92          48.60   350.62
L8          23.38   11.50   13.32          40.40   68.67  -11.65          69.65   350.37
L9          42.97   41.85   35.41          70.77    7.93   -1.25           8.03   351.04
L10         45.58   41.93   36.10          70.82   15.27   -2.13          15.41   352.06
L11         47.70   41.67   36.79          70.64   21.98   -3.41          22.24   351.19
L12         52.00   41.93   38.19          70.83   32.73   -5.00          33.11   351.31
L13          9.68   15.90   35.15          46.84  -38.48  -42.14          57.07   227.60
L14         24.40   11.01   24.57          39.59   76.62  -37.71          85.40   333.80
L15         53.60   48.56    1.64          75.18   18.09   103.02          104.60   80.04
L16          0.49    0.50    0.40           4.53    0.16    0.25           0.31   59.42
L17         17.87    8.80    0.48          35.59   62.67   52.35          81.66   39.87
L18          3.32    7.66    1.08          33.26  -49.74   37.82          62.48   142.75
L19          3.17    1.39   15.16          11.88   40.05  -65.62          76.88   301.40
L20          0.72    0.78    0.77           7.07   -1.54   -2.30           2.77   236.16
