targets/wolf_faust/reflective/R041016.it8
IT8.7/2
ORIGINATOR "Wolf Faust"
DESCRIPTOR "Kodak Professional Paper, L* a* b* (light D50, viewing angle 2)"
MANUFACTURER "Wolf Faust - http://www.coloraid.de"
CREATED "November 09, 2004"
PROD_DATE "2004:10"
SAMPLE_BACKING "black"
SERIAL "5x7 R041016 Batch Average Data"
MATERIAL "Kodak Professional Ultra Endura"
KEYWORD "MEAN_DE" # Mean Delta E of samples compared to batch average
NUMBER_OF_FIELDS 17
BEGIN_DATA_FORMAT
SAMPLE_ID   XYZ_X   XYZ_Y   XYZ_Z          LAB_L   LAB_A   LAB_B          LAB_C   LAB_H          STDEV_X  STDEV_Y  STDEV_Z          STDEV_L  STDEV_A  STDEV_B        MEAN_DE  STDEV_DE
END_DATA_FORMAT
NUMBER_OF_SETS 288
BEGIN_DATA
A1           3.40    2.88    2.00          19.55   10.75    3.42          11.28   17.65            0.05     0.03     0.03            0.13     0.28     0.19           0.31    0.36
A2           4.24    2.87    1.66          19.53   23.36    6.87          24.35   16.38            0.04     0.02     0.02            0.10     0.18     0.14           0.21    0.25 
A3           5.14    2.88    1.40          19.54   34.99    9.89          36.36   15.79            0.05     0.02     0.01            0.10     0.22     0.18           0.28    0.30
A4           5.85    3.16    1.46          20.66   38.45   11.13          40.03   16.14            0.05     0.03     0.02            0.11     0.11     0.13           0.17    0.20 
A5          12.56   11.09    8.01          39.72   13.26    4.15          13.90   17.38            0.09     0.09     0.08            0.15     0.22     0.22           0.31    0.35
A6          15.15   11.30    6.97          40.09   28.03    8.95          29.42   17.71            0.11     0.09     0.08            0.14     0.12     0.21           0.23    0.28 
A7          17.44   11.16    6.16          39.85   42.02   12.05          43.72   16.01            0.10     0.08     0.05            0.14     0.17     0.29           0.33    0.36
A8          21.68   11.22    4.86          39.94   62.92   18.63          65.62   16.49            0.07     0.04     0.04            0.07     0.07     0.18           0.18    0.21 
A9          41.39   40.82   32.51          70.05    6.27    1.75           6.51   15.59            0.16     0.14     0.16            0.10     0.11     0.12           0.17    0.19
A10         43.62   40.80   31.24          70.04   12.98    3.65          13.49   15.70            0.12     0.10     0.15            0.07     0.08     0.15           0.16    0.18
A11         46.24   40.86   29.83          70.08   20.36    5.94          21.21   16.28            0.13     0.15     0.20            0.11     0.16     0.25           0.29    0.32
A12         49.61   41.03   28.14          70.19   29.11    8.89          30.44   16.97            0.16     0.17     0.11            0.12     0.12     0.17           0.22    0.24 
A13         77.18   80.59   71.05          91.95   -1.04   -4.15           4.28   255.93            0.11     0.12     0.08            0.05     0.03     0.08           0.09    0.10
A14         77.87   80.16   70.88          91.76    1.17   -4.33           4.49   285.05            0.13     0.13     0.09            0.06     0.04     0.09           0.10    0.12 
A15         77.85   80.97   67.40          92.12   -0.45   -0.54           0.71   228.64            0.09     0.09     0.14            0.04     0.02     0.16           0.14    0.16
A16         77.40   80.20   67.13          91.78    0.14   -0.88           0.90   279.27            0.19     0.20     0.10            0.09     0.02     0.17           0.15    0.19
A17         77.17   79.73   67.05          91.56    0.60   -1.17           1.31   297.10            0.09     0.09     0.09            0.04     0.04     0.11           0.10    0.12
A18         76.32   79.88   66.89          91.63   -1.42   -0.90           1.69   212.32            0.11     0.12     0.13            0.05     0.03     0.12           0.11    0.13 
A19         76.59   79.23   70.68          91.34    0.40   -4.87           4.89   274.67            0.07     0.08     0.07            0.04     0.03     0.07           0.07    0.08
A20          1.31    1.06    0.71           9.47    9.66    2.99          10.11   17.21            0.02     0.02     0.01            0.13     0.16     0.17           0.24    0.27 
A21          5.08    3.24    0.74          20.97   28.14   22.18          35.84   38.25            0.05     0.03     0.01            0.13     0.15     0.23           0.25    0.31
A22         10.14    5.81    0.80          28.94   42.30   34.89          54.83   39.52            0.07     0.05     0.01            0.14     0.19     0.18           0.25    0.30
B1           3.31    2.92    1.62          19.73    8.56    7.68          11.50   41.89            0.05     0.04     0.03            0.17     0.18     0.21           0.29    0.33
B2           3.88    2.96    1.00          19.86   16.78   15.96          23.16   43.56            0.04     0.04     0.01            0.15     0.22     0.21           0.28    0.34
B3           4.44    2.89    0.59          19.61   25.71   22.63          34.26   41.36            0.04     0.03     0.00            0.11     0.25     0.17           0.27    0.32
B4           5.16    3.16    0.48          20.67   30.35   26.66          40.40   41.30            0.05     0.03     0.00            0.10     0.26     0.18           0.29    0.33
B5          12.82   11.16    5.89          39.85   14.48   13.35          19.69   42.67            0.12     0.10     0.08            0.17     0.22     0.14           0.26    0.31
B6          14.78   11.22    3.95          39.95   26.40   23.84          35.57   42.08            0.10     0.08     0.04            0.14     0.13     0.17           0.22    0.26
B7          17.10   11.14    2.30          39.81   40.34   35.63          53.82   41.46            0.12     0.08     0.03            0.13     0.11     0.16           0.21    0.24
B8          21.10   11.21    0.89          39.93   60.20   52.25          79.71   40.95            0.10     0.07     0.01            0.12     0.07     0.17           0.20    0.22
B9          41.07   40.76   30.18          70.01    5.47    5.27           7.60   43.95            0.18     0.18     0.16            0.13     0.08     0.12           0.17    0.19
B10         43.06   40.70   26.97          69.96   11.64   10.45          15.64   41.90            0.14     0.12     0.15            0.09     0.11     0.16           0.19    0.21
B11         45.34   40.76   24.01          70.01   18.08   15.76          23.99   41.08            0.13     0.13     0.10            0.09     0.11     0.14           0.18    0.20
B12         48.39   40.61   19.91          69.90   27.07   23.60          35.92   41.08            0.10     0.10     0.12            0.07     0.05     0.19           0.17    0.21
B13         70.76   75.84   69.95          89.79   -4.97   -6.89           8.50   234.21            0.14     0.14     0.05            0.06     0.08     0.09           0.12    0.14
B14         74.05   73.43   68.75          88.65    6.78   -7.76          10.30   311.17            0.12     0.13     0.09            0.06     0.07     0.08           0.11    0.13
B15         75.55   78.95   56.94          91.21   -1.17    8.11           8.20   98.18            0.15     0.15     0.14            0.07     0.02     0.16           0.14    0.17
B16         63.68   65.95   54.58          84.97    0.19   -0.16           0.26   281.71            0.14     0.14     0.14            0.07     0.07     0.10           0.12    0.14
B17         70.95   70.87   55.26          87.42    5.62    3.34           6.54   30.72            0.10     0.13     0.16            0.06     0.09     0.19           0.19    0.22
B18         67.72   73.25   56.01          88.56   -6.26    4.52           7.72   144.23            0.13     0.12     0.19            0.06     0.08     0.19           0.18    0.22
B19         66.49   68.25   67.55          86.13    1.51  -11.00          11.10   277.82            0.10     0.10     0.10            0.05     0.07     0.08           0.10    0.12
B20          2.75    1.97    0.70          15.35   17.57   13.34          22.06   37.21            0.03     0.02     0.01            0.11     0.19     0.13           0.21    0.25
B21          8.37    4.91    0.76          26.49   38.28   31.37          49.49   39.33            0.06     0.05     0.01            0.13     0.17     0.19           0.25    0.29
B22         29.34   25.04   11.81          57.12   21.15   21.45          30.12   45.41            0.13     0.12     0.09            0.12     0.17     0.16           0.23    0.26
C1           4.41    4.31    2.24          24.66    3.48   10.04          10.63   70.90            0.04     0.04     0.03            0.13     0.18     0.07           0.20    0.24
C2           4.79    4.38    1.35          24.89    7.58   19.68          21.09   68.94            0.04     0.04     0.01            0.11     0.11     0.15           0.19    0.22
C3           5.54    4.77    0.84          26.08   11.51   29.28          31.46   68.54            0.04     0.04     0.01            0.11     0.18     0.16           0.24    0.27
C4           5.14    4.33    0.61          24.74   12.61   31.07          33.53   67.92            0.06     0.04     0.01            0.14     0.20     0.27           0.29    0.36
C5          23.87   22.88   10.95          54.94    8.14   20.31          21.88   68.17            0.14     0.12     0.08            0.12     0.11     0.15           0.20    0.22
C6          26.03   22.90    5.59          54.97   17.22   40.83          44.31   67.14            0.10     0.08     0.05            0.09     0.18     0.20           0.25    0.28
C7          28.09   22.87    2.36          54.94   25.68   61.12          66.30   67.21            0.10     0.08     0.02            0.09     0.18     0.17           0.24    0.26
C8          30.04   23.12    1.06          55.19   32.08   75.95          82.45   67.10            0.06     0.05     0.01            0.05     0.16     0.12           0.18    0.21
C9          47.96   48.30   33.30          75.01    3.86    9.13           9.92   67.08            0.19     0.18     0.14            0.11     0.12     0.14           0.19    0.21
C10         49.84   48.75   27.45          75.29    7.78   18.83          20.37   67.55            0.23     0.21     0.18            0.13     0.09     0.21           0.24    0.26
C11         51.13   48.61   22.25          75.20   11.57   28.05          30.35   67.58            0.17     0.16     0.10            0.10     0.11     0.17           0.20    0.23
C12         53.39   48.42   15.22          75.09   17.94   43.22          46.80   67.45            0.14     0.14     0.09            0.09     0.08     0.18           0.20    0.22
C13         61.34   68.55   68.19          86.28  -10.85  -11.33          15.69   226.24            0.18     0.18     0.05            0.09     0.09     0.18           0.19    0.22
C14         69.11   65.01   65.75          84.49   14.34  -12.15          18.80   319.72            0.14     0.15     0.08            0.08     0.08     0.17           0.17    0.20
C15         73.26   76.70   46.54          90.18   -1.44   17.83          17.89   94.60            0.19     0.19     0.13            0.09     0.02     0.20           0.20    0.22
C16         49.52   51.44   42.26          76.95   -0.23    0.24           0.35   140.17            0.16     0.14     0.19            0.08     0.10     0.17           0.19    0.21
C17         64.06   61.01   43.72          82.38   12.23    7.79          14.50   32.50            0.17     0.17     0.16            0.09     0.09     0.15           0.18    0.19
C18         56.37   64.08   44.97          84.00  -12.96    9.06          15.82   145.05            0.15     0.15     0.17            0.08     0.10     0.22           0.21    0.25
C19         53.92   54.85   62.73          78.96    2.63  -18.81          18.99   277.96            0.16     0.14     0.12            0.08     0.07     0.09           0.12    0.14
C20          1.72    1.46    0.68          12.36    8.41    8.42          11.90   45.05            0.02     0.02     0.01            0.12     0.21     0.09           0.23    0.25
C21         23.09   17.42    4.79          48.79   31.26   34.27          46.38   47.64            0.13     0.10     0.06            0.13     0.12     0.19           0.23    0.26
C22         35.25   32.14   17.38          63.46   15.04   18.00          23.46   50.12            0.14     0.14     0.08            0.12     0.13     0.20           0.24    0.26
D1           4.10    4.32    2.19          24.70   -0.91   10.51          10.55   94.93            0.03     0.04     0.02            0.13     0.17     0.12           0.22    0.24
D2           4.13    4.38    1.40          24.88   -1.28   19.06          19.11   93.85            0.04     0.03     0.02            0.11     0.14     0.12           0.19    0.21
D3           4.72    5.02    0.93          26.78   -1.52   28.91          28.95   93.00            0.05     0.05     0.01            0.14     0.08     0.20           0.21    0.26
D4           4.06    4.34    0.67          24.78   -1.78   30.00          30.05   93.39            0.04     0.04     0.01            0.12     0.15     0.17           0.22    0.26
D5          26.94   28.26   14.01          60.12   -1.24   20.49          20.53   93.47            0.17     0.15     0.11            0.14     0.13     0.23           0.28    0.30
D6          26.56   28.00    7.65          59.89   -1.79   40.34          40.38   92.53            0.12     0.12     0.09            0.11     0.12     0.27           0.29    0.32
D7          26.48   28.21    3.62          60.08   -2.92   60.61          60.68   92.76            0.12     0.11     0.03            0.10     0.15     0.19           0.22    0.26
D8          26.41   28.17    1.42          60.04   -3.03   79.48          79.54   92.18            0.14     0.11     0.01            0.10     0.15     0.23           0.26    0.29
D9          54.83   56.99   38.96          80.17   -0.29   10.07          10.08   91.66            0.13     0.11     0.16            0.06     0.07     0.18           0.18    0.21
D10         54.66   57.12   30.98          80.25   -1.07   21.67          21.70   92.82            0.15     0.15     0.14            0.08     0.13     0.22           0.25    0.27
D11         54.33   56.99   25.03          80.17   -1.57   31.43          31.47   92.86            0.14     0.13     0.07            0.07     0.05     0.10           0.12    0.13
D12         54.03   56.87   10.93          80.10   -2.03   63.75          63.79   91.82            0.24     0.22     0.08            0.13     0.12     0.14           0.20    0.23
D13         52.91   61.56   65.94          82.68  -15.99  -15.46          22.24   224.05            0.15     0.15     0.07            0.08     0.09     0.15           0.15    0.19
D14         63.46   56.08   61.78          79.66   22.59  -16.67          28.07   323.57            0.09     0.10     0.06            0.06     0.10     0.12           0.15    0.17
D15         71.05   74.26   37.31          89.04   -1.17   27.61          27.64   92.44            0.12     0.12     0.14            0.06     0.03     0.22           0.19    0.23
D16         37.71   39.11   32.16          68.83   -0.03    0.18           0.25   115.76            0.22     0.18     0.24            0.13     0.15     0.20           0.25    0.28
D17         57.12   51.52   33.80          76.99   19.11   11.80          22.46   31.69            0.11     0.12     0.13            0.07     0.10     0.16           0.17    0.20
D18         46.49   55.54   35.43          79.35  -18.92   13.51          23.25   144.46            0.18     0.17     0.15            0.10     0.14     0.26           0.27    0.31
D19         42.93   42.89   57.31          71.48    4.74  -26.29          26.71   280.22            0.16     0.17     0.11            0.12     0.10     0.14           0.18    0.21
D20         13.98   10.68    2.64          39.03   25.46   31.40          40.42   50.97            0.06     0.05     0.03            0.08     0.16     0.19           0.24    0.26
D21         21.86   21.23   11.66          53.20    6.60   15.14          16.52   66.43            0.14     0.12     0.09            0.13     0.18     0.15           0.24    0.27
D22         39.12   37.19   20.15          67.42   10.59   18.81          21.59   60.62            0.14     0.13     0.12            0.10     0.11     0.16           0.18    0.22
E1           3.69    4.26    2.22          24.52   -6.20    9.90          11.68   122.06            0.03     0.03     0.02            0.11     0.13     0.15           0.20    0.23
E2           3.47    4.36    1.46          24.83  -10.85   18.23          21.22   120.77            0.03     0.04     0.01            0.12     0.16     0.10           0.19    0.22
E3           3.72    5.05    1.01          26.87  -15.83   27.90          32.08   119.57            0.03     0.03     0.01            0.09     0.08     0.13           0.17    0.18
E4           3.17    4.41    0.73          24.99  -16.56   29.22          33.59   119.55            0.02     0.02     0.00            0.07     0.08     0.14           0.16    0.18
E5          12.62   14.43    7.77          44.85   -8.39   13.94          16.28   121.05            0.10     0.12     0.09            0.17     0.10     0.19           0.23    0.27
E6          11.42   14.34    4.58          44.72  -16.14   28.42          32.68   119.60            0.07     0.07     0.03            0.10     0.13     0.12           0.17    0.20
E7          10.50   14.50    2.56          44.93  -23.89   42.19          48.49   119.52            0.07     0.08     0.02            0.11     0.10     0.11           0.16    0.19
E8           9.54   14.48    1.25          44.92  -31.31   55.56          63.77   119.40            0.06     0.07     0.01            0.10     0.13     0.11           0.18    0.20
E9          38.12   41.17   28.73          70.30   -5.01    8.10           9.52   121.77            0.16     0.13     0.17            0.09     0.14     0.20           0.23    0.26
E10         36.61   41.07   24.15          70.23   -9.60   15.88          18.56   121.15            0.17     0.18     0.16            0.12     0.11     0.21           0.24    0.27
E11         35.38   41.01   19.92          70.18  -13.52   24.05          27.60   119.34            0.18     0.16     0.15            0.11     0.15     0.27           0.29    0.33
E12         32.33   40.73   12.48          69.99  -23.26   41.68          47.73   119.16            0.13     0.14     0.09            0.10     0.09     0.23           0.25    0.27
E13         44.97   54.61   63.45          78.82  -20.94  -19.75          28.79   223.31            0.12     0.13     0.05            0.07     0.06     0.14           0.15    0.17
E14         58.14   48.24   57.67          74.97   30.29  -20.63          36.64   325.74            0.05     0.06     0.08            0.04     0.08     0.05           0.08    0.10
E15         69.08   71.84   29.47          87.89   -0.41   37.23          37.23   90.63            0.11     0.11     0.20            0.05     0.04     0.37           0.31    0.37
E16         27.87   29.05   23.95          60.82   -0.53    0.04           0.56   174.75            0.12     0.11     0.10            0.10     0.10     0.16           0.18    0.21
E17         50.83   43.28   25.58          71.74   25.69   15.93          30.23   31.79            0.12     0.13     0.10            0.09     0.12     0.17           0.19    0.22
E18         37.43   47.25   27.46          74.35  -24.69   17.18          30.08   145.16            0.15     0.15     0.07            0.09     0.13     0.14           0.18    0.21
E19         33.59   32.91   51.71          64.09    6.61  -33.06          33.72   281.30            0.14     0.14     0.12            0.11     0.14     0.11           0.19    0.21
E20         24.70   16.93    1.23          48.17   40.98   61.46          73.87   56.31            0.06     0.06     0.01            0.08     0.13     0.15           0.19    0.21
E21         17.08   14.20    2.62          44.51   20.00   40.97          45.59   63.98            0.10     0.09     0.03            0.13     0.09     0.09           0.16    0.18
E22         29.98   25.86    8.10          57.91   20.17   35.15          40.53   60.15            0.12     0.11     0.09            0.11     0.08     0.21           0.22    0.25
F1           1.47    1.86    1.29          14.72   -8.33    2.92           8.83   160.70            0.02     0.02     0.02            0.11     0.15     0.14           0.21    0.23
F2           1.20    1.91    1.07          15.03  -18.05    6.45          19.17   160.33            0.02     0.02     0.01            0.11     0.10     0.14           0.18    0.21
F3           1.29    2.44    1.18          17.62  -26.26    9.48          27.92   160.15            0.02     0.03     0.01            0.14     0.10     0.18           0.22    0.25
F4           1.00    1.93    0.91          15.10  -24.91    9.05          26.51   160.04            0.02     0.03     0.01            0.14     0.16     0.14           0.23    0.25
F5           6.72    8.46    5.86          34.91  -13.72    4.97          14.60   160.09            0.07     0.08     0.07            0.16     0.04     0.15           0.18    0.22
F6           5.50    8.46    4.94          34.93  -27.02    9.56          28.67   160.52            0.04     0.05     0.03            0.09     0.10     0.14           0.17    0.20
F7           4.43    8.45    4.11          34.91  -40.41   14.17          42.82   160.67            0.04     0.06     0.04            0.13     0.10     0.11           0.18    0.19
F8           3.34    8.42    3.18          34.85  -56.25   20.14          59.75   160.30            0.05     0.08     0.03            0.16     0.04     0.18           0.22    0.25
F9          37.38   40.81   32.31          70.04   -6.27    2.03           6.60   162.04            0.18     0.16     0.13            0.12     0.14     0.20           0.24    0.27
F10         35.52   40.69   30.73          69.96  -12.07    4.31          12.82   160.35            0.30     0.28     0.18            0.20     0.20     0.22           0.32    0.36
F11         33.93   40.67   29.80          69.95  -17.46    5.77          18.39   161.71            0.15     0.16     0.11            0.11     0.11     0.21           0.23    0.26
F12         30.05   40.60   26.78          69.89  -31.23   10.66          32.99   161.15            0.15     0.15     0.10            0.10     0.13     0.14           0.20    0.22
F13         37.67   47.85   60.47          74.73  -25.58  -23.88          34.99   223.04            0.11     0.10     0.08            0.06     0.12     0.15           0.17    0.20
F14         52.61   40.60   53.10          69.90   38.31  -24.57          45.51   327.33            0.09     0.09     0.10            0.06     0.09     0.07           0.11    0.13
F15         67.00   69.08   22.46          86.54    0.86   47.18          47.19   88.95            0.15     0.15     0.09            0.08     0.03     0.23           0.18    0.25
F16         19.82   20.64   17.03          52.55   -0.38    0.00           0.41   179.48            0.10     0.09     0.10            0.10     0.17     0.17           0.23    0.26
F17         44.62   35.56   18.50          66.19   32.48   20.21          38.26   31.89            0.08     0.07     0.11            0.06     0.14     0.20           0.21    0.25
F18         29.55   39.61   20.51          69.19  -30.11   21.14          36.79   144.94            0.10     0.10     0.12            0.07     0.10     0.21           0.22    0.25
F19         25.54   24.27   45.93          56.36    9.21  -39.76          40.81   283.04            0.14     0.15     0.12            0.15     0.11     0.13           0.19    0.23
