targets/wolf_faust/reflective/R041110.it8
IT8.7/2
ORIGINATOR "Wolf Faust"
DESCRIPTOR "L* a* b* Batch average data (light D50, viewing angle 2)"
MANUFACTURER "Wolf Faust - http://www.coloraid.de"
CREATED "July 15, 2005"
PROD_DATE "2004:11"
SAMPLE_BACKING "white"
SERIAL "DIN A4  R041110"
MATERIAL "Kodak Professional Ultra Endura - Lustreless"
NUMBER_OF_FIELDS 13
BEGIN_DATA_FORMAT
SAMPLE_ID  XYZ_X   XYZ_Y   XYZ_Z          LAB_L   LAB_A   LAB_B          LAB_C   LAB_H          D_RED  D_GREEN  D_BLUE  D_VIS
END_DATA_FORMAT
NUMBER_OF_SETS 288
BEGIN_DATA
A1          3.19    2.70    1.86          18.78   10.54    3.45          11.09   18.11           1.40    1.69    1.63    1.53
A2          3.96    2.69    1.54          18.77   22.69    6.94          23.73   17.02           1.25    1.87    1.72    1.49 
A3          5.76    3.36    1.67          21.45   34.07   10.10          35.53   16.51           1.05    1.98    1.69    1.37
A4          4.27    2.60    1.36          18.37   28.69    8.33          29.87   16.20           1.19    2.02    1.77    1.49 
A5         11.94   10.51    7.56          38.75   13.26    4.22          13.92   17.64           0.83    1.07    1.03    0.95
A6         13.88   10.30    6.38          38.37   27.71    8.54          29.00   17.13           0.71    1.20    1.11    0.93 
A7         16.20   10.28    5.53          38.35   41.62   12.47          43.45   16.68           0.61    1.36    1.17    0.90
A8         19.94   10.77    4.72          39.19   57.78   18.08          60.54   17.37           0.51    1.60    1.25    0.85 
A9         40.00   39.52   31.49          69.13    5.98    1.71           6.22   15.99           0.35    0.42    0.42    0.40
A10        42.64   39.88   30.07          69.38   12.90    4.36          13.62   18.66           0.30    0.45    0.44    0.38
A11        45.41   40.48   29.52          69.81   19.14    5.97          20.05   17.32           0.25    0.47    0.45    0.37
A12        46.56   39.93   28.24          69.42   24.07    7.39          25.18   17.06           0.23    0.50    0.47    0.37 
A13        74.24   78.32   67.31          90.93   -2.62   -2.51           3.63  223.73           0.12    0.09    0.09    0.11
A14        75.82   78.19   67.20          90.87    0.87   -2.51           2.66  289.05           0.10    0.11    0.09    0.11 
A15        76.37   79.87   64.50          91.62   -1.28    1.33           1.85  133.87           0.10    0.09    0.11    0.10
A16        75.76   78.66   64.83          91.08   -0.17    0.08           0.20  159.73           0.10    0.10    0.11    0.10
A17        75.26   77.76   64.63          90.67    0.58   -0.44           0.73  323.13           0.10    0.11    0.11    0.11
A18        73.11   77.34   63.47          90.48   -3.02    0.34           3.04  173.65           0.13    0.10    0.12    0.11 
A19        72.71   75.71   66.39          89.72   -0.61   -3.72           3.77  260.72           0.13    0.11    0.10    0.12
A20         1.24    0.99    0.68           8.94    9.73    2.63          10.08   15.12           1.82    2.15    2.06    1.95 
A21         4.63    2.92    0.65          19.72   27.76   21.82          35.31   38.16           1.15    1.96    2.08    1.44
A22         9.47    5.38    0.75          27.78   42.02   33.77          53.91   38.79           0.82    1.88    2.01    1.15
B1          3.01    2.68    1.44          18.71    7.74    7.92          11.08   45.64           1.43    1.67    1.73    1.54
B2          3.53    2.66    0.91          18.62   16.72   15.21          22.60   42.30           1.31    1.80    1.92    1.51
B3          5.07    3.42    0.79          21.65   24.99   22.37          33.54   41.84           1.12    1.81    1.98    1.38
B4          3.94    2.66    0.64          18.63   23.01   20.03          30.50   41.03           1.23    1.92    2.08    1.49
B5         12.09   10.48    5.53          38.69   14.50   13.04          19.50   41.96           0.81    1.09    1.16    0.94
B6         13.61   10.25    3.45          38.28   26.36   24.20          35.78   42.55           0.71    1.21    1.36    0.93
B7         15.99   10.35    2.02          38.47   39.91   35.81          53.62   41.90           0.60    1.37    1.58    0.89
B8         19.36   10.69    0.96          39.05   55.49   49.59          74.42   41.79           0.51    1.63    1.90    0.85
B9         39.74   39.43   28.99          69.06    5.46    5.52           7.77   45.32           0.35    0.43    0.45    0.40
B10        41.94   39.60   26.12          69.19   11.65   10.57          15.73   42.20           0.30    0.45    0.50    0.38
B11        44.24   39.85   23.09          69.36   17.71   16.36          24.10   42.73           0.26    0.48    0.55    0.37
B12        45.42   39.59   21.06          69.18   21.88   19.99          29.63   42.42           0.23    0.50    0.59    0.37
B13        68.84   74.01   65.85          88.93   -5.39   -4.60           7.08  220.45           0.17    0.11    0.10    0.14
B14        72.21   72.37   64.96          88.15    5.14   -5.10           7.24  315.21           0.12    0.15    0.11    0.14
B15        73.80   77.46   56.11          90.53   -1.82    7.81           8.02  103.14           0.11    0.11    0.17    0.11
B16        61.73   64.17   52.68          84.05   -0.32    0.30           0.46  140.29           0.19    0.19    0.20    0.19
B17        68.58   69.01   53.66          86.51    4.45    3.47           5.64   37.98           0.13    0.17    0.19    0.16
B18        65.80   71.19   54.61          87.58   -6.25    4.30           7.58  145.50           0.17    0.13    0.18    0.15
B19        64.14   66.31   62.95          85.15    0.46   -8.35           8.36  273.15           0.19    0.17    0.12    0.18
B20         2.63    1.84    0.60          14.60   18.68   13.81          23.23   36.48           1.42    2.03    2.11    1.66
B21         7.74    4.45    0.64          25.09   38.58   31.15          49.58   38.91           0.91    1.94    2.08    1.23
B22        27.99   23.80   11.17          55.89   21.19   21.27          30.02   45.10           0.43    0.74    0.86    0.58
C1          4.09    4.00    2.00          23.67    3.45   10.50          11.05   71.81           1.32    1.45    1.58    1.38
C2          4.31    3.95    1.20          23.52    7.15   19.35          20.63   69.72           1.26    1.50    1.79    1.37
C3          5.26    4.51    0.79          25.29   11.70   28.76          31.05   67.85           1.15    1.49    1.97    1.30
C4          4.59    3.96    0.77          23.55   10.68   26.09          28.20   67.74           1.21    1.54    1.98    1.35
C5         22.74   21.81   10.23          53.82    7.95   20.66          22.14   68.95           0.56    0.72    0.89    0.64
C6         24.17   21.20    4.94          53.17   17.09   41.04          44.46   67.40           0.49    0.79    1.19    0.63
C7         26.09   21.09    2.02          53.05   25.80   60.94          66.18   67.05           0.43    0.87    1.56    0.62
C8         27.06   21.21    1.23          53.18   29.19   70.07          75.91   67.39           0.41    0.90    1.78    0.61
C9         46.70   47.13   32.46          74.27    3.56    9.10           9.77   68.64           0.28    0.34    0.40    0.32
C10        48.01   47.09   26.56          74.25    7.29   18.55          19.93   68.54           0.25    0.36    0.49    0.31
C11        49.28   46.92   21.38          74.14   11.23   27.90          30.08   68.08           0.22    0.39    0.58    0.30
C12        50.17   47.00   18.94          74.19   13.40   33.05          35.67   67.93           0.20    0.40    0.63    0.30
C13        59.76   66.56   63.46          85.28  -10.27   -8.61          13.40  219.99           0.25    0.14    0.12    0.19
C14        66.87   64.01   61.62          83.97   11.68   -9.09          14.80  322.13           0.14    0.22    0.13    0.19
C15        70.62   74.35   47.18          89.09   -2.28   15.19          15.36   98.53           0.12    0.13    0.24    0.12
C16        48.24   50.26   41.57          76.23   -0.62   -0.12           0.63  189.58           0.30    0.29    0.30    0.30
C17        61.06   59.01   43.16          81.30    9.96    6.62          11.96   33.60           0.16    0.26    0.28    0.22
C18        54.77   61.75   44.66          82.78  -11.69    7.32          13.79  147.94           0.27    0.18    0.26    0.22
C19        51.85   53.25   57.55          78.02    1.33  -15.26          15.32  274.99           0.29    0.26    0.16    0.28
C20         1.58    1.32    0.60          11.38    8.93    8.25          12.16   42.71           1.70    2.02    2.10    1.83
C21        21.93   16.48    4.27          47.60   31.06   35.13          46.89   48.52           0.49    1.01    1.26    0.72
C22        33.65   30.76   16.72          62.31   14.50   17.55          22.76   50.45           0.38    0.59    0.68    0.48
D1          3.70    3.93    1.97          23.42   -1.26   10.36          10.44   96.96           1.39    1.41    1.59    1.40
D2          3.81    4.05    1.27          23.83   -1.32   18.98          19.03   93.98           1.37    1.41    1.77    1.38
D3          4.53    4.80    0.86          26.15   -1.20   28.95          28.98   92.38           1.28    1.35    1.92    1.30
D4          3.69    3.93    0.81          23.45   -1.52   25.12          25.17   93.45           1.38    1.43    1.95    1.39
D5         25.55   26.74   13.09          58.73   -0.98   20.59          20.61   92.71           0.54    0.59    0.78    0.56
D6         24.79   26.07    6.88          58.10   -1.45   40.40          40.42   92.05           0.54    0.61    1.05    0.57
D7         24.20   25.51    3.09          57.57   -1.75   59.95          59.98   91.67           0.54    0.63    1.38    0.57
D8         23.35   24.57    1.52          56.65   -1.47   72.47          72.48   91.16           0.56    0.66    1.69    0.58
D9         53.01   55.17   37.66          79.14   -0.46   10.05          10.06   92.64           0.24    0.26    0.34    0.25
D10        52.68   55.01   30.14          79.05   -0.94   20.91          20.93   92.58           0.23    0.27    0.43    0.25
D11        52.57   54.91   23.89          78.99   -0.97   31.47          31.49   91.76           0.22    0.28    0.53    0.25
D12        51.83   54.20   12.01          78.58   -1.12   57.86          57.88   91.11           0.22    0.30    0.81    0.25
D13        51.12   59.13   60.70          81.36  -14.97  -12.68          19.62  220.25           0.35    0.17    0.14    0.25
D14        60.90   55.26   57.41          79.19   18.71  -13.10          22.83  325.01           0.16    0.31    0.17    0.24
D15        67.20   70.75   37.66          87.37   -2.24   24.23          24.34   95.29           0.13    0.16    0.33    0.14
D16        36.29   37.80   31.25          67.87   -0.52   -0.09           0.53  186.88           0.42    0.42    0.42    0.42
D17        53.37   49.21   32.91          75.58   15.79   10.69          19.07   34.10           0.19    0.37    0.40    0.29
D18        44.54   52.64   34.76          77.66  -17.21   11.56          20.73  146.11           0.37    0.23    0.37    0.29
D19        41.50   42.16   52.22          70.98    2.61  -21.74          21.90  276.85           0.40    0.36    0.21    0.39
D20        13.00    9.92    2.49          37.70   24.96   30.29          39.25   50.50           0.72    1.22    1.49    0.94
D21        20.59   20.02   10.99          51.86    6.35   14.85          16.15   66.83           0.61    0.74    0.86    0.68
D22        37.31   35.69   19.34          66.28    9.67   18.55          20.92   62.47           0.35    0.50    0.62    0.43
E1          3.58    4.13    2.06          24.08   -5.97   10.63          12.19  119.31           1.44    1.36    1.57    1.39
E2          3.25    4.09    1.31          23.95  -10.71   18.62          21.48  119.91           1.51    1.34    1.75    1.40
E3          3.72    4.96    0.94          26.62  -14.79   28.45          32.06  117.46           1.47    1.24    1.88    1.31
E4          2.96    3.99    0.88          23.62  -14.20   24.33          28.17  120.28           1.58    1.33    1.91    1.41
E5         11.99   13.72    7.35          43.82   -8.28   13.83          16.12  120.92           0.91    0.84    1.03    0.87
E6         10.54   13.31    4.14          43.22  -16.16   28.34          32.63  119.70           0.99    0.83    1.26    0.88
E7          9.48   13.14    2.22          42.97  -23.43   41.74          47.86  119.31           1.08    0.81    1.51    0.89
E8          8.73   12.89    1.41          42.59  -28.07   49.46          56.87  119.58           1.16    0.81    1.71    0.91
E9         36.21   39.16   27.43          68.87   -5.08    7.78           9.29  123.11           0.42    0.39    0.47    0.41
E10        35.07   39.17   22.93          68.88   -8.94   15.83          18.18  119.44           0.44    0.39    0.55    0.41
E11        33.81   39.10   19.13          68.83  -13.04   23.40          26.79  119.14           0.46    0.38    0.62    0.41
E12        31.11   38.50   12.40          68.39  -20.82   39.16          44.35  117.99           0.51    0.37    0.80    0.42
E13        43.71   52.49   57.98          77.57  -19.23  -16.47          25.32  220.58           0.45    0.21    0.16    0.31
E14        55.27   47.47   53.11          74.49   25.31  -16.66          30.30  326.65           0.19    0.40    0.20    0.30
E15        64.27   67.50   30.17          85.76   -1.84   32.43          32.48   93.24           0.14    0.19    0.43    0.16
E16        27.44   28.56   23.74          60.39   -0.40   -0.33           0.54  223.26           0.54    0.54    0.54    0.55
E17        46.89   40.98   25.13          70.16   21.78   13.99          25.89   32.72           0.22    0.48    0.51    0.36
E18        36.51   45.21   27.61          73.03  -22.00   14.65          26.44  146.33           0.48    0.29    0.47    0.36
E19        32.91   32.83   47.07          64.03    4.49  -27.89          28.25  279.14           0.52    0.47    0.26    0.50
E20        23.19   15.84    1.00          46.76   40.44   62.31          74.28   57.02           0.45    1.14    1.87    0.71
E21        16.01   13.23    2.34          43.11   20.04   40.90          45.55   63.90           0.65    1.04    1.50    0.82
E22        28.24   24.28    7.54          56.36   20.15   34.69          40.12   59.86           0.42    0.74    1.02    0.57
F1          1.34    1.73    1.17          13.98   -9.06    3.34           9.65  159.78           1.97    1.68    1.81    1.78
F2          1.09    1.76    0.98          14.17  -17.70    6.39          18.82  160.14           2.17    1.61    1.88    1.80
F3          1.11    2.23    1.00          16.66  -27.81   10.30          29.66  159.68           2.32    1.46    1.85    1.71
F4          0.91    1.70    0.82          13.83  -22.84    8.41          24.34  159.78           2.35    1.59    1.95    1.83
F5          6.25    7.89    5.41          33.75  -13.64    5.12          14.57  159.42           1.26    1.03    1.16    1.12
F6          4.95    7.72    4.52          33.39  -27.00    9.18          28.52  161.23           1.49    0.98    1.23    1.15
F7          4.03    7.73    3.70          33.41  -39.51   14.15          41.97  160.29           1.74    0.94    1.30    1.17
F8          2.77    6.90    2.68          31.59  -52.04   18.24          55.15  160.68           2.22    0.93    1.43    1.24
F9         36.09   39.41   31.41          69.05   -6.26    1.70           6.49  164.83           0.44    0.38    0.42    0.41
F10        34.33   39.22   29.91          68.91  -11.59    3.80          12.20  161.83           0.48    0.37    0.44    0.42
F11        33.06   39.57   28.92          69.16  -17.11    5.82          18.07  161.20           0.52    0.35    0.45    0.42
F12        29.56   38.97   26.38          68.73  -28.07    9.34          29.58  161.59           0.61    0.32    0.49    0.44
F13        36.52   45.76   54.77          73.39  -23.54  -20.34          31.11  220.82           0.58    0.25    0.18    0.38
F14        49.44   39.79   48.55          69.32   32.42  -20.48          38.35  327.72           0.23    0.50    0.25    0.37
F15        60.98   63.61   22.66          83.76   -0.83   42.01          42.02   91.13           0.15    0.22    0.55    0.18
F16        19.63   20.57   16.81          52.47   -1.00    0.38           1.08  159.79           0.69    0.68    0.69    0.69
F17        41.12   33.90   18.25          64.89   27.71   18.52          33.33   33.76           0.26    0.60    0.65    0.43
F18        28.71   37.71   20.46          67.81  -27.37   18.85          33.23  145.44           0.60    0.35    0.59    0.44
F19        24.93   24.32   41.84          56.40    6.45  -34.64          35.24  280.54           0.67    0.60    0.31    0.63
F20        24.68   23.71   11.09          55.79    8.03   21.33          22.80   69.36           0.52    0.68    0.86    0.60
F21        32.25   29.20    9.84          60.96   15.35   34.24          37.52   65.85           0.38    0.63    0.90    0.50
F22        36.85   34.46   14.76          65.33   12.30   27.53          30.16   65.93           0.33    0.53    0.73    0.44
G1          2.14    2.74    2.37          18.98  -10.33   -0.91          10.37  185.05           1.78    1.48    1.52    1.59
G2          1.75    2.78    2.59          19.13  -20.08   -2.53          20.24  187.17           2.03    1.40    1.47    1.61
G3          1.64    3.19    3.21          20.77  -29.96   -4.39          30.27  188.33           2.30    1.29    1.38    1.58
G4          1.44    2.72    2.74          18.90  -27.40   -4.13          27.71  188.57           2.32    1.36    1.45    1.65
G5          8.47   10.47    9.34          38.67  -13.41   -2.48          13.64  190.47           1.15    0.91    0.93    1.01
G6          7.16   10.45    9.86          38.64  -25.34   -4.30          25.70  189.64           1.35    0.85    0.91    1.03
G7          6.03   10.57   10.55          38.84  -37.94   -6.19          38.44  189.27           1.63    0.80    0.88    1.05
G8          4.39    9.51   10.67          36.94  -49.66   -9.85          50.63  191.22           2.18    0.79    0.87    1.12
G9         36.05   39.45   33.29          69.08   -6.50   -1.09           6.59  189.54           0.45    0.38    0.39    0.41
G10        34.16   39.55   34.20          69.15  -13.22   -2.31          13.42  189.92           0.50    0.35    0.38    0.42
G11        32.35   39.49   34.96          69.10  -19.39   -3.48          19.70  190.18           0.56    0.33    0.37    0.43
G12        29.23   38.97   36.22          68.73  -29.35   -5.90          29.94  191.38           0.67    0.31    0.35    0.45
G13        30.65   40.06   51.92          69.51  -27.36  -23.94          36.35  221.19           0.71    0.29    0.20    0.45
G14        43.95   33.07   43.90          64.21   39.05  -23.76          45.71  328.68           0.27    0.62    0.29    0.45
G15        58.66   60.66   17.24          82.19    0.42   50.63          50.64   89.52           0.16    0.25    0.66    0.20
G16        13.61   14.21   11.74          44.53   -0.53   -0.04           0.54  185.99           0.85    0.84    0.84    0.85
G17        35.86   27.53   12.92          59.46   34.28   22.31          40.90   33.06           0.30    0.75    0.80    0.50
G18        22.40   31.37   15.22          62.82  -32.38   22.04          39.17  145.75           0.74    0.41    0.71    0.53
G19        18.99   17.83   37.00          49.29    9.50  -40.51          41.61  283.20           0.82    0.73    0.37    0.78
G20        34.28   33.03   13.55          64.18    8.59   28.73          29.99   73.35           0.37    0.54    0.77    0.46
G21        32.88   31.36    8.44          62.81    9.64   42.34          43.42   77.18           0.38    0.58    0.96    0.47
G22        43.11   39.74    3.07          69.29   14.71   80.28          81.61   79.62           0.25    0.52    1.39    0.36
H1          2.27    2.69    2.97          18.76   -6.47   -6.12           8.91  223.41           1.74    1.50    1.43    1.60
H2          2.09    2.81    4.06          19.25  -12.46  -12.54          17.68  225.18           1.94    1.43    1.29    1.61
H3          2.11    3.14    5.88          20.58  -17.74  -19.85          26.62  228.21           2.19    1.33    1.14    1.59
H4          1.81    2.78    5.43          19.12  -18.42  -20.17          27.32  227.59           2.32    1.37    1.17    1.65
H5          8.95   10.37   11.29          38.50   -8.59   -9.08          12.50  226.61           1.12    0.93    0.86    1.01
H6          8.20   10.59   14.59          38.88  -16.66  -17.62          24.25  226.61           1.29    0.87    0.75    1.02
H7          7.49   10.74   18.86          39.14  -24.33  -27.21          36.50  228.20           1.56    0.81    0.64    1.05
H8          6.47   10.47   23.86          38.68  -32.53  -37.98          50.00  229.42           2.17    0.77    0.54    1.10
H9         36.31   39.30   36.11          68.97   -5.18   -5.35           7.44  225.90           0.45    0.38    0.36    0.41
H10        35.41   39.54   39.90          69.14   -8.92  -10.19          13.54  228.81           0.49    0.36    0.32    0.42
H11        34.04   39.59   44.09          69.17  -13.75  -15.44          20.67  228.31           0.55    0.34    0.28    0.43
H12        31.78   39.55   51.62          69.15  -21.65  -24.25          32.50  228.24           0.65    0.31    0.21    0.45
H13        25.33   34.62   48.84          65.45  -30.87  -27.49          41.34  221.68           0.86    0.33    0.23    0.52
H14        38.95   27.19   39.56          59.15   45.70  -26.95          53.05  329.47           0.31    0.76    0.34    0.52
H15        56.06   57.24   12.34          80.31    2.17   59.89          59.93   87.93           0.17    0.29    0.80    0.22
H16         9.01    9.44    7.78          36.81   -0.76    0.05           0.76  175.98           1.03    1.02    1.01    1.03
H17        31.21   22.29    8.62          54.33   40.15   27.06          48.42   33.98           0.34    0.90    0.97    0.58
H18        17.16   25.76   10.75          57.81  -36.87   25.86          45.03  144.96           0.89    0.48    0.86    0.62
H19        13.95   12.42   32.52          41.88   13.00  -46.84          48.61  285.51           1.01    0.89    0.43    0.94
H20        38.61   38.98   14.16          68.74    3.29   34.95          35.10   84.62           0.34    0.45    0.75    0.39
H21        29.18   30.33   19.13          61.94   -0.25   11.51          11.51   91.24           0.49    0.53    0.63    0.51
H22        32.70   35.54   10.28          66.16   -5.48   41.79          42.15   97.47           0.43    0.46    0.88    0.44
I1          3.80    3.98    5.19          23.59   -0.46  -11.25          11.26  267.65           1.47    1.37    1.20    1.42
I2          4.00    4.12    8.14          24.07    0.41  -23.32          23.33  271.01           1.55    1.33    1.01    1.42
I3          4.20    4.23   11.67          24.41    1.70  -34.51          34.56  272.83           1.67    1.30    0.86    1.44
I4          4.34    4.31   19.21          24.68    2.47  -52.90          52.96  272.68           2.29    1.21    0.65    1.50
I5         13.11   13.63   14.39          43.70   -0.21   -8.80           8.81  268.60           0.89    0.85    0.76    0.87
I6         13.29   13.74   18.90          43.86    0.25  -19.16          19.16  270.74           0.93    0.84    0.64    0.88
I7         13.41   13.75   23.48          43.87    1.00  -28.33          28.35  272.01           0.97    0.82    0.56    0.89
I8         13.76   13.87   34.15          44.05    2.47  -45.51          45.57  273.11           1.09    0.79    0.40    0.91
