targets/wolf_faust/reflective/R050302.it8
IT8.7/2
ORIGINATOR "Wolf Faust"
DESCRIPTOR "Kodak Professional Paper, L* a* b* (light D50, viewing angle 2)"
MANUFACTURER "Wolf Faust - http://www.coloraid.de"
CREATED "July 09, 2005"
PROD_DATE "2005:03"
SAMPLE_BACKING "black"
SERIAL "5x7 R050302 Batch Average Data"
MATERIAL "Kodak Professional Ultra Endura"
KEYWORD "MEAN_DE" # Mean Delta E of samples compared to batch average
NUMBER_OF_FIELDS 18
BEGIN_DATA_FORMAT
SAMPLE_ID  XYZ_X   XYZ_Y   XYZ_Z          LAB_L   LAB_A   LAB_B          LAB_C   LAB_H          D_RED  D_GREEN  D_BLUE  D_VIS          STDEV_X STDEV_Y STDEV_Z        MEAN_DE  STDEV_DE
END_DATA_FORMAT
NUMBER_OF_SETS 288
BEGIN_DATA
A1          3.55    3.00    2.03          20.06   10.84    4.00          11.56   20.22           1.35    1.63    1.59    1.49            0.03    0.03    0.03           0.36     0.40
A2          4.30    2.93    1.64          19.76   23.15    7.53          24.35   18.01           1.21    1.82    1.68    1.46            0.05    0.03    0.02           0.39     0.43 
A3          5.20    2.94    1.41          19.80   34.55   10.21          36.03   16.46           1.10    2.07    1.76    1.42            0.04    0.03    0.02           0.28     0.32
A4          5.79    3.17    1.48          20.71   37.59   11.00          39.17   16.31           1.05    2.10    1.74    1.38            0.05    0.03    0.02           0.40     0.44 
A5         12.68   11.13    7.78          39.80   13.76    5.16          14.70   20.54           0.80    1.04    1.01    0.92            0.10    0.09    0.10           0.46     0.49
A6         14.96   11.10    6.77          39.75   28.40    9.19          29.85   17.94           0.68    1.15    1.08    0.90            0.14    0.10    0.09           0.48     0.52 
A7         17.56   11.31    6.02          40.10   41.59   13.15          43.62   17.54           0.58    1.28    1.13    0.86            0.10    0.07    0.07           0.40     0.44
A8         21.48   11.19    4.86          39.89   62.17   18.57          64.89   16.63           0.49    1.63    1.24    0.82            0.05    0.04    0.06           0.32     0.35 
A9         40.98   40.50   31.87          69.82    5.98    2.33           6.43   21.24           0.34    0.41    0.41    0.38            0.22    0.19    0.25           0.34     0.37
A10        43.35   40.56   30.68          69.87   12.92    4.24          13.60   18.17           0.29    0.44    0.43    0.38            0.16    0.17    0.18           0.28     0.33
A11        45.88   40.71   29.25          69.97   19.77    6.68          20.87   18.67           0.25    0.46    0.45    0.36            0.11    0.12    0.21           0.32     0.37
A12        48.89   40.53   28.07          69.85   28.67    8.40          29.88   16.33           0.20    0.50    0.47    0.36            0.11    0.13    0.18           0.31     0.37 
A13        75.27   78.71   69.70          91.10   -1.26   -4.40           4.57  253.99           0.11    0.09    0.08    0.11            0.16    0.18    0.07           0.14     0.16
A14        76.56   79.09   69.73          91.28    0.60   -4.12           4.17  278.34           0.10    0.10    0.08    0.10            0.12    0.12    0.07           0.12     0.15 
A15        75.51   78.71   62.40          91.11   -0.80    2.45           2.58  108.02           0.10    0.10    0.12    0.10            0.17    0.18    0.12           0.14     0.17
A16        75.71   78.61   65.04          91.06   -0.18   -0.16           0.28  212.24           0.10    0.10    0.11    0.11            0.16    0.17    0.14           0.17     0.19
A17        74.65   76.71   63.96          90.19    1.40   -0.63           1.55  335.95           0.10    0.11    0.11    0.11            0.17    0.18    0.11           0.15     0.17
A18        73.79   77.54   64.65          90.57   -2.00   -0.63           2.11  197.54           0.12    0.10    0.11    0.11            0.16    0.18    0.10           0.14     0.18 
A19        75.60   78.39   69.58          90.96    0.04   -4.54           4.54  270.54           0.11    0.10    0.08    0.11            0.18    0.19    0.07           0.13     0.16
A20         1.37    1.11    0.71           9.91    9.47    3.63          10.14   20.97           1.78    2.08    2.03    1.91            0.01    0.01    0.01           0.21     0.25 
A21         5.13    3.28    0.76          21.12   28.04   21.99          35.64   38.10           1.11    1.87    2.00    1.39            0.04    0.03    0.01           0.26     0.30
A22        10.05    5.77    0.80          28.81   42.13   34.65          54.55   39.44           0.79    1.80    1.98    1.12            0.05    0.03    0.01           0.26     0.28
B1          3.35    2.95    1.57          19.85    8.58    8.42          12.02   44.46           1.38    1.62    1.69    1.50            0.02    0.02    0.02           0.30     0.34
B2          3.96    2.95    0.97          19.86   17.91   16.30          24.22   42.32           1.25    1.75    1.89    1.46            0.05    0.04    0.01           0.36     0.40
B3          4.50    2.95    0.61          19.83   25.53   22.68          34.14   41.61           1.17    1.89    2.09    1.44            0.04    0.03    0.00           0.27     0.32
B4          5.18    3.21    0.52          20.88   29.69   26.24          39.63   41.48           1.10    1.93    2.16    1.39            0.05    0.03    0.00           0.24     0.27
B5         12.89   11.20    5.78          39.92   14.66   13.96          20.24   43.61           0.78    1.05    1.14    0.91            0.09    0.09    0.07           0.38     0.45
B6         14.74   11.18    3.83          39.89   26.44   24.45          36.01   42.76           0.67    1.15    1.31    0.89            0.13    0.10    0.04           0.39     0.44
B7         17.11   11.21    2.27          39.92   39.92   36.04          53.78   42.07           0.58    1.30    1.53    0.86            0.09    0.07    0.03           0.38     0.44
B8         20.86   11.15    0.89          39.84   59.49   52.03          79.04   41.17           0.48    1.65    1.93    0.82            0.06    0.05    0.01           0.17     0.21
B9         41.18   40.81   29.77          70.04    5.66    5.97           8.23   46.49           0.33    0.41    0.44    0.38            0.17    0.17    0.19           0.34     0.37
B10        43.26   40.64   26.93          69.92   12.41   10.46          16.23   40.11           0.29    0.44    0.48    0.37            0.13    0.12    0.17           0.37     0.40
B11        45.52   41.02   23.79          70.19   17.82   16.47          24.27   42.75           0.24    0.46    0.53    0.36            0.10    0.10    0.25           0.41     0.45
B12        47.99   40.52   20.09          69.84   26.24   23.12          34.97   41.38           0.20    0.51    0.61    0.35            0.08    0.11    0.20           0.45     0.50
B13        69.64   74.56   68.76          89.19   -4.80   -6.85           8.36  234.97           0.16    0.11    0.08    0.14            0.13    0.14    0.06           0.12     0.13
B14        72.79   72.39   67.66          88.16    6.33   -7.61           9.90  309.74           0.11    0.15    0.09    0.14            0.11    0.14    0.07           0.14     0.16
B15        73.97   77.33   55.53          90.47   -1.22    8.31           8.40   98.37           0.10    0.11    0.17    0.11            0.24    0.24    0.21           0.15     0.17
B16        62.88   65.23   53.30          84.60   -0.03    0.57           0.58   91.74           0.18    0.18    0.19    0.19            0.28    0.27    0.24           0.20     0.22
B17        69.74   69.85   54.11          86.92    5.20    3.70           6.38   35.44           0.12    0.17    0.19    0.15            0.21    0.21    0.18           0.19     0.21
B18        66.67   72.02   54.73          87.98   -6.06    4.87           7.77  141.25           0.17    0.12    0.18    0.15            0.17    0.19    0.15           0.18     0.20
B19        65.65   67.46   66.51          85.74    1.35  -10.72          10.80  277.19           0.18    0.16    0.10    0.18            0.12    0.13    0.08           0.12     0.13
B20         2.86    2.06    0.72          15.79   17.70   13.59          22.31   37.52           1.39    1.93    2.02    1.61            0.02    0.02    0.01           0.24     0.29
B21         8.39    4.92    0.77          26.51   38.36   31.22          49.46   39.14           0.88    1.83    1.99    1.19            0.06    0.04    0.00           0.29     0.31
B22        29.11   24.88   11.81          56.96   20.94   21.18          29.78   45.31           0.41    0.71    0.83    0.56            0.14    0.11    0.16           0.46     0.52
C1          4.51    4.43    2.22          25.04    3.19   10.88          11.34   73.65           1.27    1.39    1.54    1.33            0.05    0.05    0.02           0.36     0.41
C2          4.86    4.43    1.35          25.05    7.80   20.04          21.51   68.73           1.20    1.44    1.74    1.32            0.04    0.04    0.01           0.28     0.32
C3          5.22    4.43    0.72          25.04   12.27   29.64          32.08   67.50           1.15    1.50    2.00    1.30            0.06    0.05    0.01           0.25     0.28
C4          5.82    4.87    0.67          26.36   13.55   32.82          35.51   67.56           1.10    1.47    2.03    1.26            0.07    0.06    0.00           0.29     0.34
C5         23.86   22.86   10.68          54.93    8.14   21.13          22.64   68.92           0.53    0.69    0.87    0.62            0.16    0.14    0.12           0.43     0.48
C6         25.84   22.75    5.52          54.81   17.12   40.90          44.34   67.28           0.46    0.75    1.14    0.60            0.13    0.11    0.06           0.41     0.45
C7         28.12   22.88    2.36          54.94   25.77   61.18          66.39   67.16           0.40    0.82    1.49    0.58            0.11    0.10    0.02           0.22     0.25
C8         29.64   22.79    1.10          54.85   32.05   74.72          81.30   66.78           0.36    0.87    1.82    0.57            0.08    0.07    0.00           0.14     0.15
C9         48.01   48.48   32.79          75.12    3.53   10.08          10.68   70.69           0.27    0.33    0.40    0.31            0.20    0.19    0.21           0.31     0.34
C10        49.45   48.34   27.19          75.04    7.80   18.83          20.38   67.50           0.23    0.35    0.47    0.30            0.18    0.18    0.27           0.32     0.39
C11        51.11   48.67   21.96          75.24   11.35   28.67          30.83   68.40           0.20    0.37    0.56    0.29            0.16    0.16    0.20           0.31     0.35
C12        53.09   48.45   16.00          75.11   17.11   41.32          44.72   67.51           0.16    0.40    0.69    0.28            0.14    0.13    0.12           0.25     0.28
C13        60.40   67.42   66.99          85.71  -10.61  -11.20          15.43  226.56           0.25    0.13    0.09    0.19            0.10    0.10    0.06           0.14     0.15
C14        67.84   63.90   64.62          83.91   14.04  -12.08          18.52  319.29           0.13    0.22    0.11    0.19            0.16    0.18    0.10           0.14     0.16
C15        71.78   75.17   45.48          89.47   -1.47   17.87          17.93   94.71           0.10    0.13    0.26    0.12            0.23    0.24    0.26           0.20     0.23
C16        48.97   50.92   41.62          76.63   -0.36    0.51           0.63  125.59           0.29    0.29    0.30    0.29            0.15    0.14    0.12           0.15     0.17
C17        62.89   60.02   42.95          81.85   11.87    7.82          14.21   33.38           0.14    0.26    0.28    0.21            0.17    0.19    0.15           0.22     0.26
C18        55.47   62.98   44.10          83.43  -12.75    9.14          15.68  144.37           0.26    0.17    0.27    0.21            0.15    0.16    0.21           0.18     0.21
C19        53.26   54.20   61.86          78.58    2.60  -18.62          18.80  277.95           0.28    0.25    0.13    0.27            0.13    0.14    0.08           0.12     0.13
C20         1.73    1.47    0.69          12.39    8.41    8.36          11.86   44.81           1.67    1.95    2.04    1.79            0.01    0.01    0.00           0.29     0.32
C21        23.39   17.67    4.73          49.10   31.23   35.12          47.00   48.35           0.47    0.96    1.21    0.69            0.10    0.08    0.07           0.40     0.43
C22        35.19   32.03   17.15          63.36   15.22   18.38          23.86   50.37           0.35    0.57    0.67    0.47            0.13    0.13    0.14           0.39     0.44
D1          4.17    4.37    2.23          24.86   -0.60   10.46          10.48   93.26           1.33    1.36    1.53    1.35            0.04    0.05    0.03           0.32     0.38
D2          4.16    4.37    1.35          24.86   -0.79   19.62          19.64   92.32           1.32    1.37    1.73    1.34            0.05    0.04    0.01           0.25     0.29
D3          4.08    4.34    0.74          24.76   -1.49   28.66          28.70   92.98           1.33    1.38    1.98    1.34            0.04    0.04    0.00           0.21     0.24
D4          4.80    5.10    0.75          27.02   -1.44   32.52          32.55   92.53           1.25    1.32    1.98    1.27            0.06    0.06    0.00           0.28     0.32
D5         27.07   28.29   13.67          60.15   -0.84   21.44          21.45   92.24           0.51    0.56    0.76    0.54            0.18    0.15    0.12           0.40     0.46
D6         26.69   28.04    7.49          59.92   -1.42   41.01          41.03   91.98           0.50    0.58    1.01    0.54            0.22    0.19    0.09           0.40     0.46
D7         26.62   28.18    3.48          60.05   -2.25   61.51          61.55   92.09           0.50    0.59    1.33    0.53            0.22    0.18    0.03           0.37     0.42
D8         26.59   28.23    1.47          60.10   -2.58   79.03          79.07   91.87           0.51    0.60    1.71    0.53            0.14    0.12    0.01           0.19     0.23
D9         54.85   57.09   38.44          80.23   -0.52   10.89          10.90   92.72           0.22    0.25    0.33    0.24            0.20    0.18    0.25           0.27     0.32
D10        54.52   56.91   30.74          80.13   -0.90   21.83          21.85   92.35           0.21    0.25    0.42    0.24            0.14    0.16    0.25           0.28     0.34
D11        54.68   57.13   24.89          80.26   -1.04   31.82          31.84   91.86           0.20    0.26    0.51    0.23            0.17    0.18    0.27           0.39     0.42
D12        54.21   56.97   11.75          80.16   -1.84   61.37          61.39   91.72           0.20    0.28    0.82    0.23            0.19    0.22    0.17           0.33     0.36
D13        52.03   60.52   64.86          82.12  -15.87  -15.40          22.11  224.13           0.35    0.16    0.11    0.24            0.17    0.14    0.08           0.18     0.21
D14        62.29   55.11   60.73          79.11   22.30  -16.59          27.80  323.35           0.15    0.31    0.14    0.24            0.09    0.12    0.09           0.19     0.21
D15        69.78   72.95   36.50          88.42   -1.19   27.66          27.68   92.47           0.11    0.15    0.35    0.13            0.17    0.18    0.21           0.20     0.23
D16        37.26   38.67   31.52          68.51   -0.08    0.61           0.63   96.11           0.40    0.41    0.42    0.41            0.20    0.19    0.18           0.32     0.36
D17        56.08   50.59   32.96          76.43   18.95   12.07          22.47   32.49           0.16    0.36    0.40    0.27            0.12    0.14    0.21           0.32     0.37
D18        45.72   54.57   34.62          78.79  -18.70   13.72          23.19  143.73           0.36    0.21    0.37    0.28            0.21    0.20    0.14           0.29     0.32
D19        42.44   42.36   56.51          71.12    4.83  -26.08          26.52  280.49           0.40    0.36    0.18    0.38            0.16    0.16    0.13           0.17     0.18
D20        13.98   10.72    2.69          39.10   25.17   31.13          40.03   51.04           0.69    1.17    1.45    0.91            0.07    0.05    0.04           0.36     0.40
D21        21.82   21.19   11.52          53.16    6.61   15.51          16.86   66.91           0.58    0.71    0.84    0.66            0.11    0.11    0.16           0.45     0.50
D22        38.59   36.84   20.07          67.16   10.03   18.53          21.07   61.56           0.33    0.48    0.60    0.41            0.09    0.07    0.18           0.38     0.43
E1          3.84    4.37    2.21          24.86   -5.44   10.65          11.96  117.06           1.40    1.33    1.53    1.36            0.04    0.04    0.02           0.32     0.38
E2          3.57    4.43    1.42          25.06  -10.30   19.20          21.79  118.20           1.45    1.30    1.71    1.36            0.04    0.05    0.01           0.27     0.30
E3          3.27    4.46    0.80          25.15  -15.44   28.29          32.23  118.63           1.53    1.28    1.95    1.36            0.03    0.03    0.00           0.18     0.22
E4          3.73    5.14    0.82          27.14  -16.87   31.45          35.69  118.21           1.48    1.21    1.94    1.30            0.03    0.04    0.01           0.18     0.20
E5         12.80   14.59    7.67          45.07   -8.15   14.72          16.82  118.98           0.87    0.81    1.01    0.84            0.08    0.08    0.11           0.39     0.44
E6         11.64   14.55    4.43          45.01  -15.87   29.74          33.71  118.09           0.94    0.79    1.23    0.84            0.08    0.08    0.07           0.40     0.45
E7         10.63   14.56    2.48          45.03  -23.34   43.04          48.96  118.47           1.02    0.77    1.46    0.85            0.06    0.07    0.02           0.16     0.19
E8          9.77   14.67    1.29          45.18  -30.58   55.53          63.39  118.84           1.12    0.75    1.75    0.85            0.07    0.07    0.01           0.19     0.22
E9         38.00   40.97   28.14          70.16   -4.79    8.82          10.04  118.53           0.40    0.37    0.46    0.39            0.21    0.18    0.28           0.41     0.45
E10        36.89   41.29   23.50          70.38   -9.34   17.35          19.71  118.32           0.41    0.36    0.53    0.39            0.09    0.09    0.18           0.33     0.38
E11        35.72   41.23   19.73          70.34  -13.03   24.71          27.94  117.80           0.43    0.36    0.61    0.39            0.15    0.15    0.22           0.38     0.42
E12        32.88   41.05   12.82          70.21  -22.28   41.12          46.77  118.45           0.49    0.34    0.78    0.39            0.17    0.17    0.11           0.31     0.34
E13        44.10   53.58   62.32          78.22  -20.88  -19.69          28.70  223.33           0.46    0.19    0.13    0.31            0.17    0.18    0.08           0.18     0.20
E14        57.03   47.30   56.67          74.38   30.13  -20.63          36.52  325.60           0.18    0.41    0.18    0.30            0.12    0.13    0.12           0.19     0.22
E15        67.71   70.38   28.36          87.18   -0.33   37.81          37.81   90.50           0.11    0.17    0.45    0.14            0.20    0.21    0.22           0.25     0.29
E16        27.45   28.61   23.16          60.44   -0.56    0.84           1.03  125.82           0.54    0.54    0.55    0.54            0.18    0.17    0.17           0.33     0.36
E17        49.69   42.25   24.65          71.05   25.66   16.38          30.44   32.55           0.19    0.48    0.52    0.34            0.11    0.10    0.17           0.33     0.37
E18        36.71   46.31   26.48          73.75  -24.46   17.82          30.26  143.93           0.48    0.27    0.48    0.35            0.14    0.13    0.16           0.26     0.29
E19        33.08   32.39   50.95          63.67    6.63  -32.95          33.61  281.37           0.53    0.47    0.22    0.51            0.11    0.10    0.11           0.15     0.17
E20        24.48   16.85    1.21          48.07   40.46   61.48          73.60   56.65           0.43    1.09    1.77    0.69            0.08    0.07    0.01           0.24     0.27
E21        17.25   14.27    2.60          44.61   20.45   41.36          46.14   63.69           0.62    1.00    1.46    0.79            0.08    0.08    0.03           0.31     0.35
E22        29.63   25.61    7.94          57.67   19.87   35.35          40.55   60.65           0.40    0.71    0.99    0.55            0.10    0.10    0.09           0.40     0.44
F1          1.53    1.93    1.25          15.10   -8.46    4.10           9.40  154.16           1.88    1.64    1.78    1.73            0.01    0.02    0.01           0.23     0.26
F2          1.20    1.91    1.05          15.03  -17.72    6.82          18.99  158.94           2.10    1.58    1.84    1.76            0.01    0.01    0.01           0.22     0.24
F3          1.06    2.04    0.93          15.72  -25.58    9.92          27.44  158.80           2.28    1.50    1.89    1.75            0.01    0.02    0.01           0.19     0.22
F4          1.21    2.45    1.08          17.68  -28.99   10.98          31.00  159.26           2.27    1.42    1.82    1.67            0.01    0.02    0.01           0.23     0.25
F5          6.82    8.57    5.77          35.15  -13.67    5.78          14.85  157.11           1.21    1.00    1.13    1.09            0.04    0.04    0.09           0.43     0.48
F6          5.61    8.55    4.85          35.10  -26.51   10.34          28.46  158.69           1.40    0.94    1.20    1.11            0.05    0.06    0.05           0.34     0.38
F7          4.53    8.54    4.03          35.09  -39.79   14.95          42.51  159.40           1.66    0.90    1.27    1.13            0.03    0.04    0.04           0.23     0.25
F8          3.44    8.55    3.15          35.10  -55.63   20.79          59.39  159.51           2.10    0.84    1.36    1.15            0.03    0.06    0.03           0.22     0.25
F9         37.67   41.09   32.00          70.24   -6.20    2.84           6.82  155.40           0.42    0.36    0.41    0.39            0.18    0.18    0.21           0.33     0.36
F10        35.88   41.01   30.64          70.18  -11.83    4.84          12.79  157.74           0.46    0.35    0.42    0.40            0.18    0.17    0.19           0.33     0.37
F11        34.23   41.01   29.39          70.18  -17.44    6.82          18.73  158.65           0.50    0.33    0.44    0.40            0.08    0.08    0.24           0.33     0.37
F12        31.05   41.31   26.88          70.39  -29.68   11.34          31.77  159.08           0.59    0.30    0.48    0.41            0.17    0.18    0.24           0.30     0.33
F13        37.21   47.21   59.51          74.32  -25.31  -23.62          34.62  223.03           0.59    0.22    0.15    0.37            0.16    0.17    0.09           0.18     0.20
F14        51.86   40.17   52.42          69.59   37.70  -24.36          44.88  327.13           0.21    0.51    0.21    0.37            0.13    0.14    0.10           0.19     0.22
F15        65.74   67.72   21.64          85.87    1.00   47.62          47.63   88.80           0.11    0.20    0.57    0.15            0.18    0.19    0.14           0.21     0.27
F16        19.75   20.64   16.51          52.56   -0.77    1.23           1.48  122.48           0.68    0.68    0.69    0.69            0.14    0.12    0.11           0.42     0.46
F17        43.93   35.14   17.80          65.86   31.91   21.18          38.30   33.57           0.22    0.60    0.66    0.41            0.11    0.14    0.16           0.42     0.48
