targets/wolf_faust/reflective/R050301WhiteBacking.it8
IT8.7/2
ORIGINATOR "Wolf Faust"
DESCRIPTOR "Kodak Professional Paper, L* a* b* (light D50, viewing angle 2)"
MANUFACTURER "Wolf Faust - http://www.coloraid.de"
CREATED "March 04, 2005"
PROD_DATE "2005:03"
SAMPLE_BACKING "white"
SERIAL "5x7 R050301 Batch Average Data"
MATERIAL "Kodak Professional Ultra Endura"
NUMBER_OF_FIELDS 9
BEGIN_DATA_FORMAT
SAMPLE_ID   XYZ_X   XYZ_Y   XYZ_Z          LAB_L   LAB_A   LAB_B          LAB_C   LAB_H
END_DATA_FORMAT
NUMBER_OF_SETS 288
BEGIN_DATA
A1           3.55    2.97    2.08          19.93   11.51    3.30          11.97   16.02
A2           4.38    2.96    1.73          19.89   23.72    6.76          24.66   15.91 
A3           5.37    3.03    1.42          20.17   35.09   10.75          36.70   17.03
A4           6.10    3.31    1.48          21.26   38.64   11.87          40.42   17.07 
A5          12.96   11.33    8.16          40.12   14.19    4.28          14.82   16.80
A6          15.16   11.22    7.02          39.94   28.71    8.50          29.94   16.49 
A7          17.75   11.41    6.12          40.26   41.94   12.95          43.89   17.16
A8          21.86   11.37    5.01          40.20   62.67   18.29          65.28   16.27 
A9          41.97   41.15   32.47          70.28    7.03    2.20           7.37   17.36
A10         44.47   41.41   30.93          70.46   13.62    4.88          14.47   19.70
A11         46.58   41.12   29.73          70.26   20.50    6.41          21.48   17.37
A12         49.80   41.22   28.28          70.33   29.06    8.89          30.39   17.01 
A13         76.60   80.05   70.71          91.71   -1.18   -4.27           4.43   254.59
A14         78.01   80.53   70.74          91.92    0.73   -3.92           3.98   280.61 
A15         77.07   80.22   64.51          91.78   -0.56    1.59           1.69   109.46
A16         77.12   80.02   66.07          91.69   -0.08   -0.03           0.17   186.10
A17         76.58   78.82   66.18          91.15    1.17   -1.07           1.59   317.59
A18         75.07   78.83   65.60          91.16   -1.90   -0.52           1.98   195.30 
A19         76.88   79.66   70.55          91.53    0.15   -4.42           4.43   271.88
A20          1.37    1.10    0.73           9.78    9.90    3.08          10.36   17.27 
A21          5.35    3.38    0.77          21.51   28.99   22.52          36.71   37.84
A22         10.44    5.98    0.84          29.36   42.80   34.89          55.21   39.19
B1           3.39    3.01    1.56          20.08    8.35    8.89          12.19   46.79
B2           4.05    3.03    1.03          20.15   17.92   15.95          23.99   41.67
B3           4.64    3.01    0.62          20.06   26.36   22.98          34.97   41.09
B4           5.29    3.27    0.52          21.08   30.13   26.55          40.16   41.38
B5          13.34   11.60    6.01          40.57   14.78   14.00          20.35   43.46
B6          15.02   11.36    3.95          40.18   26.90   24.23          36.21   42.02
B7          17.62   11.41    2.38          40.26   41.23   35.71          54.54   40.90
B8          21.40   11.48    0.95          40.37   59.75   52.10          79.27   41.09
B9          41.95   41.50   30.35          70.52    5.93    5.88           8.35   44.74
B10         44.19   41.58   27.39          70.58   12.30   10.81          16.38   41.31
B11         46.15   41.37   24.29          70.44   18.55   15.98          24.49   40.75
B12         48.97   41.26   20.48          70.36   26.68   23.21          35.36   41.02
B13         71.27   76.11   69.81          89.91   -4.45   -6.54           7.91   235.79
B14         74.15   73.65   68.61          88.76    6.56   -7.45           9.93   311.35
B15         75.54   78.87   56.95          91.18   -1.04    8.04           8.11   97.38
B16         64.38   66.55   54.63          85.27    0.49    0.30           0.60   30.21
B17         71.22   71.20   55.30          87.58    5.49    3.58           6.55   33.08
B18         68.40   73.67   56.19          88.76   -5.64    4.68           7.33   140.34
B19         67.22   68.85   67.47          86.43    1.85  -10.41          10.58   280.07
B20          2.89    2.06    0.72          15.79   18.30   13.55          22.77   36.54
B21          8.61    5.03    0.78          26.83   38.87   31.56          50.07   39.07
B22         30.03   25.53   12.14          57.59   21.71   21.30          30.41   44.46
C1           4.66    4.53    2.29          25.35    3.92   10.70          11.39   69.88
C2           4.93    4.47    1.38          25.17    8.09   19.86          21.45   67.85
C3           5.20    4.41    0.72          25.00   12.16   29.46          31.87   67.58
C4           5.92    4.94    0.68          26.57   13.79   33.06          35.82   67.35
C5          24.24   23.19   11.18          55.27    8.38   20.14          21.82   67.40
C6          26.26   23.11    5.70          55.19   17.26   40.70          44.21   67.02
C7          28.61   23.21    2.36          55.29   26.21   61.76          67.09   67.00
C8          30.23   23.24    1.13          55.32   32.28   75.07          81.72   66.73
C9          49.31   49.56   33.69          75.80    4.15    9.90          10.74   67.28
C10         50.62   49.58   27.92          75.81    7.62   18.93          20.41   68.06
C11         52.47   49.82   22.93          75.96   11.83   28.05          30.44   67.13
C12         54.16   49.34   16.40          75.66   17.43   41.33          44.85   67.13
C13         61.63   68.63   68.06          86.32  -10.32  -11.15          15.19   227.21
C14         69.00   64.89   65.44          84.43   14.35  -11.97          18.69   320.17
C15         73.20   76.58   46.42          90.13   -1.31   17.88          17.93   94.20
C16         50.09   51.86   42.40          77.20    0.22    0.50           0.55   65.84
C17         64.15   61.11   43.68          82.44   12.18    7.94          14.54   33.12
C18         56.89   64.38   45.02          84.16  -12.36    9.27          15.45   143.15
C19         54.38   55.17   62.73          79.14    3.02  -18.49          18.74   279.28
C20          1.77    1.48    0.69          12.47    9.19    8.48          12.51   42.67
C21         23.72   17.87    4.92          49.34   31.66   34.54          46.85   47.49
C22         35.92   32.62   18.06          63.85   15.58   17.16          23.18   47.75
D1           4.22    4.45    2.24          25.10   -0.95   10.74          10.78   95.03
D2           4.19    4.42    1.39          25.01   -0.89   19.44          19.46   92.63
D3           4.20    4.46    0.77          25.13   -1.32   28.87          28.90   92.62
D4           4.80    5.06    0.75          26.92   -1.09   32.26          32.28   91.93
D5          27.00   28.26   14.22          60.12   -0.99   19.94          19.96   92.84
D6          26.94   28.34    7.70          60.19   -1.54   40.65          40.68   92.17
D7          26.77   28.36    3.67          60.21   -2.32   60.54          60.58   92.19
D8          26.62   28.35    1.50          60.20   -2.90   78.80          78.85   92.11
D9          55.72   57.94   39.59          80.70   -0.36   10.16          10.17   92.04
D10         55.72   58.02   31.79          80.75   -0.57   21.29          21.30   91.52
D11         55.77   58.14   25.39          80.82   -0.73   31.91          31.92   91.32
D12         55.13   57.99   12.32          80.73   -1.95   60.69          60.72   91.84
D13         52.51   61.05   65.72          82.40  -15.85  -15.73          22.32   224.78
D14         63.34   55.93   61.46          79.58   22.67  -16.50          28.04   323.95
D15         70.97   74.10   37.14          88.97   -1.02   27.71          27.73   92.11
D16         37.66   39.07   32.12          68.80   -0.04    0.18           0.25   107.36
D17         57.12   51.45   33.60          76.95   19.28   12.03          22.72   31.97
D18         46.24   55.18   35.24          79.14  -18.75   13.43          23.06   144.39
D19         42.81   42.72   57.18          71.36    4.88  -26.35          26.80   280.49
D20         14.40   11.02    2.78          39.62   25.57   31.32          40.43   50.77
D21         22.08   21.43   11.81          53.41    6.69   15.08          16.50   66.05
D22         39.34   37.42   20.58          67.59   10.54   18.24          21.06   59.98
E1           3.85    4.40    2.27          24.95   -5.55   10.21          11.62   118.51
E2           3.58    4.46    1.45          25.12  -10.39   18.91          21.57   118.78
E3           3.19    4.39    0.81          24.92  -15.87   27.63          31.87   119.87
E4           3.68    5.12    0.82          27.08  -17.40   31.25          35.76   119.10
E5          12.88   14.68    7.88          45.20   -8.21   14.10          16.32   120.19
E6          11.69   14.61    4.81          45.09  -15.89   27.80          32.02   119.75
E7          10.68   14.66    2.54          45.17  -23.55   42.78          48.83   118.83
E8           9.65   14.61    1.30          45.10  -31.21   55.26          63.47   119.46
E9          38.52   41.46   28.81          70.50   -4.59    8.31           9.49   118.91
E10         36.84   41.25   24.01          70.35   -9.39   16.36          18.87   119.86
E11         35.80   41.51   19.98          70.53  -13.63   24.53          28.07   119.06
E12         33.13   41.36   13.17          70.43  -22.34   40.54          46.29   118.86
E13         44.11   53.66   63.05          78.26  -21.05  -20.31          29.25   223.98
E14         57.73   47.65   57.12          74.60   30.89  -20.70          37.19   326.17
E15         68.85   71.50   29.02          87.73   -0.19   37.67          37.67   90.28
E16         27.35   28.50   23.47          60.34   -0.51    0.09           0.56   174.02
E17         50.48   42.81   25.16          71.42   26.16   16.12          30.73   31.64
E18         36.70   46.39   27.02          73.80  -24.72   16.98          29.99   145.52
E19         32.92   32.18   51.26          63.49    6.83  -33.60          34.29   281.49
E20         25.08   17.21    1.27          48.52   41.07   61.48          73.94   56.26
E21         17.52   14.51    2.74          44.96   20.42   40.81          45.63   63.42
E22         30.19   25.94    8.15          57.98   20.65   35.10          40.73   59.54
F1           1.49    1.89    1.29          14.92   -8.86    3.36           9.47   159.22
F2           1.19    1.91    1.07          15.01  -17.98    6.43          19.09   160.32
F3           1.05    2.06    0.97          15.80  -26.22    9.38          27.85   160.32
F4           1.22    2.51    1.11          17.95  -29.92   10.98          31.88   159.85
F5           6.88    8.64    5.99          35.27  -13.67    4.97          14.55   160.02
F6           5.68    8.66    5.13          35.32  -26.69    9.23          28.24   160.93
F7           4.52    8.58    4.17          35.16  -40.20   14.27          42.65   160.45
F8           3.37    8.48    3.25          34.96  -56.12   19.79          59.50   160.58
F9          38.46   41.65   32.59          70.63   -5.34    2.61           5.94   153.90
F10         36.67   41.60   31.37          70.60  -11.02    4.42          11.88   158.16
F11         34.98   41.73   30.25          70.68  -17.04    6.32          18.17   159.64
F12         31.34   41.67   27.53          70.64  -29.67   10.67          31.53   160.22
F13         37.21   47.26   60.20          74.36  -25.46  -24.26          35.16   223.62
F14         52.49   40.42   52.73          69.77   38.59  -24.39          45.65   327.71
F15         66.92   68.88   22.17          86.45    1.11   47.57          47.59   88.66
F16         19.73   20.55   16.84          52.45   -0.44    0.28           0.52   147.32
F17         44.56   35.47   18.27          66.11   32.64   20.58          38.59   32.24
F18         29.20   39.11   20.28          68.83  -29.88   20.99          36.51   144.91
F19         25.41   24.12   45.78          56.21    9.33  -39.84          40.92   283.18
F20         26.44   25.35   11.81          57.41    8.38   21.97          23.51   69.12
F21         34.43   31.21   10.76          62.69   15.57   34.25          37.62   65.56
F22         39.21   36.71   16.08          67.06   12.41   27.25          29.94   65.52
G1           2.37    3.01    2.65          20.09  -10.27   -1.30          10.35   187.22
G2           1.91    2.99    2.84          20.02  -19.92   -2.94          20.14   188.38
G3           1.63    3.16    3.24          20.68  -29.74   -4.76          30.12   189.08
G4           1.84    3.64    3.73          22.46  -32.25   -4.95          32.63   188.73
G5           9.26   11.34   10.00          40.14  -13.05   -2.16          13.23   189.41
G6           7.98   11.47   10.68          40.36  -25.05   -3.98          25.36   189.04
G7           6.62   11.42   11.39          40.28  -37.81   -6.31          38.33   189.48
G8           5.11   11.18   12.23          39.89  -53.06   -9.47          53.90   190.12
G9          38.48   41.80   34.97          70.73   -5.72   -0.68           5.77   186.79
G10         36.20   41.77   35.78          70.71  -13.08   -1.86          13.21   188.12
G11         34.46   41.84   36.71          70.76  -19.15   -3.08          19.40   189.13
G12         30.97   41.67   37.61          70.64  -31.02   -4.53          31.35   188.31
G13         31.54   41.73   57.38          70.69  -29.14  -27.72          40.22   223.57
G14         47.33   33.78   48.19          64.79   46.18  -27.87          53.94   328.89
G15         65.06   66.21   16.66          85.10    2.75   57.00          57.06   87.23
G16         13.82   14.30   11.68          44.66    0.19    0.36           0.44   61.54
G17         39.20   29.11   12.87          60.88   39.01   24.89          46.28   32.54
G18         23.04   32.78   14.86          63.98  -34.48   24.96          42.57   144.09
G19         19.33   17.53   40.44          48.92   12.78  -45.74          47.50   285.61
G20         36.67   35.33   14.76          66.01    8.78   28.71          30.02   73.00
G21         35.36   33.75    9.51          64.77    9.77   41.94          43.06   76.89
G22         47.72   43.93    2.83          72.18   15.40   87.03          88.38   79.97
H1           2.56    2.98    3.32          19.95   -5.71   -6.54           8.68   228.86
H2           2.24    2.97    4.38          19.91  -12.03  -13.25          17.90   227.74
H3           1.99    2.96    5.75          19.89  -17.57  -20.39          26.92   229.25
H4           2.19    3.40    6.91          21.59  -20.35  -22.69          30.48   228.11
H5          10.03   11.50   12.25          40.40   -7.96   -8.66          11.77   227.42
H6           8.91   11.28   15.60          40.05  -15.58  -18.14          23.91   229.34
H7           8.14   11.52   19.88          40.44  -23.98  -27.12          36.20   228.52
H8           6.99   11.49   25.93          40.39  -34.62  -38.75          51.96   228.22
H9          38.87   41.79   37.80          70.72   -4.45   -4.65           6.44   226.25
H10         37.31   41.60   41.22          70.59   -8.92   -9.38          12.94   226.45
H11         36.06   41.78   45.55          70.72  -13.55  -14.55          19.89   227.03
H12         32.88   42.01   57.56          70.87  -25.14  -27.59          37.32   227.66
H13         25.67   35.68   53.70          66.27  -32.97  -31.47          45.58   223.66
H14         42.44   27.94   43.66          59.84   53.46  -31.01          61.80   329.89
H15         63.20   63.41   11.98          83.66    4.77   66.71          66.88   85.91
H16          8.89    9.25    7.54          36.45   -0.18    0.34           0.41   118.34
H17         34.31   23.67    8.49          55.75   45.03   29.99          54.10   33.67
H18         17.27   26.52   10.35          58.53  -39.43   28.37          48.58   144.26
H19         14.00   11.99   35.08          41.20   16.24  -51.76          54.25   287.42
H20         41.57   41.97   15.50          70.85    3.38   35.19          35.35   84.52
H21         31.45   32.63   20.42          63.86   -0.05   12.12          12.12   90.21
H22         35.84   38.97   11.47          68.73   -5.74   42.51          42.89   97.69
I1           4.33    4.42    5.79          25.02    0.87  -11.75          11.78   274.22
I2           4.40    4.46    8.69          25.13    1.33  -23.54          23.58   273.23
I3           4.44    4.41   12.19          24.99    2.51  -35.03          35.12   274.10
I4           4.63    4.53   20.78          25.35    3.44  -54.99          55.10   273.58
I5          14.40   14.86   15.49          45.45    0.42   -8.57           8.58   272.76
I6          14.55   14.88   19.98          45.47    1.21  -18.66          18.70   273.72
I7          14.42   14.61   24.28          45.10    2.07  -27.68          27.76   274.28
I8          14.69   14.72   37.95          45.24    3.05  -48.78          48.88   273.58
I9          40.26   41.61   37.79          70.60    0.41   -4.84           4.86   274.84
I10         40.18   41.43   41.32          70.48    0.70   -9.71           9.74   274.11
I11         40.53   41.72   45.47          70.68    0.94  -14.52          14.55   273.72
I12         40.93   41.96   56.97          70.85    1.43  -27.03          27.07   273.02
I13         20.80   30.28   49.94          61.89  -35.88  -34.87          50.04   224.18
I14         37.97   23.02   39.31          55.09   60.04  -33.62          68.82   330.76
I15         61.25   60.45    8.31          82.08    7.05   76.05          76.37   84.71
I16          5.39    5.64    4.60          28.49   -0.60    0.31           0.70   154.67
I17         29.96   19.13    5.28          50.84   50.55   35.22          61.61   34.87
I18         12.66   21.16    6.94          53.13  -43.82   31.57          54.01   144.23
I19         10.03    7.90   30.15          33.78   20.58  -57.16          60.75   289.80
I20         42.59   46.53   15.98          73.89   -6.68   39.29          39.85   99.65
I21         11.26   15.07    3.46          45.73  -21.67   36.96          42.84   120.39
I22         28.57   36.98   17.34          67.26  -25.55   24.65          35.50   136.03
J1           2.17    1.91    3.00          15.00    7.54  -12.78          14.84   300.54
J2           2.48    1.91    4.96          15.02   13.83  -24.84          28.43   299.10
J3           2.86    1.90    7.97          14.96   21.35  -38.36          43.91   299.10
J4           3.82    1.92   17.62          15.07   36.49  -65.97          75.39   298.95
J5          11.83   11.50   12.47          40.41    5.29   -9.26          10.67   299.75
J6          12.52   11.45   15.95          40.32   10.43  -18.51          21.25   299.39
J7          13.33   11.45   20.41          40.33   15.75  -28.43          32.50   298.99
J8          15.30   11.33   33.85          40.12   28.79  -51.84          59.30   299.05
J9          40.79   41.31   37.52          70.39    2.96   -4.84           5.67   301.42
J10         41.70   41.40   41.04          70.46    5.44   -9.39          10.85   300.07
J11         42.78   41.48   45.49          70.51    8.45  -14.83          17.07   299.67
J12         44.99   41.33   55.69          70.41   15.38  -26.45          30.59   300.17
J13         16.64   25.30   45.80          57.37  -37.86  -37.87          53.55   225.01
J14         33.18   18.27   34.44          49.82   66.67  -35.98          75.76   331.64
J15         59.05   57.12    5.38          80.25    9.75   85.44          86.00   83.49
J16          2.96    3.08    2.48          20.34   -0.17    0.49           0.53   105.40
J17         25.66   15.03    2.92          45.67   55.79   40.68          69.05   36.10
J18          8.93   16.39    4.32          47.49  -47.45   34.64          58.75   143.87
J19          7.01    4.81   25.23          26.19   26.82  -61.99          67.54   293.39
J20         30.30   39.27   22.28          68.95  -26.20   17.19          31.34   146.73
J21          4.33    8.21    1.50          34.41  -39.53   34.31          52.34   139.04
J22          1.35    2.15    0.91          16.25  -18.39   11.14          21.51   148.80
K1           5.29    4.43    5.10          25.06   13.03   -8.29          15.45   327.55
K2           6.53    4.43    7.34          25.05   26.90  -18.51          32.65   325.47
K3           7.89    4.42    9.93          25.02   40.20  -27.99          48.99   325.15
K4           9.39    4.48   12.83          25.21   52.38  -36.49          63.84   325.14
K5          16.16   14.84   15.11          45.42   10.95   -7.68          13.38   324.96
K6          18.36   14.91   18.65          45.51   22.55  -15.78          27.52   325.02
K7          20.62   14.76   22.22          45.30   34.77  -23.45          41.94   326.01
K8          26.42   14.91   33.18          45.52   59.60  -41.55          72.65   325.12
K9          42.07   41.42   37.20          70.47    6.51   -4.27           7.79   326.77
K10         44.51   41.54   40.46          70.55   13.35   -8.48          15.81   327.59
K11         46.95   41.53   44.34          70.55   20.31  -13.38          24.32   326.63
K12         52.53   41.48   53.64          70.51   35.49  -24.10          42.90   325.82
K13         12.85   20.35   40.89          52.23  -38.73  -40.63          56.13   226.37
K14         28.63   14.30   29.55          44.66   72.12  -37.44          81.26   332.56
K15         56.67   53.55    3.32          78.20   12.81   93.88          94.75   82.23
K16          1.36    1.41    1.17          12.04   -0.21    0.00           0.33   202.89
K17         21.81   11.73    1.40          40.79   59.85   46.57          75.83   37.89
K18          5.79   11.92    2.46          41.10  -50.26   36.39          62.05   144.09
K19          4.79    2.71   20.36          18.83   33.68  -65.40          73.56   297.25
K20          2.40    3.18    1.86          20.76  -12.44    6.87          14.21   151.09
K21          1.33    1.81    1.48          14.47  -11.28    0.21          11.29   178.95
K22          1.69    2.18    2.92          16.40   -9.85   -9.78          13.88   224.78
L1           3.67    3.00    2.70          20.05   12.73   -1.79          12.85   352.01
L2           4.61    3.02    3.05          20.11   25.80   -4.39          26.17   350.35
L3           5.79    3.18    3.46          20.74   37.41   -6.15          37.92   350.66
L4           6.47    3.46    3.83          21.78   40.32   -6.70          40.87   350.56
L5          13.37   11.51   10.26          40.42   15.59   -2.54          15.79   350.77
L6          15.93   11.49   11.12          40.39   31.28   -5.30          31.73   350.39
L7          18.90   11.48   12.05          40.37   47.44   -8.12          48.13   350.29
L8          23.08   11.47   13.13          40.36   67.53  -11.19          68.45   350.59
L9          42.35   41.28   34.81          70.37    7.77   -1.08           7.85   352.07
L10         45.31   41.79   35.81          70.73   14.91   -1.88          15.02   352.82
L11         47.39   41.31   36.69          70.39   22.22   -3.70          22.53   350.54
L12         51.44   41.89   38.13          70.80   31.41   -4.97          31.80   351.01
L13          9.28   15.12   34.31          45.80  -37.25  -42.73          56.69   228.92
L14         24.03   10.93   24.32          39.46   75.60  -37.47          84.38   333.64
L15         52.16   47.38    1.72          74.43   17.60   100.91          102.43   80.11
L16          0.50    0.52    0.43           4.71   -0.03    0.04           0.11   165.84
L17         17.66    8.78    0.53          35.56   61.74   51.33          80.29   39.74
L18          3.15    7.33    1.11          32.55  -49.51   36.21          61.34   143.82
L19          3.13    1.36   14.98          11.72   39.93  -65.45          76.67   301.39
L20          0.72    0.78    0.77           7.02   -1.20   -2.40           2.69   243.39
