targets/wolf_faust/reflective/R050302WhiteBacking.it8
IT8.7/2
ORIGINATOR "Wolf Faust"
DESCRIPTOR "Kodak Professional Paper, L* a* b* (light D50, viewing angle 2)"
MANUFACTURER "Wolf Faust - http://www.coloraid.de"
CREATED "July 09, 2005"
PROD_DATE "2005:03"
SAMPLE_BACKING "white"
SERIAL "5x7 R050302 Batch Average Data"
MATERIAL "Kodak Professional Ultra Endura"
NUMBER_OF_FIELDS 9
BEGIN_DATA_FORMAT
SAMPLE_ID  XYZ_X   XYZ_Y   XYZ_Z          LAB_L   LAB_A   LAB_B          LAB_C   LAB_H
END_DATA_FORMAT
NUMBER_OF_SETS 288
BEGIN_DATA
A1          3.60    3.05    2.05          20.22   10.96    4.08          11.70   20.40
A2          4.38    2.98    1.65          19.96   23.36    7.70          24.59   18.23 
A3          5.29    2.99    1.42          20.00   34.83   10.40          36.35   16.63
A4          5.90    3.22    1.49          20.92   37.88   11.22          39.50   16.49 
A5         12.88   11.30    7.86          40.07   13.93    5.33          14.92   20.90
A6         15.24   11.29    6.85          40.07   28.67    9.42          30.18   18.19 
A7         17.90   11.51    6.08          40.43   41.99   13.42          44.09   17.73
A8         21.94   11.40    4.92          40.25   62.78   18.87          65.56   16.73 
A9         41.77   41.23   32.30          70.34    6.19    2.56           6.70   22.45
A10        44.22   41.30   31.08          70.39   13.22    4.51          13.97   18.83
A11        46.85   41.49   29.55          70.52   20.14    7.15          21.37   19.54
A12        49.96   41.31   28.41          70.39   29.21    8.78          30.50   16.72 
A13        77.03   80.48   70.93          91.90   -1.13   -4.13           4.28  254.69
A14        78.36   80.86   70.95          92.07    0.78   -3.85           3.93  281.45 
A15        77.29   80.48   63.43          91.90   -0.63    2.83           2.90  102.55
A16        77.51   80.39   66.17          91.86   -0.01    0.16           0.18  157.36
A17        76.40   78.41   65.04          90.97    1.60   -0.31           1.64  349.00
A18        75.50   79.26   65.76          91.35   -1.87   -0.34           1.91  190.16 
A19        77.39   80.15   70.81          91.75    0.20   -4.27           4.28  272.68
A20         1.39    1.13    0.72          10.02    9.52    3.70          10.22   21.25 
A21         5.22    3.33    0.77          21.33   28.28   22.20          35.95   38.14
A22        10.22    5.86    0.81          29.05   42.46   34.90          54.96   39.42
B1          3.40    3.00    1.59          20.03    8.68    8.54          12.18   44.52
B2          4.02    3.00    0.98          20.04   18.09   16.48          24.47   42.33
B3          4.57    2.99    0.62          20.01   25.69   22.81          34.35   41.61
B4          5.28    3.27    0.52          21.09   29.96   26.50          40.00   41.49
B5         13.11   11.39    5.85          40.22   14.77   14.15          20.45   43.77
B6         15.01   11.37    3.88          40.20   26.72   24.71          36.40   42.76
B7         17.42   11.38    2.31          40.22   40.34   36.24          54.23   41.93
B8         21.33   11.38    0.90          40.21   60.07   52.50          79.78   41.15
B9         41.98   41.55   30.16          70.56    5.86    6.24           8.57   46.77
B10        44.14   41.39   27.28          70.45   12.71   10.76          16.66   40.25
B11        46.49   41.80   24.11          70.74   18.21   16.84          24.80   42.75
B12        49.07   41.32   20.35          70.40   26.78   23.56          35.67   41.33
B13        71.17   76.16   69.95          89.93   -4.75   -6.64           8.16  234.42
B14        74.50   73.99   68.83          88.92    6.58   -7.37           9.89  311.76
B15        75.70   79.04   56.44          91.25   -1.05    8.71           8.77   96.85
B16        64.26   66.59   54.16          85.30    0.12    0.84           0.86   81.20
B17        71.36   71.36   54.92          87.66    5.47    4.11           6.84   36.93
B18        68.13   73.55   55.59          88.71   -5.99    5.21           7.94  139.01
B19        67.13   68.91   67.68          86.46    1.51  -10.56          10.66  278.16
B20         2.91    2.09    0.73          15.94   17.94   13.70          22.57   37.36
B21         8.56    5.01    0.78          26.77   38.70   31.52          49.91   39.16
B22        29.65   25.30   12.00          57.36   21.26   21.32          30.11   45.08
C1          4.58    4.49    2.24          25.22    3.35   10.97          11.47   73.02
C2          4.94    4.50    1.36          25.25    7.95   20.20          21.71   68.52
C3          5.31    4.49    0.72          25.24   12.44   29.87          32.35   67.39
C4          5.92    4.95    0.68          26.59   13.71   33.06          35.79   67.48
C5         24.29   23.25   10.82          55.33    8.33   21.39          22.95   68.71
C6         26.29   23.10    5.60          55.18   17.41   41.16          44.69   67.07
C7         28.69   23.29    2.39          55.37   26.19   61.62          66.96   66.98
C8         30.25   23.20    1.12          55.28   32.52   75.23          81.95   66.62
C9         48.99   49.39   33.25          75.69    3.73   10.37          11.02   70.18
C10        50.46   49.26   27.47          75.61    8.04   19.35          20.96   67.42
C11        52.22   49.62   22.26          75.83   11.71   29.11          31.38   68.08
C12        54.30   49.41   16.20          75.71   17.62   41.87          45.42   67.18
C13        61.59   68.75   68.10          86.38  -10.69  -11.08          15.39  226.02
C14        69.36   65.22   65.66          84.60   14.39  -11.89          18.66  320.44
C15        73.47   76.83   46.20          90.24   -1.26   18.34          18.38   93.92
C16        49.94   51.87   42.22          77.21   -0.21    0.74           0.77  105.90
C17        64.32   61.26   43.49          82.52   12.23    8.31          14.79   34.20
C18        56.58   64.22   44.75          84.08  -12.79    9.46          15.91  143.52
C19        54.33   55.25   62.88          79.18    2.70  -18.57          18.76  278.28
C20         1.75    1.49    0.70          12.53    8.51    8.45          12.00   44.77
C21        23.84   17.97    4.79          49.46   31.65   35.41          47.50   48.21
C22        35.90   32.61   17.37          63.84   15.55   18.69          24.32   50.24
D1          4.24    4.44    2.25          25.07   -0.52   10.58          10.60   92.78
D2          4.23    4.44    1.37          25.08   -0.71   19.77          19.79   92.06
D3          4.14    4.40    0.75          24.96   -1.42   28.86          28.89   92.82
D4          4.88    5.18    0.75          27.24   -1.37   32.73          32.76   92.40
D5         27.55   28.76   13.85          60.57   -0.71   21.71          21.72   91.87
D6         27.17   28.51    7.59          60.34   -1.27   41.35          41.37   91.76
D7         27.08   28.64    3.53          60.46   -2.12   61.91          61.95   91.96
D8         27.11   28.73    1.49          60.54   -2.37   79.54          79.57   91.71
D9         55.98   58.21   38.96          80.85   -0.35   11.25          11.26   91.80
D10        55.70   58.06   31.18          80.77   -0.70   22.26          22.27   91.81
D11        55.86   58.28   25.22          80.89   -0.81   32.34          32.35   91.44
D12        55.40   58.12   11.92          80.80   -1.59   61.97          61.99   91.47
D13        53.07   61.74   65.97          82.78  -16.00  -15.31          22.15  223.75
D14        63.74   56.27   61.72          79.77   22.76  -16.43          28.07  324.18
D15        71.46   74.58   37.04          89.20   -0.94   28.25          28.26   91.91
D16        37.95   39.35   31.96          69.00    0.02    0.78           0.79   86.79
D17        57.35   51.61   33.42          77.05   19.42   12.45          23.07   32.66
D18        46.58   55.59   35.09          79.38  -18.82   14.06          23.49  143.24
D19        43.24   43.13   57.39          71.64    4.93  -26.09          26.55  280.70
D20        14.23   10.89    2.72          39.39   25.48   31.36          40.40   50.91
D21        22.21   21.54   11.65          53.54    6.79   15.75          17.15   66.67
D22        39.32   37.47   20.32          67.63   10.30   18.83          21.46   61.31
E1          3.89    4.43    2.23          25.04   -5.38   10.73          12.01  116.64
E2          3.63    4.50    1.43          25.26  -10.28   19.33          21.90  118.00
E3          3.32    4.52    0.81          25.33  -15.46   28.44          32.37  118.52
E4          3.79    5.22    0.83          27.35  -16.87   31.62          35.83  118.08
E5         13.01   14.82    7.76          45.38   -8.10   14.88          16.94  118.56
E6         11.83   14.77    4.49          45.32  -15.85   29.93          33.87  117.91
E7         10.80   14.78    2.52          45.33  -23.37   43.24          49.15  118.39
E8          9.93   14.89    1.30          45.48  -30.65   55.81          63.67  118.77
E9         38.71   41.70   28.52          70.66   -4.71    9.07          10.22  117.48
E10        37.57   42.02   23.79          70.88   -9.31   17.67          19.98  117.79
E11        36.38   41.94   19.99          70.83  -12.99   25.03          28.20  117.43
E12        33.50   41.78   12.97          70.72  -22.28   41.59          47.19  118.18
E13        44.90   54.59   63.35          78.80  -21.10  -19.67          28.85  223.00
E14        58.31   48.25   57.53          74.98   30.65  -20.48          36.86  326.25
E15        69.32   71.91   28.76          87.92   -0.04   38.44          38.44   90.06
E16        27.97   29.12   23.44          60.89   -0.43    1.10           1.20  112.86
E17        50.81   43.10   24.95          71.62   26.19   16.83          31.13   32.72
E18        37.37   47.14   26.84          74.28  -24.59   18.11          30.54  143.64
E19        33.68   32.96   51.73          64.13    6.75  -33.01          33.69  281.55
E20        24.99   17.16    1.23          48.46   40.95   61.94          74.25   56.53
E21        17.56   14.51    2.63          44.96   20.67   41.67          46.51   63.61
E22        30.22   26.07    8.05          58.10   20.24   35.69          41.03   60.44
F1          1.55    1.95    1.27          15.24   -8.47    4.16           9.44  153.88
F2          1.22    1.94    1.06          15.19  -17.81    6.97          19.12  158.63
F3          1.08    2.08    0.94          15.91  -25.70   10.05          27.59  158.64
F4          1.23    2.49    1.09          17.87  -29.11   11.14          31.17  159.06
F5          6.93    8.70    5.84          35.40  -13.69    5.88          14.91  156.76
F6          5.69    8.67    4.89          35.34  -26.63   10.53          28.64  158.43
F7          4.59    8.65    4.08          35.31  -39.97   15.06          42.72  159.36
F8          3.47    8.64    3.20          35.28  -55.93   20.76          59.66  159.64
F9         38.37   41.83   32.43          70.75   -6.15    3.07           6.88  153.52
F10        36.54   41.73   31.06          70.69  -11.83    5.05          12.87  156.88
F11        34.83   41.71   29.77          70.67  -17.51    7.06          18.88  158.03
F12        31.57   42.02   27.23          70.88  -29.87   11.59          32.05  158.79
F13        37.82   48.03   60.44          74.85  -25.56  -23.65          34.82  222.77
F14        53.00   40.97   53.18          70.15   38.24  -24.21          45.26  327.66
F15        67.29   69.15   21.86          86.58    1.34   48.42          48.44   88.41
F16        20.06   20.94   16.74          52.89   -0.65    1.26           1.45  118.52
F17        44.94   35.85   18.01          66.40   32.49   21.66          39.05   33.69
F18        29.69   39.65   19.98          69.22  -29.72   22.28          37.14  143.15
F19        25.92   24.68   46.20          56.76    9.04  -39.39          40.41  282.93
F20        26.49   25.41   11.75          57.47    8.34   22.24          23.75   69.43
F21        34.50   31.26   10.77          62.72   15.63   34.29          37.68   65.50
F22        39.07   36.42   15.52          66.84   12.91   28.25          31.06   65.44
G1          2.36    2.98    2.51          19.96   -9.93   -0.40           9.95  182.33
G2          1.93    3.01    2.78          20.09  -19.81   -2.39          19.95  186.89
G3          1.63    3.13    3.07          20.56  -29.30   -3.69          29.54  187.18
G4          1.84    3.62    3.62          22.36  -31.69   -4.41          32.00  187.92
G5          9.43   11.55    9.77          40.49  -13.15   -0.79          13.19  183.47
G6          7.97   11.48   10.27          40.37  -25.21   -2.67          25.35  186.04
G7          6.53   11.34   10.93          40.14  -38.21   -5.16          38.56  187.70
G8          5.26   11.50   11.99          40.41  -53.49   -7.89          54.06  188.39
G9         38.42   41.95   34.19          70.84   -6.38    0.62           6.42  174.44
G10        36.26   41.92   35.45          70.82  -13.31   -1.23          13.37  185.26
G11        34.54   42.02   36.05          70.89  -19.40   -1.95          19.50  185.74
G12        31.22   42.05   37.74          70.90  -31.26   -4.26          31.55  187.75
G13        31.47   41.82   57.25          70.75  -29.68  -27.49          40.45  222.81
G14        47.73   34.20   48.61          65.12   45.89  -27.80          53.65  328.79
G15        65.34   66.39   16.49          85.20    2.99   57.56          57.63   87.03
G16        13.78   14.42   11.46          44.82   -0.74    1.30           1.51  121.39
G17        39.44   29.35   12.65          61.09   38.90   25.86          46.71   33.62
G18        22.98   32.80   14.68          64.00  -34.83   25.45          43.14  143.84
G19        19.39   17.74   40.62          49.17   12.00  -45.54          47.09  284.76
G20        36.58   35.28   14.46          65.97    8.65   29.42          30.66   73.61
G21        35.31   33.68    9.29          64.71    9.83   42.58          43.70   77.00
G22        47.45   43.73    2.72          72.05   15.24   87.65          88.97   80.14
H1          2.59    3.04    3.28          20.20   -6.21   -5.86           8.54  223.31
H2          2.30    3.06    4.31          20.27  -12.32  -12.24          17.37  224.79
H3          2.04    3.11    5.60          20.46  -18.94  -18.71          26.63  224.65
H4          2.22    3.49    6.76          21.92  -21.13  -21.48          30.13  225.46
H5          9.91   11.45   12.01          40.34   -8.61   -8.08          11.82  223.17
H6          8.90   11.41   15.33          40.26  -16.53  -17.12          23.80  225.98
H7          8.04   11.48   19.28          40.38  -24.56  -25.98          35.75  226.61
H8          7.04   11.62   25.50          40.61  -35.05  -37.61          51.41  227.02
H9         38.61   41.70   37.58          70.67   -5.01   -4.45           6.71  221.51
H10        37.38   41.75   40.95          70.70   -9.13   -8.86          12.72  224.13
H11        36.37   42.34   45.56          71.10  -14.20  -13.89          19.87  224.36
H12        32.85   42.19   57.53          71.00  -25.79  -27.34          37.59  226.68
H13        26.17   36.35   53.92          66.78  -33.08  -30.83          45.22  222.98
H14        42.59   28.06   43.89          59.94   53.44  -31.10          61.83  329.80
H15        63.38   63.44   11.76          83.67    5.10   67.39          67.58   85.67
H16         9.03    9.39    7.40          36.73   -0.18    1.37           1.40   99.22
H17        34.32   23.65    8.33          55.73   45.15   30.56          54.52   34.09
H18        17.56   26.87   10.18          58.85  -39.24   29.50          49.10  143.07
H19        14.24   12.22   35.27          41.56   16.20  -51.41          53.90  287.48
H20        41.77   42.24   15.13          71.04    3.16   36.45          36.59   85.04
H21        31.41   32.63   20.17          63.86   -0.18   12.64          12.64   90.83
H22        35.86   38.99   11.21          68.74   -5.70   43.28          43.66   97.50
I1          4.29    4.42    5.68          25.01    0.34  -11.26          11.27  271.73
I2          4.42    4.51    8.54          25.29    0.89  -22.69          22.71  272.24
I3          4.44    4.47   11.91          25.18    1.67  -33.92          33.96  272.82
I4          4.61    4.56   20.40          25.44    2.88  -54.07          54.15  273.05
I5         14.28   14.83   15.21          45.40   -0.14   -7.94           7.94  268.95
I6         14.45   14.87   19.50          45.45    0.68  -17.69          17.70  272.19
I7         14.40   14.75   24.11          45.29    1.10  -27.03          27.06  272.33
I8         14.79   14.84   37.99          45.42    2.95  -48.54          48.63  273.47
I9         40.27   41.65   37.27          70.63    0.33   -4.09           4.10  274.65
I10        40.59   41.97   41.29          70.85    0.39   -9.04           9.05  272.46
I11        40.61   41.80   45.15          70.73    0.93  -14.04          14.07  273.78
I12        41.27   42.31   57.18          71.09    1.45  -26.83          26.87  273.09
I13        21.31   31.00   50.17          62.51  -36.09  -34.07          49.64  223.35
I14        38.02   23.03   39.45          55.11   60.17  -33.78          69.00  330.69
I15        61.49   60.54    8.18          82.13    7.40   76.64          77.00   84.48
I16         5.54    5.79    4.52          28.87   -0.45    1.40           1.49  108.84
I17        30.02   19.15    5.17          50.86   50.71   35.81          62.08   35.23
I18        12.99   21.56    6.86          53.56  -43.49   32.62          54.36  143.13
I19        10.24    8.11   30.34          34.20   20.41  -56.72          60.28  289.80
I20        42.30   46.34   15.72          73.77   -7.02   39.68          40.30  100.03
I21        11.15   14.95    3.45          45.57  -21.76   36.73          42.69  120.65
I22        28.52   37.00   17.12          67.28  -25.83   25.19          36.08  135.73
J1          2.14    1.91    2.94          14.99    6.98  -12.39          14.22  299.40
J2          2.50    1.95    4.92          15.22   13.36  -24.31          27.74  298.79
J3          2.86    1.94    7.82          15.18   20.29  -37.44          42.59  298.46
J4          3.84    1.97   17.62          15.32   35.79  -65.55          74.68  298.64
J5         11.90   11.59   12.25          40.56    5.15   -8.38           9.84  301.58
J6         12.47   11.46   15.96          40.35    9.98  -18.51          21.03  298.33
J7         13.25   11.46   20.05          40.35   15.15  -27.65          31.53  298.72
J8         15.38   11.40   33.92          40.25   28.70  -51.73          59.16  299.02
J9         41.15   41.61   37.51          70.60    3.17   -4.46           5.48  305.40
J10        41.95   41.64   40.52          70.63    5.50   -8.43          10.06  303.12
J11        43.19   42.00   45.47          70.87    8.12  -14.19          16.35  299.78
J12        45.44   41.82   56.03          70.74   15.20  -26.23          30.31  300.10
J13        16.98   25.86   45.93          57.90  -38.27  -37.09          53.30  224.11
J14        33.30   18.33   34.61          49.90   66.77  -36.09          75.90  331.61
J15        59.54   57.50    5.43          80.46   10.00   85.56          86.14   83.34
J16         3.02    3.14    2.50          20.59   -0.02    0.73           0.76   85.46
J17        25.80   15.08    2.91          45.75   56.03   40.89          69.37   36.12
J18         9.20   16.77    4.33          47.97  -47.20   35.38          58.99  143.14
J19         7.12    4.92   25.33          26.49   26.63  -61.64          67.15  293.36
J20        30.64   39.62   22.07          69.20  -26.04   18.04          31.68  145.30
J21         4.41    8.30    1.47          34.59  -39.31   34.97          52.61  138.34
J22         1.38    2.21    0.91          16.54  -18.95   11.53          22.18  148.69
K1          5.33    4.49    5.13          25.23   12.76   -8.14          15.14  327.45
K2          6.54    4.50    7.29          25.26   26.08  -17.94          31.66  325.48
K3          7.94    4.51    9.82          25.30   39.50  -27.15          47.93  325.50
K4          9.30    4.47   12.73          25.16   51.90  -36.31          63.34  325.02
K5         16.10   14.74   14.86          45.27   11.23   -7.29          13.40  327.03
K6         18.39   14.96   18.30          45.58   22.39  -14.89          26.89  326.38
K7         20.49   14.76   22.09          45.31   34.10  -23.18          41.24  325.79
K8         26.33   14.78   33.07          45.33   60.03  -41.72          73.10  325.20
K9         42.28   41.63   36.92          70.61    6.52   -3.63           7.47  330.92
K10        44.79   41.76   40.66          70.70   13.52   -8.47          15.96  327.94
K11        46.86   41.66   44.29          70.64   19.68  -13.16          23.68  326.23
K12        52.79   41.68   53.86          70.65   35.57  -24.09          42.96  325.89
K13        13.16   20.87   41.04          52.80  -39.15  -39.83          55.85  225.49
K14        29.03   14.60   30.05          45.08   71.87  -37.51          81.07  332.44
K15        56.93   53.63    3.25          78.24   13.25   94.45          95.38   82.01
K16         1.42    1.49    1.17          12.57   -0.54    0.87           1.04  124.14
K17        22.05   11.90    1.38          41.06   59.85   47.26          76.26   38.30
K18         6.00   12.20    2.45          41.53  -49.86   37.28          62.25  143.21
K19         4.91    2.84   20.59          19.38   32.79  -64.92          72.73  296.80
K20         2.45    3.20    1.88          20.82  -11.73    6.80          13.56  149.91
K21         1.35    1.83    1.46          14.57  -11.35    0.58          11.36  177.10
K22         1.69    2.23    2.81          16.63  -10.82   -8.55          13.79  218.29
L1          3.67    3.08    2.66          20.36   11.54   -1.00          11.59  355.05
L2          4.58    3.04    2.92          20.21   25.03   -3.26          25.24  352.58
L3          5.73    3.17    3.39          20.72   36.82   -5.73          37.26  351.16
L4          6.35    3.41    3.76          21.60   39.83   -6.60          40.38  350.59
L5         13.17   11.32    9.86          40.11   15.62   -1.77          15.73  353.52
L6         15.89   11.44   10.72          40.30   31.41   -4.22          31.70  352.35
L7         18.78   11.38   11.70          40.21   47.56   -7.38          48.13  351.18
L8         23.13   11.49   13.08          40.40   67.56  -10.99          68.44  350.76
L9         42.91   41.71   34.71          70.67    8.15   -0.41           8.17  321.12
L10        45.02   41.46   35.71          70.50   15.08   -2.15          15.23  351.89
L11        47.77   42.02   36.72          70.88   21.14   -2.90          21.33  352.19
L12        51.38   41.74   37.95          70.69   31.70   -4.91          32.08  351.20
L13         9.45   15.46   34.32          46.25  -37.82  -41.95          56.48  227.96
L14        24.31   11.09   24.69          39.73   75.63  -37.67          84.49  333.52
L15        52.49   47.55    1.70          74.54   17.99  101.32         102.91   79.93
L16         0.52    0.55    0.44           4.97   -0.28    0.21           0.36  142.99
L17        17.89    8.90    0.52          35.80   61.92   51.82          80.74   39.93
L18         3.24    7.49    1.12          32.89  -49.36   36.54          61.41  143.49
L19         3.18    1.43   15.11          12.15   38.94  -65.03          75.80  300.91
L20         0.73    0.80    0.77           7.27   -1.72   -1.95           2.61  228.60
L21         1.01    0.95    0.96           8.61    3.39   -2.81           4.41  320.37
L22         2.02    1.61    1.33          13.28   11.62   -0.02          11.63  215.90
GS0        78.84   81.75   71.10          92.46    0.05   -3.31           3.31  270.80
GS1        69.27   71.76   59.15          87.85    0.15    0.07           0.20  129.37
GS2        61.43   63.70   52.11          83.81    0.02    0.51           0.52   89.94
