targets/wolf_faust/reflective/R050301.it8
IT8.7/2
ORIGINATOR "Wolf Faust"
DESCRIPTOR "Kodak Professional Paper, L* a* b* (light D50, viewing angle 2)"
MANUFACTURER "Wolf Faust - http://www.coloraid.de"
CREATED "May 24, 2005"
PROD_DATE "2005:03"
SAMPLE_BACKING "black"
SERIAL "5x7 R050301 Batch Average Data"
MATERIAL "Kodak Professional Ultra Endura"
KEYWORD "MEAN_DE" # Mean Delta E of samples compared to batch average
NUMBER_OF_FIELDS 18
BEGIN_DATA_FORMAT
SAMPLE_ID  XYZ_X   XYZ_Y   XYZ_Z          LAB_L   LAB_A   LAB_B          LAB_C   LAB_H          D_RED  D_GREEN  D_BLUE  D_VIS          STDEV_X STDEV_Y STDEV_Z        MEAN_DE  STDEV_DE
END_DATA_FORMAT
NUMBER_OF_SETS 288
BEGIN_DATA
A1          3.50    2.93    2.05          19.76   11.40    3.31          11.87   16.18           1.36    1.64    1.58    1.50            0.04    0.04    0.03           0.28     0.30
A2          4.31    2.91    1.70          19.68   23.59    6.68          24.52   15.81           1.21    1.82    1.67    1.46            0.05    0.03    0.02           0.21     0.23 
A3          5.27    2.97    1.39          19.93   34.89   10.64          36.47   16.95           1.09    2.07    1.76    1.41            0.04    0.03    0.02           0.20     0.23
A4          6.00    3.26    1.46          21.05   38.38   11.74          40.13   17.00           1.03    2.10    1.75    1.37            0.03    0.02    0.01           0.18     0.20 
A5         12.75   11.16    8.05          39.86   14.01    4.23          14.63   16.80           0.80    1.04    1.00    0.92            0.06    0.05    0.05           0.22     0.26
A6         14.90   11.04    6.93          39.64   28.50    8.36          29.70   16.35           0.68    1.16    1.07    0.90            0.07    0.06    0.04           0.20     0.25 
A7         17.46   11.22    6.05          39.94   41.77   12.76          43.68   16.99           0.58    1.29    1.13    0.86            0.09    0.07    0.06           0.21     0.24
A8         21.49   11.17    4.95          39.86   62.34   18.03          64.90   16.13           0.48    1.64    1.23    0.82            0.05    0.05    0.04           0.20     0.23 
A9         41.29   40.52   32.07          69.84    6.89    2.04           7.19   16.51           0.33    0.41    0.41    0.38            0.16    0.17    0.15           0.21     0.24
A10        43.73   40.78   30.50          70.02   13.37    4.79          14.20   19.70           0.29    0.44    0.43    0.37            0.13    0.13    0.22           0.25     0.30
A11        45.86   40.52   29.41          69.84   20.32    6.19          21.24   16.93           0.25    0.47    0.45    0.37            0.15    0.17    0.21           0.22     0.26
A12        48.98   40.60   28.02          69.89   28.72    8.56          29.97   16.60           0.20    0.50    0.47    0.35            0.11    0.10    0.20           0.26     0.30 
A13        75.25   78.66   69.69          91.08   -1.22   -4.42           4.58  254.56           0.11    0.09    0.08    0.11            0.16    0.15    0.13           0.10     0.12
A14        76.62   79.12   69.75          91.29    0.66   -4.12           4.17  279.13           0.10    0.10    0.08    0.10            0.19    0.18    0.08           0.13     0.15 
A15        75.72   78.86   63.65          91.17   -0.64    1.36           1.51  115.09           0.10    0.10    0.12    0.10            0.14    0.14    0.15           0.13     0.15
A16        75.74   78.63   65.13          91.07   -0.15   -0.23           0.29  232.16           0.10    0.10    0.11    0.10            0.13    0.12    0.16           0.15     0.18
A17        75.20   77.46   65.30          90.53    1.05   -1.31           1.68  308.97           0.10    0.11    0.11    0.11            0.18    0.18    0.18           0.17     0.19
A18        73.74   77.46   64.67          90.53   -1.96   -0.71           2.09  199.93           0.12    0.10    0.11    0.11            0.21    0.21    0.20           0.19     0.22 
A19        75.54   78.31   69.53          90.92    0.06   -4.55           4.55  270.78           0.11    0.10    0.08    0.11            0.18    0.18    0.08           0.12     0.15
A20         1.34    1.08    0.72           9.65    9.77    3.03          10.23   17.26           1.79    2.10    2.03    1.92            0.01    0.01    0.00           0.22     0.26 
A21         5.25    3.32    0.76          21.29   28.83   22.39          36.50   37.84           1.09    1.88    2.00    1.38            0.03    0.02    0.00           0.21     0.24
A22        10.27    5.88    0.82          29.11   42.62   34.75          55.00   39.19           0.78    1.80    1.97    1.11            0.06    0.05    0.01           0.25     0.28
B1          3.34    2.96    1.53          19.89    8.24    8.89          12.12   47.17           1.38    1.61    1.70    1.49            0.04    0.04    0.02           0.26     0.29
B2          3.99    2.98    1.01          19.98   17.86   15.90          23.92   41.68           1.25    1.74    1.87    1.46            0.05    0.04    0.01           0.25     0.29
B3          4.55    2.95    0.60          19.83   26.17   22.78          34.70   41.04           1.16    1.90    2.09    1.44            0.04    0.04    0.01           0.22     0.27
B4          5.20    3.21    0.51          20.88   29.93   26.36          39.88   41.37           1.09    1.93    2.17    1.39            0.03    0.02    0.01           0.20     0.24
B5         13.11   11.41    5.92          40.27   14.55   13.93          20.15   43.75           0.77    1.04    1.13    0.91            0.09    0.07    0.05           0.20     0.24
B6         14.80   11.19    3.88          39.89   26.76   24.15          36.05   42.06           0.67    1.16    1.30    0.89            0.08    0.07    0.03           0.27     0.30
B7         17.32   11.23    2.34          39.96   40.91   35.51          54.17   40.96           0.57    1.31    1.52    0.86            0.07    0.05    0.02           0.23     0.26
B8         21.03   11.27    0.92          40.04   59.44   51.86          78.88   41.10           0.48    1.64    1.91    0.82            0.03    0.02    0.01           0.18     0.22
B9         41.32   40.90   30.06          70.11    5.82    5.62           8.09   44.02           0.33    0.41    0.44    0.38            0.17    0.13    0.15           0.21     0.23
B10        43.49   40.94   27.04          70.13   12.17   10.62          16.15   41.09           0.28    0.44    0.48    0.37            0.12    0.10    0.13           0.18     0.20
B11        45.38   40.71   23.99          69.97   18.35   15.75          24.18   40.64           0.24    0.47    0.53    0.36            0.12    0.13    0.22           0.27     0.32
B12        48.09   40.57   20.19          69.87   26.38   22.97          34.98   41.04           0.20    0.51    0.60    0.35            0.10    0.12    0.15           0.22     0.26
B13        70.07   74.85   68.83          89.32   -4.45   -6.67           8.02  236.25           0.16    0.10    0.08    0.13            0.17    0.16    0.13           0.12     0.14
B14        72.83   72.38   67.65          88.15    6.42   -7.61           9.96  310.17           0.11    0.15    0.09    0.14            0.16    0.18    0.09           0.16     0.19
B15        74.19   77.51   56.15          90.56   -1.12    7.81           7.89   98.17           0.10    0.11    0.17    0.11            0.13    0.13    0.14           0.14     0.17
B16        63.40   65.56   53.98          84.77    0.42    0.13           0.47   95.93           0.18    0.18    0.19    0.18            0.21    0.20    0.27           0.19     0.22
B17        70.00   70.05   54.67          87.02    5.33    3.27           6.25   31.52           0.11    0.17    0.18    0.15            0.08    0.10    0.22           0.19     0.22
B18        67.24   72.44   55.39          88.18   -5.66    4.51           7.24  141.50           0.16    0.12    0.17    0.14            0.16    0.14    0.29           0.21     0.25
B19        66.14   67.77   66.56          85.89    1.78  -10.50          10.65  279.63           0.17    0.16    0.10    0.17            0.12    0.13    0.08           0.09     0.10
B20         2.85    2.04    0.71          15.68   18.10   13.62          22.65   36.97           1.39    1.94    2.03    1.62            0.03    0.03    0.00           0.32     0.35
B21         8.46    4.94    0.76          26.57   38.66   31.38          49.79   39.06           0.87    1.83    2.00    1.19            0.05    0.04    0.01           0.25     0.29
B22        29.51   25.10   11.97          57.18   21.54   21.10          30.15   44.39           0.41    0.71    0.83    0.56            0.09    0.09    0.09           0.31     0.35
C1          4.59    4.47    2.26          25.16    3.82   10.68          11.34   70.30           1.26    1.39    1.53    1.33            0.05    0.05    0.03           0.21     0.23
C2          4.85    4.41    1.35          24.98    7.96   19.85          21.39   68.15           1.20    1.44    1.74    1.32            0.06    0.05    0.02           0.22     0.25
C3          5.10    4.34    0.71          24.77   11.99   29.33          31.69   67.76           1.16    1.50    2.01    1.31            0.05    0.04    0.01           0.24     0.27
C4          5.81    4.85    0.66          26.31   13.65   32.88          35.60   67.45           1.10    1.47    2.04    1.26            0.04    0.04    0.01           0.22     0.23
C5         23.89   22.88   11.03          54.95    8.23   20.05          21.68   67.69           0.53    0.69    0.86    0.62            0.10    0.11    0.09           0.20     0.22
C6         25.83   22.75    5.60          54.81   17.10   40.49          43.95   67.10           0.46    0.75    1.13    0.60            0.13    0.10    0.04           0.21     0.22
C7         28.14   22.85    2.30          54.92   25.96   61.60          66.85   67.14           0.40    0.82    1.50    0.58            0.13    0.10    0.03           0.18     0.20
C8         29.73   22.85    1.10          54.92   32.09   74.80          81.39   66.78           0.36    0.87    1.82    0.57            0.11    0.09    0.01           0.20     0.22
C9         48.55   48.83   33.29          75.35    4.03    9.72          10.53   67.47           0.26    0.33    0.39    0.30            0.21    0.22    0.19           0.18     0.20
C10        49.82   48.84   27.59          75.35    7.48   18.69          20.13   68.19           0.23    0.35    0.47    0.30            0.19    0.20    0.26           0.27     0.33
C11        51.57   49.00   22.51          75.45   11.66   27.97          30.30   67.37           0.20    0.37    0.55    0.29            0.18    0.18    0.16           0.22     0.24
C12        53.17   48.52   16.21          75.15   17.12   40.89          44.33   67.28           0.16    0.40    0.69    0.28            0.16    0.19    0.14           0.23     0.27
C13        60.72   67.62   67.10          85.82  -10.29  -11.13          15.16  227.24           0.25    0.13    0.09    0.19            0.20    0.16    0.08           0.15     0.19
C14        67.81   63.82   64.59          83.87   14.14  -12.12          18.62  319.41           0.13    0.22    0.12    0.19            0.11    0.13    0.06           0.13     0.15
C15        71.90   75.27   45.77          89.52   -1.41   17.60          17.66   94.58           0.10    0.13    0.25    0.12            0.13    0.13    0.25           0.23     0.27
C16        49.30   51.10   41.85          76.74    0.10    0.40           0.41   76.66           0.28    0.29    0.29    0.29            0.22    0.21    0.20           0.22     0.25
C17        63.01   60.09   43.11          81.89   11.96    7.70          14.23   32.75           0.13    0.26    0.28    0.21            0.10    0.14    0.15           0.18     0.21
C18        56.00   63.39   44.41          83.65  -12.34    9.12          15.34  143.55           0.26    0.17    0.27    0.21            0.13    0.10    0.24           0.23     0.27
C19        53.54   54.34   61.90          78.66    2.93  -18.51          18.74  279.00           0.28    0.25    0.13    0.27            0.08    0.06    0.09           0.11     0.13
C20         1.74    1.46    0.68          12.32    9.07    8.47          12.41   43.06           1.66    1.96    2.05    1.79            0.03    0.02    0.00           0.28     0.31
C21        23.32   17.58    4.84          48.98   31.41   34.33          46.53   47.54           0.47    0.97    1.20    0.69            0.09    0.08    0.03           0.21     0.25
C22        35.36   32.15   17.81          63.47   15.36   17.05          22.95   47.98           0.35    0.56    0.66    0.47            0.13    0.11    0.11           0.22     0.25
D1          4.15    4.39    2.20          24.91   -1.05   10.74          10.79   95.59           1.34    1.36    1.54    1.35            0.04    0.04    0.03           0.26     0.28
D2          4.13    4.35    1.36          24.80   -0.95   19.41          19.44   92.82           1.32    1.37    1.73    1.35            0.04    0.04    0.01           0.25     0.28
D3          4.11    4.37    0.75          24.86   -1.42   28.72          28.75   92.83           1.32    1.38    1.98    1.34            0.04    0.04    0.00           0.19     0.22
D4          4.72    4.99    0.73          26.71   -1.17   32.22          32.24   92.08           1.26    1.33    1.99    1.28            0.03    0.03    0.01           0.18     0.20
D5         26.59   27.86   14.02          59.76   -1.09   19.84          19.87   93.13           0.52    0.56    0.75    0.55            0.12    0.11    0.13           0.23     0.26
D6         26.50   27.91    7.56          59.81   -1.66   40.53          40.57   92.34           0.51    0.58    1.01    0.54            0.10    0.10    0.05           0.21     0.23
D7         26.39   27.99    3.60          59.88   -2.41   60.45          60.50   92.28           0.51    0.59    1.31    0.53            0.14    0.12    0.04           0.20     0.23
D8         26.25   27.99    1.46          59.88   -2.99   78.67          78.73   92.18           0.52    0.60    1.71    0.53            0.18    0.14    0.02           0.26     0.29
D9         54.89   57.13   39.08          80.25   -0.49   10.06          10.07   92.80           0.22    0.24    0.32    0.24            0.18    0.16    0.21           0.21     0.22
D10        54.78   57.09   31.33          80.23   -0.69   21.10          21.11   91.87           0.21    0.25    0.41    0.24            0.23    0.23    0.18           0.22     0.25
D11        54.89   57.28   25.03          80.33   -0.86   31.72          31.73   91.55           0.20    0.26    0.51    0.23            0.25    0.24    0.23           0.22     0.25
D12        54.22   57.07   12.10          80.22   -2.06   60.42          60.46   91.95           0.20    0.28    0.81    0.22            0.18    0.18    0.12           0.23     0.28
D13        51.73   60.17   64.83          81.93  -15.82  -15.70          22.29  224.79           0.36    0.16    0.11    0.25            0.10    0.09    0.11           0.11     0.13
D14        62.26   55.04   60.69          79.07   22.40  -16.63          27.90  323.41           0.15    0.31    0.14    0.24            0.11    0.12    0.09           0.16     0.18
D15        69.72   72.86   36.62          88.38   -1.14   27.42          27.44   92.38           0.11    0.15    0.35    0.13            0.17    0.20    0.24           0.25     0.28
D16        37.05   38.47   31.67          68.36   -0.13    0.12           0.25  136.29           0.41    0.41    0.41    0.42            0.33    0.33    0.33           0.26     0.33
D17        56.12   50.60   33.19          76.44   19.02   11.74          22.35   31.69           0.16    0.36    0.39    0.27            0.10    0.12    0.17           0.19     0.21
D18        45.58   54.40   34.83          78.70  -18.67   13.24          22.89  144.66           0.36    0.21    0.37    0.28            0.19    0.18    0.21           0.25     0.28
D19        42.16   42.10   56.43          70.94    4.75  -26.31          26.73  280.24           0.40    0.36    0.18    0.39            0.16    0.13    0.06           0.18     0.21
D20        14.18   10.86    2.73          39.34   25.38   31.20          40.22   50.87           0.69    1.17    1.44    0.90            0.07    0.06    0.03           0.21     0.25
D21        21.75   21.13   11.64          53.09    6.54   15.02          16.38   66.47           0.58    0.71    0.84    0.66            0.11    0.10    0.07           0.19     0.21
D22        38.73   36.89   20.32          67.19   10.32   18.09          20.82   60.29           0.33    0.48    0.60    0.41            0.13    0.11    0.11           0.19     0.22
E1          3.80    4.34    2.23          24.76   -5.60   10.27          11.70  118.58           1.41    1.33    1.53    1.36            0.04    0.06    0.03           0.27     0.32
E2          3.52    4.38    1.42          24.90  -10.45   18.89          21.58  118.95           1.46    1.30    1.71    1.36            0.04    0.05    0.01           0.20     0.24
E3          3.16    4.35    0.80          24.79  -15.86   27.74          31.96  119.77           1.56    1.28    1.95    1.37            0.03    0.03    0.01           0.18     0.20
E4          3.63    5.07    0.81          26.93  -17.42   31.27          35.80  119.13           1.50    1.22    1.94    1.31            0.03    0.03    0.01           0.19     0.21
E5         12.67   14.47    7.75          44.90   -8.33   14.08          16.36  120.60           0.88    0.81    1.00    0.84            0.07    0.07    0.07           0.26     0.30
E6         11.52   14.42    4.70          44.83  -15.95   27.94          32.18  119.72           0.94    0.79    1.20    0.85            0.08    0.08    0.03           0.22     0.25
E7         10.55   14.50    2.49          44.94  -23.53   42.79          48.83  118.80           1.02    0.77    1.46    0.85            0.06    0.07    0.02           0.21     0.23
E8          9.58   14.50    1.27          44.94  -31.14   55.31          63.47  119.38           1.14    0.75    1.76    0.86            0.05    0.05    0.01           0.16     0.19
E9         37.95   40.89   28.43          70.10   -4.69    8.24           9.48  119.63           0.40    0.37    0.46    0.39            0.25    0.23    0.26           0.27     0.30
E10        36.30   40.68   23.63          69.95   -9.45   16.36          18.89  120.00           0.42    0.37    0.53    0.39            0.21    0.20    0.21           0.26     0.30
E11        35.30   40.97   19.70          70.15  -13.65   24.48          28.03  119.14           0.44    0.36    0.61    0.39            0.21    0.19    0.17           0.25     0.29
E12        32.64   40.79   12.92          70.03  -22.36   40.54          46.30  118.88           0.50    0.34    0.78    0.40            0.18    0.17    0.11           0.20     0.23
E13        43.50   52.94   62.20          77.84  -21.00  -20.22          29.15  223.91           0.47    0.19    0.13    0.31            0.11    0.11    0.08           0.14     0.16
E14        56.74   46.87   56.42          74.11   30.60  -20.84          37.02  325.74           0.18    0.41    0.18    0.31            0.09    0.12    0.10           0.18     0.21
E15        67.60   70.25   28.51          87.12   -0.30   37.46          37.46   90.46           0.11    0.17    0.45    0.14            0.18    0.20    0.18           0.21     0.24
E16        26.97   28.12   23.23          60.00   -0.58   -0.04           0.61  184.98           0.55    0.54    0.55    0.55            0.15    0.14    0.16           0.22     0.26
E17        49.58   42.08   24.74          70.93   25.88   16.01          30.44   31.74           0.19    0.48    0.52    0.34            0.18    0.18    0.17           0.23     0.26
E18        36.24   45.83   26.66          73.44  -24.67   16.97          29.95  145.47           0.48    0.27    0.48    0.36            0.14    0.13    0.16           0.19     0.22
E19        32.54   31.82   50.71          63.20    6.74  -33.48          34.16  281.39           0.54    0.48    0.23    0.51            0.13    0.08    0.11           0.20     0.24
E20        24.68   16.94    1.24          48.18   40.82   61.24          73.60   56.32           0.42    1.09    1.76    0.68            0.10    0.08    0.01           0.13     0.14
E21        17.23   14.29    2.68          44.64   20.24   40.71          45.46   63.56           0.62    1.00    1.44    0.79            0.10    0.08    0.02           0.18     0.21
E22        29.71   25.55    8.02          57.61   20.45   34.97          40.51   59.67           0.40    0.71    0.99    0.55            0.12    0.10    0.07           0.21     0.25
F1          1.47    1.88    1.26          14.87   -8.97    3.56           9.65  158.34           1.91    1.64    1.77    1.75            0.02    0.03    0.01           0.26     0.29
F2          1.19    1.90    1.05          14.97  -18.00    6.64          19.18  159.76           2.12    1.58    1.84    1.76            0.02    0.03    0.01           0.22     0.25
F3          1.04    2.05    0.95          15.72  -26.17    9.54          27.86  159.98           2.31    1.50    1.88    1.75            0.01    0.02    0.01           0.16     0.19
F4          1.20    2.48    1.09          17.84  -29.91   11.12          31.91  159.60           2.29    1.41    1.82    1.67            0.01    0.02    0.01           0.15     0.17
F5          6.79    8.54    5.90          35.07  -13.70    5.03          14.59  159.83           1.22    1.00    1.12    1.09            0.05    0.05    0.04           0.21     0.24
F6          5.62    8.58    5.05          35.16  -26.68    9.39          28.28  160.61           1.41    0.94    1.18    1.11            0.05    0.06    0.05           0.25     0.29
F7          4.48    8.51    4.12          35.03  -40.15   14.36          42.64  160.32           1.67    0.89    1.26    1.13            0.04    0.05    0.03           0.20     0.22
F8          3.36    8.44    3.19          34.87  -55.96   20.10          59.47  160.24           2.13    0.84    1.35    1.15            0.03    0.05    0.03           0.21     0.25
F9         37.92   41.09   32.20          70.24   -5.39    2.55           5.97  154.68           0.41    0.37    0.41    0.39            0.17    0.17    0.13           0.19     0.21
F10        36.12   41.02   30.92          70.19  -11.07    4.41          11.92  158.29           0.45    0.35    0.42    0.40            0.20    0.18    0.20           0.21     0.24
F11        34.53   41.22   29.89          70.33  -17.05    6.27          18.17  159.80           0.49    0.33    0.43    0.40            0.15    0.14    0.18           0.24     0.29
F12        30.95   41.18   27.12          70.30  -29.65   10.78          31.55  160.02           0.59    0.30    0.47    0.41            0.17    0.15    0.23           0.29     0.33
F13        36.74   46.70   59.42          74.00  -25.41  -24.09          35.02  223.47           0.59    0.23    0.15    0.37            0.08    0.09    0.06           0.12     0.14
F14        51.64   39.80   52.13          69.32   38.26  -24.50          45.43  327.37           0.21    0.52    0.22    0.37            0.11    0.12    0.09           0.16     0.21
F15        65.73   67.72   21.83          85.86    0.98   47.24          47.25   88.81           0.11    0.20    0.56    0.15            0.17    0.19    0.20           0.29     0.33
F16        19.43   20.26   16.64          52.13   -0.54    0.18           0.58  161.56           0.69    0.69    0.69    0.69            0.12    0.13    0.11           0.23     0.25
F17        43.84   34.95   18.01          65.71   32.30   20.47          38.24   32.36           0.22    0.60    0.65    0.41            0.14    0.16    0.14           0.22     0.27
