targets/wolf_faust/reflective/R051001.it8
IT8.7/2
ORIGINATOR "Wolf Faust"
DESCRIPTOR "Kodak Professional Paper, L* a* b* (light D50, viewing angle 2)"
MANUFACTURER "Wolf Faust - http://www.coloraid.de"
CREATED "December 05, 2005"
PROD_DATE "2005:10"
SAMPLE_BACKING "black"
SERIAL "5x7 R051001 Batch Average Data"
MATERIAL "Kodak Professional Ultra Endura"
KEYWORD "MEAN_DE" # Mean Delta E of samples compared to batch average
NUMBER_OF_FIELDS 18
BEGIN_DATA_FORMAT
SAMPLE_ID  XYZ_X   XYZ_Y   XYZ_Z          LAB_L   LAB_A   LAB_B          LAB_C   LAB_H          D_RED  D_GREEN  D_BLUE  D_VIS          STDEV_X STDEV_Y STDEV_Z        MEAN_DE  STDEV_DE
END_DATA_FORMAT
NUMBER_OF_SETS 288
BEGIN_DATA
A1          3.49    2.95    1.96          19.84   10.83    4.26          11.64   21.47           1.36    1.64    1.60    1.49            0.04    0.04    0.03           0.24     0.27
A2          4.30    2.90    1.62          19.65   23.59    7.57          24.78   17.78           1.21    1.83    1.69    1.46            0.04    0.03    0.02           0.23     0.26 
A3          5.25    2.95    1.37          19.84   35.00   10.75          36.61   17.07           1.09    2.08    1.77    1.42            0.05    0.03    0.02           0.27     0.30
A4          5.81    3.16    1.42          20.69   37.87   11.68          39.63   17.14           1.05    2.12    1.76    1.38            0.04    0.02    0.02           0.21     0.23 
A5         12.72   11.20    7.79          39.91   13.57    5.33          14.58   21.46           0.80    1.04    1.01    0.92            0.07    0.07    0.05           0.17     0.20
A6         14.98   11.12    6.71          39.79   28.33    9.56          29.90   18.65           0.68    1.16    1.08    0.90            0.10    0.08    0.06           0.27     0.30 
A7         17.38   11.11    5.83          39.76   42.10   13.45          44.20   17.72           0.58    1.31    1.15    0.87            0.09    0.06    0.06           0.33     0.37
A8         21.51   11.16    4.64          39.85   62.52   19.67          65.55   17.46           0.48    1.66    1.26    0.82            0.08    0.07    0.06           0.29     0.34 
A9         41.57   41.05   31.68          70.21    6.14    3.28           6.96   28.09           0.33    0.41    0.41    0.38            0.14    0.12    0.14           0.16     0.18
A10        44.21   41.27   30.80          70.36   13.29    4.91          14.17   20.28           0.28    0.43    0.43    0.37            0.13    0.14    0.13           0.23     0.26
A11        46.20   40.91   29.25          70.11   20.08    6.93          21.24   19.05           0.24    0.46    0.45    0.36            0.21    0.19    0.24           0.24     0.28
A12        49.42   40.86   28.06          70.07   29.13    8.80          30.43   16.82           0.19    0.50    0.47    0.35            0.12    0.14    0.14           0.24     0.27 
A13        76.26   80.12   69.21          91.74   -2.00   -2.86           3.49  234.95           0.11    0.09    0.08    0.10            0.12    0.13    0.07           0.10     0.12
A14        77.73   80.18   69.14          91.77    0.83   -2.74           2.87  286.86           0.09    0.09    0.08    0.10            0.15    0.15    0.10           0.11     0.12 
A15        77.54   80.92   64.75          92.09   -0.96    1.90           2.13  116.73           0.09    0.09    0.11    0.09            0.07    0.08    0.11           0.10     0.12
A16        77.52   80.46   66.40          91.89   -0.13   -0.01           0.20  189.01           0.09    0.09    0.10    0.09            0.17    0.19    0.14           0.16     0.18
A17        75.75   77.83   63.49          90.70    1.45    0.71           1.62   25.84           0.10    0.11    0.12    0.11            0.14    0.15    0.15           0.17     0.19
A18        74.96   79.05   64.66          91.26   -2.56    0.55           2.62  167.97           0.11    0.09    0.11    0.10            0.18    0.18    0.10           0.11     0.13 
A19        76.31   79.31   68.93          91.37   -0.33   -3.23           3.25  264.17           0.10    0.09    0.08    0.10            0.16    0.16    0.06           0.13     0.15
A20         1.35    1.09    0.70           9.70    9.62    3.54          10.25   20.23           1.78    2.10    2.04    1.92            0.02    0.02    0.01           0.27     0.30 
A21         5.23    3.30    0.72          21.22   28.84   22.97          36.87   38.53           1.09    1.89    2.02    1.38            0.05    0.04    0.01           0.28     0.31
A22        10.09    5.77    0.78          28.83   42.41   35.06          55.03   39.58           0.79    1.81    1.99    1.12            0.06    0.04    0.01           0.22     0.25
B1          3.33    2.92    1.53          19.70    8.86    8.67          12.40   44.37           1.38    1.63    1.70    1.50            0.03    0.03    0.02           0.25     0.27
B2          3.92    2.94    0.97          19.79   17.72   16.21          24.02   42.45           1.26    1.75    1.89    1.46            0.04    0.03    0.02           0.19     0.22
B3          4.57    2.95    0.58          19.85   26.41   23.32          35.24   41.44           1.16    1.91    2.11    1.43            0.04    0.03    0.01           0.20     0.24
B4          5.21    3.21    0.48          20.85   30.13   26.87          40.37   41.73           1.09    1.95    2.19    1.39            0.05    0.03    0.01           0.21     0.24
B5         12.86   11.23    5.72          39.96   14.26   14.32          20.21   45.11           0.78    1.05    1.14    0.91            0.04    0.04    0.05           0.24     0.26
B6         14.81   11.21    3.81          39.94   26.65   24.72          36.35   42.85           0.67    1.16    1.31    0.89            0.10    0.09    0.04           0.27     0.30
B7         17.30   11.23    2.24          39.97   40.78   36.41          54.67   41.76           0.57    1.32    1.53    0.86            0.08    0.06    0.02           0.19     0.20
B8         20.99   11.22    0.87          39.95   59.62   52.55          79.47   41.39           0.48    1.65    1.93    0.82            0.08    0.06    0.01           0.16     0.18
B9         41.50   40.98   29.66          70.16    6.12    6.35           8.82   46.02           0.33    0.41    0.44    0.38            0.16    0.14    0.12           0.18     0.22
B10        43.28   40.80   26.74          70.04   12.00   10.97          16.25   42.44           0.29    0.44    0.48    0.37            0.12    0.12    0.11           0.16     0.18
B11        45.80   41.20   23.67          70.31   18.08   16.92          24.76   43.10           0.24    0.46    0.54    0.36            0.19    0.17    0.10           0.18     0.20
B12        48.67   41.05   19.87          70.21   26.50   24.21          35.89   42.41           0.19    0.50    0.61    0.35            0.10    0.10    0.08           0.17     0.19
B13        70.05   75.49   68.18          89.62   -5.78   -5.56           8.02  223.88           0.16    0.10    0.09    0.13            0.17    0.18    0.11           0.16     0.19
B14        73.63   72.99   66.86          88.44    6.83   -6.38           9.34  316.96           0.10    0.15    0.10    0.13            0.18    0.18    0.09           0.12     0.14
B15        75.47   79.04   56.12          91.25   -1.50    9.04           9.16   99.45           0.09    0.10    0.17    0.10            0.19    0.20    0.12           0.17     0.22
B16        62.82   65.16   53.42          84.57   -0.03    0.38           0.39   95.77           0.18    0.18    0.19    0.19            0.18    0.17    0.13           0.17     0.20
B17        70.58   70.40   54.36          87.19    5.83    3.89           7.01   33.69           0.11    0.17    0.18    0.15            0.20    0.21    0.14           0.20     0.23
B18        67.10   72.92   55.21          88.41   -6.95    5.09           8.62  143.80           0.17    0.12    0.17    0.14            0.19    0.19    0.12           0.17     0.21
B19        65.58   67.41   65.55          85.71    1.30   -9.86           9.95  277.53           0.18    0.16    0.11    0.18            0.18    0.20    0.11           0.18     0.21
B20         2.81    2.02    0.70          15.60   17.66   13.65          22.32   37.69           1.40    1.95    2.03    1.62            0.04    0.04    0.01           0.31     0.35
B21         8.48    4.96    0.75          26.63   38.61   31.74          49.98   39.43           0.87    1.84    2.00    1.19            0.07    0.05    0.02           0.32     0.37
B22        29.45   25.10   11.70          57.17   21.32   21.89          30.56   45.75           0.41    0.71    0.83    0.56            0.20    0.17    0.07           0.24     0.28
C1          4.46    4.34    2.14          24.76    3.84   11.08          11.73   70.87           1.27    1.41    1.55    1.34            0.06    0.06    0.04           0.21     0.25
C2          4.81    4.38    1.33          24.90    7.72   20.02          21.46   68.92           1.21    1.45    1.74    1.32            0.04    0.04    0.02           0.25     0.27
C3          5.19    4.43    0.70          25.06   11.85   30.00          32.26   68.45           1.15    1.49    2.01    1.30            0.05    0.05    0.01           0.22     0.26
C4          5.71    4.78    0.62          26.09   13.50   33.21          35.85   67.88           1.10    1.48    2.06    1.27            0.05    0.03    0.01           0.24     0.27
C5         23.90   22.97   10.53          55.04    7.86   21.80          23.17   70.16           0.53    0.69    0.88    0.62            0.13    0.12    0.09           0.24     0.26
C6         26.01   22.90    5.32          54.97   17.13   42.18          45.52   67.90           0.45    0.75    1.15    0.60            0.16    0.14    0.05           0.23     0.26
C7         28.37   22.91    2.26          54.98   26.61   62.11          67.57   66.80           0.39    0.82    1.51    0.58            0.11    0.10    0.02           0.21     0.24
C8         30.07   23.10    1.05          55.17   32.31   76.05          82.63   66.98           0.36    0.87    1.84    0.57            0.09    0.07    0.00           0.16     0.18
C9         48.41   48.81   33.22          75.33    3.71    9.79          10.47   69.26           0.27    0.33    0.39    0.30            0.21    0.22    0.17           0.19     0.20
C10        49.79   48.72   27.13          75.27    7.71   19.33          20.81   68.25           0.23    0.35    0.48    0.30            0.08    0.08    0.15           0.23     0.27
C11        51.27   48.73   22.13          75.28   11.61   28.41          30.69   67.77           0.20    0.37    0.56    0.29            0.15    0.17    0.14           0.23     0.26
C12        53.34   48.43   15.36          75.10   17.78   42.87          46.41   67.48           0.16    0.40    0.71    0.28            0.12    0.12    0.13           0.24     0.28
C13        60.70   68.14   66.38          86.07  -11.45  -10.02          15.21  221.19           0.25    0.12    0.10    0.18            0.20    0.19    0.08           0.21     0.24
C14        68.64   64.64   63.84          84.30   14.13  -10.67          17.71  322.95           0.12    0.22    0.12    0.18            0.21    0.20    0.09           0.15     0.18
C15        73.02   76.62   45.61          90.15   -1.79   18.88          18.96   95.41           0.10    0.12    0.25    0.11            0.11    0.12    0.15           0.15     0.18
C16        49.07   51.08   41.40          76.73   -0.50    0.96           1.08  118.01           0.29    0.29    0.30    0.29            0.19    0.20    0.14           0.18     0.21
C17        63.73   60.76   42.81          82.25   12.04    8.69          14.85   35.81           0.13    0.26    0.28    0.20            0.11    0.13    0.15           0.17     0.20
C18        56.01   63.83   44.13          83.88  -13.31    9.87          16.57  143.46           0.26    0.16    0.27    0.20            0.17    0.16    0.16           0.22     0.25
C19        53.32   54.38   60.92          78.68    2.28  -17.51          17.66  277.42           0.28    0.25    0.14    0.27            0.17    0.18    0.06           0.20     0.23
C20         1.73    1.48    0.67          12.51    7.97    8.89          11.94   48.10           1.67    1.94    2.05    1.79            0.02    0.01    0.01           0.20     0.23
C21        23.27   17.58    4.56          48.98   31.21   35.88          47.56   48.98           0.47    0.97    1.23    0.69            0.11    0.09    0.04           0.30     0.34
C22        35.28   32.27   17.19          63.57   14.65   18.63          23.70   51.81           0.35    0.56    0.67    0.46            0.13    0.11    0.12           0.27     0.31
D1          4.12    4.37    2.17          24.86   -1.29   10.98          11.05   96.69           1.34    1.36    1.54    1.35            0.05    0.05    0.03           0.21     0.23
D2          4.16    4.38    1.34          24.89   -0.90   19.92          19.94   92.58           1.32    1.37    1.74    1.34            0.04    0.04    0.02           0.24     0.27
D3          4.09    4.38    0.72          24.89   -1.84   29.30          29.36   93.60           1.33    1.38    1.99    1.34            0.03    0.03    0.01           0.18     0.21
D4          4.74    5.06    0.70          26.90   -1.79   33.14          33.18   93.09           1.26    1.32    2.00    1.28            0.06    0.05    0.00           0.29     0.32
D5         26.87   28.10   13.81          59.98   -0.91   20.78          20.80   92.52           0.51    0.56    0.76    0.54            0.10    0.09    0.11           0.29     0.34
D6         26.51   27.96    7.46          59.85   -1.82   41.02          41.06   92.54           0.51    0.58    1.01    0.54            0.19    0.18    0.08           0.32     0.36
D7         26.75   28.35    3.50          60.21   -2.40   61.64          61.69   92.23           0.50    0.58    1.32    0.53            0.21    0.18    0.03           0.33     0.37
D8         26.39   28.17    1.41          60.04   -3.11   79.62          79.68   92.24           0.52    0.60    1.73    0.53            0.17    0.14    0.01           0.27     0.32
D9         54.60   56.71   38.34          80.01   -0.18   10.63          10.63   90.99           0.22    0.25    0.33    0.24            0.17    0.15    0.10           0.15     0.16
D10        54.92   57.22   30.69          80.30   -0.62   22.22          22.22   91.59           0.21    0.25    0.42    0.23            0.15    0.15    0.15           0.22     0.26
D11        54.60   57.07   24.61          80.22   -1.07   32.27          32.29   91.90           0.20    0.26    0.51    0.23            0.22    0.21    0.13           0.20     0.22
D12        54.04   56.78   10.56          80.05   -1.78   64.82          64.85   91.57           0.20    0.28    0.86    0.23            0.15    0.12    0.07           0.26     0.31
D13        51.97   60.82   64.18          82.28  -16.70  -14.48          22.10  220.92           0.35    0.15    0.11    0.24            0.19    0.19    0.09           0.18     0.21
D14        63.00   55.79   60.04          79.49   22.26  -15.24          26.97  325.61           0.14    0.31    0.15    0.24            0.17    0.19    0.07           0.17     0.22
D15        70.85   74.20   36.66          89.02   -1.48   28.46          28.50   92.98           0.10    0.14    0.35    0.12            0.17    0.18    0.24           0.19     0.24
D16        37.01   38.59   31.46          68.45   -0.64    0.59           0.89  138.12           0.41    0.41    0.42    0.41            0.25    0.24    0.20           0.24     0.28
D17        56.81   51.27   33.19          76.84   19.00   12.44          22.71   33.22           0.15    0.36    0.39    0.26            0.10    0.12    0.14           0.24     0.28
D18        45.80   54.94   34.75          79.00  -19.38   13.89          23.85  144.37           0.36    0.21    0.37    0.27            0.23    0.24    0.21           0.22     0.26
D19        42.00   42.16   55.55          70.98    4.11  -25.31          25.65  279.23           0.40    0.36    0.18    0.39            0.21    0.19    0.06           0.23     0.26
D20        13.98   10.64    2.59          38.98   25.68   31.69          40.79   50.98           0.69    1.18    1.47    0.91            0.11    0.08    0.03           0.28     0.33
D21        21.90   21.35   11.59          53.33    6.27   15.56          16.77   68.05           0.58    0.71    0.84    0.65            0.13    0.11    0.07           0.23     0.25
D22        39.06   37.23   19.83          67.45   10.26   19.55          22.08   62.30           0.32    0.48    0.61    0.41            0.19    0.17    0.14           0.23     0.25
E1          3.78    4.38    2.26          24.88   -6.33   10.23          12.03  121.75           1.41    1.32    1.52    1.36            0.04    0.05    0.04           0.24     0.27
E2          3.55    4.42    1.39          25.02  -10.39   19.43          22.04  118.12           1.46    1.30    1.72    1.36            0.02    0.03    0.01           0.15     0.17
E3          3.18    4.38    0.78          24.90  -15.96   28.24          32.44  119.47           1.55    1.28    1.95    1.37            0.03    0.03    0.01           0.20     0.22
E4          3.54    5.04    0.77          26.84  -18.44   31.72          36.69  120.17           1.52    1.21    1.96    1.31            0.03    0.04    0.01           0.16     0.19
E5         12.56   14.41    7.39          44.82   -8.70   15.39          17.68  119.49           0.88    0.81    1.02    0.84            0.07    0.07    0.04           0.21     0.23
E6         11.45   14.37    4.43          44.76  -16.12   29.31          33.45  118.80           0.95    0.79    1.23    0.85            0.09    0.10    0.05           0.24     0.26
E7         10.60   14.60    2.48          45.07  -23.76   43.12          49.23  118.86           1.02    0.77    1.46    0.85            0.09    0.11    0.03           0.21     0.25
E8          9.56   14.51    1.23          44.96  -31.30   55.93          64.10  119.23           1.14    0.75    1.77    0.86            0.07    0.08    0.01           0.24     0.27
E9         37.85   40.86   28.33          70.08   -4.93    8.37           9.72  120.51           0.40    0.38    0.46    0.39            0.15    0.16    0.10           0.18     0.21
E10        37.14   41.55   23.76          70.56   -9.31   17.17          19.53  118.45           0.41    0.36    0.53    0.38            0.19    0.16    0.15           0.20     0.24
E11        35.69   41.46   19.66          70.50  -13.84   25.14          28.70  118.83           0.44    0.35    0.61    0.39            0.16    0.16    0.14           0.19     0.22
E12        32.88   41.16   12.47          70.29  -22.62   42.24          47.91  118.17           0.49    0.34    0.79    0.39            0.12    0.12    0.08           0.22     0.24
E13        44.33   54.06   61.73          78.50  -21.42  -18.63          28.39  221.00           0.46    0.19    0.13    0.30            0.22    0.21    0.11           0.19     0.23
E14        57.60   47.83   55.97          74.72   30.09  -19.31          35.75  327.31           0.17    0.41    0.18    0.30            0.12    0.12    0.07           0.14     0.16
E15        68.77   71.64   28.64          87.80   -0.67   38.41          38.42   91.00           0.10    0.17    0.45    0.13            0.17    0.18    0.13           0.20     0.23
E16        27.51   28.71   23.15          60.52   -0.67    1.02           1.23  123.33           0.54    0.54    0.55    0.54            0.19    0.16    0.16           0.30     0.33
E17        50.42   42.93   24.74          71.50   25.65   17.02          30.78   33.56           0.18    0.47    0.52    0.33            0.12    0.14    0.17           0.25     0.29
E18        36.81   46.59   26.47          73.93  -24.92   18.15          30.83  143.93           0.48    0.27    0.48    0.35            0.21    0.21    0.15           0.22     0.24
E19        33.04   32.45   50.16          63.71    6.31  -31.99          32.61  281.17           0.53    0.47    0.23    0.50            0.17    0.15    0.07           0.19     0.24
E20        24.62   16.88    1.18          48.11   40.84   61.96          74.21   56.61           0.42    1.10    1.78    0.69            0.10    0.08    0.01           0.22     0.28
E21        17.18   14.21    2.53          44.53   20.45   41.79          46.53   63.92           0.62    1.01    1.47    0.79            0.15    0.11    0.03           0.29     0.37
E22        30.06   25.86    7.90          57.90   20.47   35.93          41.35   60.33           0.39    0.71    0.99    0.54            0.16    0.13    0.08           0.29     0.33
F1          1.47    1.86    1.22          14.75   -8.57    3.96           9.44  155.22           1.90    1.65    1.79    1.75            0.03    0.03    0.01           0.25     0.28
F2          1.18    1.89    1.04          14.92  -18.18    6.75          19.39  159.62           2.12    1.58    1.84    1.77            0.02    0.03    0.01           0.22     0.26
F3          1.02    1.98    0.90          15.36  -25.27    9.79          27.10  158.83           2.30    1.52    1.90    1.76            0.01    0.02    0.01           0.17     0.19
F4          1.19    2.43    1.06          17.61  -29.17   11.08          31.21  159.20           2.28    1.42    1.82    1.68            0.01    0.02    0.01           0.17     0.19
F5          6.71    8.43    5.68          34.87  -13.61    5.74          14.77  157.13           1.22    1.00    1.14    1.09            0.03    0.04    0.03           0.16     0.18
F6          5.41    8.38    4.74          34.76  -27.39   10.35          29.28  159.30           1.43    0.95    1.20    1.12            0.06    0.08    0.06           0.22     0.25
F7          4.44    8.45    3.98          34.91  -40.20   14.95          42.89  159.60           1.67    0.90    1.27    1.13            0.04    0.06    0.03           0.16     0.18
F8          3.42    8.51    3.17          35.02  -55.64   20.46          59.28  159.81           2.11    0.84    1.35    1.15            0.03    0.05    0.03           0.21     0.23
F9         37.66   41.14   32.14          70.27   -6.39    2.70           6.94  157.11           0.42    0.36    0.41    0.39            0.17    0.17    0.10           0.17     0.19
F10        36.07   41.22   31.16          70.33  -11.85    4.29          12.60  160.11           0.46    0.35    0.42    0.40            0.13    0.12    0.12           0.15     0.16
F11        34.39   41.25   29.58          70.35  -17.61    6.80          18.88  158.88           0.50    0.33    0.44    0.40            0.11    0.12    0.17           0.18     0.20
F12        30.81   41.26   26.95          70.36  -30.38   11.17          32.37  159.82           0.60    0.30    0.47    0.41            0.09    0.09    0.10           0.17     0.19
F13        37.18   47.41   58.80          74.45  -25.95  -22.69          34.47  221.17           0.59    0.22    0.15    0.37            0.14    0.15    0.11           0.15     0.18
F14        52.46   40.70   51.77          69.97   37.63  -22.99          44.10  328.58           0.20    0.51    0.22    0.36            0.13    0.14    0.08           0.18     0.21
F15        66.87   69.05   21.88          86.53    0.64   48.29          48.29   89.24           0.11    0.19    0.56    0.14            0.18    0.19    0.14           0.23     0.25
F16        19.75   20.67   16.62          52.59   -0.89    1.03           1.37  130.64           0.68    0.68    0.69    0.69            0.16    0.15    0.12           0.23     0.26
F17        44.69   35.77   18.01          66.34   32.01   21.56          38.60   33.96           0.22    0.59    0.65    0.40            0.14    0.12    0.09           0.12     0.14
