targets/wolf_faust/reflective/R051001WhiteBacking.it8
IT8.7/2
ORIGINATOR "Wolf Faust"
DESCRIPTOR "Kodak Professional Paper, L* a* b* (light D50, viewing angle 2)"
MANUFACTURER "Wolf Faust - http://www.coloraid.de"
CREATED "December 05, 2005"
PROD_DATE "2005:10"
SAMPLE_BACKING "white"
SERIAL "5x7 R051001 Batch Average Data"
MATERIAL "Kodak Professional Ultra Endura"
NUMBER_OF_FIELDS 9
BEGIN_DATA_FORMAT
SAMPLE_ID  XYZ_X   XYZ_Y   XYZ_Z          LAB_L   LAB_A   LAB_B          LAB_C   LAB_H
END_DATA_FORMAT
NUMBER_OF_SETS 288
BEGIN_DATA
A1          3.54    2.98    1.97          19.98   11.07    4.43          11.92   21.84
A2          4.36    2.94    1.63          19.80   23.84    7.67          25.05   17.84 
A3          5.34    3.00    1.38          20.04   35.29   11.04          36.98   17.37
A4          5.93    3.23    1.43          20.93   38.24   11.90          40.05   17.28 
A5         12.96   11.39    7.89          40.22   13.75    5.50          14.82   21.81
A6         15.29   11.34    6.77          40.14   28.62    9.91          30.29   19.09 
A7         17.72   11.31    5.87          40.10   42.42   13.86          44.63   18.09
A8         22.01   11.41    4.68          40.26   63.11   20.14          66.24   17.70 
A9         42.37   41.76   31.99          70.71    6.40    3.67           7.38   29.83
A10        45.05   41.98   31.11          70.86   13.58    5.28          14.57   21.26
A11        47.09   41.61   29.41          70.60   20.47    7.51          21.80   20.14
A12        50.48   41.61   28.34          70.60   29.70    9.25          31.10   17.30 
A13        77.99   81.90   70.30          92.53   -1.93   -2.48           3.14  232.01
A14        79.51   81.95   70.21          92.55    0.98   -2.36           2.55  292.59 
A15        79.31   82.70   65.74          92.88   -0.83    2.32           2.46  109.73
A16        79.27   82.21   67.46          92.67    0.01    0.36           0.36   86.74
A17        77.52   79.55   64.50          91.48    1.64    1.09           1.97   33.47
A18        76.68   80.82   65.62          92.05   -2.49    1.00           2.69  158.10 
A19        78.11   81.13   70.09          92.19   -0.22   -2.87           2.88  265.61
A20         1.36    1.10    0.70           9.76    9.79    3.69          10.47   20.66 
A21         5.34    3.37    0.73          21.47   29.12   23.27          37.28   38.64
A22        10.28    5.87    0.78          29.09   42.77   35.43          55.53   39.64
B1          3.40    2.98    1.53          19.95    8.96    8.99          12.70   45.10
B2          3.99    2.98    0.97          19.97   17.83   16.53          24.32   42.83
B3          4.67    3.02    0.58          20.11   26.60   23.68          35.61   41.67
B4          5.30    3.26    0.48          21.06   30.42   27.20          40.80   41.80
B5         13.07   11.39    5.76          40.23   14.46   14.59          20.54   45.26
B6         15.05   11.39    3.84          40.23   26.87   25.02          36.72   42.96
B7         17.60   11.40    2.26          40.24   41.19   36.70          55.16   41.70
B8         21.53   11.51    0.88          40.43   60.13   53.25          80.32   41.52
B9         42.21   41.64   29.97          70.62    6.27    6.65           9.14   46.67
B10        44.11   41.50   26.96          70.53   12.30   11.44          16.80   42.92
B11        46.74   41.96   23.90          70.84   18.44   17.41          25.37   43.36
B12        49.75   41.84   20.06          70.76   27.04   24.77          36.68   42.49
B13        71.51   77.05   69.21          90.35   -5.81   -5.26           7.84  222.14
B14        75.23   74.45   67.87          89.14    7.12   -6.11           9.38  319.34
B15        77.24   80.81   56.95          92.05   -1.35    9.54           9.64   98.08
B16        64.14   66.45   54.23          85.23    0.15    0.65           0.67   77.22
B17        72.17   71.88   55.13          87.91    6.09    4.31           7.46   35.28
B18        68.54   74.44   56.02          89.13   -6.92    5.49           8.84  141.58
B19        66.96   68.80   66.56          86.40    1.38   -9.61           9.71  278.18
B20         2.86    2.05    0.70          15.77   17.89   13.90          22.66   37.85
B21         8.63    5.05    0.75          26.86   38.93   32.11          50.47   39.52
B22        30.00   25.52   11.80          57.58   21.67   22.29          31.08   45.81
C1          4.58    4.44    2.17          25.07    4.03   11.36          12.06   70.46
C2          4.89    4.45    1.34          25.10    7.90   20.21          21.70   68.64
C3          5.31    4.53    0.71          25.35   12.06   30.35          32.66   68.33
C4          5.82    4.85    0.63          26.29   13.85   33.46          36.21   67.51
C5         24.33   23.34   10.63          55.42    8.12   22.13          23.57   69.85
C6         26.53   23.33    5.37          55.41   17.43   42.67          46.10   67.78
C7         28.93   23.32    2.29          55.40   26.99   62.56          68.14   66.66
C8         30.72   23.53    1.06          55.61   32.81   76.66          83.39   66.83
C9         49.30   49.63   33.60          75.84    3.92   10.12          10.86   68.81
C10        50.76   49.58   27.43          75.81    8.00   19.75          21.31   67.95
C11        52.37   49.66   22.38          75.86   12.00   28.92          31.31   67.47
C12        54.53   49.38   15.57          75.69   18.27   43.37          47.06   67.16
C13        62.03   69.63   67.42          86.82  -11.55   -9.70          15.08  220.02
C14        70.17   65.95   64.81          84.97   14.51  -10.44          17.88  324.27
C15        74.75   78.33   46.26          90.93   -1.58   19.45          19.52   94.66
C16        50.04   52.03   41.98          77.30   -0.35    1.21           1.26  106.09
C17        65.16   62.00   43.36          82.91   12.41    9.15          15.42   36.41
C18        57.16   65.13   44.69          84.55  -13.37   10.34          16.91  142.28
C19        54.39   55.47   61.88          79.31    2.31  -17.37          17.53  277.58
C20         1.76    1.50    0.68          12.63    8.13    9.02          12.14   47.95
C21        23.72   17.86    4.59          49.33   31.69   36.28          48.17   48.87
C22        35.96   32.83   17.35          64.03   14.95   19.06          24.23   51.89
D1          4.19    4.43    2.19          25.06   -1.21   11.13          11.19   96.22
D2          4.23    4.45    1.35          25.10   -0.76   20.10          20.11   92.16
D3          4.16    4.45    0.73          25.10   -1.76   29.52          29.58   93.41
D4          4.81    5.13    0.71          27.10   -1.72   33.32          33.36   92.96
D5         27.29   28.52   13.93          60.35   -0.81   21.10          21.11   92.19
D6         26.97   28.38    7.54          60.23   -1.61   41.37          41.40   92.23
D7         27.23   28.79    3.53          60.60   -2.13   62.10          62.14   91.97
D8         26.82   28.59    1.42          60.42   -3.01   80.07          80.13   92.15
D9         55.67   57.76   38.84          80.61   -0.06   10.99          10.99   90.31
D10        56.05   58.31   31.11          80.91   -0.45   22.60          22.61   91.13
D11        55.73   58.14   24.95          80.82   -0.82   32.69          32.70   91.44
D12        55.21   57.88   10.65          80.67   -1.51   65.60          65.61   91.32
D13        52.90   61.97   65.18          82.90  -16.97  -14.36          22.23  220.23
D14        64.37   56.90   60.90          80.12   22.66  -15.01          27.18  326.49
D15        72.43   75.75   37.16          89.74   -1.26   29.02          29.05   92.48
D16        37.81   39.37   31.95          69.02   -0.48    0.82           0.97  120.04
D17        58.12   52.32   33.52          77.47   19.46   13.04          23.43   33.83
D18        46.67   55.99   35.26          79.61  -19.52   14.21          24.14  143.95
D19        42.86   43.00   56.40          71.56    4.19  -25.21          25.56  279.44
D20        14.24   10.83    2.62          39.29   26.00   31.96          41.21   50.87
D21        22.20   21.63   11.69          53.63    6.35   15.79          17.02   68.09
D22        39.80   37.87   20.05          67.92   10.54   19.89          22.51   62.09
E1          3.85    4.45    2.27          25.12   -6.31   10.54          12.28  120.93
E2          3.61    4.49    1.41          25.22  -10.39   19.54          22.13  118.01
E3          3.24    4.46    0.79          25.14  -15.93   28.48          32.63  119.23
E4          3.61    5.12    0.78          27.08  -18.40   32.00          36.92  119.90
E5         12.80   14.67    7.51          45.18   -8.61   15.52          17.75  119.03
E6         11.68   14.63    4.50          45.12  -16.03   29.56          33.63  118.47
E7         10.73   14.77    2.50          45.32  -23.85   43.36          49.48  118.81
E8          9.75   14.76    1.24          45.31  -31.31   56.36          64.47  119.06
E9         38.59   41.62   28.75          70.61   -4.86    8.61           9.89  119.47
E10        37.78   42.25   24.01          71.04   -9.30   17.54          19.85  117.93
E11        36.30   42.15   19.89          70.97  -13.86   25.48          29.00  118.54
E12        33.42   41.83   12.63          70.76  -22.71   42.59          48.27  118.07
E13        45.00   54.98   62.59          79.03  -21.79  -18.55          28.62  220.42
E14        58.79   48.70   56.70          75.27   30.60  -19.13          36.09  327.98
E15        70.31   73.12   29.00          88.50   -0.41   39.04          39.04   90.60
E16        27.97   29.17   23.44          60.93   -0.59    1.16           1.31  117.25
E17        51.54   43.75   25.08          72.06   26.21   17.37          31.44   33.53
E18        37.53   47.51   26.86          74.51  -25.06   18.48          31.14  143.60
E19        33.61   32.99   50.87          64.16    6.39  -32.01          32.64  281.29
E20        25.12   17.17    1.19          48.47   41.44   62.46          74.95   56.44
E21        17.50   14.45    2.55          44.87   20.69   42.16          46.96   63.86
E22        30.61   26.28    7.98          58.30   20.82   36.30          41.85   60.17
F1          1.49    1.88    1.23          14.84   -8.52    3.90           9.37  155.41
F2          1.20    1.93    1.05          15.13  -18.29    7.03          19.59  158.99
F3          1.04    2.00    0.90          15.51  -25.41    9.92          27.28  158.67
F4          1.21    2.46    1.07          17.75  -29.38   11.15          31.42  159.22
F5          6.79    8.54    5.71          35.09  -13.76    5.97          15.00  156.56
F6          5.48    8.49    4.79          34.99  -27.49   10.48          29.42  159.13
F7          4.49    8.55    3.99          35.10  -40.36   15.24          43.14  159.31
F8          3.47    8.63    3.20          35.26  -55.91   20.71          59.63  159.67
F9         38.30   41.81   32.43          70.74   -6.33    3.05           7.03  154.26
F10        36.69   41.90   31.55          70.80  -11.83    4.51          12.66  159.13
F11        34.94   41.90   29.86          70.80  -17.69    7.15          19.08  158.01
F12        31.33   41.97   27.21          70.85  -30.62   11.56          32.73  159.31
F13        37.87   48.34   59.69          75.04  -26.24  -22.57          34.61  220.69
F14        53.51   41.44   52.41          70.48   38.13  -22.81          44.43  329.11
F15        68.35   70.44   22.15          87.21    0.94   48.94          48.95   88.90
F16        20.13   21.05   16.77          53.00   -0.79    1.39           1.61  119.93
F17        45.64   36.42   18.19          66.84   32.58   22.01          39.32   34.05
F18        29.86   40.01   20.10          69.48  -30.16   22.47          37.61  143.30
F19        25.80   24.67   45.42          56.75    8.60  -38.46          39.41  282.60
F20        26.58   25.56   11.49          57.62    8.11   23.26          24.64   70.78
F21        34.81   31.49   10.60          62.92   15.84   35.17          38.57   65.75
F22        39.27   36.65   15.53          67.02   12.78   28.51          31.24   65.85
G1          2.37    3.01    2.51          20.08  -10.17   -0.25          10.17  181.43
G2          1.91    3.03    2.77          20.16  -20.49   -2.19          20.61  186.09
G3          1.60    3.07    2.99          20.33  -29.18   -3.54          29.39  186.91
G4          1.81    3.58    3.55          22.22  -31.80   -4.17          32.07  187.48
G5          9.21   11.35    9.51          40.16  -13.51   -0.49          13.52  182.07
G6          7.82   11.35   10.30          40.16  -25.64   -3.12          25.83  186.93
G7          6.52   11.35   10.95          40.17  -38.46   -5.16          38.81  187.64
G8          5.22   11.42   11.84          40.28  -53.43   -7.67          53.97  188.17
G9         38.32   41.75   34.61          70.69   -6.06   -0.23           6.07  182.20
G10        36.34   41.96   35.25          70.85  -13.16   -0.89          13.19  183.88
G11        34.70   42.17   36.27          70.99  -19.28   -2.09          19.39  186.18
G12        30.86   41.89   37.78          70.79  -32.10   -4.50          32.41  187.98
G13        31.43   42.01   56.45          70.88  -30.38  -26.43          40.27  221.03
G14        48.22   34.56   47.89          65.40   46.01  -26.48          53.09  330.08
G15        66.56   67.79   16.52          85.90    2.66   58.70          58.76   87.40
G16        13.75   14.38   11.46          44.78   -0.76    1.20           1.43  122.74
G17        40.04   29.75   12.70          61.44   39.25   26.32          47.26   33.84
G18        23.04   33.01   14.62          64.17  -35.30   25.91          43.79  143.73
G19        19.17   17.62   39.85          49.03   11.54  -44.80          46.26  284.45
G20        36.71   35.35   14.36          66.02    8.83   29.77          31.05   73.49
G21        35.35   33.70    9.26          64.72    9.91   42.72          43.85   76.94
G22        47.52   43.44    2.69          71.85   16.25   87.55          89.05   79.49
H1          2.54    2.99    3.21          19.99   -6.42   -5.69           8.58  221.57
H2          2.27    3.02    4.31          20.13  -12.37  -12.45          17.55  225.18
H3          2.00    3.03    5.52          20.18  -18.66  -18.81          26.50  225.22
H4          2.18    3.38    6.69          21.51  -20.32  -21.89          29.87  227.13
H5          9.83   11.33   11.84          40.14   -8.41   -7.90          11.54  223.20
H6          8.84   11.38   15.18          40.21  -16.86  -16.84          23.83  224.97
H7          8.01   11.45   19.36          40.32  -24.61  -26.24          35.97  226.83
H8          7.03   11.58   25.50          40.54  -34.80  -37.74          51.33  227.32
H9         38.22   41.39   37.01          70.45   -5.33   -4.04           6.69  217.18
H10        37.46   41.87   41.02          70.78   -9.20   -8.82          12.74  223.79
H11        36.28   42.05   45.56          70.90  -13.62  -14.24          19.70  226.28
H12        32.92   41.90   56.49          70.80  -24.71  -26.60          36.30  227.11
H13        25.83   36.15   52.98          66.64  -33.87  -30.06          45.28  221.59
H14        43.12   28.49   43.28          60.33   53.36  -29.68          61.06  330.91
H15        64.63   64.93   12.09          84.45    4.62   67.77          67.92   86.10
H16         8.97    9.38    7.56          36.71   -0.63    0.71           0.95  131.89
H17        34.99   24.11    8.52          56.20   45.41   30.67          54.80   34.04
H18        17.52   26.99   10.43          58.97  -39.92   28.87          49.27  144.13
H19        14.03   12.16   34.60          41.46   15.28  -50.62          52.88  286.80
H20        41.72   42.26   14.88          71.05    2.93   37.10          37.22   85.48
H21        31.38   32.74   20.17          63.95   -0.68   12.80          12.82   93.02
H22        35.74   38.93   10.98          68.70   -5.94   43.95          44.35   97.70
I1          4.28    4.41    5.59          24.98    0.36  -10.86          10.87  271.88
I2          4.31    4.37    8.41          24.87    1.32  -22.95          22.99  273.28
I3          4.40    4.46   11.89          25.13    1.47  -33.94          33.97  272.47
I4          4.59    4.53   20.31          25.34    3.02  -54.06          54.14  273.20
I5         14.19   14.76   15.19          45.30   -0.26   -8.08           8.09  268.17
I6         14.39   14.88   19.58          45.48    0.23  -17.83          17.83  270.75
I7         14.40   14.82   24.20          45.38    0.71  -27.05          27.06  271.49
I8         14.63   14.73   37.26          45.27    2.61  -47.80          47.88  273.13
I9         40.40   41.88   37.68          70.79    0.05   -4.38           4.38  270.62
I10        40.50   42.01   41.23          70.88   -0.02   -8.91           8.92  269.87
I11        40.46   41.71   45.13          70.67    0.74  -14.12          14.14  273.01
I12        41.08   42.03   56.01          70.89    1.69  -25.95          26.00  273.72
I13        21.17   30.96   49.37          62.47  -36.63  -33.22          49.45  222.20
I14        38.52   23.40   38.93          55.48   60.14  -32.45          68.34  331.65
I15        62.59   61.75    8.15          82.78    7.15   77.86          78.19   84.75
I16         5.50    5.75    4.44          28.77   -0.53    1.71           1.80  107.36
I17        30.48   19.44    5.09          51.20   50.97   36.85          62.90   35.87
I18        12.97   21.60    6.77          53.60  -43.82   33.11          54.92  142.93
I19        10.15    8.09   29.80          34.17   19.84  -55.93          59.34  289.53
I20        42.37   46.41   15.46          73.81   -6.99   40.40          41.00   99.81
I21        11.16   15.00    3.30          45.64  -22.00   37.86          43.79  120.17
I22        28.41   36.95   16.98          67.24  -26.06   25.44          36.42  135.69
J1          2.11    1.92    2.84          15.04    6.05  -11.52          13.01  297.72
J2          2.43    1.90    4.81          14.93   13.23  -24.22          27.60  298.65
J3          2.81    1.90    7.74          14.96   20.46  -37.47          42.69  298.64
J4          3.75    1.88   17.11          14.87   36.30  -65.16          74.59  299.12
J5         11.58   11.36   11.96          40.18    4.54   -8.20           9.37  299.00
J6         12.23   11.25   15.53          40.00    9.86  -18.07          20.58  298.62
J7         13.23   11.39   20.19          40.22   15.54  -28.15          32.16  298.90
J8         15.16   11.32   33.32          40.12   27.98  -51.06          58.23  298.72
J9         41.42   41.96   37.59          70.84    2.96   -4.16           5.11  305.44
J10        41.71   41.62   40.93          70.60    4.85   -9.00          10.22  298.35
J11        43.23   41.97   45.69          70.85    8.31  -14.48          16.70  299.86
J12        45.39   41.99   55.20          70.86   14.54  -25.15          29.05  300.04
J13        16.86   25.80   45.18          57.84  -38.67  -36.30          53.04  223.19
J14        33.61   18.54   34.05          50.14   66.80  -34.85          75.35  332.45
J15        60.37   58.40    5.37          80.96    9.80   86.74          87.29   83.56
J16         2.96    3.08    2.42          20.35   -0.22    0.99           1.02  102.32
J17        26.12   15.26    2.83          45.99   56.34   41.87          70.20   36.62
J18         9.10   16.68    4.26          47.85  -47.56   35.59          59.40  143.19
J19         6.99    4.84   24.79          26.28   26.20  -61.05          66.43  293.23
J20        30.51   39.52   22.05          69.13  -26.22   17.95          31.78  145.60
J21         4.38    8.25    1.44          34.49  -39.27   35.14          52.70  138.17
J22         1.35    2.17    0.89          16.36  -18.83   11.67          22.16  148.21
K1          5.18    4.37    4.90          24.87   12.53   -7.59          14.65  328.81
K2          6.48    4.44    7.26          25.08   26.24  -18.11          31.88  325.38
K3          7.88    4.44    9.68          25.08   39.91  -27.10          48.24  325.83
K4          9.38    4.46   12.82          25.12   52.67  -36.60          64.14  325.20
K5         16.04   14.66   14.61          45.16   11.34   -6.86          13.25  328.84
K6         18.36   14.88   18.39          45.47   22.69  -15.27          27.35  326.06
K7         20.32   14.57   22.11          45.05   34.40  -23.68          41.76  325.46
K8         26.01   14.76   32.61          45.30   58.83  -41.08          71.76  325.07
K9         42.59   41.89   37.56          70.80    6.65   -4.19           7.87  327.78
K10        44.84   42.00   40.72          70.87   12.94   -8.27          15.35  327.41
K11        46.92   41.68   44.48          70.65   19.80  -13.38          23.90  325.96
K12        52.42   41.99   53.22          70.86   33.67  -23.04          40.80  325.62
K13        13.21   21.01   40.59          52.96  -39.47  -38.98          55.47  224.64
K14        29.28   14.74   29.48          45.28   71.92  -36.25          80.54  333.25
K15        57.72   54.49    3.25          78.75   13.01   95.30          96.18   82.23
K16         1.41    1.48    1.13          12.47   -0.35    1.20           1.25  106.20
K17        22.29   12.03    1.35          41.26   60.05   47.99          76.87   38.63
K18         6.02   12.24    2.41          41.60  -49.87   37.68          62.50  142.92
K19         4.86    2.82   20.23          19.31   32.47  -64.29          72.03  296.79
K20         2.38    3.17    1.84          20.73  -12.83    7.03          14.63  151.28
K21         1.35    1.84    1.43          14.65  -11.71    1.10          11.76  174.66
K22         1.67    2.19    2.80          16.45  -10.56   -8.79          13.74  219.79
L1          3.67    3.03    2.59          20.17   12.33   -0.69          12.35  356.78
L2          4.53    2.99    2.88          20.01   25.24   -3.30          25.45  352.55
L3          5.65    3.10    3.28          20.43   37.19   -5.42          37.59  351.70
L4          6.36    3.39    3.64          21.54   40.26   -5.94          40.69  351.60
L5         13.20   11.37    9.91          40.19   15.49   -1.80          15.60  353.39
L6         15.73   11.31   10.68          40.10   31.39   -4.44          31.71  351.94
L7         18.63   11.25   11.59          40.00   47.67   -7.41          48.24  351.17
L8         23.10   11.40   12.92          40.24   68.12  -10.82          68.97  350.97
L9         42.77   41.58   34.84          70.58    8.12   -0.76           8.16  354.65
L10        45.42   41.87   35.66          70.78   14.99   -1.59          15.08  353.96
L11        48.06   41.93   36.80          70.82   22.19   -3.10          22.41  352.05
L12        51.76   41.76   37.94          70.71   32.62   -4.87          32.99  351.51
L13         9.33   15.32   33.63          46.06  -38.01  -41.28          56.11  227.37
L14        24.19   11.01   23.84          39.60   75.69  -36.37          83.97  334.34
L15        52.00   47.01    1.60          74.20   18.20  101.83         103.44   79.87
L16         0.49    0.50    0.40           4.53    0.08    0.28           0.30   72.20
L17        17.48    8.67    0.48          35.35   61.69   51.88          80.60   40.06
L18         3.11    7.18    1.03          32.21  -48.65   36.75          60.97  142.93
L19         3.06    1.36   14.56          11.67   39.06  -64.45          75.36  301.22
L20         0.71    0.77    0.74           6.98   -1.32   -1.99           2.39  236.43
L21         0.98    0.93    0.92           8.36    3.21   -2.67           4.18  320.32
L22         1.96    1.56    1.28          12.98   11.56    0.10          11.56  120.49
GS0        80.56   83.78   70.63          93.35   -0.43   -1.35           1.42  252.27
GS1        69.28   71.86   58.64          87.90    0.00    0.66           0.67   90.20
