targets/wolf_faust/reflective/R060406WhiteBacking.it8
IT8.7/2
ORIGINATOR "Wolf Faust"
DESCRIPTOR "Kodak Professional Paper, L* a* b* (light D50, viewing angle 2)"
MANUFACTURER "Wolf Faust - http://www.coloraid.de"
CREATED "June 18, 2006"
PROD_DATE "2006:04"
SAMPLE_BACKING "white"
SERIAL "5x7 R060406 Batch Average Data"
MATERIAL "Kodak Professional Ultra Endura"
NUMBER_OF_FIELDS 9
BEGIN_DATA_FORMAT
SAMPLE_ID  XYZ_X   XYZ_Y   XYZ_Z          LAB_L   LAB_A   LAB_B          LAB_C   LAB_H
END_DATA_FORMAT
NUMBER_OF_SETS 288
BEGIN_DATA
A1          3.58    3.05    2.09          20.24   10.62    3.76          11.27   19.48
A2          4.31    2.95    1.74          19.83   23.00    6.55          23.92   15.90 
A3          5.14    2.88    1.45          19.55   34.88    9.26          36.09   14.86
A4          6.08    3.16    1.41          20.69   40.90   11.71          42.54   15.97 
A5         12.48   11.10    8.07          39.74   12.64    3.95          13.24   17.36
A6         14.95   11.17    7.15          39.87   27.77    7.84          28.86   15.75 
A7         17.52   11.25    6.18          40.00   41.83   12.26          43.59   16.34
A8         21.90   11.69    5.19          40.72   60.55   18.24          63.23   16.77 
A9         41.87   41.17   32.29          70.30    6.66    2.49           7.12   20.51
A10        44.19   41.22   30.96          70.33   13.38    4.60          14.15   18.97
A11        46.78   41.23   30.17          70.34   20.75    5.85          21.56   15.75
A12        48.69   41.54   29.35          70.55   25.10    7.53          26.21   16.69 
A13        77.73   81.69   70.68          92.44   -2.06   -2.97           3.62  235.27
A14        78.94   81.18   70.33          92.21    1.30   -3.05           3.31  293.19 
A15        78.97   82.39   65.65          92.75   -0.93    2.18           2.37  113.35
A16        78.45   81.27   66.49          92.25    0.19    0.53           0.57   69.76
A17        75.93   77.61   63.32          90.60    2.22    0.70           2.33   17.50
A18        77.61   81.47   67.27          92.34   -1.87   -0.04           1.88  181.16 
A19        77.29   80.24   70.15          91.79   -0.16   -3.61           3.61  267.41
A20         1.39    1.12    0.72           9.92   10.06    3.45          10.63   18.93 
A21         5.22    3.34    0.77          21.34   28.15   22.26          35.89   38.34
A22        10.18    5.85    0.83          29.04   42.21   34.41          54.46   39.19
B1          3.39    3.00    1.65          20.06    8.30    7.85          11.43   43.39
B2          3.98    3.00    1.01          20.05   17.42   16.02          23.67   42.61
B3          4.53    2.96    0.59          19.89   25.66   23.15          34.56   42.06
B4          5.20    3.22    0.48          20.89   29.87   26.87          40.18   41.97
B5         12.69   11.13    5.92          39.80   13.80   13.11          19.04   43.54
B6         14.63   11.12    3.96          39.78   26.25   23.50          35.23   41.84
B7         17.27   11.28    2.37          40.05   40.28   35.41          53.62   41.32
B8         21.21   11.52    1.06          40.45   58.53   50.55          77.34   40.81
B9         41.56   41.20   30.43          70.32    5.64    5.40           7.81   43.74
B10        43.72   41.21   27.26          70.32   12.05   10.58          16.03   41.27
B11        46.37   41.55   24.42          70.56   18.65   15.97          24.55   40.57
B12        48.02   41.65   22.27          70.63   22.94   20.12          30.51   41.25
B13        70.57   76.27   69.62          89.98   -6.23   -6.26           8.83  225.14
B14        73.78   72.86   67.60          88.38    7.41   -7.17          10.31  315.96
B15        75.51   79.13   54.41          91.29   -1.60   10.92          11.04   98.33
B16        61.28   63.61   51.87          83.76   -0.14    0.68           0.71  102.77
B17        69.42   69.18   52.38          86.59    5.91    5.00           7.74   40.23
B18        66.46   72.43   53.75          88.18   -7.36    6.25           9.66  139.69
B19        64.97   66.78   66.39          85.39    1.31  -11.20          11.28  276.66
B20         2.88    2.09    0.74          15.94   17.53   13.47          22.11   37.54
B21         8.34    4.91    0.79          26.48   38.05   30.75          48.93   38.94
B22        29.71   25.40   12.16          57.47   21.04   21.04          29.76   45.00
C1          4.57    4.47    2.30          25.16    3.51   10.37          10.95   71.33
C2          4.77    4.37    1.38          24.85    7.45   19.27          20.66   68.87
C3          5.10    4.29    0.69          24.60   12.64   29.45          32.05   66.77
C4          5.90    5.01    0.66          26.76   12.74   33.60          35.94   69.24
C5         23.63   22.78   10.99          54.85    7.53   20.00          21.37   69.38
C6         26.18   23.23    5.69          55.31   16.40   40.91          44.08   68.15
C7         28.60   23.31    2.48          55.39   25.72   60.88          66.09   67.10
C8         30.37   23.40    1.12          55.48   32.09   75.59          82.12   67.00
C9         48.81   49.15   33.67          75.54    3.90    9.50          10.27   67.66
C10        50.08   48.91   27.45          75.39    7.96   19.01          20.61   67.27
C11        52.06   49.34   22.65          75.66   12.05   28.06          30.54   66.75
C12        52.97   49.30   20.01          75.64   14.50   33.29          36.31   66.46
C13        60.41   68.12   67.77          86.07  -12.10  -11.32          16.57  223.08
C14        67.62   63.29   64.07          83.59   14.94  -12.11          19.23  320.98
C15        72.35   75.95   44.35          89.84   -1.84   19.87          19.95   95.29
C16        47.09   49.06   40.54          75.49   -0.61   -0.07           0.66  186.40
C17        61.36   58.42   41.61          80.97   12.11    8.00          14.51   33.45
C18        54.71   62.57   43.27          83.22  -13.73    9.79          16.86  144.51
C19        52.01   52.97   61.59          77.86    2.45  -19.60          19.75  277.12
C20         1.76    1.48    0.70          12.50    8.82    8.26          12.09   43.12
C21        23.42   17.74    4.90          49.18   31.00   34.37          46.28   47.95
C22        35.52   32.28   17.71          63.58   15.43   17.45          23.29   48.51
D1          4.25    4.50    2.33          25.26   -1.29   10.21          10.30   97.22
D2          4.29    4.54    1.44          25.37   -1.17   19.42          19.46   93.44
D3          4.16    4.41    0.74          24.99   -1.37   29.11          29.14   92.69
D4          4.82    5.14    0.74          27.14   -1.74   32.75          32.80   93.04
D5         26.52   27.93   14.15          59.82   -1.67   19.61          19.69   94.86
D6         26.61   28.12    7.73          60.00   -2.05   40.21          40.26   92.92
D7         26.69   28.48    3.76          60.32   -3.11   60.15          60.23   92.96
D8         26.67   28.51    1.50          60.35   -3.34   79.04          79.11   92.42
D9         55.64   57.89   39.57          80.68   -0.44   10.14          10.15   92.49
D10        55.30   57.78   31.58          80.61   -1.02   21.37          21.40   92.74
D11        55.40   57.90   25.48          80.68   -1.07   31.52          31.54   91.94
D12        55.17   57.96   12.99          80.72   -1.79   58.75          58.78   91.75
D13        50.96   60.04   65.53          81.86  -17.55  -16.48          24.08  223.20
D14        61.50   54.39   60.19          78.69   22.26  -16.77          27.87  323.01
D15        69.07   72.40   35.03          88.16   -1.60   29.28          29.33   93.12
D16        35.28   37.05   30.54          67.31   -1.48    0.05           1.50  178.04
D17        53.87   48.84   31.58          75.35   18.05   12.30          21.84   34.25
D18        43.70   52.78   33.55          77.74  -20.00   13.46          24.11  146.06
D19        40.94   41.25   56.52          70.35    3.62  -27.42          27.66  277.52
D20        13.94   10.74    2.79          39.14   24.73   30.42          39.21   50.89
D21        21.62   21.20   11.88          53.17    5.63   14.43          15.49   68.67
D22        39.35   37.68   20.54          67.78    9.73   18.65          21.04   62.45
E1          3.95    4.55    2.38          25.42   -6.18   10.07          11.81  121.53
E2          3.61    4.51    1.49          25.30  -10.81   18.69          21.60  120.05
E3          3.32    4.52    0.81          25.32  -15.38   28.39          32.29  118.45
E4          3.56    4.96    0.81          26.63  -17.24   30.73          35.24  119.29
E5         12.51   14.46    7.80          44.88   -9.32   13.86          16.70  123.91
E6         11.53   14.57    4.70          45.04  -16.76   28.27          32.87  120.65
E7         10.55   14.61    2.63          45.09  -24.15   41.89          48.35  119.96
E8          9.84   14.88    1.31          45.46  -31.29   55.67          63.86  119.34
E9         38.17   41.26   28.54          70.36   -5.11    8.50           9.92  121.00
E10        36.39   40.87   23.97          70.08   -9.72   15.97          18.69  121.34
E11        34.89   40.70   20.03          69.97  -14.24   23.46          27.45  121.26
E12        32.74   41.00   13.62          70.17  -22.61   38.87          44.97  120.19
E13        42.96   52.79   63.04          77.75  -22.23  -21.18          30.71  223.62
E14        55.26   45.78   55.81          73.40   29.96  -21.41          36.82  324.45
E15        66.23   69.10   27.15          86.55   -0.87   38.75          38.76   91.29
E16        26.18   27.48   22.63          59.41   -1.29    0.09           1.32  173.90
E17        47.33   40.46   23.69          69.80   24.61   15.99          29.35   33.02
E18        34.91   44.55   25.70          72.60  -25.53   17.18          30.78  146.06
E19        31.90   31.40   51.23          62.84    5.97  -34.68          35.19  279.77
E20        25.04   17.24    1.28          48.56   40.72   61.46          73.73   56.47
E21        17.17   14.38    2.76          44.77   19.35   40.37          44.77   64.39
E22        30.24   26.09    8.23          58.12   20.20   35.05          40.46   60.05
F1          1.58    1.98    1.35          15.39   -8.27    3.30           8.91  158.24
F2          1.25    2.01    1.13          15.52  -18.30    6.52          19.43  160.39
F3          1.01    2.03    0.93          15.65  -27.00    9.66          28.68  160.32
F4          1.08    2.31    0.99          17.01  -30.50   11.18          32.48  159.87
F5          6.77    8.51    6.04          35.03  -13.71    4.31          14.38  162.56
F6          5.66    8.67    5.09          35.35  -27.00    9.49          28.62  160.62
F7          4.71    8.83    4.29          35.66  -39.92   14.41          42.44  160.15
F8          3.60    8.90    3.47          35.79  -56.11   19.76          59.49  160.60
F9         37.19   40.74   32.32          70.00   -6.72    1.94           7.01  163.87
F10        35.69   40.96   31.25          70.15  -12.33    3.84          12.92  162.72
F11        33.76   40.71   29.77          69.97  -18.15    5.85          19.07  162.12
F12        30.57   40.78   27.32          70.02  -29.84    9.95          31.46  161.55
F13        35.71   45.86   60.10          73.46  -26.53  -25.71          36.94  224.10
F14        49.38   38.16   51.32          68.14   37.35  -25.64          45.31  325.53
F15        63.82   66.05   20.62          85.02    0.31   48.21          48.21   89.64
F16        18.56   19.55   16.24          51.32   -1.48   -0.25           1.53  188.16
F17        41.55   33.26   17.15          64.37   31.25   20.11          37.16   32.76
F18        27.32   37.11   19.17          67.36  -30.93   20.79          37.27  146.09
F19        24.31   23.17   45.84          55.25    8.76  -41.56          42.47  281.90
F20        25.81   25.08   11.80          57.15    6.94   21.52          22.62   72.13
F21        34.15   31.15   10.87          62.63   14.82   33.80          36.91   66.33
F22        38.78   36.21   15.93          66.68   12.68   26.96          29.79   64.81
G1          2.43    3.09    2.69          20.41  -10.27   -1.07          10.33  185.93
G2          2.01    3.13    2.95          20.57  -19.96   -2.84          20.16  188.09
G3          1.66    3.22    3.31          20.89  -29.80   -4.85          30.19  189.24
G4          1.74    3.55    3.63          22.12  -33.24   -4.90          33.60  188.38
G5          9.19   11.33    9.84          40.13  -13.57   -1.65          13.67  186.92
G6          7.90   11.39   10.56          40.23  -25.18   -3.84          25.47  188.67
G7          6.71   11.54   11.38          40.47  -37.79   -5.95          38.25  188.95
G8          5.49   11.82   12.35          40.93  -53.02   -8.01          53.62  188.60
G9         36.91   40.57   34.26          69.87   -7.08   -1.14           7.18  189.14
G10        34.89   40.72   35.32          69.98  -14.29   -2.49          14.51  189.87
G11        33.35   40.95   36.15          70.14  -20.33   -3.38          20.62  189.44
G12        29.87   40.46   37.28          69.80  -31.50   -5.54          31.98  189.97
G13        29.80   39.90   57.04          69.40  -30.04  -29.59          42.16  224.57
G14        43.74   31.32   46.66          62.78   44.62  -29.56          53.52  326.47
G15        61.70   63.15   15.14          83.52    1.90   57.94          57.97   88.13
G16        12.79   13.45   11.11          43.43   -1.13   -0.04           1.17  179.22
G17        36.38   27.06   11.94          59.03   37.89   24.37          45.05   32.75
G18        21.26   30.83   13.89          62.37  -35.71   24.68          43.41  145.35
G19        18.29   16.59   40.65          47.75   12.55  -48.05          49.66  284.63
G20        36.11   34.98   14.51          65.74    8.08   28.87          29.98   74.37
G21        35.32   33.90    9.65          64.88    9.13   41.66          42.65   77.64
G22        47.60   43.95    2.86          72.19   15.04   86.83          88.12   80.18
H1          2.61    3.04    3.41          20.22   -5.93   -6.70           8.95  228.49
H2          2.37    3.11    4.49          20.48  -11.79  -12.87          17.46  227.52
H3          2.08    3.13    5.78          20.54  -18.27  -19.43          26.67  226.76
H4          2.23    3.53    7.22          22.05  -21.65  -23.16          31.70  226.93
H5          9.68   11.25   12.02          39.99   -8.98   -8.68          12.50  224.03
H6          8.89   11.40   15.57          40.24  -16.49  -17.74          24.22  227.09
H7          8.05   11.44   19.40          40.32  -24.25  -26.34          35.81  227.37
H8          7.10   11.80   26.28          40.90  -35.69  -38.48          52.48  227.15
H9         37.44   40.65   37.38          69.93   -5.61   -5.44           7.82  224.11
H10        35.74   40.24   40.70          69.64   -9.97  -10.36          14.38  226.09
H11        34.58   40.45   44.81          69.79  -14.54  -15.26          21.08  226.39
H12        31.46   40.73   57.46          69.99  -26.43  -29.01          39.24  227.67
H13        24.77   34.57   53.81          65.41  -33.05  -33.07          46.76  225.02
H14        38.92   25.65   42.50          57.71   51.83  -33.23          61.57  327.33
H15        59.94   60.54   10.89          82.13    3.77   67.36          67.46   86.80
H16         8.35    8.77    7.25          35.54   -0.94   -0.06           0.97  182.26
H17        31.83   21.92    7.90          53.94   44.09   29.10          52.83   33.42
H18        16.20   25.28    9.71          57.34  -40.24   28.44          49.28  144.75
H19        13.58   11.51   35.99          40.42   16.97  -54.38          56.97  287.33
H20        41.15   41.78   15.46          70.72    2.65   35.07          35.17   85.69
H21        30.57   31.95   20.46          63.30   -0.88   11.09          11.13   94.53
H22        34.77   38.18   11.45          68.15   -6.85   41.56          42.12   99.36
I1          4.29    4.43    5.79          25.04    0.24  -11.72          11.73  271.17
I2          4.39    4.48    8.70          25.19    0.96  -23.45          23.48  272.34
I3          4.47    4.53   12.11          25.37    1.31  -34.18          34.20  272.19
I4          4.66    4.61   21.16          25.60    2.83  -55.33          55.41  272.93
I5         13.87   14.51   15.23          44.95   -0.72   -8.77           8.81  265.35
I6         13.98   14.45   19.66          44.87    0.28  -19.03          19.04  270.86
I7         14.05   14.39   24.32          44.79    1.07  -28.29          28.31  272.18
I8         14.52   14.63   39.14          45.13    2.55  -50.58          50.65  272.89
I9         39.24   40.84   37.44          70.07   -0.45   -5.29           5.32  265.22
I10        39.67   41.02   41.20          70.19    0.37  -10.07          10.08  272.10
I11        39.49   40.96   45.14          70.15   -0.02  -15.04          15.04  269.93
I12        39.62   40.76   56.37          70.01    0.98  -27.85          27.87  272.03
I13        20.62   29.88   50.60          61.55  -35.26  -36.20          50.53  225.75
I14        34.68   20.86   38.60          52.80   59.04  -36.63          69.48  328.18
I15        58.09   57.79    7.64          80.62    5.83   76.09          76.32   85.62
I16         5.15    5.38    4.47          27.80   -0.45   -0.17           0.52  195.28
I17        27.82   17.67    4.91          49.09   49.84   34.13          60.41   34.41
I18        12.20   20.56    6.60          52.46  -44.10   31.88          54.42  144.14
I19        10.02    7.64   31.53          33.23   22.88  -60.25          64.45  290.79
I20        41.50   45.70   15.89          73.35   -7.62   38.56          39.31  101.18
I21        10.82   14.72    3.48          45.25  -22.86   35.98          42.63  122.43
I22        27.56   36.12   17.29          66.61  -26.74   23.65          35.70  138.51
J1          2.19    1.95    3.06          15.21    7.17  -12.87          14.74  299.12
J2          2.49    1.93    5.02          15.09   13.69  -25.07          28.57  298.64
J3          2.94    1.98    8.10          15.41   20.78  -38.09          43.39  298.62
J4          3.97    1.97   19.18          15.35   37.59  -68.92          78.50  298.61
J5         11.31   11.17   12.30          39.86    3.96   -9.73          10.51  292.18
J6         12.09   11.12   16.06          39.78    9.83  -19.74          22.05  296.48
J7         12.84   11.17   20.40          39.86   14.51  -29.19          32.61  296.44
J8         15.11   11.11   35.19          39.76   29.18  -54.39          61.73  298.22
J9         40.18   40.95   37.41          70.14    2.17   -5.12           5.58  293.11
J10        41.29   41.14   41.09          70.27    5.02   -9.77          10.99  297.21
J11        41.84   40.81   45.03          70.05    7.64  -15.08          16.91  296.87
J12        44.29   41.00   55.48          70.18   14.33  -26.63          30.24  298.29
J13        16.77   25.25   46.99          57.32  -36.94  -39.36          53.98  226.82
J14        30.99   16.92   34.87          48.16   65.96  -39.46          76.86  329.11
J15        56.00   54.66    4.97          78.84    8.36   85.13          85.54   84.39
J16         2.82    2.95    2.40          19.83   -0.45    0.27           0.56  147.94
J17        24.32   14.19    2.70          44.51   55.10   40.33          68.28   36.20
J18         8.74   16.14    4.13          47.16  -47.60   35.21          59.21  143.51
J19         7.27    4.80   27.23          26.15   29.54  -65.52          71.87  294.27
J20        29.35   38.41   22.31          68.32  -27.12   16.05          31.52  149.37
J21         4.53    8.49    1.51          34.98  -39.26   35.19          52.73  138.13
J22         1.42    2.25    0.92          16.76  -18.71   11.73          22.08  147.93
K1          5.26    4.45    5.28          25.12   12.36   -9.10          15.35  323.62
K2          6.38    4.34    7.42          24.77   26.52  -19.31          32.81  323.94
K3          7.72    4.40   10.02          24.97   38.90  -28.40          48.17  323.87
K4          9.62    4.34   13.84          24.76   56.21  -40.03          69.01  324.54
K5         15.57   14.34   14.97          44.71   10.60   -8.54          13.62  321.12
K6         17.61   14.38   18.37          44.77   21.75  -16.44          27.27  322.92
K7         20.06   14.49   22.33          44.93   33.65  -24.32          41.52  324.14
K8         26.69   14.70   34.06          45.22   61.97  -43.37          75.63  325.01
K9         41.48   40.98   36.97          70.16    6.06   -4.48           7.55  323.51
K10        44.11   41.38   40.65          70.44   12.68   -8.92          15.51  324.87
K11        46.48   41.30   44.24          70.39   19.68  -13.53          23.89  325.50
K12        51.74   41.18   53.09          70.30   34.32  -23.86          41.80  325.20
K13        13.49   20.97   42.84          52.92  -37.49  -41.92          56.24  228.19
K14        27.60   13.68   31.24          43.77   71.90  -41.62          83.08  329.93
K15        54.04   51.54    3.08          77.00   11.37   93.48          94.17   83.07
K16         1.37    1.43    1.13          12.16   -0.38    0.67           0.78  120.43
K17        21.09   11.33    1.30          40.14   59.29   46.63          75.43   38.18
K18         5.95   12.14    2.40          41.44  -49.97   37.54          62.50  143.08
K19         5.24    2.85   22.74          19.41   36.78  -69.09          78.27  298.03
K20         2.51    3.33    1.96          21.31  -12.71    6.79          14.41  151.88
K21         1.40    1.89    1.58          14.91  -11.21   -0.20          11.21  181.04
K22         1.77    2.30    2.97          17.00  -10.37   -9.10          13.80  221.25
L1          3.69    3.04    2.72          20.21   12.43   -1.73          12.55  352.05
L2          4.46    2.96    3.02          19.88   24.86   -4.52          25.27  349.71
L3          5.51    3.03    3.40          20.17   36.67   -6.68          37.27  349.67
L4          6.44    3.28    3.87          21.12   42.87   -8.15          43.64  349.24
L5         12.80   11.15   10.06          39.83   14.40   -2.92          14.70  348.54
L6         15.40   11.16   10.94          39.85   30.55   -5.69          31.08  349.46
L7         18.68   11.41   11.80          40.27   46.79   -7.56          47.40  350.82
L8         22.80   11.56   13.06          40.50   65.64  -10.75          66.52  350.70
L9         42.11   41.17   34.81          70.30    7.39   -1.20           7.50  350.71
L10        44.48   41.07   35.66          70.22   14.69   -2.54          14.91  350.19
L11        47.32   41.44   36.25          70.48   21.63   -2.94          21.83  352.27
L12        49.75   41.64   37.12          70.62   27.65   -3.89          27.93  351.99
L13         9.70   15.47   35.93          46.28  -35.92  -44.22          56.97  230.91
L14        23.23   10.26   26.20          38.31   77.01  -42.80          88.11  330.94
L15        49.95   45.84    1.69          73.44   16.05   99.53         100.82   80.84
L16         0.44    0.46    0.37           4.13    0.11    0.14           0.18   54.95
L17        17.06    8.35    0.45          34.70   62.18   51.37          80.65   39.56
L18         3.10    7.28    1.10          32.44  -49.81   36.14          61.54  144.04
L19         3.40    1.37   16.66          11.73   44.48  -69.52          82.53  302.61
L20         0.75    0.82    0.79           7.39   -1.38   -2.21           2.61  238.05
L21         1.01    0.95    1.00           8.59    3.41   -3.52           4.90  314.16
L22         2.01    1.61    1.39          13.28   11.48   -0.77          11.51  356.17
GS0        80.44   83.69   71.10          93.32   -0.49   -1.84           1.90  255.18
GS1        69.31   71.77   58.56          87.86    0.22    0.68           0.72   72.00
GS2        61.12   63.32   51.70          83.61    0.15    0.60           0.64   74.18
