targets/wolf_faust/reflective/R060406.it8
IT8.7/2
ORIGINATOR "Wolf Faust"
DESCRIPTOR "Kodak Professional Paper, L* a* b* (light D50, viewing angle 2)"
MANUFACTURER "Wolf Faust - http://www.coloraid.de"
CREATED "June 18, 2006"
PROD_DATE "2005:10"
SAMPLE_BACKING "black"
SERIAL "5x7 R060406 Batch Average Data"
MATERIAL "Kodak Professional Ultra Endura"
KEYWORD "MEAN_DE" # Mean Delta E of samples compared to batch average
NUMBER_OF_FIELDS 18
BEGIN_DATA_FORMAT
SAMPLE_ID  XYZ_X   XYZ_Y   XYZ_Z          LAB_L   LAB_A   LAB_B          LAB_C   LAB_H          D_RED  D_GREEN  D_BLUE  D_VIS          STDEV_X STDEV_Y STDEV_Z        MEAN_DE  STDEV_DE
END_DATA_FORMAT
NUMBER_OF_SETS 288
BEGIN_DATA
A1          3.52    2.99    2.06          20.02   10.63    3.64          11.24   18.89           1.36    1.62    1.58    1.49            0.05    0.04    0.02           0.34     0.38
A2          4.25    2.91    1.71          19.67   22.83    6.60          23.77   16.12           1.22    1.80    1.66    1.46            0.06    0.04    0.02           0.36     0.41 
A3          5.03    2.82    1.43          19.33   34.51    9.15          35.70   14.86           1.12    2.08    1.75    1.44            0.07    0.03    0.02           0.40     0.46
A4          5.95    3.10    1.40          20.44   40.52   11.45          42.11   15.78           1.04    2.20    1.77    1.38            0.07    0.04    0.03           0.33     0.37 
A5         12.23   10.90    7.97          39.40   12.43    3.77          12.99   16.85           0.82    1.03    1.00    0.94            0.07    0.05    0.08           0.35     0.39
A6         14.64   10.97    7.05          39.52   27.43    7.65          28.48   15.59           0.69    1.14    1.06    0.90            0.13    0.09    0.09           0.38     0.44 
A7         17.19   11.04    6.08          39.66   41.50   12.12          43.23   16.27           0.59    1.29    1.13    0.87            0.11    0.06    0.08           0.36     0.42
A8         21.37   11.42    5.12          40.27   60.03   17.82          62.62   16.54           0.49    1.55    1.21    0.82            0.05    0.04    0.07           0.26     0.29 
A9         41.00   40.38   31.86          69.74    6.43    2.19           6.80   18.81           0.34    0.41    0.41    0.39            0.25    0.19    0.20           0.30     0.33
A10        43.26   40.43   30.56          69.78   13.05    4.27          13.73   18.10           0.29    0.44    0.43    0.38            0.15    0.15    0.24           0.31     0.35
A11        45.74   40.39   29.78          69.74   20.37    5.44          21.09   14.95           0.25    0.47    0.44    0.37            0.12    0.13    0.19           0.22     0.24
A12        47.58   40.67   28.95          69.95   24.65    7.12          25.66   16.11           0.22    0.48    0.46    0.36            0.09    0.11    0.21           0.26     0.30 
A13        75.97   79.91   69.54          91.64   -2.18   -3.31           3.97  236.68           0.11    0.09    0.08    0.10            0.13    0.12    0.08           0.10     0.11
A14        77.04   79.32   69.12          91.38    1.13   -3.39           3.57  288.38           0.10    0.10    0.08    0.10            0.11    0.12    0.10           0.09     0.11 
A15        77.04   80.46   64.54          91.89   -1.09    1.74           2.06  122.05           0.09    0.09    0.11    0.09            0.08    0.09    0.17           0.17     0.19
A16        76.54   79.37   65.36          91.40    0.02    0.13           0.15  132.47           0.10    0.10    0.10    0.10            0.09    0.10    0.12           0.11     0.13
A17        74.08   75.82   62.28          89.77    2.02    0.28           2.05    7.83           0.10    0.12    0.13    0.12            0.08    0.08    0.12           0.13     0.15
A18        75.77   79.61   66.17          91.51   -2.00   -0.45           2.06  192.62           0.11    0.09    0.10    0.10            0.08    0.09    0.14           0.12     0.15 
A19        75.45   78.41   68.97          90.96   -0.31   -3.97           3.99  265.47           0.11    0.10    0.08    0.11            0.16    0.16    0.06           0.12     0.13
A20         1.37    1.10    0.71           9.79    9.86    3.46          10.45   19.34           1.77    2.09    2.03    1.91            0.01    0.01    0.01           0.22     0.25 
A21         5.10    3.27    0.76          21.10   27.82   22.04          35.50   38.38           1.11    1.86    1.99    1.39            0.05    0.03    0.01           0.32     0.35
A22         9.93    5.72    0.82          28.69   41.74   34.04          53.86   39.20           0.80    1.78    1.96    1.13            0.08    0.05    0.01           0.28     0.35
B1          3.33    2.96    1.62          19.89    8.19    7.90          11.38   43.97           1.38    1.61    1.67    1.50            0.04    0.03    0.01           0.24     0.29
B2          3.90    2.95    0.99          19.82   17.28   15.92          23.50   42.65           1.26    1.73    1.88    1.47            0.04    0.03    0.01           0.30     0.36
B3          4.43    2.90    0.58          19.65   25.41   22.91          34.22   42.03           1.17    1.89    2.10    1.44            0.06    0.04    0.01           0.30     0.35
B4          5.08    3.14    0.48          20.61   29.57   26.56          39.75   41.93           1.10    1.93    2.19    1.40            0.05    0.03    0.01           0.26     0.31
B5         12.45   10.93    5.83          39.46   13.62   12.95          18.79   43.55           0.79    1.05    1.13    0.93            0.10    0.07    0.08           0.42     0.48
B6         14.31   10.89    3.89          39.40   25.92   23.27          34.83   41.92           0.69    1.16    1.30    0.90            0.11    0.08    0.05           0.36     0.40
B7         16.91   11.06    2.33          39.68   39.88   35.10          53.13   41.35           0.59    1.30    1.51    0.87            0.09    0.07    0.03           0.26     0.31
B8         20.71   11.26    1.04          40.02   57.97   50.09          76.61   40.83           0.49    1.58    1.86    0.82            0.05    0.04    0.01           0.18     0.20
B9         40.72   40.41   29.97          69.76    5.47    5.17           7.53   43.34           0.34    0.41    0.44    0.38            0.23    0.19    0.21           0.36     0.44
B10        42.82   40.43   26.89          69.78   11.73   10.27          15.59   41.20           0.29    0.44    0.48    0.37            0.10    0.11    0.18           0.20     0.25
B11        45.31   40.69   24.06          69.96   18.24   15.58          23.99   40.50           0.25    0.46    0.53    0.36            0.09    0.10    0.25           0.32     0.40
B12        46.87   40.74   21.92          69.99   22.48   19.71          29.90   41.23           0.22    0.48    0.57    0.36            0.06    0.08    0.15           0.23     0.27
B13        68.98   74.59   68.45          89.20   -6.27   -6.53           9.05  226.17           0.17    0.10    0.09    0.14            0.14    0.10    0.09           0.14     0.15
B14        72.01   71.20   66.48          87.58    7.17   -7.51          10.38  313.67           0.11    0.16    0.10    0.14            0.10    0.09    0.13           0.13     0.15
B15        73.70   77.33   53.53          90.47   -1.77   10.45          10.59   99.60           0.10    0.11    0.19    0.11            0.14    0.14    0.13           0.11     0.14
B16        59.88   62.22   51.01          83.03   -0.29    0.38           0.49  127.87           0.20    0.20    0.21    0.21            0.26    0.24    0.25           0.20     0.23
B17        67.75   67.62   51.58          85.82    5.65    4.54           7.25   38.75           0.13    0.19    0.21    0.16            0.13    0.14    0.22           0.20     0.22
B18        64.99   70.88   52.92          87.43   -7.41    5.86           9.45  141.70           0.18    0.13    0.19    0.15            0.21    0.18    0.17           0.22     0.24
B19        63.58   65.40   65.34          84.69    1.19  -11.43          11.49  275.93           0.19    0.18    0.11    0.19            0.22    0.24    0.15           0.20     0.23
B20         2.82    2.05    0.73          15.73   17.30   13.35          21.86   37.66           1.40    1.92    2.01    1.62            0.02    0.02    0.01           0.23     0.26
B21         8.18    4.82    0.78          26.22   37.72   30.49          48.50   38.95           0.89    1.81    1.98    1.21            0.08    0.04    0.01           0.30     0.35
B22        29.05   24.86   11.93          56.94   20.79   20.79          29.40   45.00           0.42    0.71    0.83    0.57            0.16    0.15    0.12           0.30     0.34
C1          4.48    4.39    2.26          24.91    3.39   10.28          10.82   71.74           1.27    1.39    1.53    1.34            0.05    0.04    0.03           0.32     0.36
C2          4.68    4.30    1.35          24.62    7.28   19.22          20.56   69.25           1.22    1.44    1.73    1.33            0.05    0.04    0.01           0.29     0.35
C3          5.00    4.21    0.68          24.37   12.46   29.19          31.73   66.89           1.16    1.51    2.02    1.32            0.06    0.05    0.02           0.39     0.47
C4          5.78    4.92    0.65          26.50   12.52   33.36          35.63   69.43           1.10    1.45    2.03    1.26            0.05    0.05    0.01           0.27     0.31
C5         23.17   22.37   10.81          54.41    7.34   19.82          21.14   69.68           0.55    0.70    0.87    0.63            0.19    0.14    0.10           0.48     0.54
C6         25.69   22.81    5.58          54.88   16.22   40.71          43.83   68.28           0.46    0.75    1.14    0.60            0.17    0.13    0.06           0.35     0.45
C7         27.93   22.81    2.43          54.87   25.33   60.47          65.56   67.27           0.40    0.81    1.48    0.58            0.13    0.07    0.02           0.23     0.27
C8         29.71   22.94    1.09          55.02   31.62   75.13          81.52   67.18           0.36    0.86    1.82    0.57            0.08    0.09    0.01           0.21     0.24
C9         47.74   48.14   33.07          74.92    3.67    9.29           9.99   68.44           0.27    0.33    0.39    0.31            0.16    0.16    0.26           0.33     0.37
C10        48.98   47.92   27.08          74.78    7.67   18.56          20.09   67.54           0.24    0.35    0.48    0.30            0.13    0.13    0.18           0.28     0.32
C11        50.83   48.27   22.30          74.99   11.70   27.58          29.95   67.01           0.20    0.37    0.56    0.29            0.06    0.09    0.15           0.26     0.30
C12        51.77   48.30   19.69          75.01   14.09   32.87          35.76   66.79           0.19    0.38    0.61    0.29            0.14    0.14    0.15           0.24     0.28
C13        59.12   66.70   66.65          85.35  -12.07  -11.51          16.68  223.64           0.27    0.13    0.10    0.19            0.24    0.22    0.12           0.22     0.25
C14        66.01   61.88   63.07          82.85   14.60  -12.43          19.17  319.60           0.14    0.24    0.13    0.20            0.11    0.14    0.14           0.18     0.22
C15        70.62   74.24   43.68          89.03   -2.03   19.31          19.42   95.99           0.11    0.13    0.27    0.12            0.17    0.17    0.22           0.19     0.24
C16        46.14   48.09   39.93          74.88   -0.66   -0.32           0.76  204.64           0.32    0.31    0.32    0.32            0.33    0.28    0.26           0.33     0.36
C17        59.84   57.05   40.90          80.21   11.80    7.61          14.04   32.81           0.16    0.28    0.31    0.23            0.13    0.18    0.18           0.18     0.20
C18        53.47   61.21   42.53          82.49  -13.75    9.46          16.69  145.49           0.28    0.18    0.28    0.22            0.32    0.27    0.20           0.30     0.35
C19        50.99   51.95   60.61          77.25    2.39  -19.67          19.81  276.94           0.31    0.27    0.14    0.29            0.28    0.26    0.15           0.26     0.30
C20         1.72    1.45    0.69          12.30    8.67    8.16          11.91   43.27           1.67    1.95    2.03    1.79            0.01    0.01    0.00           0.13     0.15
C21        22.87   17.35    4.81          48.70   30.62   33.99          45.75   47.99           0.48    0.96    1.21    0.70            0.13    0.10    0.07           0.30     0.35
C22        34.74   31.64   17.43          63.04   15.07   17.17          22.85   48.73           0.36    0.57    0.67    0.47            0.20    0.20    0.18           0.33     0.38
D1          4.17    4.42    2.30          25.03   -1.40   10.14          10.24   97.88           1.33    1.35    1.52    1.35            0.05    0.04    0.03           0.30     0.33
D2          4.21    4.46    1.41          25.13   -1.23   19.35          19.40   93.64           1.31    1.36    1.71    1.34            0.04    0.04    0.01           0.27     0.31
D3          4.08    4.33    0.72          24.74   -1.43   29.02          29.05   92.83           1.32    1.38    1.98    1.34            0.05    0.05    0.01           0.29     0.33
D4          4.73    5.06    0.73          26.90   -1.83   32.61          32.66   93.21           1.26    1.31    1.98    1.28            0.06    0.05    0.01           0.31     0.35
D5         26.05   27.46   13.97          59.40   -1.75   19.37          19.45   95.17           0.53    0.57    0.76    0.55            0.17    0.13    0.13           0.44     0.51
D6         26.14   27.65    7.60          59.57   -2.14   39.98          40.04   93.06           0.51    0.58    1.00    0.54            0.17    0.14    0.10           0.38     0.46
D7         26.17   27.97    3.68          59.86   -3.24   59.84          59.93   93.10           0.51    0.58    1.30    0.53            0.18    0.13    0.04           0.38     0.44
D8         26.20   28.04    1.47          59.93   -3.41   78.72          78.79   92.48           0.52    0.60    1.70    0.53            0.17    0.13    0.01           0.27     0.31
D9         54.47   56.72   39.02          80.02   -0.55    9.74           9.76   93.25           0.23    0.25    0.32    0.24            0.27    0.24    0.23           0.27     0.31
D10        54.07   56.56   31.08          79.93   -1.19   20.97          21.01   93.26           0.22    0.26    0.42    0.24            0.23    0.20    0.24           0.35     0.38
D11        54.21   56.73   25.09          80.02   -1.24   31.08          31.10   92.28           0.21    0.26    0.51    0.23            0.21    0.20    0.21           0.33     0.40
D12        53.89   56.73   12.81          80.03   -2.05   58.07          58.11   92.03           0.20    0.28    0.78    0.23            0.18    0.14    0.13           0.33     0.37
D13        50.00   58.89   64.47          81.23  -17.41  -16.56          24.03  223.57           0.38    0.16    0.11    0.26            0.30    0.28    0.11           0.31     0.35
D14        60.01   53.13   59.27          77.95   21.92  -17.12          27.81  322.01           0.17    0.33    0.16    0.26            0.09    0.11    0.13           0.19     0.22
D15        67.37   70.73   34.43          87.35   -1.81   28.75          28.80   93.59           0.12    0.16    0.37    0.14            0.12    0.13    0.23           0.22     0.28
D16        34.70   36.42   30.07          66.84   -1.44   -0.03           1.47  180.78           0.44    0.43    0.44    0.44            0.21    0.17    0.22           0.34     0.39
D17        52.62   47.80   31.19          74.70   17.66   11.77          21.22   33.68           0.19    0.39    0.42    0.30            0.06    0.08    0.17           0.21     0.24
D18        43.07   51.96   33.09          77.26  -19.77   13.30          23.82  146.07           0.39    0.23    0.39    0.30            0.28    0.26    0.22           0.32     0.37
D19        40.20   40.51   55.69          69.83    3.58  -27.45          27.69  277.42           0.43    0.37    0.18    0.41            0.20    0.15    0.16           0.31     0.35
D20        13.66   10.54    2.74          38.79   24.49   30.18          38.87   50.95           0.71    1.17    1.44    0.92            0.08    0.07    0.03           0.33     0.39
D21        21.24   20.83   11.73          52.77    5.54   14.18          15.22   68.65           0.60    0.71    0.83    0.67            0.17    0.15    0.12           0.37     0.44
D22        38.48   36.91   20.20          67.21    9.44   18.35          20.63   62.78           0.33    0.48    0.60    0.41            0.17    0.15    0.14           0.27     0.31
E1          3.87    4.47    2.32          25.16   -6.20   10.16          11.91  121.39           1.40    1.31    1.51    1.35            0.04    0.04    0.03           0.36     0.40
E2          3.55    4.44    1.47          25.07  -10.74   18.62          21.50  119.98           1.45    1.30    1.69    1.36            0.04    0.04    0.02           0.29     0.31
E3          3.27    4.45    0.79          25.11  -15.38   28.38          32.28  118.45           1.52    1.28    1.94    1.36            0.04    0.05    0.01           0.33     0.37
E4          3.50    4.88    0.79          26.39  -17.23   30.69          35.20  119.32           1.51    1.23    1.94    1.32            0.04    0.04    0.01           0.28     0.32
E5         12.28   14.22    7.66          44.54   -9.37   13.81          16.69  124.16           0.90    0.81    1.01    0.85            0.12    0.09    0.09           0.40     0.48
E6         11.35   14.35    4.61          44.73  -16.77   28.24          32.84  120.71           0.95    0.79    1.21    0.85            0.11    0.10    0.05           0.39     0.46
E7         10.35   14.36    2.58          44.75  -24.23   41.71          48.23  120.15           1.03    0.77    1.44    0.86            0.10    0.09    0.02           0.35     0.41
E8          9.69   14.66    1.28          45.17  -31.18   55.55          63.70  119.30           1.13    0.74    1.75    0.85            0.06    0.07    0.01           0.27     0.30
E9         37.45   40.52   28.15          69.84   -5.19    8.25           9.75  122.18           0.41    0.38    0.46    0.39            0.23    0.20    0.19           0.29     0.32
E10        35.77   40.17   23.61          69.59   -9.68   15.79          18.52  121.51           0.43    0.37    0.53    0.40            0.27    0.27    0.20           0.36     0.41
E11        34.24   39.97   19.72          69.45  -14.27   23.21          27.25  121.59           0.46    0.37    0.61    0.40            0.17    0.14    0.20           0.43     0.47
E12        32.17   40.32   13.43          69.69  -22.57   38.55          44.67  120.35           0.50    0.35    0.76    0.40            0.20    0.17    0.13           0.46     0.54
E13        42.23   51.88   62.06          77.21  -22.04  -21.17          30.57  223.85           0.50    0.20    0.13    0.32            0.29    0.29    0.09           0.29     0.35
E14        54.00   44.82   55.03          72.77   29.52  -21.68          36.62  323.70           0.20    0.43    0.19    0.33            0.09    0.09    0.13           0.15     0.18
E15        64.65   67.57   26.82          85.79   -1.13   37.99          38.01   91.70           0.13    0.19    0.48    0.16            0.17    0.17    0.15           0.20     0.22
E16        25.72   27.01   22.28          58.98   -1.35    0.02           1.38  177.56           0.57    0.56    0.56    0.57            0.24    0.22    0.19           0.45     0.49
E17        46.25   39.62   23.33          69.20   24.15   15.62          28.76   32.90           0.22    0.50    0.54    0.37            0.08    0.10    0.12           0.19     0.22
E18        34.30   43.79   25.32          72.09  -25.40   16.98          30.56  146.24           0.51    0.29    0.50    0.38            0.31    0.28    0.20           0.39     0.46
E19        31.42   30.91   50.52          62.43    6.00  -34.60          35.12  279.85           0.56    0.49    0.23    0.53            0.28    0.22    0.12           0.37     0.44
E20        24.47   16.86    1.25          48.09   40.31   61.05          73.16   56.56           0.43    1.08    1.76    0.69            0.07    0.05    0.01           0.18     0.21
E21        16.78   14.09    2.70          44.36   18.98   40.08          44.35   64.66           0.63    0.99    1.44    0.80            0.14    0.11    0.03           0.29     0.35
E22        29.54   25.55    8.09          57.60   19.81   34.69          39.94   60.27           0.40    0.71    0.98    0.55            0.17    0.14    0.08           0.30     0.33
F1          1.55    1.95    1.33          15.23   -8.37    3.32           9.01  158.34           1.87    1.63    1.75    1.73            0.02    0.02    0.01           0.26     0.29
F2          1.24    1.98    1.11          15.36  -18.20    6.57          19.35  160.16           2.09    1.56    1.82    1.75            0.01    0.01    0.01           0.25     0.29
F3          0.99    2.00    0.92          15.48  -26.91    9.63          28.58  160.31           2.34    1.50    1.88    1.76            0.01    0.02    0.01           0.30     0.33
F4          1.06    2.27    0.97          16.85  -30.43   11.22          32.43  159.75           2.36    1.44    1.86    1.71            0.01    0.02    0.01           0.15     0.18
F5          6.63    8.36    5.96          34.72  -13.80    4.18          14.42  163.15           1.23    1.00    1.12    1.10            0.05    0.04    0.06           0.31     0.36
F6          5.57    8.54    5.00          35.08  -26.92    9.51          28.55  160.53           1.41    0.94    1.18    1.11            0.05    0.06    0.05           0.27     0.30
F7          4.64    8.71    4.18          35.43  -39.80   14.65          42.41  159.79           1.64    0.89    1.25    1.12            0.03    0.06    0.04           0.27     0.30
F8          3.56    8.79    3.40          35.59  -55.88   19.84          59.30  160.46           2.09    0.83    1.33    1.13            0.03    0.05    0.05           0.36     0.40
F9         36.50   40.02   31.88          69.48   -6.76    1.73           6.99  165.67           0.44    0.37    0.41    0.40            0.30    0.26    0.26           0.47     0.52
F10        35.02   40.21   30.82          69.62  -12.32    3.60          12.83  163.70           0.47    0.35    0.42    0.41            0.26    0.22    0.17           0.33     0.42
F11        33.16   40.01   29.33          69.47  -18.12    5.70          19.00  162.53           0.52    0.34    0.44    0.42            0.19    0.17    0.25           0.38     0.44
F12        30.04   40.08   26.91          69.53  -29.68    9.80          31.26  161.73           0.61    0.31    0.48    0.42            0.30    0.30    0.20           0.46     0.56
F13        35.10   45.07   59.16          72.94  -26.35  -25.66          36.78  224.25           0.63    0.24    0.15    0.39            0.24    0.27    0.09           0.30     0.37
F14        48.24   37.32   50.62          67.52   36.93  -25.93          45.13  324.92           0.24    0.54    0.23    0.40            0.09    0.08    0.18           0.13     0.16
F15        62.28   64.58   20.34          84.27    0.02   47.48          47.48   89.97           0.14    0.22    0.59    0.17            0.13    0.13    0.14           0.21     0.27
F16        18.22   19.21   16.01          50.93   -1.56   -0.39           1.62  193.00           0.72    0.70    0.71    0.72            0.15    0.13    0.13           0.35     0.39
F17        40.56   32.52   16.88          63.77   30.79   19.70          36.55   32.61           0.26    0.63    0.68    0.44            0.16    0.17    0.17           0.31     0.34
