targets/wolf_faust/reflective/R060101.it8
IT8.7/2
ORIGINATOR "Wolf Faust"
DESCRIPTOR "L* a* b* Batch average data (light D50, viewing angle 2)"
MANUFACTURER "Wolf Faust - http://www.coloraid.de"
CREATED "February 26, 2006"
PROD_DATE "2006:01"
SAMPLE_BACKING "white"
SERIAL "DIN A4  R060101"
MATERIAL "Kodak Professional Ultra Endura - Lustreless"
NUMBER_OF_FIELDS 13
BEGIN_DATA_FORMAT
SAMPLE_ID  XYZ_X   XYZ_Y   XYZ_Z          LAB_L   LAB_A   LAB_B          LAB_C   LAB_H          D_RED  D_GREEN  D_BLUE  D_VIS
END_DATA_FORMAT
NUMBER_OF_SETS 288
BEGIN_DATA
A1          3.07    2.57    1.76          18.23   10.88    3.58          11.46   18.19           1.42    1.70    1.65    1.55
A2          3.84    2.58    1.44          18.28   23.04    7.22          24.14   17.40           1.26    1.89    1.74    1.51 
A3          5.93    3.44    1.59          21.73   34.68   11.39          36.50   18.19           1.04    1.96    1.71    1.36
A4          4.38    2.66    1.33          18.62   29.19    9.17          30.60   17.44           1.19    2.00    1.78    1.48 
A5         11.70   10.20    7.46          38.19   13.92    3.69          14.40   14.82           0.84    1.08    1.03    0.96
A6         13.96   10.20    6.32          38.20   28.96    8.52          30.18   16.39           0.71    1.21    1.11    0.93 
A7         16.64   10.46    5.61          38.65   42.83   12.61          44.65   16.40           0.60    1.35    1.17    0.89
A8         20.57   10.79    4.54          39.23   60.71   19.14          63.66   17.50           0.50    1.64    1.27    0.84 
A9         40.14   39.40   31.82          69.04    6.78    1.05           6.86    8.81           0.35    0.43    0.41    0.40
A10        42.36   39.34   30.23          68.99   13.75    3.44          14.18   14.05           0.30    0.46    0.44    0.39
A11        45.10   39.45   29.30          69.08   21.41    5.06          22.00   13.29           0.25    0.49    0.45    0.38
A12        47.03   39.48   28.06          69.10   26.79    7.13          27.72   14.90           0.22    0.51    0.47    0.37 
A13        73.24   77.52   67.16          90.56   -3.10   -3.00           4.32  224.01           0.13    0.10    0.09    0.12
A14        75.75   77.85   67.07          90.71    1.39   -2.66           3.00  297.66           0.10    0.11    0.09    0.11 
A15        76.51   79.89   64.05          91.63   -1.05    1.77           2.06  120.71           0.10    0.09    0.11    0.10
A16        76.61   79.52   65.83          91.47   -0.14   -0.19           0.26  230.31           0.10    0.10    0.10    0.10
A17        75.07   77.32   63.20          90.47    1.05    0.58           1.20   28.82           0.10    0.11    0.12    0.11
A18        72.40   76.84   62.74          90.25   -3.50    0.64           3.56  169.61           0.13    0.10    0.12    0.12 
A19        72.03   75.16   66.27          89.47   -0.93   -4.05           4.16  256.99           0.13    0.12    0.10    0.13
A20         1.18    0.97    0.65           8.70    8.79    2.66           9.18   16.82           1.85    2.14    2.07    1.97 
A21         4.72    2.98    0.67          19.96   27.87   21.74          35.35   37.95           1.14    1.93    2.05    1.43
A22         9.55    5.39    0.72          27.82   42.41   34.46          54.65   39.09           0.82    1.87    2.03    1.15
B1          2.91    2.55    1.40          18.14    8.46    7.43          11.27   41.28           1.44    1.69    1.74    1.56
B2          3.53    2.62    0.86          18.46   17.48   15.76          23.54   42.03           1.30    1.81    1.94    1.51
B3          5.08    3.37    0.76          21.47   25.90   22.66          34.41   41.18           1.12    1.82    2.00    1.38
B4          3.81    2.60    0.67          18.36   22.12   18.95          29.13   40.58           1.25    1.90    2.05    1.50
B5         11.87   10.24    5.45          38.27   14.81   12.72          19.52   40.65           0.81    1.10    1.16    0.95
B6         13.83   10.35    3.55          38.46   27.02   23.83          36.03   41.41           0.70    1.20    1.34    0.92
B7         16.38   10.42    1.99          38.59   41.65   36.35          55.28   41.11           0.59    1.38    1.59    0.89
B8         19.91   10.74    0.93          39.14   57.84   50.25          76.62   40.98           0.50    1.65    1.91    0.84
B9         40.23   39.74   30.05          69.28    6.00    4.22           7.34   35.11           0.35    0.42    0.44    0.39
B10        42.37   39.73   26.36          69.27   12.57   10.30          16.26   39.33           0.29    0.45    0.49    0.38
B11        44.30   39.55   23.29          69.14   18.81   15.60          24.44   39.67           0.25    0.48    0.54    0.37
B12        46.36   39.59   20.86          69.18   24.56   20.40          31.92   39.71           0.22    0.51    0.59    0.36
B13        68.82   74.06   66.17          88.95   -5.54   -4.86           7.37  221.25           0.17    0.11    0.10    0.14
B14        72.53   72.45   65.24          88.18    5.66   -5.30           7.76  316.85           0.11    0.15    0.11    0.14
B15        74.33   77.89   56.42          90.73   -1.59    7.83           7.99  101.47           0.10    0.11    0.17    0.11
B16        61.78   64.22   53.27          84.08   -0.33   -0.29           0.46  223.85           0.19    0.19    0.19    0.19
B17        69.53   69.69   54.31          86.84    5.06    3.35           6.07   33.48           0.12    0.17    0.18    0.15
B18        66.24   71.81   55.28          87.88   -6.58    4.10           7.75  148.05           0.17    0.13    0.17    0.15
B19        64.30   66.37   63.57          85.19    0.69   -8.88           8.91  274.42           0.19    0.17    0.12    0.18
B20         2.49    1.78    0.65          14.31   17.08   12.41          21.12   36.01           1.46    2.00    2.07    1.67
B21         7.90    4.61    0.70          25.58   37.89   30.98          48.94   39.27           0.90    1.87    2.04    1.22
B22        28.01   23.67   11.35          55.76   21.84   20.49          29.95   43.17           0.43    0.75    0.85    0.58
C1          3.92    3.78    1.94          22.93    4.07    9.87          10.68   67.57           1.34    1.47    1.60    1.40
C2          4.25    3.83    1.16          23.09    8.10   19.17          20.81   67.08           1.26    1.51    1.81    1.38
C3          5.25    4.49    0.85          25.22   11.83   27.53          29.97   66.75           1.15    1.49    1.93    1.30
C4          4.48    3.89    0.83          23.30   10.35   24.66          26.74   67.23           1.23    1.54    1.95    1.36
C5         22.76   21.76   10.29          53.77    8.25   20.39          22.00   67.97           0.55    0.72    0.89    0.64
C6         24.91   21.74    5.04          53.75   17.80   41.51          45.17   66.80           0.47    0.78    1.18    0.62
C7         27.42   22.01    2.12          54.04   26.90   61.78          67.39   66.47           0.41    0.85    1.54    0.60
C8         28.55   22.19    1.37          54.23   30.51   70.11          76.47   66.48           0.38    0.88    1.73    0.59
C9         46.92   47.19   33.12          74.31    4.00    8.18           9.11   63.92           0.28    0.34    0.39    0.32
C10        48.48   47.24   26.80          74.34    8.17   18.29          20.04   65.92           0.24    0.36    0.48    0.31
C11        49.93   47.25   21.55          74.35   12.08   27.94          30.44   66.62           0.21    0.39    0.57    0.30
C12        51.39   47.40   17.91          74.44   15.53   35.74          38.97   66.51           0.18    0.40    0.65    0.29
C13        59.80   66.84   64.31          85.42  -10.77   -9.18          14.15  220.46           0.26    0.13    0.11    0.19
C14        67.00   63.68   62.08          83.80   12.70   -9.82          16.05  322.27           0.13    0.22    0.13    0.19
C15        71.45   75.08   46.62          89.43   -1.97   16.44          16.55   96.84           0.11    0.13    0.25    0.12
C16        47.95   49.88   41.44          76.00   -0.41   -0.35           0.58  219.64           0.30    0.30    0.30    0.30
C17        61.69   59.12   43.02          81.36   11.20    6.90          13.16   31.61           0.15    0.27    0.28    0.21
C18        54.99   62.38   44.73          83.11  -12.57    7.81          14.80  148.14           0.27    0.17    0.26    0.21
C19        51.99   53.25   58.95          78.02    1.70  -16.69          16.77  275.80           0.29    0.26    0.15    0.28
C20         1.46    1.24    0.63          10.88    7.75    6.86          10.36   41.52           1.75    2.01    2.08    1.86
C21        22.04   16.39    4.27          47.48   32.07   34.91          47.41   47.43           0.49    1.01    1.26    0.72
C22        33.76   30.55   16.58          62.13   15.65   17.57          23.53   48.32           0.37    0.59    0.69    0.49
D1          3.67    3.83    1.99          23.09   -0.27    9.65           9.66   91.58           1.39    1.43    1.58    1.41
D2          3.67    3.87    1.22          23.22   -0.92   18.50          18.52   92.83           1.38    1.43    1.78    1.40
D3          4.55    4.84    0.94          26.28   -1.54   27.85          27.89   93.17           1.28    1.34    1.88    1.30
D4          3.63    3.86    0.91          23.21   -1.48   23.16          23.21   93.66           1.38    1.43    1.90    1.40
D5         25.58   26.79   13.50          58.78   -1.04   19.55          19.57   93.04           0.54    0.58    0.77    0.56
D6         25.37   26.83    7.08          58.82   -2.11   40.80          40.86   92.96           0.53    0.59    1.04    0.56
D7         25.36   26.91    3.27          58.89   -2.45   60.96          61.01   92.31           0.53    0.61    1.35    0.55
D8         25.34   27.15    1.76          59.12   -3.50   74.02          74.10   92.71           0.54    0.61    1.62    0.54
D9         53.74   55.88   38.84          79.54   -0.34    9.15           9.16   92.14           0.24    0.26    0.32    0.25
D10        53.76   56.11   30.83          79.68   -0.88   20.91          20.93   92.40           0.22    0.26    0.42    0.24
D11        53.80   56.28   24.44          79.77   -1.19   31.81          31.83   92.15           0.21    0.27    0.52    0.24
D12        53.70   56.36   12.72          79.82   -1.62   57.96          57.98   91.61           0.20    0.28    0.79    0.23
D13        51.65   59.94   62.17          81.81  -15.50  -13.35          20.46  220.73           0.35    0.16    0.13    0.25
D14        61.63   55.47   58.61          79.31   19.88  -14.12          24.38  324.61           0.16    0.31    0.16    0.24
D15        68.87   72.35   37.98          88.14   -1.92   25.14          25.21   94.38           0.12    0.15    0.33    0.13
D16        36.85   38.32   32.15          68.26   -0.32   -0.80           0.89  248.32           0.41    0.41    0.41    0.42
D17        54.64   49.88   33.77          75.99   17.23   10.12          19.99   30.43           0.18    0.37    0.39    0.28
D18        45.42   53.99   35.92          78.45  -18.08   11.28          21.31  148.04           0.37    0.22    0.36    0.28
D19        41.83   42.26   54.07          71.05    3.31  -23.63          23.86  277.99           0.40    0.36    0.19    0.39
D20        12.92    9.68    2.33          37.26   26.29   30.96          40.61   49.67           0.72    1.24    1.51    0.95
D21        20.46   19.84   11.09          51.65    6.59   14.19          15.65   65.11           0.61    0.74    0.86    0.68
D22        37.35   35.57   19.43          66.19   10.22   18.21          20.88   60.69           0.34    0.50    0.62    0.43
E1          3.38    3.88    2.01          23.28   -5.66    9.75          11.28  120.17           1.47    1.38    1.58    1.41
E2          3.15    3.96    1.31          23.52  -10.54   17.87          20.75  120.54           1.52    1.35    1.75    1.41
E3          3.60    4.90    1.02          26.46  -15.94   26.97          31.33  120.59           1.50    1.24    1.84    1.32
E4          3.01    3.98    0.96          23.61  -13.38   23.05          26.65  120.14           1.56    1.33    1.87    1.41
E5         11.84   13.59    7.36          43.64   -8.56   13.47          15.96  122.44           0.92    0.84    1.03    0.87
E6         10.68   13.50    4.22          43.51  -16.40   28.36          32.76  120.04           0.98    0.82    1.25    0.88
E7          9.72   13.55    2.30          43.58  -24.16   42.09          48.53  119.85           1.07    0.80    1.50    0.88
E8          9.15   13.81    1.56          43.96  -30.42   50.09          58.60  121.27           1.15    0.77    1.66    0.88
E9         36.65   39.63   28.37          69.21   -5.08    6.80           8.49  126.83           0.42    0.39    0.46    0.40
E10        35.59   39.84   23.64          69.36   -9.25   15.33          17.91  121.10           0.43    0.38    0.53    0.40
E11        34.28   39.93   19.40          69.42  -14.00   23.84          27.65  120.43           0.46    0.37    0.61    0.40
E12        31.84   39.80   13.19          69.33  -22.19   38.59          44.51  119.91           0.51    0.35    0.77    0.41
E13        43.74   52.95   59.61          77.85  -20.33  -17.65          26.92  220.97           0.46    0.20    0.14    0.31
E14        55.89   47.32   54.50          74.40   27.25  -18.32          32.83  326.09           0.19    0.40    0.19    0.30
E15        66.00   69.08   29.93          86.54   -1.36   34.17          34.20   92.27           0.13    0.18    0.43    0.15
E16        27.22   28.37   23.76          60.22   -0.55   -0.65           0.88  228.86           0.55    0.54    0.54    0.55
E17        48.17   41.51   25.25          70.53   23.77   14.42          27.80   31.23           0.21    0.48    0.51    0.35
E18        36.38   45.72   27.55          73.36  -23.89   15.32          28.39  147.32           0.48    0.28    0.47    0.36
E19        32.62   32.37   48.91          63.64    5.11  -30.68          31.10  279.45           0.53    0.47    0.24    0.51
E20        24.00   16.18    1.10          47.21   42.08   61.56          74.56   55.65           0.43    1.14    1.82    0.70
E21        16.08   13.23    2.33          43.10   20.50   40.99          45.83   63.43           0.64    1.04    1.50    0.82
E22        28.65   24.44    7.65          56.53   21.02   34.54          40.44   58.68           0.41    0.74    1.01    0.57
F1          1.31    1.66    1.11          13.59   -8.22    3.45           8.92  157.24           1.96    1.70    1.83    1.80
F2          1.14    1.78    0.96          14.30  -16.76    6.88          18.12  157.68           2.13    1.61    1.88    1.79
F3          1.16    2.34    1.02          17.17  -28.40   10.88          30.41  159.04           2.30    1.44    1.84    1.69
F4          0.92    1.72    0.83          13.96  -22.92    8.48          24.44  159.69           2.34    1.58    1.94    1.82
F5          5.98    7.56    5.31          33.04  -13.44    4.40          14.14  161.89           1.28    1.05    1.17    1.14
F6          5.01    7.79    4.54          33.54  -26.94    9.34          28.52  160.87           1.47    0.98    1.23    1.15
F7          4.18    7.96    3.73          33.90  -39.49   14.81          42.18  159.44           1.71    0.92    1.30    1.16
F8          3.42    8.35    3.03          34.69  -54.20   20.92          58.09  158.90           2.10    0.86    1.38    1.16
F9         36.30   39.59   31.92          69.18   -6.14    1.13           6.24  169.57           0.44    0.38    0.41    0.41
F10        34.49   39.57   30.37          69.16  -12.16    3.51          12.66  163.89           0.48    0.36    0.43    0.41
F11        32.68   39.54   29.20          69.14  -18.38    5.34          19.14  163.80           0.53    0.34    0.44    0.42
F12        29.57   39.58   26.79          69.17  -29.93    9.38          31.37  162.60           0.62    0.31    0.48    0.43
F13        36.93   46.66   57.02          73.97  -24.69  -21.70          32.87  221.31           0.58    0.23    0.16    0.37
F14        50.19   39.70   50.09          69.25   34.75  -22.36          41.32  327.24           0.22    0.51    0.23    0.37
F15        63.57   66.00   22.55          85.00   -0.16   44.36          44.36   90.21           0.13    0.21    0.55    0.16
F16        19.26   20.10   16.82          51.95   -0.61   -0.55           0.86  222.48           0.70    0.69    0.69    0.70
F17        42.28   34.09   18.25          65.03   30.59   18.76          35.89   31.52           0.24    0.61    0.65    0.42
F18        28.86   38.45   20.49          68.35  -29.12   19.73          35.18  145.88           0.61    0.33    0.59    0.44
F19        25.07   24.15   43.84          56.24    7.74  -37.43          38.22  281.69           0.68    0.60    0.29    0.64
F20        24.54   23.58   10.91          55.66    7.97   21.67          23.09   69.79           0.52    0.68    0.86    0.60
F21        32.57   29.29    9.93          61.04   16.15   34.08          37.72   64.64           0.37    0.63    0.90    0.50
F22        37.13   34.55   14.73          65.40   12.90   27.73          30.58   65.04           0.33    0.53    0.73    0.43
G1          2.10    2.66    2.34          18.62   -9.67   -1.30           9.77  187.69           1.78    1.49    1.52    1.60
G2          1.72    2.67    2.58          18.69  -19.01   -3.22          19.29  189.62           2.03    1.42    1.47    1.63
G3          1.70    3.30    3.30          21.20  -30.17   -4.26          30.47  188.04           2.28    1.28    1.37    1.57
G4          1.46    2.74    2.71          18.97  -27.10   -3.76          27.36  187.89           2.30    1.36    1.45    1.64
G5          8.41   10.41    9.25          38.56  -13.50   -2.34          13.70  189.86           1.15    0.91    0.94    1.01
G6          7.19   10.44    9.94          38.63  -25.02   -4.59          25.43  190.40           1.34    0.85    0.90    1.03
G7          6.11   10.64   10.64          38.96  -37.57   -6.27          38.09  189.47           1.61    0.80    0.87    1.04
G8          5.14   11.11   11.61          39.76  -52.23   -7.89          52.83  188.59           2.07    0.73    0.83    1.05
G9         36.28   39.68   34.17          69.24   -6.46   -2.10           6.80  198.07           0.45    0.37    0.38    0.41
G10        34.12   39.61   34.78          69.19  -13.52   -3.07          13.86  192.80           0.51    0.35    0.37    0.42
G11        32.67   40.00   36.04          69.47  -19.81   -4.39          20.29  192.49           0.56    0.33    0.36    0.42
G12        29.38   39.71   37.19          69.26  -31.05   -6.34          31.69  191.53           0.67    0.30    0.34    0.44
G13        31.01   40.91   54.24          70.11  -28.60  -25.42          38.26  221.63           0.71    0.27    0.19    0.44
G14        44.98   33.11   45.80          64.25   41.86  -25.99          49.27  328.16           0.26    0.63    0.28    0.44
G15        61.26   62.93   16.84          83.41    1.36   53.64          53.66   88.55           0.14    0.24    0.67    0.18
G16        13.28   13.89   11.60          44.07   -0.71   -0.43           0.86  213.03           0.86    0.85    0.84    0.86
G17        37.19   27.99   12.84          59.88   36.89   23.26          43.61   32.23           0.28    0.75    0.80    0.49
G18        22.29   31.72   14.95          63.11  -34.12   23.21          41.27  145.77           0.75    0.40    0.72    0.53
G19        19.04   17.62   39.21          49.03   10.86  -43.95          45.27  283.88           0.83    0.73    0.34    0.78
G20        34.72   33.32   13.82          64.42    9.07   28.42          29.84   72.30           0.37    0.53    0.76    0.45
G21        33.46   31.90    8.61          63.26    9.74   42.51          43.61   77.09           0.37    0.57    0.96    0.47
G22        45.20   40.78    1.89          70.02   17.62   91.55          93.23   79.11           0.23    0.53    1.60    0.34
H1          2.29    2.67    3.01          18.65   -5.71   -6.59           8.73  229.12           1.73    1.51    1.42    1.60
H2          2.06    2.71    4.05          18.83  -11.29  -13.19          17.37  229.44           1.93    1.45    1.30    1.62
H3          2.14    3.14    5.88          20.59  -17.18  -19.83          26.24  229.10           2.16    1.33    1.14    1.59
H4          1.86    2.81    5.52          19.24  -17.76  -20.39          27.04  228.95           2.29    1.37    1.17    1.65
H5          9.01   10.38   11.53          38.51   -8.09   -9.81          12.72  230.48           1.12    0.92    0.85    1.01
H6          8.12   10.39   14.90          38.54  -15.96  -19.01          24.82  229.98           1.30    0.87    0.74    1.03
H7          7.45   10.55   19.04          38.81  -23.29  -28.18          36.56  230.42           1.56    0.82    0.64    1.06
H8          6.96   11.31   25.43          40.10  -33.60  -38.37          51.00  228.79           2.13    0.73    0.51    1.06
H9         36.31   39.36   37.00          69.01   -5.34   -6.51           8.42  230.60           0.45    0.38    0.35    0.42
H10        35.47   39.69   40.66          69.25   -9.20  -10.99          14.33  230.07           0.49    0.36    0.31    0.42
H11        34.08   39.71   44.82          69.26  -14.00  -16.17          21.39  229.10           0.55    0.34    0.27    0.43
H12        31.58   39.80   53.71          69.32  -23.13  -26.22          34.96  228.59           0.67    0.30    0.19    0.45
H13        25.89   35.69   51.49          66.28  -32.09  -29.04          43.28  222.15           0.86    0.31    0.21    0.51
H14        40.21   27.47   41.59          59.41   48.53  -29.16          56.61  329.00           0.30    0.76    0.32    0.51
H15        58.93   59.78   12.26          81.72    3.12   62.55          62.63   87.14           0.15    0.28    0.80    0.20
H16         8.76    9.14    7.66          36.25   -0.44   -0.47           0.74  226.16           1.04    1.03    1.02    1.04
H17        32.53   22.75    8.68          54.82   42.84   27.67          51.00   32.86           0.32    0.90    0.97    0.57
H18        17.16   26.13   10.59          58.16  -38.42   26.97          46.94  144.93           0.90    0.47    0.86    0.62
H19        14.37   12.55   34.93          42.08   14.73  -50.02          52.15  286.41           1.01    0.88    0.40    0.94
H20        39.49   39.90   14.36          69.40    3.23   35.58          35.72   84.81           0.33    0.44    0.74    0.38
H21        29.27   30.52   19.53          62.10   -0.61   10.95          10.97   93.19           0.49    0.52    0.62    0.51
H22        33.18   36.35   10.33          66.78   -6.45   42.68          43.17   98.59           0.43    0.45    0.88    0.43
I1          3.77    3.86    5.27          23.20    0.78  -12.33          12.36  273.61           1.47    1.39    1.19    1.43
I2          3.95    3.98    8.13          23.59    1.65  -24.09          24.15  273.92           1.55    1.35    1.01    1.44
I3          4.03    3.97   11.51          23.57    2.99  -35.50          35.62  274.82           1.69    1.32    0.87    1.47
I4          4.50    4.21   20.14          24.35    6.04  -55.41          55.74  276.22           2.27    1.23    0.63    1.51
I5         12.87   13.32   14.48          43.24    0.19   -9.82           9.83  271.07           0.90    0.86    0.75    0.88
I6         13.10   13.43   19.01          43.41    0.98  -20.18          20.21  272.76           0.93    0.84    0.64    0.89
I7         13.24   13.44   23.47          43.42    1.83  -29.08          29.14  273.61           0.97    0.83    0.56    0.90
I8         13.64   13.51   35.99          43.52    3.94  -49.05          49.21  274.59           1.12    0.80    0.38    0.93
