targets/wolf_faust/reflective/R061212.it8
IT8.7/2
ORIGINATOR "Wolf Faust"
DESCRIPTOR "Kodak Professional Paper, L* a* b* (light D50, viewing angle 2)"
MANUFACTURER "Wolf Faust - http://www.coloraid.de"
CREATED "January 20, 2007"
PROD_DATE "2006:12"
SAMPLE_BACKING "black"
SERIAL "5x7 R061212 Batch Average Data"
MATERIAL "Kodak Professional Ultra Endura"
KEYWORD "MEAN_DE" # Mean Delta E of samples compared to batch average
NUMBER_OF_FIELDS 18
BEGIN_DATA_FORMAT
SAMPLE_ID  XYZ_X   XYZ_Y   XYZ_Z          LAB_L   LAB_A   LAB_B          LAB_C   LAB_H          D_RED  D_GREEN  D_BLUE  D_VIS          STDEV_X STDEV_Y STDEV_Z        MEAN_DE  STDEV_DE
END_DATA_FORMAT
NUMBER_OF_SETS 288
BEGIN_DATA
A1          3.69    3.09    2.09          20.40   11.65    4.06          12.34   19.21           1.33    1.62    1.58    1.47            0.04    0.03    0.04           0.32     0.36
A2          4.54    3.06    1.70          20.29   24.07    7.73          25.28   17.80           1.19    1.80    1.67    1.44            0.07    0.05    0.03           0.30     0.33 
A3          5.39    2.99    1.42          20.01   35.93   10.47          37.43   16.25           1.09    2.09    1.76    1.41            0.06    0.04    0.02           0.32     0.35
A4          6.43    3.28    1.39          21.15   42.65   12.73          44.51   16.62           1.00    2.24    1.77    1.35            0.07    0.04    0.03           0.31     0.34 
A5         13.01   11.34    8.07          40.15   14.41    4.66          15.15   17.92           0.79    1.03    1.00    0.92            0.15    0.13    0.19           0.50     0.55
A6         15.18   11.24    6.97          39.98   28.72    8.77          30.03   16.97           0.67    1.15    1.07    0.89            0.14    0.11    0.14           0.39     0.43 
A7         17.79   11.40    6.16          40.24   42.24   12.76          44.12   16.81           0.58    1.28    1.12    0.86            0.13    0.09    0.12           0.45     0.51
A8         21.28   11.22    5.08          39.96   60.99   17.49          63.45   16.00           0.49    1.59    1.22    0.82            0.08    0.06    0.07           0.28     0.34 
A9         41.44   40.64   31.95          69.92    6.99    2.37           7.39   18.65           0.33    0.41    0.41    0.38            0.25    0.27    0.42           0.40     0.48
A10        43.47   40.49   30.71          69.81   13.51    4.11          14.13   16.90           0.29    0.44    0.43    0.38            0.25    0.26    0.32           0.36     0.40
A11        45.97   40.70   29.71          69.96   20.08    5.93          20.93   16.45           0.25    0.46    0.44    0.36            0.24    0.25    0.26           0.29     0.32
A12        47.79   40.44   28.47          69.78   25.96    7.63          27.06   16.37           0.22    0.49    0.46    0.36            0.13    0.16    0.28           0.39     0.43 
A13        73.69   77.20   67.43          90.41   -1.54   -3.51           3.83  246.30           0.12    0.10    0.09    0.12            0.13    0.12    0.12           0.07     0.08
A14        74.99   77.17   67.33          90.40    1.20   -3.44           3.65  289.20           0.11    0.11    0.09    0.11            0.12    0.12    0.14           0.09     0.11 
A15        74.40   77.53   61.85          90.56   -0.72    2.06           2.19  109.38           0.11    0.11    0.13    0.11            0.13    0.12    0.18           0.10     0.11
A16        74.79   77.62   64.34          90.61   -0.11   -0.27           0.30  246.72           0.11    0.11    0.11    0.11            0.12    0.12    0.12           0.08     0.09
A17        72.32   74.05   60.55          88.94    1.95    0.55           2.02   15.80           0.11    0.13    0.14    0.13            0.14    0.16    0.15           0.12     0.13
A18        72.42   76.15   62.22          89.93   -2.09    0.60           2.18  164.00           0.13    0.11    0.13    0.12            0.11    0.11    0.12           0.12     0.13 
A19        74.32   77.03   67.37          90.34    0.08   -3.58           3.59  271.34           0.12    0.11    0.09    0.12            0.15    0.15    0.14           0.09     0.10
A20         1.42    1.12    0.72           9.92   10.72    3.58          11.31   18.48           1.75    2.10    2.03    1.90            0.01    0.01    0.01           0.31     0.35 
A21         5.32    3.35    0.74          21.40   29.17   22.85          37.06   38.07           1.09    1.87    2.00    1.38            0.06    0.05    0.01           0.34     0.41
A22        10.40    5.92    0.82          29.22   43.13   34.96          55.52   39.02           0.78    1.79    1.96    1.11            0.06    0.04    0.01           0.26     0.29
B1          3.47    3.03    1.61          20.18    9.06    8.53          12.45   43.25           1.36    1.61    1.68    1.48            0.06    0.05    0.03           0.36     0.42
B2          4.14    3.09    0.99          20.40   18.19   16.99          24.89   43.05           1.23    1.72    1.88    1.44            0.06    0.04    0.02           0.34     0.44
B3          4.77    3.10    0.60          20.45   26.44   24.03          35.73   42.26           1.14    1.87    2.09    1.41            0.07    0.05    0.01           0.28     0.34
B4          5.67    3.28    0.32          21.12   34.43   30.30          45.86   41.35           1.05    2.04    2.35    1.37            0.07    0.05    0.00           0.27     0.33
B5         12.98   11.21    5.86          39.94   15.11   13.62          20.35   42.03           0.77    1.05    1.13    0.91            0.13    0.12    0.12           0.39     0.44
B6         14.93   11.23    4.00          39.97   27.23   23.59          36.03   40.90           0.67    1.15    1.29    0.89            0.12    0.11    0.06           0.43     0.50
B7         17.41   11.27    2.32          40.03   41.07   35.83          54.50   41.10           0.57    1.31    1.52    0.86            0.14    0.10    0.04           0.28     0.31
B8         20.83   11.27    0.99          40.04   58.46   50.82          77.46   41.00           0.48    1.60    1.88    0.82            0.10    0.08    0.02           0.22     0.24
B9         41.17   40.68   29.92          69.95    6.03    5.58           8.21   42.74           0.33    0.41    0.44    0.38            0.22    0.23    0.27           0.31     0.36
B10        43.15   40.58   26.75          69.88   12.29   10.69          16.29   40.99           0.29    0.44    0.49    0.37            0.21    0.22    0.26           0.33     0.37
B11        45.19   40.63   23.87          69.91   18.07   15.86          24.04   41.26           0.25    0.47    0.53    0.36            0.20    0.22    0.19           0.27     0.29
B12        47.15   40.76   21.44          70.00   23.20   20.67          31.07   41.70           0.21    0.49    0.58    0.35            0.21    0.24    0.22           0.31     0.35
B13        67.34   72.48   66.39          88.20   -5.52   -6.36           8.42  229.02           0.18    0.12    0.10    0.15            0.16    0.14    0.10           0.11     0.13
B14        70.83   70.16   65.17          87.08    6.84   -7.14           9.89  313.74           0.12    0.16    0.11    0.15            0.11    0.14    0.09           0.09     0.10
B15        72.18   75.53   53.58          89.64   -1.34    8.95           9.05   98.51           0.11    0.12    0.19    0.12            0.10    0.10    0.27           0.16     0.22
B16        59.97   62.28   51.17          83.06   -0.20    0.25           0.35  132.15           0.20    0.20    0.21    0.21            0.18    0.21    0.27           0.20     0.22
B17        67.31   67.22   51.89          85.62    5.53    3.85           6.75   34.84           0.13    0.19    0.20    0.17            0.15    0.16    0.30           0.20     0.23
B18        64.07   69.62   52.80          86.81   -6.83    4.92           8.42  144.23           0.19    0.14    0.19    0.16            0.20    0.18    0.17           0.14     0.17
B19        63.26   65.06   64.13          84.52    1.22  -10.58          10.65  276.55           0.19    0.18    0.12    0.19            0.09    0.13    0.09           0.12     0.13
B20         2.92    2.07    0.71          15.83   18.69   13.90          23.30   36.63           1.38    1.94    2.03    1.61            0.03    0.03    0.01           0.36     0.40
B21         8.56    5.01    0.80          26.75   38.78   31.05          49.68   38.69           0.87    1.82    1.97    1.19            0.06    0.04    0.01           0.30     0.33
B22        29.52   25.23   12.14          57.30   21.03   20.79          29.58   44.67           0.41    0.71    0.82    0.56            0.13    0.14    0.17           0.36     0.40
C1          4.69    4.52    2.24          25.31    4.39   11.10          11.94   68.44           1.25    1.39    1.53    1.32            0.06    0.06    0.05           0.33     0.36
C2          5.01    4.52    1.36          25.31    8.56   20.28          22.01   67.12           1.19    1.43    1.73    1.31            0.07    0.07    0.02           0.29     0.33
C3          5.40    4.56    0.71          25.45   12.59   30.48          32.97   67.56           1.13    1.48    2.00    1.29            0.06    0.06    0.01           0.27     0.31
C4          6.03    4.91    0.47          26.49   15.30   36.75          39.80   67.40           1.07    1.48    2.17    1.25            0.07    0.06    0.01           0.28     0.34
C5         24.23   23.12   11.01          55.19    8.66   20.55          22.30   67.13           0.53    0.69    0.86    0.61            0.19    0.19    0.22           0.46     0.54
C6         26.17   22.98    5.59          55.05   17.46   40.97          44.54   66.92           0.45    0.75    1.14    0.60            0.19    0.19    0.09           0.33     0.37
C7         28.30   23.00    2.39          55.08   25.92   61.10          66.36   67.01           0.39    0.81    1.48    0.58            0.17    0.14    0.03           0.22     0.25
C8         30.32   22.99    0.85          55.06   33.72   78.99          85.89   66.88           0.35    0.88    1.93    0.57            0.10    0.10    0.01           0.20     0.22
C9         47.87   48.18   33.13          74.94    3.92    9.26          10.05   67.03           0.27    0.33    0.39    0.31            0.26    0.28    0.25           0.32     0.37
C10        49.29   48.10   27.39          74.89    8.03   18.23          19.92   66.22           0.24    0.36    0.47    0.30            0.24    0.26    0.25           0.30     0.35
C11        51.05   48.51   22.21          75.14   11.64   28.01          30.33   67.44           0.20    0.37    0.56    0.29            0.22    0.25    0.23           0.29     0.32
C12        51.91   48.27   18.99          75.00   14.52   34.33          37.27   67.08           0.18    0.39    0.63    0.29            0.15    0.19    0.22           0.36     0.41
C13        58.89   65.90   64.82          84.95  -10.89  -10.49          15.12  223.93           0.27    0.14    0.11    0.20            0.29    0.25    0.19           0.17     0.22
C14        65.61   61.56   62.24          82.68   14.43  -11.92          18.72  320.44           0.14    0.24    0.13    0.20            0.16    0.20    0.16           0.17     0.21
C15        69.46   72.87   43.76          88.39   -1.72   18.09          18.17   95.44           0.12    0.14    0.27    0.13            0.13    0.13    0.31           0.27     0.31
C16        46.77   48.53   39.70          75.15   -0.07    0.45           0.48  103.47           0.31    0.31    0.32    0.31            0.22    0.25    0.35           0.27     0.32
C17        60.00   57.21   40.91          80.30   11.79    7.75          14.10   33.32           0.16    0.28    0.31    0.23            0.18    0.21    0.25           0.22     0.25
C18        53.69   61.13   42.49          82.45  -12.99    9.44          16.06  144.02           0.28    0.18    0.29    0.22            0.16    0.15    0.28           0.24     0.28
C19        51.81   52.62   60.08          77.65    2.82  -18.45          18.67  278.69           0.29    0.27    0.15    0.29            0.14    0.17    0.11           0.19     0.21
C20         1.82    1.51    0.70          12.65    9.62    8.52          12.85   41.56           1.64    1.95    2.03    1.77            0.02    0.02    0.01           0.29     0.34
C21        23.36   17.59    4.80          48.99   31.59   34.56          46.82   47.57           0.47    0.96    1.21    0.69            0.11    0.10    0.10           0.40     0.46
C22        34.98   31.82   17.61          63.20   15.26   17.04          22.87   48.15           0.36    0.57    0.66    0.47            0.22    0.22    0.25           0.33     0.40
D1          4.35    4.50    2.28          25.27    0.08   10.69          10.69   89.56           1.31    1.36    1.52    1.34            0.06    0.07    0.06           0.39     0.43
D2          4.29    4.47    1.37          25.17   -0.28   19.95          19.96   90.81           1.30    1.37    1.73    1.33            0.06    0.05    0.02           0.28     0.31
D3          4.31    4.54    0.74          25.38   -0.85   29.84          29.86   91.64           1.29    1.37    1.98    1.32            0.06    0.06    0.03           0.36     0.43
D4          5.05    5.31    0.56          27.59   -0.87   36.98          36.99   91.35           1.23    1.31    2.09    1.25            0.07    0.07    0.00           0.37     0.40
D5         26.92   28.13   13.91          60.00   -0.81   20.55          20.57   92.25           0.51    0.56    0.76    0.54            0.24    0.28    0.22           0.40     0.45
D6         26.90   28.27    7.76          60.13   -1.45   40.31          40.33   92.07           0.50    0.57    1.00    0.53            0.21    0.24    0.13           0.42     0.45
D7         26.82   28.33    3.62          60.19   -2.01   60.82          60.86   91.90           0.50    0.58    1.31    0.53            0.19    0.20    0.06           0.35     0.40
D8         26.86   28.55    1.21          60.39   -2.70   82.68          82.73   91.87           0.51    0.60    1.80    0.52            0.21    0.18    0.01           0.33     0.38
D9         54.59   56.90   38.65          80.12   -0.70   10.41          10.44   93.86           0.23    0.25    0.33    0.24            0.27    0.31    0.30           0.29     0.32
D10        54.32   56.60   31.01          79.96   -0.66   21.12          21.13   91.78           0.22    0.26    0.42    0.24            0.16    0.19    0.30           0.33     0.38
D11        54.29   56.72   24.83          80.02   -1.01   31.54          31.55   91.84           0.21    0.26    0.51    0.23            0.21    0.23    0.20           0.18     0.24
D12        54.15   56.92   12.07          80.13   -1.84   60.36          60.39   91.75           0.20    0.28    0.81    0.23            0.18    0.17    0.13           0.27     0.33
D13        50.38   58.86   62.87          81.21  -16.33  -15.05          22.21  222.67           0.37    0.17    0.12    0.26            0.31    0.28    0.16           0.21     0.26
D14        60.37   53.39   59.04          78.11   22.12  -16.63          27.67  323.06           0.17    0.33    0.16    0.26            0.14    0.18    0.13           0.18     0.21
D15        66.79   70.02   34.73          87.01   -1.60   27.72          27.77   93.30           0.13    0.17    0.37    0.15            0.15    0.16    0.32           0.32     0.37
D16        35.30   36.74   30.10          67.08   -0.43    0.36           0.61  144.60           0.43    0.43    0.44    0.44            0.32    0.32    0.36           0.35     0.39
D17        53.02   47.93   31.26          74.78   18.34   11.81          21.81   32.78           0.19    0.39    0.42    0.29            0.18    0.22    0.31           0.31     0.35
D18        43.60   52.43   33.29          77.53  -19.38   13.49          23.62  145.16           0.39    0.23    0.39    0.29            0.20    0.18    0.19           0.22     0.25
D19        41.13   41.17   55.44          70.30    4.41  -26.38          26.75  279.49           0.42    0.37    0.18    0.40            0.20    0.22    0.15           0.25     0.28
D20        14.15   10.75    2.73          39.15   26.03   30.89          40.40   49.88           0.69    1.18    1.45    0.90            0.12    0.10    0.06           0.33     0.35
D21        21.83   21.20   11.68          53.17    6.58   15.04          16.42   66.35           0.58    0.71    0.84    0.66            0.13    0.13    0.20           0.38     0.46
D22        38.78   36.99   20.08          67.27   10.16   18.72          21.30   61.50           0.33    0.48    0.61    0.41            0.20    0.19    0.24           0.34     0.40
E1          4.01    4.53    2.30          25.35   -5.03   10.62          11.75  115.37           1.38    1.32    1.52    1.34            0.06    0.07    0.05           0.33     0.37
E2          3.65    4.51    1.42          25.28   -9.98   19.48          21.89  117.12           1.44    1.30    1.71    1.35            0.06    0.07    0.02           0.34     0.36
E3          3.33    4.52    0.76          25.31  -15.29   29.21          32.97  117.64           1.52    1.27    1.96    1.36            0.04    0.05    0.01           0.34     0.37
E4          3.54    5.03    0.62          26.81  -18.27   34.51          39.05  117.90           1.52    1.22    2.05    1.31            0.05    0.07    0.00           0.40     0.44
E5         13.06   14.86    7.78          45.44   -8.09   14.89          16.94  118.51           0.87    0.80    1.00    0.83            0.18    0.21    0.15           0.44     0.49
E6         11.75   14.58    4.66          45.05  -15.27   28.51          32.35  118.17           0.93    0.79    1.21    0.84            0.16    0.18    0.09           0.38     0.45
E7         10.80   14.76    2.55          45.30  -23.23   42.95          48.83  118.40           1.01    0.76    1.45    0.84            0.14    0.17    0.03           0.35     0.39
E8          9.78   14.98    1.07          45.60  -32.37   59.20          67.48  118.67           1.14    0.74    1.83    0.84            0.09    0.10    0.01           0.26     0.32
E9         38.10   40.88   28.12          70.09   -4.18    8.75           9.70  115.59           0.40    0.38    0.46    0.39            0.35    0.36    0.38           0.36     0.41
E10        36.81   41.03   23.82          70.20   -8.81   16.44          18.66  118.21           0.42    0.37    0.53    0.39            0.25    0.25    0.26           0.37     0.44
E11        35.37   40.87   19.65          70.09  -13.14   24.46          27.77  118.24           0.44    0.36    0.61    0.39            0.34    0.33    0.21           0.37     0.45
E12        32.82   41.04   12.83          70.20  -22.47   41.08          46.83  118.68           0.49    0.34    0.78    0.39            0.23    0.24    0.21           0.41     0.47
E13        43.31   52.69   60.81          77.69  -20.94  -19.11          28.34  222.39           0.47    0.20    0.14    0.31            0.22    0.22    0.13           0.16     0.19
E14        54.99   45.50   55.42          73.22   30.05  -21.31          36.84  324.66           0.20    0.42    0.19    0.32            0.12    0.15    0.09           0.19     0.23
E15        64.66   67.54   27.61          85.78   -1.04   36.64          36.65   91.63           0.13    0.19    0.46    0.16            0.15    0.17    0.33           0.39     0.45
E16        26.24   27.17   22.37          59.13    0.17    0.09           0.39  155.33           0.56    0.56    0.56    0.57            0.24    0.24    0.33           0.41     0.45
E17        46.83   39.84   23.77          69.35   25.10   15.07          29.28   30.98           0.22    0.50    0.54    0.36            0.19    0.20    0.24           0.28     0.32
E18        35.66   45.20   25.90          73.02  -24.83   17.58          30.42  144.71           0.49    0.28    0.49    0.36            0.24    0.25    0.35           0.41     0.49
E19        32.61   31.72   50.76          63.11    7.35  -33.69          34.48  282.31           0.54    0.48    0.23    0.52            0.16    0.19    0.15           0.26     0.31
E20        24.70   16.92    1.22          48.16   41.00   61.58          73.98   56.34           0.42    1.09    1.77    0.68            0.10    0.08    0.02           0.18     0.21
E21        17.38   14.36    2.65          44.74   20.63   41.18          46.06   63.39           0.61    1.00    1.45    0.79            0.08    0.07    0.05           0.32     0.37
E22        29.95   25.82    8.24          57.86   20.26   34.55          40.06   59.61           0.39    0.70    0.98    0.55            0.17    0.18    0.15           0.31     0.36
F1          1.54    1.93    1.30          15.13   -8.28    3.48           8.98  157.19           1.87    1.64    1.76    1.73            0.02    0.03    0.02           0.30     0.33
F2          1.23    1.95    1.10          15.25  -17.94    6.52          19.09  160.03           2.10    1.57    1.82    1.75            0.02    0.03    0.02           0.25     0.29
F3          0.96    1.95    0.91          15.24  -27.01    9.30          28.57  161.00           2.38    1.51    1.89    1.77            0.01    0.02    0.01           0.24     0.27
F4          1.02    2.24    0.93          16.69  -31.11   11.48          33.16  159.74           2.42    1.44    1.88    1.72            0.01    0.02    0.01           0.23     0.26
F5          7.02    8.69    5.95          35.38  -12.70    5.34          13.78  157.19           1.20    0.99    1.12    1.08            0.09    0.11    0.15           0.45     0.52
F6          5.68    8.60    4.96          35.20  -26.10    9.91          27.93  159.20           1.39    0.94    1.19    1.10            0.09    0.12    0.11           0.42     0.46
F7          4.70    8.78    4.22          35.55  -39.56   14.62          42.18  159.72           1.64    0.89    1.25    1.11            0.06    0.09    0.07           0.35     0.39
F8          3.38    8.66    3.29          35.32  -57.61   20.17          61.04  160.70           2.18    0.83    1.34    1.14            0.03    0.05    0.05           0.30     0.37
F9         37.71   40.98   32.03          70.16   -5.73    2.67           6.33  155.04           0.42    0.37    0.41    0.39            0.34    0.37    0.41           0.38     0.43
F10        36.25   41.30   31.08          70.38  -11.47    4.51          12.33  158.58           0.45    0.35    0.42    0.39            0.31    0.33    0.42           0.42     0.49
F11        34.46   41.13   29.65          70.27  -17.04    6.55          18.26  158.97           0.49    0.33    0.44    0.40            0.23    0.25    0.32           0.32     0.37
F12        31.12   41.28   27.35          70.37  -29.34   10.52          31.17  160.28           0.59    0.30    0.47    0.41            0.23    0.24    0.35           0.37     0.43
F13        36.66   46.59   58.35          73.93  -25.39  -23.13          34.35  222.33           0.60    0.23    0.15    0.37            0.21    0.21    0.11           0.19     0.24
F14        49.91   38.47   51.68          68.37   37.80  -25.65          45.68  325.84           0.23    0.53    0.22    0.38            0.14    0.17    0.14           0.22     0.25
F15        62.66   65.01   21.14          84.49   -0.05   46.23          46.23   90.07           0.14    0.22    0.58    0.17            0.17    0.18    0.25           0.32     0.37
F16        18.60   19.29   15.88          51.03    0.01    0.11           0.48  199.79           0.71    0.71    0.71    0.71            0.22    0.22    0.33           0.53     0.57
F17        41.09   32.76   17.15          63.96   31.59   19.41          37.08   31.56           0.25    0.63    0.68    0.44            0.17    0.17    0.28           0.44     0.51
