targets/wolf_faust/reflective/R061212WhiteBacking.it8
IT8.7/2
ORIGINATOR "Wolf Faust"
DESCRIPTOR "Kodak Professional Paper, L* a* b* (light D50, viewing angle 2)"
MANUFACTURER "Wolf Faust - http://www.coloraid.de"
CREATED "January 20, 2007"
PROD_DATE "2006:12"
SAMPLE_BACKING "white"
SERIAL "5x7 R061212 Batch Average Data"
MATERIAL "Kodak Professional Ultra Endura"
NUMBER_OF_FIELDS 9
BEGIN_DATA_FORMAT
SAMPLE_ID  XYZ_X   XYZ_Y   XYZ_Z          LAB_L   LAB_A   LAB_B          LAB_C   LAB_H
END_DATA_FORMAT
NUMBER_OF_SETS 288
BEGIN_DATA
A1          3.77    3.16    2.11          20.65   11.69    4.27          12.45   20.04
A2          4.63    3.12    1.72          20.51   24.31    7.91          25.57   18.02 
A3          5.50    3.05    1.43          20.25   36.24   10.71          37.79   16.46
A4          6.58    3.36    1.41          21.42   43.00   13.01          44.92   16.84 
A5         13.25   11.54    8.17          40.47   14.61    4.86          15.40   18.40
A6         15.52   11.47    7.06          40.36   29.03    9.05          30.41   17.32 
A7         18.19   11.63    6.23          40.62   42.71   13.08          44.67   17.03
A8         21.87   11.52    5.16          40.44   61.62   17.94          64.18   16.23 
A9         42.38   41.50   32.42          70.52    7.21    2.69           7.70   20.43
A10        44.40   41.27   30.95          70.37   13.85    4.67          14.62   18.64
A11        47.07   41.57   30.13          70.57   20.55    6.33          21.50   17.11
A12        49.05   41.38   28.95          70.44   26.56    7.99          27.73   16.74 
A13        75.76   79.32   68.65          91.38   -1.45   -2.96           3.30  243.90
A14        77.11   79.28   68.56          91.36    1.34   -2.91           3.20  294.77 
A15        76.49   79.63   62.90          91.52   -0.59    2.68           2.75  102.45
A16        76.95   79.79   65.53          91.59    0.03    0.30           0.30   84.26
A17        74.37   76.07   61.55          89.89    2.11    1.19           2.43   29.33
A18        74.45   78.22   63.34          90.88   -1.99    1.16           2.30  149.79 
A19        76.40   79.13   68.53          91.29    0.20   -3.00           3.00  273.86
A20         1.44    1.13    0.72          10.04   10.88    3.67          11.48   18.65 
A21         5.44    3.42    0.75          21.65   29.48   23.13          37.47   38.13
A22        10.64    6.05    0.83          29.54   43.57   35.37          56.12   39.07
B1          3.54    3.09    1.63          20.40    9.20    8.71          12.67   43.43
B2          4.24    3.15    1.00          20.65   18.44   17.29          25.28   43.15
B3          4.86    3.16    0.60          20.66   26.72   24.32          36.13   42.30
B4          5.78    3.34    0.33          21.34   34.76   30.63          46.33   41.39
B5         13.27   11.46    5.95          40.34   15.32   13.88          20.68   42.17
B6         15.25   11.46    4.04          40.34   27.56   23.94          36.51   40.98
B7         17.79   11.50    2.34          40.40   41.55   36.29          55.16   41.13
B8         21.39   11.55    1.00          40.50   59.15   51.46          78.40   41.03
B9         42.10   41.54   30.29          70.55    6.25    6.02           8.68   43.90
B10        44.21   41.50   27.10          70.53   12.60   11.20          16.86   41.64
B11        46.34   41.56   24.20          70.56   18.52   16.37          24.72   41.47
B12        48.31   41.63   21.65          70.61   23.79   21.31          31.93   41.85
B13        69.19   74.44   67.62          89.13   -5.50   -5.89           8.06  226.95
B14        72.75   71.98   66.27          87.96    7.10   -6.66           9.73  316.81
B15        74.19   77.53   54.40          90.57   -1.17    9.67           9.74   96.92
B16        61.53   63.85   51.99          83.89   -0.09    0.76           0.78   96.78
B17        69.17   68.98   52.77          86.50    5.80    4.41           7.29   37.20
B18        65.77   71.43   53.66          87.70   -6.82    5.51           8.77  141.04
B19        64.83   66.63   65.19          85.32    1.32  -10.20          10.29  277.36
B20         2.98    2.10    0.72          16.01   18.86   14.09          23.54   36.76
B21         8.74    5.11    0.81          27.04   39.11   31.43          50.17   38.78
B22        30.17   25.74   12.26          57.79   21.39   21.31          30.19   44.90
C1          4.77    4.59    2.27          25.54    4.53   11.25          12.13   68.05
C2          5.12    4.60    1.38          25.56    8.77   20.50          22.30   66.85
C3          5.50    4.64    0.72          25.69   12.76   30.72          33.26   67.45
C4          6.15    5.01    0.48          26.76   15.46   37.12          40.21   67.39
C5         24.72   23.56   11.11          55.64    8.86   21.00          22.80   67.13
C6         26.80   23.48    5.66          55.56   17.83   41.54          45.20   66.77
C7         28.99   23.50    2.43          55.58   26.41   61.67          67.08   66.82
C8         31.08   23.49    0.86          55.58   34.30   79.69          86.75   66.71
C9         49.02   49.27   33.52          75.62    4.16    9.84          10.68   67.07
C10        50.59   49.27   27.86          75.62    8.36   18.69          20.48   65.89
C11        52.36   49.62   22.46          75.84   12.07   28.73          31.16   67.22
C12        53.28   49.39   19.25          75.69   15.08   34.97          38.09   66.67
C13        60.33   67.55   65.96          85.78  -11.05  -10.13          14.99  222.52
C14        67.34   63.06   63.27          83.47   14.84  -11.55          18.81  322.12
C15        71.38   74.78   44.41          89.29   -1.52   18.86          18.92   94.62
C16        47.89   49.65   40.29          75.85    0.04    0.88           0.89   88.22
C17        61.62   58.64   41.51          81.09   12.17    8.34          14.76   34.41
C18        54.98   62.60   43.10          83.23  -13.10   10.02          16.49  142.59
C19        53.01   53.82   61.04          78.36    2.88  -18.19          18.42  278.98
C20         1.85    1.53    0.71          12.80    9.74    8.66          13.04   41.64
C21        23.93   17.96    4.86          49.45   32.10   35.04          47.52   47.50
C22        35.81   32.50   17.82          63.75   15.62   17.51          23.47   48.26
D1          4.43    4.57    2.30          25.48    0.24   10.90          10.90   88.78
D2          4.37    4.54    1.39          25.39   -0.12   20.15          20.16   90.34
D3          4.39    4.61    0.74          25.60   -0.78   30.15          30.16   91.48
D4          5.14    5.39    0.57          27.82   -0.75   37.28          37.29   91.15
D5         27.51   28.71   14.09          60.52   -0.66   20.98          20.99   91.81
D6         27.51   28.86    7.87          60.65   -1.25   40.80          40.82   91.76
D7         27.39   28.90    3.66          60.69   -1.86   61.42          61.44   91.73
D8         27.51   29.17    1.23          60.93   -2.46   83.41          83.45   91.69
D9         56.00   58.30   39.19          80.90   -0.54   11.04          11.05   92.78
D10        55.72   57.97   31.40          80.72   -0.43   21.83          21.84   91.12
D11        55.68   58.08   25.21          80.78   -0.81   32.18          32.19   91.44
D12        55.54   58.25   12.19          80.88   -1.55   61.31          61.33   91.45
D13        51.50   60.24   63.94          81.97  -16.60  -14.79          22.23  221.70
D14        61.92   54.65   59.96          78.84   22.58  -16.29          27.84  324.19
D15        68.66   71.86   35.25          87.90   -1.36   28.53          28.56   92.74
D16        36.11   37.55   30.45          67.69   -0.31    0.84           0.91  109.89
D17        54.49   49.15   31.82          75.55   18.79   12.27          22.44   33.14
D18        44.60   53.62   33.78          78.24  -19.54   13.99          24.03  144.40
D19        41.99   42.03   56.29          70.89    4.46  -26.24          26.62  279.64
D20        14.46   10.96    2.76          39.51   26.37   31.27          40.91   49.86
D21        22.30   21.63   11.83          53.63    6.77   15.38          16.81   66.23
D22        39.73   37.81   20.36          67.88   10.50   19.19          21.88   61.30
E1          4.08    4.61    2.33          25.59   -5.00   10.78          11.89  114.86
E2          3.73    4.58    1.44          25.52   -9.93   19.65          22.02  116.80
E3          3.40    4.60    0.77          25.56  -15.23   29.49          33.19  117.31
E4          3.61    5.12    0.63          27.07  -18.32   34.80          39.33  117.77
E5         13.30   15.12    7.87          45.80   -8.02   15.18          17.17  117.84
E6         11.97   14.83    4.71          45.40  -15.25   28.87          32.65  117.84
E7         11.01   15.03    2.58          45.68  -23.28   43.32          49.18  118.25
E8          9.95   15.24    1.09          45.96  -32.50   59.57          67.86  118.62
E9         39.07   41.88   28.49          70.78   -4.07    9.32          10.18  113.61
E10        37.75   42.04   24.19          70.90   -8.78   16.97          19.10  117.37
E11        36.17   41.75   19.91          70.70  -13.08   24.97          28.19  117.66
E12        33.58   41.96   13.01          70.84  -22.54   41.68          47.38  118.41
E13        44.27   53.93   61.87          78.42  -21.26  -18.90          28.45  221.63
E14        56.41   46.59   56.27          73.93   30.56  -20.99          37.08  325.52
E15        66.48   69.31   27.99          86.66   -0.77   37.52          37.53   91.18
E16        26.79   27.72   22.63          59.63    0.27    0.47           0.59   91.38
E17        48.04   40.76   24.02          70.01   25.66   15.75          30.11   31.55
E18        36.40   46.15   26.24          73.65  -25.05   18.05          30.88  144.24
E19        33.22   32.31   51.48          63.60    7.42  -33.66          34.47  282.44
E20        25.30   17.29    1.23          48.62   41.57   62.19          74.80   56.24
E21        17.75   14.64    2.68          45.13   20.94   41.61          46.58   63.29
E22        30.66   26.36    8.33          58.38   20.70   35.10          40.75   59.48
F1          1.57    1.97    1.32          15.32   -8.36    3.59           9.10  156.76
F2          1.25    2.00    1.11          15.46  -18.05    6.74          19.27  159.52
F3          0.98    1.98    0.92          15.40  -27.14    9.39          28.71  160.92
F4          1.04    2.28    0.94          16.87  -31.25   11.67          33.36  159.53
F5          7.15    8.84    6.00          35.68  -12.73    5.62          13.92  156.18
F6          5.78    8.74    5.02          35.48  -26.23   10.10          28.10  158.94
F7          4.77    8.91    4.28          35.81  -39.80   14.77          42.45  159.63
F8          3.43    8.79    3.33          35.58  -57.94   20.30          61.40  160.69
F9         38.49   41.81   32.41          70.74   -5.73    3.08           6.51  151.82
F10        37.04   42.19   31.50          71.00  -11.53    4.93          12.54  156.89
F11        35.21   42.04   30.04          70.90  -17.17    7.02          18.55  157.78
F12        31.75   42.16   27.71          70.98  -29.64   10.95          31.59  159.72
F13        37.40   47.61   59.33          74.58  -25.79  -23.00          34.56  221.73
F14        51.17   39.36   52.45          69.01   38.38  -25.39          46.02  326.52
F15        64.40   66.67   21.44          85.34    0.26   47.11          47.11   89.69
F16        18.96   19.65   16.04          51.43    0.06    0.42           0.58  156.16
F17        42.19   33.55   17.36          64.60   32.19   20.02          37.91   31.87
F18        28.80   38.87   19.63          68.66  -30.69   22.04          37.78  144.32
F19        25.54   24.02   46.47          56.11   10.30  -40.83          42.11  284.16
F20        26.56   25.38   11.98          57.45    8.75   21.51          23.22   67.87
F21        34.73   31.47   10.93          62.90   15.67   34.08          37.51   65.31
F22        39.10   36.47   16.00          66.88   12.85   27.14          30.03   64.65
G1          2.48    3.12    2.69          20.52   -9.79   -0.94           9.84  185.45
G2          1.99    3.08    2.93          20.38  -19.65   -3.01          19.88  188.71
G3          1.66    3.22    3.26          20.91  -30.06   -4.47          30.39  188.46
G4          1.70    3.51    3.55          21.96  -33.58   -4.62          33.89  187.84
G5          9.60   11.69   10.07          40.71  -12.72   -1.42          12.80  186.36
G6          8.14   11.62   10.77          40.61  -24.63   -3.85          24.93  188.89
G7          6.79   11.68   11.44          40.71  -37.92   -5.74          38.35  188.60
G8          5.30   11.68   12.51          40.70  -54.28   -8.87          55.00  189.28
G9         38.19   41.57   34.47          70.57   -5.97   -0.24           5.98  182.27
G10        36.14   41.73   35.23          70.69  -13.13   -1.13          13.18  184.92
G11        34.56   41.92   36.14          70.82  -19.06   -2.19          19.19  186.55
G12        31.58   42.31   37.59          71.08  -30.71   -3.74          30.94  186.94
G13        31.50   41.85   56.45          70.77  -29.62  -26.63          39.83  221.95
G14        46.08   32.94   48.34          64.11   45.61  -29.22          54.17  327.36
G15        62.51   64.07   15.85          84.00    1.70   57.03          57.05   88.30
G16        13.02   13.51   10.92          43.52   -0.05    0.71           0.77   99.98
G17        37.03   27.47   12.06          59.41   38.40   24.66          45.64   32.71
G18        22.46   32.41   14.17          63.68  -35.82   26.23          44.39  143.79
G19        19.29   17.31   41.44          48.65   13.78  -47.50          49.46  286.17
G20        36.60   35.16   14.60          65.87    9.13   28.89          30.30   72.47
G21        35.63   34.02    9.44          64.98    9.77   42.52          43.63   77.06
G22        50.70   46.35    1.90          73.77   16.60   97.84          99.24   80.37
H1          2.66    3.08    3.33          20.36   -5.67   -5.90           8.18  226.11
H2          2.36    3.12    4.46          20.52  -12.17  -12.64          17.55  226.08
H3          2.07    3.11    5.82          20.49  -18.35  -19.69          26.92  227.02
H4          2.20    3.51    7.29          21.97  -21.74  -23.61          32.09  227.36
H5         10.19   11.65   12.33          40.65   -7.75   -8.46          11.47  227.51
H6          9.11   11.55   15.70          40.49  -15.73  -17.63          23.63  228.25
H7          8.28   11.72   19.77          40.77  -24.13  -26.33          35.71  227.50
H8          7.09   11.80   26.50          40.89  -35.72  -38.86          52.78  227.41
H9         38.56   41.66   37.63          70.64   -5.07   -4.56           6.83  221.97
H10        37.68   41.88   41.14          70.79   -8.55   -8.94          12.37  226.29
H11        36.06   41.84   45.31          70.76  -13.74  -14.18          19.74  225.91
H12        33.11   42.11   56.68          70.95  -24.63  -26.55          36.22  227.16
H13        26.24   36.45   53.49          66.86  -33.17  -30.22          44.87  222.34
H14        41.41   27.22   44.48          59.18   53.18  -33.14          62.66  328.06
H15        61.03   61.77   11.44          82.79    3.47   66.81          66.90   87.02
H16         8.42    8.72    7.05          35.44    0.05    0.62           0.75  122.74
H17        32.31   22.18    7.96          54.21   44.65   29.35          53.43   33.32
H18        17.23   26.77    9.92          58.76  -40.64   30.20          50.63  143.39
H19        14.33   11.97   36.68          41.17   18.40  -54.06          57.11  288.79
H20        41.78   42.24   15.38          71.04    3.20   35.84          35.98   84.90
H21        31.66   32.72   20.57          63.94    0.41   11.95          11.96   88.05
H22        35.94   38.99   11.45          68.74   -5.42   42.56          42.90   97.26
I1          4.54    4.61    5.85          25.59    1.34  -11.06          11.15  276.89
I2          4.52    4.55    8.81          25.41    1.84  -23.47          23.54  274.48
I3          4.58    4.62   12.26          25.63    1.63  -34.15          34.19  272.73
I4          4.62    4.55   21.03          25.41    3.06  -55.41          55.49  273.16
I5         14.36   14.80   15.27          45.36    0.56   -8.19           8.21  273.90
I6         14.58   14.86   19.73          45.44    1.54  -18.21          18.28  274.83
I7         14.72   14.96   24.65          45.58    1.78  -27.53          27.59  273.70
I8         15.03   15.06   39.55          45.72    3.05  -50.11          50.20  273.48
I9         40.37   41.67   37.42          70.64    0.59   -4.27           4.32  277.95
I10        40.42   41.71   41.06          70.67    0.62   -9.06           9.08  273.90
I11        40.36   41.51   45.18          70.53    1.07  -14.43          14.47  274.23
I12        40.64   41.56   56.11          70.56    1.76  -26.62          26.68  273.78
I13        21.92   31.76   50.62          63.14  -36.00  -33.48          49.16  222.92
I14        36.91   22.12   40.45          54.15   60.66  -36.73          70.92  328.81
I15        59.43   59.21    7.79          81.41    5.66   76.88          77.08   85.79
I16         5.09    5.23    4.14          27.39    0.50    1.03           1.19   64.58
I17        28.07   17.72    4.75          49.15   50.57   35.12          61.57   34.78
I18        12.94   21.79    6.55          53.80  -44.87   34.40          56.54  142.53
I19        10.43    7.85   31.93          33.66   24.13  -60.11          64.77  291.87
I20        42.43   46.38   16.12          73.79   -6.74   38.78          39.36   99.86
I21        11.33   15.12    3.49          45.80  -21.49   36.87          42.68  120.23
I22        28.98   37.35   17.38          67.54  -25.16   25.04          35.50  135.14
J1          2.25    2.00    3.04          15.46    7.29  -12.32          14.32  300.64
J2          2.55    1.96    5.09          15.26   14.24  -25.12          28.88  299.56
J3          2.99    2.01    8.17          15.53   21.23  -38.14          43.65  299.11
J4          3.98    1.98   19.23          15.36   37.61  -69.01          78.59  298.59
J5         12.00   11.62   12.38          40.61    5.60   -8.67          10.32  302.88
J6         12.73   11.59   15.85          40.55   10.86  -17.88          20.92  301.28
J7         13.49   11.56   20.43          40.52   15.99  -28.15          32.38  299.60
J8         15.77   11.47   35.95          40.37   30.47  -54.43          62.38  299.24
J9         40.92   41.45   37.33          70.49    2.96   -4.42           5.32  303.83
J10        41.94   41.61   40.88          70.60    5.55   -8.95          10.53  301.82
J11        43.06   41.73   45.07          70.68    8.54  -14.03          16.42  301.32
J12        44.82   41.33   55.50          70.40   14.88  -26.25          30.18  299.55
J13        17.78   26.94   47.38          58.92  -38.36  -37.05          53.33  224.01
J14        32.84   17.89   36.52          49.36   67.48  -39.72          78.30  329.52
J15        57.76   56.49    5.06          79.89    8.18   86.45          86.84   84.60
J16         2.74    2.82    2.21          19.33    0.32    1.11           1.21   73.65
J17        24.39   14.13    2.60          44.41   55.82   40.96          69.23   36.27
J18         9.24   17.12    4.08          48.40  -48.77   37.62          61.59  142.36
J19         7.42    4.83   27.32          26.25   30.59  -65.52          72.31  295.03
J20        30.60   39.51   22.36          69.12  -25.84   17.33          31.11  146.14
J21         4.49    8.35    1.45          34.70  -38.65   35.44          52.44  137.48
J22         1.42    2.26    0.95          16.78  -18.67   11.39          21.87  148.61
K1          5.45    4.58    5.24          25.49   13.08   -8.25          15.47  327.76
K2          6.76    4.58    7.46          25.50   27.28  -18.18          32.79  326.33
K3          8.17    4.62    9.90          25.63   40.11  -26.87          48.28  326.19
K4         10.28    4.57   14.21          25.48   58.31  -39.77          70.57  325.71
K5         16.33   14.88   14.74          45.46   11.70   -6.67          13.48  330.34
K6         18.49   14.87   18.47          45.46   23.42  -15.47          28.07  326.56
K7         20.68   14.85   22.20          45.43   34.52  -23.19          41.59  326.10
K8         27.40   14.82   34.81          45.38   64.14  -44.17          77.88  325.45
K9         42.32   41.52   37.16          70.54    6.94   -4.08           8.06  329.56
K10        44.50   41.50   40.52          70.52   13.46   -8.60          15.98  327.41
K11        46.97   41.78   44.25          70.72   19.62  -12.97          23.52  326.53
K12        52.65   41.62   53.80          70.61   35.38  -24.10          42.80  325.74
K13        14.33   22.55   43.63          54.61  -39.48  -39.98          56.19  225.36
K14        28.37   13.87   31.78          44.04   73.74  -41.99          84.86  330.34
K15        56.11   53.70    3.14          78.29   11.02   95.27          95.91   83.40
K16         1.28    1.28    1.02          11.16    1.14    0.61           1.31   28.83
K17        20.86   11.04    1.21          39.65   60.29   47.00          76.44   37.94
K18         6.35   13.02    2.39          42.79  -51.45   39.94          65.13  142.18
K19         5.25    2.74   22.55          18.98   38.74  -69.46          79.53  299.15
K20         2.55    3.30    1.93          21.20  -11.48    6.96          13.43  148.79
K21         1.42    1.90    1.54          14.93  -10.71    0.30          10.72  178.40
K22         1.75    2.27    2.98          16.84  -10.29   -9.46          13.98  222.58
L1          3.80    3.09    2.74          20.39   13.25   -1.54          13.35  353.36
L2          4.72    3.11    3.02          20.47   25.73   -3.51          25.97  352.24
L3          5.86    3.20    3.47          20.81   37.87   -6.05          38.35  350.93
L4          6.96    3.47    3.91          21.84   45.11   -7.12          45.67  351.03
L5         13.49   11.52   10.14          40.44   16.28   -2.11          16.42  352.61
L6         15.97   11.43   11.01          40.29   31.95   -5.13          32.36  350.87
L7         18.97   11.46   11.84          40.34   47.94   -7.56          48.53  351.04
L8         23.03   11.53   13.20          40.47   66.84  -11.22          67.78  350.47
L9         42.69   41.50   34.63          70.52    8.13   -0.56           8.15  356.03
L10        45.07   41.59   35.75          70.59   14.80   -2.04          14.94  352.15
L11        47.75   41.72   36.69          70.68   21.98   -3.20          22.22  351.71
L12        50.15   41.26   37.34          70.36   29.87   -4.65          30.23  351.15
L13         8.75   14.29   33.36          44.65  -36.78  -43.31          56.82  229.66
L14        22.99    9.93   25.49          37.72   78.50  -42.57          89.30  331.53
L15        50.65   45.94    1.39          73.51   17.61  103.12         104.61   80.31
L16         0.30    0.31    0.25           2.81    0.04    0.10           0.15   67.14
L17        16.23    7.77    0.30          33.51   62.66   52.08          81.48   39.73
L18         2.59    6.43    0.85          30.47  -50.48   36.55          62.33  144.09
L19         2.98    1.12   14.89           9.93   45.17  -68.30          81.89  303.48
L20         0.77    0.82    0.81           7.41   -0.96   -2.46           2.66  248.70
L21         0.99    0.93    0.98           8.42    3.56   -3.52           5.01  315.29
L22         2.08    1.64    1.36          13.46   12.26   -0.05          12.27  119.78
GS0        78.08   80.99   68.96          92.13   -0.02   -1.96           1.96  269.40
GS1        69.43   71.75   58.73          87.85    0.53    0.48           0.72   42.28
