targets/wolf_faust/reflective/R070807.it8
IT8.7/2
ORIGINATOR "Wolf Faust"
DESCRIPTOR "L* a* b* Batch average data (light D50, viewing angle 2)"
MANUFACTURER "Wolf Faust - http://www.coloraid.de"
CREATED "July 10, 2008"
PROD_DATE "2007:08"
SAMPLE_BACKING "white"
SERIAL "R070807"
MATERIAL "Kodak Professional Ultra Endura - Lustreless"
NUMBER_OF_FIELDS 13
BEGIN_DATA_FORMAT
SAMPLE_ID  XYZ_X   XYZ_Y   XYZ_Z          LAB_L   LAB_A   LAB_B          LAB_C   LAB_H          D_RED  D_GREEN  D_BLUE  D_VIS
END_DATA_FORMAT
NUMBER_OF_SETS 288
BEGIN_DATA
A1          3.59    3.02    2.01          20.10   11.41    4.31          12.20   20.70           1.35    1.63    1.59    1.48
A2          4.48    3.03    1.66          20.17   23.76    7.96          25.06   18.52           1.20    1.80    1.68    1.44 
A3          6.64    3.84    1.83          23.12   36.29   11.26          38.00   17.24           1.00    1.90    1.65    1.31
A4          5.10    2.99    1.48          19.98   32.61    9.69          34.02   16.55           1.12    1.99    1.74    1.42 
A5         12.92   11.34    7.97          40.15   13.84    5.04          14.74   20.02           0.79    1.03    1.01    0.92
A6         15.29   11.28    6.92          40.05   29.02    9.13          30.42   17.47           0.67    1.15    1.07    0.89 
A7         17.79   11.37    5.97          40.20   42.39   13.57          44.51   17.76           0.58    1.28    1.14    0.86
A8         21.56   11.40    4.93          40.24   61.05   18.80          63.89   17.11           0.49    1.57    1.23    0.82 
A9         42.29   41.69   32.43          70.66    6.37    2.92           7.02   24.57           0.33    0.40    0.41    0.37
A10        44.24   41.32   30.97          70.40   13.24    4.71          14.05   19.57           0.28    0.43    0.43    0.37
A11        47.17   41.80   29.86          70.73   20.13    7.02          21.32   19.23           0.24    0.45    0.44    0.35
A12        49.70   41.88   29.10          70.79   26.81    8.35          28.08   17.29           0.20    0.48    0.45    0.34 
A13        74.61   78.85   68.92          91.17   -2.90   -3.58           4.60  230.99           0.12    0.09    0.08    0.11
A14        76.51   78.71   68.70          91.10    1.23   -3.48           3.69  289.46           0.10    0.10    0.08    0.10 
A15        76.94   80.42   65.00          91.87   -1.20    1.28           1.75  133.20           0.09    0.09    0.11    0.10
A16        76.38   79.34   64.84          91.39   -0.25    0.60           0.65  111.78           0.10    0.10    0.11    0.10
A17        74.99   76.94   63.98          90.30    1.63   -0.46           1.70  344.18           0.10    0.11    0.11    0.11
A18        74.04   78.34   65.24          90.93   -3.05   -0.56           3.11  190.47           0.12    0.09    0.11    0.11 
A19        75.98   79.18   68.87          91.32   -0.73   -3.28           3.36  257.36           0.11    0.09    0.08    0.10
A20         1.49    1.11    0.68           9.89   12.84    4.30          13.54   18.51           1.72    2.14    2.06    1.89 
A21         5.36    3.42    0.80          21.66   28.53   22.29          36.20   37.99           1.09    1.84    1.98    1.37
A22        10.45    5.98    0.83          29.36   42.90   34.98          55.35   39.19           0.78    1.78    1.96    1.11
B1          3.40    2.99    1.61          20.01    8.81    8.29          12.10   43.26           1.37    1.61    1.68    1.49
B2          4.00    2.98    0.99          19.98   18.04   16.24          24.27   41.99           1.25    1.74    1.88    1.46
B3          5.63    3.79    0.91          22.96   26.04   22.70          34.55   41.07           1.08    1.74    1.92    1.33
B4          4.42    2.91    0.65          19.67   25.22   21.63          33.23   40.61           1.18    1.88    2.06    1.44
B5         12.84   11.14    5.75          39.81   14.77   13.95          20.32   43.36           0.78    1.05    1.14    0.92
B6         14.97   11.23    3.75          39.95   27.54   25.09          37.25   42.33           0.67    1.16    1.32    0.89
B7         17.54   11.35    2.27          40.16   41.22   36.43          55.01   41.47           0.57    1.31    1.53    0.85
B8         20.96   11.41    1.04          40.26   58.11   50.48          76.98   40.98           0.48    1.58    1.86    0.82
B9         41.68   41.13   29.94          70.27    6.22    6.10           8.71   44.43           0.33    0.41    0.44    0.38
B10        43.55   41.00   26.45          70.17   12.20   11.70          16.90   43.79           0.28    0.44    0.49    0.37
B11        46.07   41.41   23.79          70.46   18.22   16.95          24.89   42.93           0.24    0.46    0.54    0.35
B12        48.53   41.52   20.77          70.54   24.70   22.94          33.71   42.88           0.20    0.49    0.59    0.34
B13        69.55   75.01   68.07          89.40   -5.88   -5.85           8.29  224.87           0.16    0.10    0.09    0.13
B14        73.09   72.78   66.93          88.34    6.14   -6.62           9.03  312.86           0.11    0.15    0.10    0.14
B15        74.83   78.55   55.37          91.03   -1.85    9.44           9.62  101.11           0.10    0.10    0.17    0.10
B16        62.08   64.50   52.43          84.23   -0.26    0.87           0.91  106.68           0.19    0.19    0.20    0.19
B17        69.77   69.79   53.12          86.90    5.36    4.72           7.15   41.39           0.11    0.17    0.19    0.15
B18        66.25   72.23   54.07          88.08   -7.41    5.74           9.38  142.22           0.17    0.12    0.18    0.15
B19        64.91   66.97   65.63          85.49    0.74  -10.32          10.35  274.11           0.18    0.16    0.11    0.18
B20         2.87    2.06    0.76          15.80   17.82   12.94          22.02   35.98           1.40    1.93    2.00    1.61
B21         8.59    5.04    0.81          26.85   38.60   31.01          49.51   38.78           0.87    1.80    1.97    1.18
B22        29.44   25.12   11.84          57.19   21.22   21.49          30.20   45.36           0.41    0.71    0.83    0.56
C1          4.45    4.32    2.19          24.69    3.95   10.48          11.20   69.33           1.28    1.40    1.55    1.34
C2          4.90    4.45    1.41          25.10    8.00   19.40          20.98   67.60           1.20    1.44    1.73    1.32
C3          5.82    4.85    0.84          26.31   13.74   29.63          32.66   65.12           1.10    1.46    1.94    1.26
C4          4.98    4.21    0.80          24.34   12.25   26.85          29.51   65.47           1.17    1.51    1.96    1.32
C5         23.71   22.69   10.56          54.75    8.31   21.19          22.76   68.57           0.54    0.70    0.88    0.62
C6         26.43   23.29    5.55          55.37   17.15   41.75          45.13   67.67           0.45    0.75    1.14    0.59
C7         28.69   23.30    2.38          55.37   26.17   61.70          67.02   67.02           0.39    0.81    1.49    0.57
C8         28.98   22.32    1.33          54.36   31.63   70.80          77.54   65.93           0.37    0.88    1.74    0.58
C9         48.65   49.01   32.86          75.46    3.84   10.54          11.22   69.95           0.26    0.33    0.40    0.30
C10        50.09   49.01   27.30          75.46    7.71   19.37          20.85   68.28           0.23    0.35    0.47    0.29
C11        52.10   49.30   22.17          75.64   12.26   28.95          31.44   67.05           0.19    0.37    0.56    0.28
C12        53.55   49.22   17.22          75.59   16.21   39.29          42.51   67.58           0.16    0.39    0.67    0.28
C13        61.02   68.33   66.46          86.17  -11.12   -9.93          14.90  221.75           0.25    0.12    0.10    0.18
C14        68.29   64.70   64.35          84.33   13.23  -11.11          17.28  319.98           0.13    0.22    0.12    0.18
C15        72.83   76.58   46.31          90.13   -2.10   18.01          18.13   96.66           0.10    0.12    0.25    0.11
C16        48.78   50.63   41.13          76.45   -0.11    0.83           0.85   96.46           0.29    0.29    0.30    0.30
C17        62.87   60.07   42.41          81.88   11.69    8.56          14.49   36.22           0.14    0.26    0.29    0.21
C18        55.68   63.60   43.74          83.75  -13.62   10.14          16.98  143.34           0.26    0.16    0.27    0.21
C19        53.02   54.13   61.48          78.54    2.13  -18.31          18.44  276.64           0.29    0.25    0.14    0.27
C20         1.76    1.42    0.61          12.10   10.55    9.40          14.13   41.70           1.65    1.99    2.10    1.79
C21        23.36   17.56    4.65          48.95   31.73   35.31          47.47   48.06           0.47    0.97    1.22    0.69
C22        35.59   32.44   17.60          63.70   15.14   17.92          23.46   49.81           0.35    0.56    0.66    0.46
D1          4.22    4.42    2.19          25.00   -0.58   11.05          11.07   92.98           1.33    1.36    1.54    1.34
D2          4.22    4.45    1.43          25.11   -0.97   19.14          19.16   92.90           1.31    1.36    1.71    1.34
D3          4.99    5.21    0.93          27.31   -0.39   29.84          29.85   90.75           1.23    1.31    1.89    1.26
D4          3.92    4.11    0.86          24.02   -0.54   25.26          25.26   91.22           1.34    1.41    1.92    1.37
D5         26.71   28.02   13.58          59.90   -1.24   21.26          21.29   93.33           0.52    0.56    0.77    0.54
D6         26.80   28.26    7.57          60.12   -1.80   41.06          41.10   92.51           0.50    0.57    1.01    0.53
D7         26.82   28.44    3.62          60.29   -2.44   60.97          61.02   92.29           0.50    0.58    1.31    0.53
D8         26.68   28.46    1.75          60.30   -3.06   76.24          76.30   92.30           0.51    0.59    1.63    0.52
D9         55.31   57.55   38.55          80.49   -0.45   11.17          11.18   92.33           0.22    0.24    0.33    0.24
D10        54.80   57.28   30.80          80.34   -1.08   22.11          22.14   92.81           0.21    0.25    0.42    0.23
D11        55.32   57.80   25.01          80.63   -1.03   32.26          32.28   91.83           0.20    0.26    0.51    0.23
D12        55.16   57.93   11.36          80.70   -1.75   63.47          63.49   91.58           0.19    0.28    0.84    0.22
D13        52.45   61.22   64.45          82.49  -16.38  -14.36          21.78  221.25           0.35    0.15    0.11    0.24
D14        63.44   57.02   61.47          80.19   20.27  -15.45          25.49  322.68           0.15    0.29    0.14    0.23
D15        70.64   74.16   36.94          89.00   -1.84   28.05          28.11   93.76           0.10    0.14    0.34    0.12
D16        37.20   38.71   31.14          68.54   -0.41    1.23           1.30  108.04           0.41    0.41    0.42    0.41
D17        56.40   51.35   32.85          76.89   17.76   13.04          22.03   36.29           0.16    0.35    0.40    0.26
D18        45.71   54.90   34.38          78.99  -19.56   14.40          24.29  143.64           0.36    0.21    0.37    0.27
D19        42.84   43.22   57.05          71.70    3.51  -25.64          25.88  277.79           0.40    0.35    0.17    0.38
D20        14.17   10.73    2.62          39.12   26.27   31.71          41.18   50.36           0.69    1.18    1.47    0.90
D21        22.13   21.45   11.56          53.43    6.85   15.84          17.26   66.60           0.58    0.71    0.84    0.65
D22        39.43   37.56   20.21          67.69   10.38   19.17          21.80   61.55           0.32    0.48    0.60    0.40
E1          3.87    4.41    2.24          24.97   -5.35   10.54          11.82  116.89           1.40    1.33    1.53    1.36
E2          3.56    4.43    1.47          25.04  -10.47   18.49          21.25  119.50           1.46    1.30    1.70    1.36
E3          3.89    5.21    1.01          27.33  -15.36   28.68          32.53  118.17           1.45    1.22    1.85    1.29
E4          3.15    4.18    0.93          24.26  -13.67   24.59          28.13  119.07           1.54    1.31    1.88    1.39
E5         12.66   14.46    7.52          44.88   -8.28   14.99          17.12  118.94           0.88    0.81    1.02    0.84
E6         11.71   14.63    4.63          45.12  -15.84   28.81          32.88  118.80           0.94    0.79    1.21    0.84
E7         10.77   14.81    2.61          45.37  -23.73   42.60          48.76  119.12           1.02    0.76    1.45    0.84
E8          9.68   14.67    1.54          45.18  -31.30   52.38          61.02  120.86           1.13    0.74    1.67    0.85
E9         38.14   41.08   27.87          70.23   -4.68    9.40          10.50  116.50           0.40    0.37    0.47    0.39
E10        37.04   41.31   23.68          70.39   -8.93   17.03          19.24  117.67           0.41    0.36    0.53    0.39
E11        35.83   41.50   19.91          70.52  -13.49   24.67          28.12  118.67           0.43    0.35    0.60    0.39
E12        32.99   41.39   12.77          70.45  -22.94   41.68          47.57  118.83           0.49    0.34    0.79    0.39
E13        44.77   54.46   62.05          78.73  -21.15  -18.54          28.12  221.24           0.46    0.18    0.13    0.30
E14        58.54   49.65   58.23          75.85   27.46  -19.69          33.79  324.35           0.17    0.38    0.17    0.29
E15        68.70   71.76   29.27          87.86   -1.09   37.49          37.51   91.66           0.10    0.16    0.44    0.13
E16        27.62   28.86   23.10          60.65   -0.83    1.35           1.59  122.40           0.54    0.53    0.55    0.54
E17        50.16   43.22   24.86          71.71   24.09   17.14          29.57   35.44           0.19    0.46    0.52    0.33
E18        37.19   47.08   26.77          74.24  -25.00   18.16          30.90  144.00           0.47    0.26    0.48    0.34
E19        34.17   33.84   52.29          64.83    5.39  -32.41          32.86  279.44           0.52    0.45    0.21    0.49
E20        24.61   16.45    1.08          47.56   43.20   62.52          76.00   55.36           0.42    1.13    1.83    0.69
E21        17.40   14.38    2.64          44.77   20.59   41.28          46.13   63.49           0.61    1.00    1.45    0.79
E22        30.14   26.04    8.06          58.07   20.04   35.61          40.86   60.64           0.39    0.70    0.99    0.54
F1          1.51    1.90    1.29          14.93   -8.33    3.27           8.95  158.58           1.89    1.64    1.77    1.74
F2          1.24    1.96    1.08          15.29  -17.63    6.79          18.90  158.94           2.09    1.57    1.83    1.75
F3          1.48    2.71    1.29          18.83  -25.77   10.10          27.68  158.59           2.11    1.40    1.75    1.62
F4          0.97    1.90    0.90          14.93  -25.38    8.93          26.90  160.61           2.34    1.53    1.90    1.78
F5          6.51    8.21    5.64          34.41  -13.70    5.14          14.63  159.44           1.24    1.01    1.14    1.11
F6          5.54    8.47    4.81          34.94  -26.62   10.31          28.55  158.84           1.41    0.95    1.20    1.11
F7          4.49    8.48    4.06          34.95  -39.70   14.60          42.30  159.81           1.67    0.90    1.27    1.13
F8          3.83    9.22    3.31          36.40  -55.18   21.91          59.37  158.34           2.03    0.82    1.34    1.11
F9         37.94   41.29   32.31          70.37   -5.93    2.62           6.49  156.24           0.41    0.36    0.40    0.39
F10        36.30   41.45   30.83          70.49  -11.77    5.07          12.83  156.76           0.45    0.34    0.42    0.39
F11        34.61   41.43   29.79          70.48  -17.40    6.70          18.65  158.96           0.49    0.33    0.44    0.40
F12        30.53   41.03   26.42          70.19  -30.74   11.80          32.93  159.00           0.60    0.30    0.48    0.41
F13        38.09   48.28   59.50          75.00  -25.38  -22.45          33.88  221.49           0.57    0.22    0.15    0.36
F14        53.11   41.99   54.31          70.86   35.45  -24.20          42.93  325.68           0.20    0.48    0.20    0.35
F15        66.90   69.36   22.97          86.68    0.04   46.46          46.46   89.95           0.11    0.19    0.54    0.14
F16        19.83   20.64   16.72          52.55   -0.34    0.74           0.86  121.95           0.68    0.68    0.69    0.69
F17        44.03   35.56   18.40          66.18   30.81   20.42          36.96   33.53           0.23    0.59    0.65    0.40
F18        29.65   39.71   20.34          69.26  -30.02   21.61          36.99  144.25           0.59    0.32    0.59    0.42
F19        26.53   25.42   47.11          57.48    8.48  -39.23          40.14  282.19           0.66    0.57    0.26    0.62
F20        26.28   25.25   11.46          57.32    8.15   22.84          24.25   70.37           0.49    0.65    0.84    0.57
F21        33.94   30.76   10.38          62.30   15.51   34.82          38.12   65.99           0.36    0.60    0.88    0.48
F22        38.97   36.44   15.65          66.85   12.57   27.95          30.64   65.79           0.31    0.50    0.71    0.41
G1          2.33    2.94    2.53          19.81   -9.79   -0.85           9.83  184.92           1.72    1.45    1.49    1.56
G2          1.97    3.04    2.82          20.21  -19.39   -2.50          19.56  187.34           1.95    1.37    1.44    1.57
G3          1.76    3.47    3.49          21.85  -31.55   -4.41          31.86  187.96           2.29    1.25    1.34    1.55
G4          1.53    2.94    2.98          19.81  -28.62   -4.35          28.95  188.63           2.30    1.33    1.41    1.61
G5          9.01   11.10    9.49          39.74  -13.35   -1.15          13.41  184.93           1.11    0.88    0.93    0.98
G6          7.75   11.16   10.19          39.84  -24.95   -3.30          25.17  187.53           1.29    0.83    0.89    1.00
G7          6.49   11.23   11.00          39.96  -37.81   -5.68          38.23  188.55           1.57    0.78    0.86    1.02
G8          5.56   11.97   12.08          41.17  -53.27   -6.85          53.71  187.33           2.00    0.70    0.81    1.02
G9         37.68   41.14   33.96          70.28   -6.32   -0.02           6.33  180.19           0.42    0.36    0.38    0.39
G10        35.54   41.20   34.88          70.32  -13.55   -1.26          13.61  185.34           0.48    0.34    0.37    0.40
G11        34.02   41.42   36.13          70.47  -19.42   -2.77          19.61  188.13           0.53    0.31    0.36    0.41
G12        30.45   41.32   37.49          70.40  -31.93   -4.78          32.29  188.51           0.65    0.28    0.34    0.42
G13        31.95   42.30   56.58          71.08  -29.33  -26.22          39.35  221.80           0.70    0.26    0.17    0.43
G14        48.31   35.63   50.56          66.23   42.66  -28.08          51.08  326.65           0.24    0.59    0.23    0.41
G15        64.83   66.44   16.94          85.22    1.73   56.54          56.57   88.25           0.11    0.22    0.67    0.16
G16        13.80   14.42   11.52          44.82   -0.61    1.13           1.30  119.20           0.84    0.83    0.85    0.84
G17        38.70   29.29   12.87          61.03   36.78   25.18          44.57   34.40           0.27    0.72    0.80    0.47
G18        23.03   32.88   14.69          64.06  -34.87   25.53          43.22  143.79           0.73    0.39    0.73    0.51
G19        19.96   18.38   41.80          49.95   11.52  -45.72          47.15  284.14           0.82    0.71    0.32    0.77
G20        36.30   35.01   14.44          65.76    8.64   29.12          30.37   73.48           0.35    0.51    0.74    0.43
G21        35.03   33.61    9.29          64.65    9.14   42.48          43.46   77.86           0.35    0.54    0.92    0.44
G22        48.12   44.65    2.78          72.66   14.43   88.30          89.47   80.72           0.20    0.47    1.43    0.31
H1          2.53    2.96    3.17          19.87   -6.10   -5.60           8.29  222.54           1.68    1.46    1.40    1.55
H2          2.24    2.94    4.29          19.80  -11.64  -12.94          17.41  228.02           1.89    1.41    1.27    1.59
H3          2.32    3.42    6.01          21.64  -17.98  -18.62          25.89  226.01           2.09    1.30    1.13    1.55
H4          1.90    2.94    5.78          19.80  -19.20  -20.69          28.23  227.13           2.32    1.34    1.15    1.63
H5          9.54   11.05   11.61          39.66   -8.70   -8.04          11.85  222.74           1.08    0.90    0.85    0.98
H6          8.65   11.08   14.91          39.71  -16.31  -17.01          23.57  226.19           1.25    0.85    0.74    1.00
H7          7.91   11.24   19.05          39.99  -24.11  -26.15          35.57  227.32           1.50    0.80    0.64    1.02
H8          6.80   11.07   25.09          39.71  -33.54  -38.44          51.01  228.89           2.16    0.74    0.52    1.08
H9         38.06   41.18   37.15          70.30   -5.20   -4.49           6.88  220.73           0.43    0.36    0.35    0.39
H10        37.01   41.31   41.05          70.39   -9.03   -9.51          13.11  226.49           0.47    0.34    0.31    0.40
H11        35.57   41.31   44.98          70.39  -13.79  -14.41          19.95  226.27           0.52    0.32    0.27    0.41
H12        32.25   41.08   56.09          70.23  -24.62  -27.18          36.67  227.83           0.68    0.28    0.17    0.43
H13        26.68   36.88   53.46          67.18  -32.72  -29.64          44.15  222.17           0.85    0.30    0.19    0.50
H14        43.32   29.47   46.36          61.20   50.20  -31.93          59.50  327.54           0.28    0.72    0.28    0.48
H15        62.79   63.42   12.05          83.67    3.79   66.52          66.63   86.74           0.12    0.25    0.81    0.17
H16         9.10    9.50    7.44          36.93   -0.51    1.60           1.69  107.39           1.02    1.02    1.03    1.02
H17        33.62   23.62    8.34          55.70   42.86   30.46          52.58   35.40           0.31    0.88    0.98    0.55
H18        17.68   27.00   10.25          58.97  -39.07   29.47          48.94  142.98           0.88    0.46    0.88    0.60
H19        15.02   13.05   36.96          42.84   15.40  -51.58          53.83  286.62           0.99    0.86    0.37    0.92
H20        41.21   41.70   14.73          70.66    3.10   36.80          36.93   85.18           0.31    0.42    0.73    0.36
H21        31.02   32.24   19.73          63.54   -0.23   13.00          13.00   91.02           0.46    0.50    0.61    0.49
H22        35.31   38.40   10.88          68.31   -5.70   43.58          43.96   97.45           0.40    0.43    0.86    0.40
I1          4.25    4.36    5.53          24.82    0.59  -10.85          10.87  273.12           1.41    1.34    1.17    1.37
I2          4.32    4.41    8.37          24.99    0.91  -22.59          22.61  272.31           1.49    1.30    1.00    1.39
I3          4.35    4.37   11.64          24.85    1.88  -33.68          33.74  273.19           1.63    1.28    0.86    1.42
I4          4.52    4.40   20.16          24.96    3.68  -54.40          54.53  273.87           2.29    1.21    0.63    1.49
I5         13.78   14.34   14.81          44.71   -0.29   -8.13           8.14  267.84           0.87    0.83    0.74    0.85
I6         14.17   14.53   19.50          44.98    0.97  -18.50          18.53  272.99           0.89    0.81    0.63    0.85
I7         14.17   14.48   23.97          44.91    1.31  -27.44          27.48  272.73           0.93    0.80    0.55    0.87
I8         14.61   14.69   38.40          45.20    2.75  -49.46          49.54  273.19           1.09    0.76    0.35    0.89
