targets/wolf_faust/reflective/R070212WhiteBacking.it8
IT8.7/2
ORIGINATOR "Wolf Faust"
DESCRIPTOR "Kodak Professional Paper, L* a* b* (light D50, viewing angle 2)"
MANUFACTURER "Wolf Faust - http://www.coloraid.de"
CREATED "March 09, 2007"
PROD_DATE "2007:02"
SAMPLE_BACKING "white"
SERIAL "5x7 R070212 Batch Average Data"
MATERIAL "Kodak Professional Ultra Endura"
NUMBER_OF_FIELDS 9
BEGIN_DATA_FORMAT
SAMPLE_ID  XYZ_X   XYZ_Y   XYZ_Z          LAB_L   LAB_A   LAB_B          LAB_C   LAB_H
END_DATA_FORMAT
NUMBER_OF_SETS 288
BEGIN_DATA
A1          3.48    2.91    2.02          19.70   11.30    3.48          11.82   17.14
A2          4.39    2.97    1.65          19.94   23.63    7.69          24.85   18.03 
A3          5.22    2.94    1.42          19.78   34.88   10.06          36.30   16.09
A4          6.22    3.21    1.38          20.87   41.64   12.45          43.46   16.65 
A5         12.71   11.15    7.95          39.83   13.81    4.57          14.56   18.31
A6         15.10   11.19    7.00          39.90   28.58    8.48          29.82   16.52 
A7         17.48   11.20    6.08          39.92   41.95   12.58          43.79   16.69
A8         21.57   11.35    4.98          40.16   61.44   18.37          64.13   16.65 
A9         41.74   40.98   32.18          70.16    6.84    2.43           7.26   19.49
A10        44.00   40.94   30.98          70.13   13.68    4.23          14.32   17.19
A11        46.65   41.02   29.76          70.19   21.01    6.24          21.92   16.53
A12        48.85   40.95   28.59          70.14   27.29    8.05          28.46   16.43 
A13        75.28   78.98   68.42          91.23   -1.78   -3.01           3.50  239.41
A14        76.48   78.58   68.12          91.04    1.44   -3.06           3.38  295.19 
A15        76.51   79.73   63.27          91.56   -0.74    2.40           2.52  107.22
A16        76.74   79.67   65.48          91.54   -0.16    0.25           0.30  122.26
A17        74.27   75.93   61.80          89.83    2.18    0.84           2.34   21.06
A18        74.22   78.13   63.67          90.84   -2.28    0.78           2.41  161.26 
A19        75.54   78.35   68.15          90.94   -0.03   -3.26           3.26  269.54
A20         1.35    1.09    0.72           9.74    9.55    3.30          10.11   19.06 
A21         5.17    3.30    0.75          21.20   28.23   22.45          36.07   38.50
A22        10.19    5.83    0.78          28.98   42.49   35.25          55.21   39.68
B1          3.37    2.97    1.60          19.92    8.70    8.16          11.93   43.14
B2          3.89    2.90    0.97          19.64   17.91   15.98          24.01   41.75
B3          4.45    2.90    0.59          19.63   25.76   22.69          34.33   41.37
B4          5.49    3.21    0.34          20.86   33.43   29.56          44.62   41.48
B5         12.71   11.07    5.86          39.69   14.41   13.19          19.53   42.46
B6         14.89   11.20    3.90          39.92   27.25   24.10          36.37   41.49
B7         17.37   11.28    2.27          40.04   40.81   36.23          54.58   41.60
B8         21.12   11.44    1.00          40.31   58.67   51.16          77.84   41.09
B9         41.51   40.97   30.04          70.16    6.17    5.75           8.44   42.97
B10        43.44   40.84   26.72          70.06   12.36   11.04          16.57   41.78
B11        45.62   40.84   23.66          70.06   18.63   16.50          24.89   41.53
B12        48.11   41.11   21.05          70.25   24.80   21.87          33.06   41.40
B13        68.05   73.58   67.30          88.72   -6.24   -6.30           8.87  225.29
B14        72.16   71.20   65.92          87.58    7.48   -6.98          10.23  316.96
B15        74.37   77.81   54.13          90.69   -1.34   10.18          10.26   97.52
B16        60.60   62.94   51.48          83.41   -0.21    0.51           0.56  113.16
B17        68.90   68.51   52.18          86.26    6.24    4.64           7.77   36.65
B18        65.03   70.99   53.28          87.48   -7.54    5.55           9.36  143.65
B19        63.61   65.51   64.82          84.74    1.03  -10.84          10.89  275.43
B20         2.79    2.01    0.71          15.55   17.48   13.34          21.99   37.34
B21         8.47    4.96    0.80          26.63   38.48   30.83          49.31   38.70
B22        29.36   24.99   11.82          57.07   21.43   21.33          30.24   44.86
C1          4.53    4.40    2.25          24.94    3.94   10.38          11.11   69.24
C2          4.74    4.32    1.36          24.71    7.68   19.23          20.72   68.23
C3          5.07    4.31    0.69          24.68   12.02   29.60          31.95   67.90
C4          5.85    4.80    0.49          26.16   14.74   35.83          38.74   67.64
C5         23.96   22.87   10.91          54.93    8.60   20.42          22.15   67.17
C6         26.20   23.03    5.53          55.10   17.38   41.35          44.85   67.20
C7         28.49   23.14    2.41          55.21   26.07   61.16          66.48   66.91
C8         30.46   23.05    0.88          55.12   33.96   78.58          85.61   66.63
C9         48.06   48.40   33.28          75.08    3.86    9.26          10.03   67.37
C10        49.97   48.82   27.45          75.34    7.91   18.91          20.50   67.29
C11        51.47   48.71   22.42          75.27   12.20   27.82          30.38   66.32
C12        53.40   49.15   18.23          75.54   16.01   36.94          40.26   66.56
C13        59.31   66.74   65.64          85.37  -11.73  -10.53          15.76  221.92
C14        66.75   62.31   62.92          83.08   15.24  -11.89          19.33  322.05
C15        71.99   75.45   43.74          89.61   -1.60   20.22          20.28   94.53
C16        47.02   48.80   39.49          75.32   -0.10    1.01           1.03   95.69
C17        61.40   58.15   40.71          80.82   12.83    8.91          15.62   34.77
C18        54.26   62.19   42.46          83.01  -13.97   10.45          17.45  143.22
C19        51.69   52.47   60.52          77.56    2.88  -19.05          19.27  278.60
C20         1.72    1.47    0.70          12.39    8.41    8.10          11.68   43.94
C21        23.46   17.63    4.75          49.05   31.75   34.93          47.20   47.73
C22        35.24   32.03   17.49          63.37   15.38   17.61          23.38   48.85
D1          4.18    4.39    2.29          24.92   -0.69   10.02          10.06   93.97
D2          4.09    4.31    1.37          24.65   -0.82   19.07          19.09   92.48
D3          4.09    4.35    0.72          24.79   -1.50   29.08          29.12   92.96
D4          4.73    5.06    0.58          26.90   -1.88   35.52          35.57   93.03
D5         26.97   28.28   14.12          60.14   -1.18   20.25          20.28   93.34
D6         26.81   28.22    7.62          60.09   -1.61   40.80          40.83   92.26
D7         26.73   28.29    3.65          60.15   -2.19   60.58          60.62   92.07
D8         26.84   28.69    1.26          60.50   -3.28   82.27          82.33   92.29
D9         55.46   57.60   38.92          80.52   -0.19   10.73          10.73   91.03
D10        55.04   57.46   31.40          80.44   -0.92   21.35          21.37   92.48
D11        55.00   57.43   25.11          80.42   -0.94   31.72          31.73   91.69
D12        55.22   58.05   11.43          80.77   -1.88   63.35          63.38   91.70
D13        50.50   59.40   63.62          81.51  -17.27  -15.27          23.05  221.48
D14        61.06   53.54   59.45          78.20   23.34  -16.89          28.81  324.12
D15        69.81   73.06   35.18          88.47   -1.35   29.60          29.63   92.60
D16        35.10   36.47   29.71          66.88   -0.21    0.61           0.68  113.85
D17        54.34   48.67   31.26          75.25   19.70   12.61          23.39   32.62
D18        44.14   53.42   33.30          78.12  -20.33   14.49          24.97  144.54
D19        40.84   40.75   55.64          70.00    4.80  -27.10          27.52  280.04
D20        13.94   10.60    2.72          38.91   25.77   30.51          39.93   49.81
D21        21.40   20.83   11.65          52.76    6.36   14.40          15.74   66.15
D22        38.94   37.13   20.18          67.38   10.21   18.68          21.29   61.32
E1          3.83    4.35    2.24          24.78   -5.17   10.18          11.42  116.91
E2          3.48    4.31    1.42          24.67  -10.10   18.55          21.13  118.57
E3          3.18    4.36    0.79          24.83  -15.69   27.97          32.07  119.28
E4          3.36    4.81    0.63          26.17  -18.52   33.20          38.02  119.15
E5         12.72   14.51    7.75          44.95   -8.20   14.19          16.39  120.03
E6         11.59   14.52    4.57          44.97  -16.01   28.90          33.04  118.98
E7         10.54   14.49    2.54          44.93  -23.54   42.39          48.49  119.04
E8          9.51   14.66    1.10          45.17  -32.65   58.12          66.66  119.33
E9         37.88   40.79   28.36          70.03   -4.62    8.24           9.44  119.27
E10        36.65   40.93   23.89          70.13   -9.04   16.19          18.55  119.19
E11        35.45   41.10   19.87          70.25  -13.56   24.28          27.81  119.19
E12        32.73   41.28   12.70          70.37  -23.52   41.75          47.92  119.39
E13        42.95   52.74   61.38          77.72  -22.12  -19.62          29.57  221.57
E14        55.70   45.74   55.80          73.38   31.19  -21.45          37.85  325.49
E15        67.81   70.62   27.77          87.30   -0.63   38.99          39.00   90.93
E16        25.72   26.74   21.94          58.73   -0.27    0.25           0.43  150.26
E17        47.88   40.36   23.55          69.73   26.42   16.13          30.96   31.41
E18        35.52   45.50   25.77          73.22  -26.15   18.13          31.82  145.26
E19        31.97   31.09   50.59          62.59    7.35  -34.41          35.19  282.05
E20        24.78   17.00    1.22          48.26   40.92   61.64          73.99   56.42
E21        17.03   14.15    2.66          44.45   19.97   40.56          45.21   63.79
E22        29.90   25.74    8.13          57.79   20.39   34.86          40.39   59.67
F1          1.54    1.94    1.31          15.17   -8.45    3.53           9.16  157.35
F2          1.19    1.90    1.07          14.97  -17.83    6.36          18.93  160.37
F3          0.98    1.95    0.87          15.24  -26.23    9.99          28.07  159.15
F4          1.04    2.27    0.97          16.86  -31.29   11.17          33.22  160.35
F5          6.71    8.41    5.88          34.82  -13.37    4.72          14.18  160.53
F6          5.53    8.47    4.98          34.93  -26.73    9.39          28.33  160.64
F7          4.51    8.54    4.12          35.09  -40.10   14.44          42.62  160.20
F8          3.46    8.76    3.28          35.51  -57.16   20.57          60.74  160.21
F9         37.57   40.93   32.04          70.13   -6.06    2.59           6.60  156.92
F10        35.97   41.13   30.92          70.27  -11.91    4.55          12.75  159.06
F11        34.17   41.09   29.51          70.24  -17.87    6.73          19.10  159.36
F12        30.58   41.13   26.69          70.26  -30.85   11.44          32.90  159.65
F13        36.40   46.65   58.88          73.96  -26.41  -23.61          35.42  221.79
F14        50.69   38.90   52.10          68.68   38.55  -25.58          46.26  326.43
F15        65.77   67.96   21.14          85.99    0.54   48.82          48.82   89.37
F16        18.29   19.09   15.52          50.79   -0.63    0.57           0.91  140.12
F17        42.18   33.43   17.04          64.51   32.56   20.59          38.52   32.31
F18        28.07   38.23   19.16          68.19  -31.52   22.24          38.58  144.79
F19        24.61   23.24   45.54          55.32    9.77  -41.09          42.24  283.37
F20        25.77   24.75   11.47          56.83    8.12   21.98          23.43   69.73
F21        34.15   30.88   10.70          62.41   15.79   33.97          37.46   65.06
F22        38.44   35.82   15.58          66.38   12.91   27.31          30.21   64.70
G1          2.35    2.97    2.64          19.92   -9.78   -1.56           9.91  189.08
G2          1.93    3.01    2.87          20.10  -19.94   -3.05          20.18  188.70
G3          1.62    3.14    3.18          20.58  -29.69   -4.48          30.02  188.59
G4          1.67    3.44    3.55          21.73  -33.16   -5.01          33.54  188.59
G5          9.11   11.18    9.57          39.88  -13.17   -1.20          13.22  185.17
G6          7.80   11.30   10.36          40.08  -25.43   -3.45          25.67  187.73
G7          6.67   11.46   11.24          40.35  -37.61   -5.76          38.05  188.70
G8          5.32   11.68   12.15          40.70  -54.07   -7.84          54.64  188.25
G9         37.59   41.11   34.10          70.25   -6.51   -0.26           6.52  182.27
G10        35.34   40.88   35.05          70.09  -13.27   -1.91          13.41  188.19
G11        33.64   41.06   35.76          70.22  -19.63   -2.69          19.82  187.79
G12        30.52   41.37   37.23          70.43  -31.82   -4.36          32.12  187.81
G13        30.54   40.91   56.10          70.11  -30.34  -27.39          40.87  222.07
G14        45.73   32.58   48.09          63.82   45.89  -29.44          54.52  327.32
G15        63.87   65.31   15.67          84.64    2.05   58.58          58.61   88.00
G16        12.36   12.96   10.50          42.70   -0.89    0.63           1.16  144.60
G17        36.83   27.21   11.71          59.16   38.79   25.29          46.31   33.10
G18        21.67   31.62   13.81          63.03  -36.68   26.03          44.98  144.63
G19        18.45   16.61   40.35          47.77   13.26  -47.62          49.43  285.56
G20        35.75   34.39   14.15          65.27    8.93   29.01          30.35   72.90
G21        34.68   33.13    9.21          64.26    9.60   42.11          43.19   77.16
G22        49.66   45.56    2.47          73.26   16.06   91.80          93.19   80.08
H1          2.55    2.99    3.29          19.99   -6.22   -6.25           8.83  225.18
H2          2.24    2.96    4.38          19.89  -12.02  -13.29          17.92  227.89
H3          2.02    3.02    5.77          20.11  -17.75  -20.13          26.84  228.59
H4          2.15    3.42    7.08          21.65  -21.48  -23.31          31.70  227.33
H5          9.65   11.09   11.95          39.73   -8.07   -8.94          12.05  227.92
H6          8.77   11.17   15.16          39.86  -15.94  -17.38          23.59  227.47
H7          7.93   11.24   19.40          39.98  -23.83  -26.92          35.95  228.49
H8          6.97   11.58   26.10          40.55  -35.44  -38.77          52.53  227.57
H9         37.69   40.73   37.31          69.99   -5.06   -5.25           7.29  226.03
H10        36.56   40.95   40.43          70.14   -9.40   -9.14          13.11  224.22
H11        35.38   41.06   44.76          70.22  -13.68  -14.45          19.90  226.56
H12        32.04   41.03   56.33          70.20  -25.21  -27.48          37.29  227.47
H13        25.51   35.68   53.13          66.27  -33.65  -30.84          45.65  222.51
H14        40.87   26.76   43.93          58.75   53.37  -33.20          62.85  328.11
H15        62.10   62.67   11.24          83.27    3.92   68.25          68.37   86.72
H16         7.97    8.31    6.73          34.62   -0.40    0.57           0.75  125.60
H17        31.99   21.86    7.64          53.88   44.95   30.01          54.04   33.73
H18        16.53   25.96    9.56          58.00  -41.23   30.08          51.04  143.89
H19        13.60   11.41   35.33          40.26   17.76  -53.73          56.59  288.29
H20        40.90   41.44   15.04          70.48    2.91   35.72          35.84   85.35
H21        30.77   31.91   20.04          63.26    0.02   11.89          11.89   89.92
H22        35.13   38.31   11.26          68.25   -6.05   42.29          42.72   98.14
I1          4.33    4.42    5.80          25.00    0.96  -11.86          11.91  274.61
I2          4.27    4.33    8.56          24.74    1.34  -23.75          23.79  273.24
I3          4.40    4.40   11.96          24.96    2.19  -34.45          34.52  273.63
I4          4.59    4.51   20.98          25.29    3.26  -55.51          55.60  273.36
I5         14.02   14.47   15.17          44.90    0.37   -8.72           8.73  272.49
I6         14.24   14.62   19.40          45.11    0.89  -18.07          18.10  272.83
I7         14.05   14.33   23.92          44.70    1.45  -27.70          27.73  273.00
I8         14.25   14.26   38.15          44.60    3.14  -50.17          50.27  273.58
I9         39.67   41.14   37.23          70.27    0.01   -4.64           4.65  270.11
I10        39.64   41.04   40.84          70.21    0.21   -9.57           9.57  271.24
I11        39.55   40.91   44.34          70.11    0.32  -14.13          14.13  271.29
I12        39.89   40.84   55.95          70.06    1.59  -27.32          27.36  273.33
I13        20.98   30.67   49.78          62.23  -36.46  -34.11          49.93  223.10
I14        36.41   21.84   39.78          53.86   60.28  -36.38          70.41  328.89
I15        60.25   59.89    7.79          81.78    6.02   77.53          77.76   85.56
I16         4.73    4.95    4.03          26.60   -0.52    0.35           0.71  145.19
I17        27.85   17.56    4.68          48.96   50.51   35.15          61.54   34.83
I18        12.22   20.89    6.41          52.83  -45.49   33.32          56.39  143.77
I19         9.86    7.51   30.61          32.95   22.78  -59.30          63.53  291.01
I20        41.36   45.47   15.55          73.20   -7.42   39.13          39.83  100.73
I21        10.95   14.72    3.41          45.24  -21.85   36.47          42.52  120.93
I22        28.26   36.70   17.14          67.05  -25.85   24.74          35.78  136.25
J1          2.13    1.90    3.01          14.95    6.94  -12.94          14.69  298.18
J2          2.44    1.86    4.87          14.74   14.32  -24.88          28.71  299.93
J3          2.86    1.92    7.96          15.07   20.80  -38.13          43.44  298.61
J4          3.87    1.92   18.50          15.07   37.27  -67.93          77.49  298.75
J5         11.40   11.12   12.19          39.77    4.98   -9.55          10.78  297.58
J6         12.26   11.22   15.94          39.95   10.22  -19.15          21.71  298.09
J7         12.85   11.04   20.21          39.64   15.58  -29.19          33.09  298.08
J8         15.19   11.18   34.79          39.87   29.19  -53.64          61.06  298.55
J9         40.29   40.80   37.10          70.04    2.96   -4.88           5.71  301.24
J10        41.20   40.98   40.62          70.16    5.21   -9.36          10.71  299.08
J11        42.09   40.94   44.42          70.14    8.01  -14.18          16.29  299.47
J12        44.41   40.94   55.24          70.13   14.88  -26.45          30.35  299.36
J13        17.15   26.11   46.18          58.14  -38.39  -36.99          53.31  223.94
J14        32.24   17.64   35.60          49.06   66.61  -38.95          77.16  329.68
J15        58.47   57.07    5.14          80.22    8.49   86.61          87.02   84.40
J16         2.61    2.72    2.19          18.89   -0.35    0.53           0.70  131.03
J17        24.22   14.08    2.59          44.34   55.39   40.93          68.87   36.46
J18         8.87   16.54    4.06          47.68  -48.80   36.52          60.95  143.19
J19         7.07    4.67   26.07          25.78   29.15  -64.17          70.48  294.43
J20        29.79   38.76   21.94          68.58  -26.55   17.23          31.65  147.02
J21         4.39    8.21    1.43          34.43  -38.86   35.13          52.38  137.88
J22         1.36    2.18    0.90          16.41  -18.76   11.50          22.00  148.51
K1          5.14    4.31    5.12          24.67   12.84   -9.06          15.72  324.80
K2          6.41    4.37    7.28          24.85   26.51  -18.61          32.39  324.94
K3          7.67    4.31    9.73          24.67   39.76  -27.96          48.61  324.88
K4          9.79    4.40   13.71          24.96   56.65  -39.31          68.96  325.24
K5         15.80   14.46   14.79          44.89   11.17   -7.78          13.61  325.14
K6         17.69   14.32   18.12          44.69   22.51  -16.03          27.63  324.55
K7         20.08   14.35   22.24          44.73   34.58  -24.47          42.36  324.72
K8         26.36   14.39   33.79          44.78   62.50  -43.72          76.28  325.03
K9         41.59   40.94   36.50          70.13    6.52   -3.88           7.59  329.29
K10        43.76   40.76   40.13          70.01   13.51   -8.99          16.23  326.37
K11        46.20   41.02   43.73          70.19   19.74  -13.24          23.77  326.14
K12        51.96   41.01   53.37          70.18   35.42  -24.37          43.00  325.47
K13        13.33   21.15   41.55          53.11  -39.33  -39.96          56.07  225.45
K14        27.91   13.76   30.94          43.89   72.57  -40.96          83.33  330.56
K15        56.29   53.75    3.16          78.31   11.36   95.21          95.88   83.19
K16         1.16    1.21    1.00          10.64   -0.27   -0.07           0.39  211.58
K17        20.62   10.96    1.21          39.52   59.70   46.70          75.79   38.04
K18         5.82   12.17    2.34          41.49  -51.64   38.15          64.21  143.54
K19         4.89    2.62   21.27          18.46   36.58  -67.87          77.10  298.32
K20         2.37    3.12    1.89          20.53  -12.11    6.16          13.59  153.02
K21         1.37    1.86    1.52          14.76  -11.48    0.26          11.49  178.73
K22         1.72    2.23    2.93          16.66  -10.18   -9.42          13.87  222.78
L1          3.58    2.94    2.71          19.81   12.42   -2.35          12.65  349.30
L2          4.49    2.96    3.00          19.88   25.27   -4.39          25.65  350.14
L3          5.62    3.07    3.39          20.32   37.32   -6.38          37.86  350.30
L4          6.62    3.34    3.90          21.35   43.76   -7.91          44.47  349.76
L5         12.93   11.12    9.97          39.79   15.48   -2.70          15.72  350.09
L6         15.54   11.12   10.77          39.77   31.71   -5.30          32.15  350.51
L7         18.45   11.15   11.76          39.83   47.48   -8.22          48.19  350.18
L8         22.66   11.33   12.99          40.13   66.59  -11.22          67.53  350.44
L9         42.03   40.93   34.45          70.12    7.90   -0.99           7.96  352.88
L10        44.42   40.88   35.36          70.09   15.06   -2.34          15.24  351.16
L11        47.13   41.09   36.31          70.24   22.13   -3.43          22.40  351.20
L12        50.19   41.24   37.52          70.34   30.05   -4.92          30.45  350.69
L13         8.41   13.75   32.05          43.88  -36.32  -42.67          56.04  229.60
L14        22.83   10.00   25.03          37.84   77.26  -41.56          87.73  331.72
L15        50.70   45.87    1.42          73.46   17.95  102.61         104.17   80.08
L16         0.31    0.33    0.26           2.95   -0.15    0.13           0.20  140.11
L17        16.33    7.89    0.32          33.74   62.20   52.16          81.17   39.99
L18         2.50    6.20    0.86          29.92  -49.97   35.47          61.28  144.63
L19         2.93    1.15   14.56          10.19   43.15  -67.03          79.72  302.77
L20         0.72    0.78    0.76           7.08   -1.64   -2.18           2.74  233.04
L21         0.97    0.92    0.94           8.32    3.21   -3.07           4.45  316.27
L22         1.99    1.60    1.33          13.20   11.27   -0.14          11.28  239.29
GS0        77.75   80.75   68.74          92.02   -0.23   -1.94           1.95  263.32
GS1        68.64   71.40   58.10          87.68   -0.46    0.84           0.96  119.05
GS2        60.62   62.79   51.56          83.33    0.19    0.28           0.36   51.92
