targets/wolf_faust/reflective/R070212.it8
IT8.7/2
ORIGINATOR "Wolf Faust"
DESCRIPTOR "Kodak Professional Paper, L* a* b* (light D50, viewing angle 2)"
MANUFACTURER "Wolf Faust - http://www.coloraid.de"
CREATED "March 09, 2007"
PROD_DATE "2007:02"
SAMPLE_BACKING "black"
SERIAL "5x7 R070212 Batch Average Data"
MATERIAL "Kodak Professional Ultra Endura"
KEYWORD "MEAN_DE" # Mean Delta E of samples compared to batch average
NUMBER_OF_FIELDS 18
BEGIN_DATA_FORMAT
SAMPLE_ID  XYZ_X   XYZ_Y   XYZ_Z          LAB_L   LAB_A   LAB_B          LAB_C   LAB_H          D_RED  D_GREEN  D_BLUE  D_VIS          STDEV_X STDEV_Y STDEV_Z        MEAN_DE  STDEV_DE
END_DATA_FORMAT
NUMBER_OF_SETS 288
BEGIN_DATA
A1          3.41    2.86    2.00          19.47   11.31    3.30          11.78   16.27           1.37    1.65    1.60    1.51            0.04    0.03    0.03           0.51     0.55
A2          4.27    2.90    1.63          19.64   23.33    7.40          24.48   17.59           1.22    1.82    1.69    1.46            0.07    0.05    0.02           0.50     0.54 
A3          5.12    2.88    1.41          19.57   34.66    9.81          36.03   15.80           1.11    2.08    1.76    1.43            0.06    0.04    0.02           0.39     0.44
A4          6.08    3.14    1.37          20.58   41.31   12.11          43.05   16.34           1.03    2.23    1.78    1.37            0.07    0.05    0.01           0.42     0.46 
A5         12.44   10.92    7.86          39.44   13.66    4.27          14.32   17.35           0.81    1.04    1.01    0.93            0.17    0.13    0.11           0.48     0.53
A6         14.77   10.95    6.88          39.50   28.28    8.31          29.48   16.36           0.69    1.15    1.07    0.90            0.12    0.08    0.07           0.43     0.48 
A7         17.09   10.97    6.01          39.54   41.48   12.25          43.25   16.45           0.60    1.29    1.14    0.87            0.12    0.08    0.04           0.42     0.45
A8         20.99   11.05    4.93          39.66   60.85   17.78          63.40   16.29           0.50    1.60    1.23    0.83            0.14    0.11    0.05           0.41     0.45 
A9         40.82   40.13   31.75          69.56    6.61    2.05           6.92   17.23           0.34    0.42    0.42    0.39            0.16    0.14    0.17           0.31     0.34
A10        43.01   40.07   30.47          69.52   13.41    3.97          13.99   16.51           0.30    0.44    0.43    0.38            0.14    0.13    0.15           0.22     0.25
A11        45.60   40.17   29.46          69.59   20.61    5.69          21.38   15.43           0.25    0.47    0.45    0.37            0.10    0.09    0.10           0.17     0.20
A12        47.68   40.08   28.33          69.53   26.75    7.41          27.75   15.48           0.22    0.50    0.47    0.36            0.15    0.18    0.16           0.19     0.21 
A13        73.33   76.99   67.28          90.32   -1.88   -3.54           4.00  242.06           0.13    0.10    0.09    0.12            0.07    0.08    0.10           0.06     0.07
A14        74.46   76.57   67.01          90.12    1.31   -3.62           3.85  289.87           0.11    0.11    0.10    0.12            0.11    0.11    0.09           0.08     0.08 
A15        74.48   77.69   62.25          90.64   -0.87    1.80           1.99  115.88           0.11    0.11    0.13    0.11            0.13    0.13    0.15           0.13     0.14
A16        74.70   77.62   64.38          90.61   -0.29   -0.31           0.43  226.58           0.11    0.11    0.11    0.11            0.13    0.13    0.07           0.08     0.09
A17        72.29   74.00   60.74          88.92    1.97    0.33           2.00    9.38           0.12    0.13    0.14    0.13            0.15    0.17    0.12           0.14     0.15
A18        72.29   76.14   62.65          89.93   -2.35    0.18           2.36  175.64           0.13    0.11    0.12    0.12            0.10    0.11    0.12           0.09     0.10 
A19        73.60   76.40   67.04          90.04   -0.14   -3.78           3.78  267.80           0.12    0.11    0.10    0.12            0.14    0.15    0.10           0.08     0.09
A20         1.33    1.08    0.71           9.62    9.42    3.21           9.96   18.85           1.79    2.09    2.04    1.92            0.03    0.03    0.01           0.35     0.39 
A21         5.07    3.24    0.74          20.99   27.91   22.18          35.65   38.47           1.11    1.87    2.01    1.39            0.07    0.05    0.01           0.37     0.42
A22         9.97    5.71    0.78          28.67   42.11   34.80          54.63   39.57           0.80    1.79    1.99    1.13            0.12    0.09    0.01           0.36     0.40
B1          3.30    2.92    1.58          19.70    8.52    8.05          11.72   43.36           1.39    1.62    1.69    1.50            0.03    0.02    0.02           0.40     0.46
B2          3.80    2.84    0.96          19.41   17.58   15.81          23.65   41.96           1.27    1.76    1.90    1.48            0.05    0.03    0.01           0.42     0.46
B3          4.39    2.86    0.58          19.49   25.58   22.58          34.12   41.44           1.18    1.90    2.10    1.45            0.07    0.05    0.01           0.47     0.51
B4          5.39    3.15    0.34          20.64   33.19   29.24          44.23   41.38           1.07    2.03    2.34    1.39            0.05    0.03    0.00           0.33     0.36
B5         12.45   10.87    5.80          39.36   14.12   12.90          19.13   42.42           0.79    1.06    1.14    0.93            0.15    0.11    0.06           0.50     0.56
B6         14.59   10.99    3.85          39.56   26.91   23.80          35.93   41.49           0.68    1.16    1.31    0.90            0.09    0.07    0.05           0.41     0.44
B7         16.97   11.05    2.25          39.66   40.31   35.79          53.91   41.60           0.58    1.31    1.53    0.86            0.13    0.10    0.04           0.41     0.45
B8         20.59   11.17    0.99          39.86   58.05   50.60          77.01   41.07           0.49    1.60    1.88    0.82            0.12    0.09    0.01           0.28     0.33
B9         40.53   40.06   29.70          69.51    5.97    5.16           7.90   40.84           0.34    0.42    0.44    0.39            0.23    0.27    0.21           0.29     0.33
B10        42.41   39.92   26.31          69.41   12.09   10.64          16.11   41.33           0.30    0.45    0.49    0.38            0.21    0.24    0.22           0.31     0.35
B11        44.58   40.02   23.48          69.48   18.16   15.84          24.10   41.10           0.25    0.47    0.54    0.37            0.17    0.19    0.16           0.23     0.27
B12        46.88   40.16   20.83          69.58   24.27   21.16          32.20   41.08           0.21    0.50    0.59    0.36            0.15    0.19    0.20           0.35     0.39
B13        66.34   71.76   66.15          87.85   -6.24   -6.74           9.18  227.20           0.19    0.12    0.10    0.15            0.15    0.13    0.06           0.11     0.13
B14        70.29   69.45   64.87          86.73    7.21   -7.47          10.38  313.99           0.13    0.17    0.11    0.16            0.08    0.09    0.06           0.09     0.10
B15        72.46   75.89   53.33          89.81   -1.50    9.52           9.64   98.96           0.11    0.12    0.19    0.12            0.09    0.09    0.23           0.19     0.24
B16        59.17   61.52   50.79          82.66   -0.36   -0.03           0.38  181.70           0.21    0.21    0.21    0.21            0.18    0.19    0.19           0.17     0.18
B17        67.18   66.94   51.56          85.47    5.88    3.97           7.10   34.03           0.13    0.19    0.21    0.17            0.15    0.19    0.21           0.19     0.21
B18        63.45   69.29   52.52          86.64   -7.54    4.93           9.01  146.81           0.19    0.14    0.20    0.16            0.16    0.15    0.21           0.21     0.23
B19        62.05   63.90   63.76          83.92    1.00  -11.25          11.30  275.10           0.20    0.19    0.12    0.20            0.19    0.20    0.13           0.17     0.19
B20         2.72    1.97    0.71          15.31   17.27   13.06          21.66   37.10           1.42    1.94    2.03    1.63            0.04    0.04    0.01           0.35     0.38
B21         8.26    4.84    0.79          26.28   38.16   30.38          48.78   38.52           0.89    1.82    1.98    1.20            0.10    0.07    0.01           0.33     0.37
B22        28.72   24.50   11.69          56.58   21.06   20.89          29.66   44.78           0.42    0.72    0.84    0.57            0.12    0.13    0.08           0.28     0.33
C1          4.45    4.32    2.23          24.69    3.88   10.17          10.89   69.13           1.28    1.40    1.54    1.34            0.05    0.04    0.02           0.37     0.42
C2          4.64    4.23    1.35          24.41    7.69   18.96          20.46   67.92           1.23    1.46    1.74    1.34            0.08    0.07    0.01           0.49     0.54
C3          4.99    4.24    0.68          24.46   11.89   29.39          31.71   67.98           1.17    1.51    2.02    1.32            0.06    0.04    0.01           0.49     0.54
C4          5.71    4.71    0.48          25.89   14.38   35.48          38.29   67.94           1.10    1.49    2.16    1.27            0.08    0.06    0.00           0.44     0.48
C5         23.50   22.46   10.78          54.51    8.37   20.10          21.77   67.39           0.54    0.70    0.87    0.63            0.21    0.19    0.10           0.38     0.41
C6         25.64   22.58    5.46          54.64   17.07   40.88          44.30   67.34           0.46    0.76    1.15    0.60            0.17    0.16    0.05           0.29     0.33
C7         27.87   22.67    2.37          54.73   25.73   60.68          65.91   67.02           0.40    0.82    1.49    0.59            0.11    0.11    0.02           0.24     0.28
C8         29.78   22.58    0.87          54.64   33.52   77.95          84.85   66.73           0.36    0.89    1.92    0.57            0.09    0.10    0.01           0.17     0.19
C9         47.01   47.40   32.90          74.44    3.67    8.74           9.48   67.21           0.28    0.34    0.40    0.32            0.14    0.19    0.19           0.31     0.33
C10        48.75   47.73   27.04          74.65    7.58   18.42          19.92   67.63           0.24    0.36    0.48    0.30            0.16    0.18    0.15           0.20     0.23
C11        50.19   47.61   22.02          74.58   11.81   27.40          29.84   66.69           0.21    0.38    0.56    0.30            0.15    0.21    0.21           0.32     0.36
C12        52.01   48.02   18.02          74.84   15.48   36.17          39.34   66.83           0.18    0.39    0.65    0.29            0.13    0.17    0.11           0.25     0.28
C13        57.99   65.22   64.62          84.60  -11.57  -10.90          15.90  223.28           0.28    0.14    0.11    0.20            0.16    0.15    0.11           0.14     0.16
C14        65.05   60.84   61.95          82.29   14.87  -12.30          19.29  320.40           0.15    0.25    0.13    0.21            0.12    0.18    0.06           0.19     0.23
C15        70.06   73.54   43.05          88.70   -1.80   19.52          19.61   95.26           0.11    0.14    0.28    0.13            0.10    0.11    0.16           0.14     0.16
C16        45.96   47.75   39.03          74.67   -0.25    0.50           0.58  119.95           0.32    0.32    0.33    0.32            0.19    0.20    0.16           0.25     0.31
C17        59.87   56.83   40.15          80.08   12.42    8.36          14.98   33.93           0.15    0.29    0.31    0.23            0.18    0.22    0.25           0.22     0.27
C18        53.03   60.76   41.69          82.25  -13.84   10.10          17.14  143.86           0.28    0.18    0.29    0.23            0.22    0.18    0.22           0.25     0.28
C19        50.53   51.31   59.61          76.87    2.83  -19.34          19.54  278.33           0.31    0.28    0.15    0.30            0.15    0.19    0.06           0.25     0.28
C20         1.70    1.45    0.70          12.26    8.32    8.01          11.55   43.91           1.68    1.95    2.03    1.80            0.03    0.03    0.01           0.36     0.42
C21        22.94   17.29    4.70          48.62   31.27   34.44          46.52   47.76           0.48    0.97    1.22    0.70            0.11    0.10    0.04           0.33     0.37
C22        34.45   31.37   17.30          62.82   15.07   17.09          22.79   48.60           0.37    0.57    0.67    0.48            0.17    0.17    0.13           0.29     0.33
D1          4.12    4.32    2.26          24.71   -0.68    9.88           9.92   94.00           1.34    1.37    1.53    1.36            0.07    0.05    0.03           0.51     0.55
D2          4.03    4.25    1.36          24.47   -0.90   18.94          18.96   92.74           1.33    1.38    1.73    1.36            0.07    0.06    0.01           0.43     0.49
D3          4.00    4.27    0.71          24.55   -1.68   28.85          28.90   93.33           1.33    1.38    1.99    1.35            0.06    0.05    0.00           0.43     0.49
D4          4.67    4.99    0.57          26.71   -1.82   35.34          35.39   92.95           1.27    1.32    2.09    1.28            0.05    0.04    0.00           0.28     0.33
D5         26.41   27.73   14.01          59.65   -1.36   19.68          19.73   93.97           0.53    0.56    0.76    0.55            0.28    0.25    0.14           0.40     0.46
D6         26.28   27.69    7.54          59.61   -1.72   40.28          40.32   92.45           0.51    0.58    1.01    0.54            0.21    0.19    0.09           0.42     0.47
D7         26.21   27.77    3.61          59.68   -2.31   60.03          60.08   92.20           0.51    0.59    1.31    0.54            0.19    0.18    0.04           0.39     0.43
D8         26.29   28.14    1.24          60.02   -3.44   81.68          81.76   92.41           0.52    0.60    1.79    0.53            0.17    0.12    0.00           0.26     0.32
D9         54.24   56.39   38.55          79.84   -0.35   10.06          10.06   92.00           0.23    0.25    0.33    0.24            0.19    0.20    0.23           0.21     0.24
D10        53.75   56.18   30.94          79.72   -1.06   20.81          20.83   92.91           0.22    0.26    0.42    0.24            0.19    0.17    0.15           0.24     0.27
D11        53.72   56.20   24.88          79.73   -1.18   30.94          30.96   92.19           0.21    0.27    0.51    0.24            0.16    0.19    0.16           0.20     0.23
D12        53.86   56.74   11.30          80.03   -2.16   62.48          62.52   91.98           0.20    0.28    0.84    0.23            0.13    0.11    0.08           0.21     0.25
D13        49.40   58.06   62.59          80.77  -17.05  -15.54          23.07  222.35           0.38    0.17    0.12    0.26            0.19    0.17    0.10           0.17     0.19
D14        59.63   52.40   58.65          77.52   22.89  -17.24          28.66  323.01           0.17    0.34    0.16    0.27            0.14    0.17    0.12           0.16     0.19
D15        67.93   71.21   34.70          87.59   -1.60   28.76          28.80   93.19           0.12    0.16    0.37    0.14            0.11    0.12    0.26           0.25     0.30
D16        34.48   35.88   29.50          66.43   -0.41    0.19           0.54  158.54           0.44    0.44    0.45    0.45            0.20    0.21    0.21           0.34     0.38
D17        52.98   47.57   30.93          74.55   19.23   11.92          22.63   31.80           0.18    0.39    0.43    0.30            0.20    0.25    0.29           0.34     0.38
D18        43.18   52.26   32.96          77.44  -20.21   13.82          24.48  145.65           0.39    0.23    0.39    0.30            0.14    0.11    0.24           0.31     0.37
D19        40.05   39.95   54.84          69.43    4.83  -27.23          27.66  280.05           0.43    0.38    0.19    0.41            0.21    0.22    0.10           0.25     0.31
D20        13.66   10.41    2.70          38.58   25.39   30.10          39.38   49.85           0.70    1.18    1.45    0.92            0.10    0.08    0.02           0.30     0.35
D21        21.00   20.45   11.54          52.35    6.21   14.04          15.35   66.14           0.60    0.73    0.84    0.67            0.14    0.15    0.10           0.33     0.38
D22        38.04   36.34   19.90          66.78    9.90   18.24          20.75   61.50           0.34    0.49    0.61    0.42            0.16    0.19    0.13           0.31     0.36
E1          3.75    4.28    2.22          24.56   -5.43    9.99          11.38  118.52           1.41    1.34    1.53    1.37            0.04    0.04    0.02           0.38     0.43
E2          3.41    4.24    1.40          24.46  -10.19   18.38          21.02  119.00           1.47    1.32    1.72    1.38            0.04    0.05    0.02           0.37     0.41
E3          3.14    4.31    0.78          24.67  -15.68   27.85          31.96  119.38           1.55    1.29    1.95    1.38            0.05    0.05    0.01           0.33     0.37
E4          3.30    4.73    0.62          25.95  -18.53   32.96          37.81  119.34           1.56    1.24    2.05    1.34            0.04    0.04    0.00           0.27     0.30
E5         12.47   14.24    7.66          44.58   -8.27   13.90          16.18  120.76           0.89    0.82    1.01    0.85            0.15    0.13    0.09           0.48     0.52
E6         11.35   14.23    4.50          44.57  -16.03   28.61          32.80  119.27           0.95    0.80    1.22    0.85            0.13    0.12    0.05           0.44     0.49
E7         10.35   14.23    2.50          44.57  -23.48   42.09          48.20  119.16           1.03    0.78    1.46    0.86            0.14    0.13    0.02           0.37     0.44
E8          9.40   14.48    1.08          44.91  -32.45   57.86          66.34  119.29           1.16    0.75    1.83    0.86            0.11    0.10    0.00           0.35     0.39
E9         37.04   39.95   27.98          69.43   -4.79    7.85           9.20  121.42           0.41    0.38    0.47    0.40            0.19    0.19    0.19           0.30     0.34
E10        35.83   40.05   23.59          69.50   -9.10   15.68          18.13  120.13           0.43    0.38    0.53    0.40            0.22    0.22    0.11           0.30     0.36
E11        34.73   40.29   19.66          69.68  -13.55   23.74          27.34  119.71           0.45    0.37    0.61    0.40            0.15    0.16    0.15           0.29     0.32
E12        32.02   40.43   12.53          69.77  -23.46   41.20          47.41  119.66           0.51    0.35    0.79    0.40            0.16    0.13    0.10           0.29     0.33
E13        42.03   51.57   60.37          77.02  -21.86  -19.83          29.51  222.21           0.50    0.20    0.14    0.32            0.16    0.14    0.07           0.16     0.20
E14        54.34   44.73   54.99          72.71   30.62  -21.74          37.55  324.63           0.20    0.43    0.19    0.33            0.18    0.22    0.13           0.20     0.28
E15        65.96   68.84   27.35          86.42   -0.91   38.19          38.20   91.37           0.12    0.18    0.47    0.15            0.12    0.13    0.21           0.24     0.30
E16        25.23   26.25   21.72          58.28   -0.34   -0.11           0.42  186.55           0.58    0.57    0.58    0.58            0.16    0.18    0.18           0.33     0.36
E17        46.73   39.53   23.34          69.13   25.80   15.49          30.10   30.99           0.22    0.51    0.55    0.37            0.15    0.19    0.16           0.31     0.36
E18        34.83   44.60   25.42          72.63  -25.93   17.73          31.41  145.62           0.51    0.28    0.50    0.37            0.12    0.10    0.10           0.22     0.24
E19        31.35   30.49   49.89          62.08    7.27  -34.50          35.26  281.89           0.56    0.50    0.23    0.53            0.12    0.13    0.08           0.22     0.26
E20        24.20   16.64    1.21          47.81   40.35   61.12          73.24   56.57           0.43    1.09    1.78    0.69            0.08    0.08    0.01           0.17     0.20
E21        16.69   13.89    2.64          44.08   19.66   40.13          44.69   63.90           0.63    1.01    1.45    0.80            0.09    0.08    0.03           0.23     0.26
E22        29.25   25.23    8.05          57.30   20.01   34.32          39.73   59.76           0.40    0.71    0.99    0.56            0.10    0.12    0.06           0.28     0.32
F1          1.51    1.90    1.29          14.96   -8.42    3.37           9.07  158.19           1.89    1.64    1.77    1.74            0.02    0.02    0.01           0.37     0.40
F2          1.18    1.88    1.06          14.86  -17.87    6.33          18.96  160.50           2.12    1.58    1.84    1.77            0.01    0.02    0.01           0.28     0.32
F3          0.98    1.94    0.86          15.16  -26.07   10.00          27.92  159.01           2.35    1.52    1.91    1.77            0.01    0.01    0.01           0.22     0.24
F4          1.02    2.24    0.96          16.70  -31.14   11.08          33.06  160.41           2.42    1.44    1.87    1.72            0.01    0.02    0.01           0.20     0.23
F5          6.60    8.28    5.80          34.55  -13.36    4.64          14.15  160.84           1.23    1.01    1.13    1.10            0.11    0.12    0.08           0.42     0.46
F6          5.43    8.33    4.92          34.66  -26.70    9.22          28.25  160.95           1.43    0.95    1.19    1.12            0.06    0.06    0.06           0.35     0.39
F7          4.43    8.40    4.07          34.81  -39.88   14.26          42.35  160.33           1.68    0.90    1.26    1.13            0.04    0.06    0.05           0.23     0.25
F8          3.42    8.66    3.24          35.31  -56.86   20.46          60.43  160.21           2.16    0.83    1.35    1.14            0.03    0.05    0.02           0.13     0.15
F9         36.81   40.14   31.67          69.57   -6.12    2.19           6.50  160.25           0.43    0.37    0.41    0.40            0.16    0.15    0.21           0.36     0.40
F10        35.26   40.32   30.57          69.70  -11.83    4.11          12.53  160.84           0.47    0.36    0.43    0.41            0.17    0.15    0.21           0.38     0.42
F11        33.44   40.23   29.20          69.64  -17.83    6.19          18.87  160.84           0.51    0.34    0.44    0.41            0.16    0.14    0.18           0.32     0.36
F12        29.99   40.32   26.43          69.70  -30.61   10.92          32.50  160.36           0.61    0.30    0.48    0.42            0.20    0.18    0.22           0.38     0.42
F13        35.71   45.71   57.95          73.36  -26.09  -23.71          35.25  222.26           0.61    0.24    0.16    0.38            0.23    0.22    0.09           0.25     0.30
F14        49.49   38.07   51.37          68.07   37.95  -25.82          45.90  325.77           0.23    0.54    0.23    0.39            0.09    0.12    0.09           0.19     0.22
F15        64.03   66.32   20.90          85.16    0.20   47.88          47.88   89.76           0.13    0.21    0.58    0.16            0.14    0.15    0.18           0.25     0.33
F16        17.92   18.75   15.38          50.40   -0.84    0.23           0.91  164.47           0.73    0.72    0.72    0.73            0.14    0.16    0.13           0.35     0.40
F17        41.14   32.71   16.85          63.92   31.93   20.03          37.70   32.10           0.25    0.63    0.69    0.44            0.12    0.14    0.17           0.31     0.35
