targets/wolf_faust/reflective/R070919WhiteBacking.it8
IT8.7/2
ORIGINATOR "Wolf Faust"
DESCRIPTOR "Kodak Professional Paper, L* a* b* (light D50, viewing angle 2)"
MANUFACTURER "Wolf Faust - http://www.coloraid.de"
CREATED "November 03, 2007"
PROD_DATE "2007:09"
SAMPLE_BACKING "white"
SERIAL "5x7 R070919 Batch Average Data"
MATERIAL "Kodak Professional Ultra Endura"
NUMBER_OF_FIELDS 9
BEGIN_DATA_FORMAT
SAMPLE_ID  XYZ_X   XYZ_Y   XYZ_Z          LAB_L   LAB_A   LAB_B          LAB_C   LAB_H
END_DATA_FORMAT
NUMBER_OF_SETS 288
BEGIN_DATA
A1          3.59    3.01    2.14          20.06   11.45    2.93          11.83   14.35
A2          4.49    3.03    1.79          20.17   24.00    6.61          24.89   15.39 
A3          5.28    2.95    1.46          19.84   35.37    9.66          36.66   15.28
A4          6.23    3.20    1.44          20.84   41.80   11.62          43.38   15.53 
A5         13.09   11.47    8.38          40.35   14.09    3.85          14.61   15.27
A6         15.39   11.37    7.25          40.20   28.98    7.97          30.06   15.38 
A7         17.73   11.32    6.37          40.12   42.43   11.59          43.99   15.27
A8         21.75   11.44    5.27          40.32   61.63   17.16          63.97   15.56 
A9         42.10   41.49   32.82          70.52    6.38    2.09           6.72   18.12
A10        44.60   41.56   31.32          70.57   13.54    4.44          14.26   18.17
A11        47.06   41.58   30.16          70.58   20.46    6.29          21.41   17.08
A12        49.44   41.65   29.23          70.63   26.79    7.86          27.92   16.34 
A13        75.67   79.23   68.29          91.34   -1.47   -2.71           3.08  241.60
A14        76.56   78.56   68.02          91.04    1.63   -2.97           3.39  298.72 
A15        76.50   79.65   63.27          91.53   -0.59    2.34           2.41  104.21
A16        76.83   79.72   65.34          91.56   -0.07    0.42           0.42   99.26
A17        74.71   76.58   62.01          90.13    1.79    1.16           2.13   32.77
A18        74.52   78.27   63.08          90.90   -1.94    1.45           2.42  143.23 
A19        75.75   78.43   68.05          90.97    0.27   -3.11           3.12  274.94
A20         1.37    1.09    0.73           9.73   10.21    3.01          10.64   16.42 
A21         5.22    3.32    0.77          21.27   28.53   22.08          36.07   37.74
A22        10.40    5.95    0.86          29.28   42.85   34.40          54.95   38.76
B1          3.41    3.00    1.68          20.06    8.76    7.51          11.54   40.61
B2          4.04    3.01    1.04          20.07   18.12   15.63          23.94   40.78
B3          4.60    2.98    0.61          19.96   26.27   22.84          34.81   41.00
B4          5.53    3.20    0.35          20.82   34.09   29.33          44.97   40.71
B5         13.14   11.47    6.20          40.36   14.38   12.77          19.23   41.60
B6         14.96   11.31    4.11          40.09   26.91   23.13          35.49   40.68
B7         17.58   11.40    2.41          40.25   41.05   35.40          54.21   40.78
B8         21.13   11.41    1.02          40.26   58.94   50.75          77.78   40.73
B9         41.81   41.30   30.52          70.39    6.10    5.38           8.13   41.39
B10        44.01   41.41   27.33          70.46   12.27   10.71          16.29   41.11
B11        46.43   41.58   24.36          70.58   18.70   16.11          24.69   40.74
B12        48.58   41.52   21.87          70.54   24.83   20.75          32.36   39.89
B13        68.89   74.26   67.34          89.04   -5.78   -5.79           8.18  225.06
B14        72.73   71.95   66.08          87.94    7.11   -6.51           9.64  317.53
B15        74.46   77.79   54.87          90.68   -1.11    9.37           9.44   96.78
B16        61.56   63.87   52.26          83.90   -0.07    0.48           0.50  101.14
B17        69.45   69.21   52.99          86.61    5.93    4.36           7.36   36.31
B18        65.79   71.50   54.05          87.73   -6.92    5.15           8.63  143.37
B19        64.66   66.55   64.98          85.28    1.12  -10.07          10.13  276.37
B20         2.82    2.00    0.73          15.49   18.40   12.96          22.51   35.16
B21         8.62    5.03    0.83          26.83   38.98   30.65          49.59   38.17
B22        29.97   25.51   12.37          57.57   21.60   20.59          29.84   43.64
C1          4.64    4.49    2.36          25.22    4.25    9.94          10.81   66.88
C2          4.95    4.49    1.45          25.24    8.01   19.17          20.78   67.32
C3          5.28    4.47    0.74          25.18   12.32   29.48          31.96   67.32
C4          5.95    4.88    0.51          26.40   14.85   35.89          38.84   67.53
C5         24.15   23.12   11.24          55.19    8.30   19.85          21.51   67.32
C6         26.32   23.14    5.84          55.22   17.36   40.05          43.65   66.56
C7         28.72   23.28    2.46          55.36   26.31   61.01          66.44   66.67
C8         30.92   23.45    0.90          55.53   33.92   78.94          85.92   66.75
C9         48.71   49.02   33.72          75.47    3.96    9.29          10.10   66.93
C10        50.16   49.01   27.62          75.46    7.92   18.83          20.42   67.20
C11        51.89   49.00   22.53          75.45   12.50   27.93          30.60   65.88
C12        53.65   49.27   18.00          75.62   16.33   37.57          40.97   66.50
C13        59.53   66.97   65.50          85.49  -11.70  -10.20          15.52  221.07
C14        67.25   62.90   62.99          83.39   15.00  -11.41          18.85  322.74
C15        72.10   75.45   44.75          89.60   -1.36   18.98          19.03   94.09
C16        47.44   49.28   40.42          75.63   -0.20    0.32           0.40  122.08
C17        62.03   58.78   41.79          81.17   12.77    8.12          15.14   32.42
C18        54.64   62.45   43.34          83.15  -13.61    9.59          16.65  144.82
C19        52.24   53.22   60.70          78.00    2.41  -18.46          18.62  277.45
C20         1.77    1.47    0.69          12.41    9.40    8.30          12.54   41.46
C21        23.63   17.77    4.98          49.21   31.82   33.97          46.54   46.88
C22        35.59   32.30   17.70          63.59   15.62   17.51          23.46   48.25
D1          4.28    4.47    2.33          25.18   -0.42   10.13          10.15   92.39
D2          4.27    4.50    1.45          25.26   -0.97   19.12          19.15   92.92
D3          4.15    4.40    0.75          24.95   -1.31   28.95          28.98   92.60
D4          4.85    5.18    0.60          27.23   -1.78   35.66          35.70   92.86
D5         27.07   28.32   14.39          60.17   -0.94   19.60          19.63   92.74
D6         26.99   28.42    7.94          60.27   -1.69   39.84          39.88   92.43
D7         26.77   28.42    3.73          60.27   -2.58   60.26          60.32   92.46
D8         26.92   28.84    1.28          60.64   -3.54   82.27          82.34   92.46
D9         55.33   57.67   39.17          80.56   -0.70   10.46          10.49   93.82
D10        55.28   57.49   31.38          80.46   -0.38   21.41          21.42   91.03
D11        55.49   57.95   25.52          80.71   -0.97   31.49          31.50   91.76
D12        55.05   57.94   12.19          80.71   -2.05   61.01          61.05   91.93
D13        50.87   59.81   63.50          81.73  -17.25  -14.77          22.71  220.58
D14        61.98   54.68   59.76          78.86   22.65  -16.05          27.76  324.68
D15        69.97   73.08   35.90          88.48   -1.06   28.60          28.62   92.11
D16        35.91   37.42   30.63          67.59   -0.58    0.39           0.74  143.61
D17        55.16   49.56   32.11          75.80   19.38   12.27          22.94   32.34
D18        44.50   53.72   34.13          78.30  -20.05   13.57          24.21  145.90
D19        41.51   41.75   55.89          70.70    3.85  -26.16          26.45  278.38
D20        14.15   10.80    2.89          39.25   25.62   29.82          39.32   49.34
D21        21.95   21.32   12.00          53.30    6.59   14.30          15.74   65.26
D22        39.27   37.44   20.57          67.61   10.23   18.29          20.96   60.77
E1          3.93    4.45    2.41          25.11   -5.18    9.26          10.62  119.27
E2          3.66    4.53    1.55          25.35  -10.28   18.10          20.82  119.60
E3          3.32    4.53    0.82          25.36  -15.61   28.32          32.34  118.86
E4          3.48    4.95    0.66          26.60  -18.34   33.43          38.13  118.74
E5         12.98   14.82    8.05          45.39   -8.36   13.77          16.12  121.27
E6         11.75   14.68    4.87          45.19  -15.85   27.62          31.85  119.85
E7         10.90   14.97    2.70          45.59  -23.71   42.19          48.39  119.34
E8          9.62   14.85    1.12          45.42  -32.84   58.25          66.87  119.41
E9         38.29   41.16   28.90          70.29   -4.42    7.79           8.96  119.56
E10        37.14   41.52   24.33          70.54   -9.20   16.09          18.54  119.75
E11        35.80   41.51   20.29          70.53  -13.64   23.90          27.52  119.70
E12        33.15   41.66   13.33          70.63  -23.15   40.43          46.59  119.80
E13        43.53   53.38   61.33          78.10  -22.03  -18.92          29.04  220.66
E14        56.67   46.88   56.19          74.11   30.39  -20.59          36.70  325.88
E15        67.99   70.65   28.43          87.31   -0.29   37.91          37.91   90.44
E16        26.57   27.67   22.76          59.59   -0.44    0.14           0.48  158.08
E17        48.77   41.27   24.22          70.36   26.12   15.99          30.63   31.47
E18        36.04   45.94   26.31          73.51  -25.65   17.70          31.17  145.39
E19        32.65   32.07   50.97          63.40    6.27  -33.43          34.01  280.62
E20        25.01   17.16    1.27          48.46   41.05   61.43          73.88   56.25
E21        17.25   14.36    2.72          44.74   19.92   40.56          45.19   63.84
E22        30.26   26.03    8.32          58.07   20.54   34.61          40.25   59.32
F1          1.51    1.93    1.38          15.11   -9.10    2.53           9.45  164.46
F2          1.22    1.94    1.11          15.15  -17.92    6.16          18.95  161.02
F3          0.98    1.96    0.93          15.29  -26.49    9.15          28.02  160.95
F4          1.06    2.25    0.98          16.77  -30.02   10.79          31.90  160.24
F5          6.89    8.63    6.14          35.27  -13.52    4.29          14.19  162.37
F6          5.62    8.61    5.08          35.22  -26.88    9.35          28.46  160.81
F7          4.61    8.65    4.37          35.31  -39.68   13.38          41.88  161.36
F8          3.52    8.85    3.41          35.69  -57.03   20.01          60.44  160.66
F9         37.84   41.18   32.73          70.30   -5.94    1.86           6.22  162.55
F10        36.20   41.44   31.29          70.48  -12.07    4.34          12.83  160.19
F11        34.42   41.26   29.92          70.36  -17.54    6.28          18.63  160.28
F12        31.17   41.70   27.47          70.66  -30.39   10.82          32.25  160.40
F13        36.72   47.09   58.77          74.25  -26.56  -23.00          35.14  220.90
F14        51.46   39.72   52.36          69.27   38.03  -24.85          45.43  326.84
F15        66.12   68.13   21.83          86.07    0.94   47.60          47.61   88.86
F16        18.83   19.63   16.17          51.41   -0.47    0.07           0.53  167.47
F17        42.85   33.97   17.62          64.94   32.68   20.01          38.32   31.48
F18        28.53   38.68   19.86          68.52  -31.15   21.32          37.75  145.62
F19        25.11   23.87   45.78          55.96    9.11  -40.27          41.29  282.74
F20        26.27   25.36   12.19          57.43    7.64   20.87          22.23   69.90
F21        34.24   31.01   11.12          62.52   15.61   32.84          36.36   64.57
F22        38.82   36.22   16.10          66.69   12.79   26.57          29.49   64.30
G1          2.43    3.07    2.75          20.31   -9.92   -1.79          10.08  190.23
G2          1.94    3.02    2.90          20.13  -19.64   -3.25          19.91  189.41
G3          1.62    3.14    3.26          20.58  -29.65   -5.02          30.07  189.62
G4          1.74    3.49    3.63          21.92  -32.39   -5.22          32.80  189.15
G5          9.43   11.50   10.16          40.41  -12.82   -2.23          13.01  189.85
G6          8.00   11.47   10.77          40.37  -24.88   -4.27          25.25  189.74
G7          6.67   11.46   11.49          40.34  -37.58   -6.53          38.14  189.86
G8          5.24   11.48   12.31          40.38  -53.62   -8.86          54.35  189.38
G9         37.82   41.28   34.57          70.37   -6.28   -0.73           6.33  186.64
G10        35.73   41.43   35.67          70.48  -13.62   -2.12          13.78  188.84
G11        34.13   41.61   36.40          70.60  -19.62   -2.92          19.83  188.47
G12        30.80   41.62   37.94          70.61  -31.54   -5.03          31.94  189.07
G13        31.04   41.54   56.10          70.55  -30.37  -26.63          40.39  221.25
G14        46.32   33.17   48.25          64.30   45.48  -28.80          53.83  327.66
G15        63.99   65.28   16.52          84.63    2.37   56.51          56.56   87.59
G16        12.83   13.33   11.12          43.26   -0.21   -0.36           0.52  245.21
G17        37.32   27.55   12.40          59.48   39.03   23.80          45.71   31.38
G18        22.30   32.25   14.51          63.55  -36.00   25.11          43.89  145.10
G19        18.91   17.17   40.57          48.47   12.60  -46.69          48.36  285.10
G20        36.23   34.87   14.72          65.65    8.85   28.18          29.54   72.58
G21        35.05   33.44    9.62          64.52    9.79   41.11          42.26   76.61
G22        47.42   43.51    2.78          71.90   15.80   86.96          88.39   79.70
H1          2.61    3.04    3.44          20.19   -5.91   -6.98           9.14  229.76
H2          2.30    3.02    4.52          20.13  -11.74  -13.64          17.99  229.27
H3          2.03    3.03    5.84          20.16  -17.75  -20.40          27.04  228.98
H4          2.22    3.47    7.23          21.82  -20.86  -23.61          31.51  228.54
H5          9.90   11.38   12.33          40.22   -8.23   -9.18          12.33  228.16
H6          9.03   11.51   15.84          40.43  -16.17  -18.07          24.25  228.19
H7          8.20   11.59   19.92          40.55  -23.92  -27.02          36.09  228.48
H8          7.03   11.63   26.00          40.62  -35.14  -38.47          52.10  227.60
H9         38.39   41.46   37.70          70.49   -4.99   -4.91           7.01  224.60
H10        37.07   41.34   41.49          70.41   -8.90  -10.04          13.42  228.46
H11        35.54   41.32   45.32          70.40  -13.91  -14.82          20.33  226.83
H12        32.86   41.85   56.41          70.76  -24.73  -26.59          36.31  227.07
H13        26.16   36.49   53.24          66.89  -33.63  -29.90          45.00  221.64
H14        41.75   27.69   44.39          59.61   52.36  -32.30          61.52  328.34
H15        62.16   62.51   11.73          83.18    4.40   66.63          66.78   86.22
H16         8.37    8.72    7.14          35.43   -0.34    0.21           0.51  127.41
H17        32.64   22.42    8.05          54.47   44.71   29.42          53.52   33.35
H18        17.12   26.58   10.07          58.58  -40.44   29.39          49.99  143.99
H19        14.07   11.99   35.77          41.21   16.67  -52.74          55.31  287.54
H20        41.42   41.88   15.50          70.79    3.19   35.09          35.24   84.81
H21        31.14   32.32   20.45          63.61   -0.09   11.63          11.63   90.46
H22        35.39   38.58   11.53          68.45   -6.00   41.80          42.23   98.16
I1          4.39    4.48    5.98          25.19    0.99  -12.34          12.38  274.59
I2          4.46    4.49    8.79          25.22    1.80  -23.76          23.83  274.33
I3          4.57    4.54   12.35          25.39    2.54  -34.84          34.93  274.17
I4          4.55    4.43   20.61          25.06    3.66  -55.16          55.28  273.80
I5         14.33   14.75   15.45          45.30    0.62   -8.74           8.77  274.07
I6         14.28   14.66   19.83          45.16    0.93  -18.90          18.92  272.82
I7         14.54   14.76   24.47          45.31    1.88  -27.66          27.73  273.88
I8         14.83   14.90   38.55          45.49    2.86  -49.16          49.25  273.33
I9         40.02   41.26   37.38          70.36    0.73   -4.70           4.76  278.86
I10        39.98   41.19   41.07          70.31    0.81   -9.69           9.73  274.82
I11        39.75   41.09   44.84          70.24    0.41  -14.51          14.52  271.60
I12        40.20   41.11   55.78          70.25    1.75  -26.81          26.87  273.73
I13        21.51   31.40   49.93          62.84  -36.61  -33.23          49.44  222.23
I14        37.02   22.40   40.08          54.45   59.77  -35.75          69.64  329.11
I15        60.22   59.56    8.01          81.60    6.71   76.35          76.64   84.98
I16         4.93    5.12    4.18          27.08   -0.10    0.29           0.48  108.09
I17        28.14   17.75    4.85          49.19   50.65   34.61          61.35   34.35
I18        12.67   21.35    6.64          53.33  -44.67   33.21          55.66  143.38
I19        10.09    7.78   30.79          33.52   22.19  -58.60          62.67  290.74
I20        41.76   45.94   15.99          73.51   -7.51   38.59          39.31  101.01
I21        11.02   14.79    3.46          45.35  -21.79   36.29          42.33  120.98
I22        28.47   36.97   17.52          67.26  -25.90   24.22          35.46  136.92
J1          2.20    1.94    3.09          15.17    7.39  -13.18          15.11  299.27
J2          2.51    1.92    5.13          15.05   14.41  -25.71          29.48  299.27
J3          2.88    1.89    8.01          14.92   21.87  -38.62          44.39  299.52
J4          3.88    1.92   18.37          15.05   37.47  -67.67          77.35  298.97
J5         11.76   11.44   12.62          40.31    5.22   -9.87          11.17  297.89
J6         12.35   11.33   16.14          40.14   10.06  -19.30          21.76  297.53
J7         13.26   11.34   20.57          40.15   16.06  -29.06          33.20  298.93
J8         15.33   11.27   34.67          40.03   29.35  -53.18          60.74  298.89
J9         40.39   40.98   37.56          70.16    2.73   -5.29           5.95  297.30
J10        41.70   41.47   41.03          70.50    5.25   -9.30          10.68  299.48
J11        42.29   40.98   44.98          70.16    8.51  -14.82          17.09  299.85
J12        44.48   41.02   55.07          70.19   14.82  -26.17          30.07  299.53
J13        17.37   26.52   46.10          58.52  -38.85  -36.23          53.12  223.00
J14        32.49   17.81   35.54          49.26   66.60  -38.52          76.94  329.96
J15        58.64   56.92    5.37          80.14    9.25   85.33          85.83   83.81
J16         2.67    2.74    2.29          18.99    0.35   -0.19           0.47  278.82
J17        24.36   14.09    2.73          44.36   55.90   39.84          68.65   35.48
J18         9.07   16.78    4.24          47.98  -48.41   35.93          60.29  143.41
J19         7.11    4.75   26.02          26.00   28.67  -63.71          69.86  294.22
J20        30.44   39.33   22.56          68.99  -25.86   16.73          30.81  147.10
J21         4.41    8.27    1.48          34.53  -38.97   34.75          52.21  138.27
J22         1.33    2.13    0.92          16.16  -18.74   10.74          21.60  150.17
K1          5.36    4.47    5.35          25.16   13.36   -9.38          16.33  324.93
K2          6.64    4.54    7.55          25.37   26.62  -18.77          32.57  324.81
K3          7.89    4.44   10.02          25.06   40.06  -28.24          49.02  324.82
K4          9.60    4.35   13.49          24.81   55.88  -39.00          68.14  325.08
K5         15.96   14.62   15.15          45.12   11.09   -8.29          13.85  323.20
K6         18.22   14.72   18.64          45.24   22.95  -16.21          28.10  324.76
K7         20.32   14.53   22.39          44.98   34.72  -24.35          42.41  324.95
K8         26.60   14.56   33.75          45.02   62.48  -43.26          75.99  325.30
K9         41.87   41.23   37.13          70.34    6.49   -4.40           7.84  325.90
K10        44.08   41.10   40.39          70.24   13.42   -8.92          16.12  326.40
K11        46.21   40.94   44.04          70.13   20.01  -13.72          24.27  325.57
K12        52.03   41.14   53.27          70.28   35.19  -24.10          42.65  325.60
K13        13.67   21.75   41.69          53.76  -39.94  -39.02          55.84  224.33
K14        28.30   14.06   31.09          44.31   72.31  -40.47          82.86  330.77
K15        56.17   53.21    3.19          78.00   12.43   94.44          95.25   82.50
K16         1.24    1.29    1.03          11.18    0.08    0.40           0.46   78.19
K17        20.87   11.12    1.24          39.77   59.78   46.75          75.89   38.03
K18         6.04   12.41    2.37          41.86  -50.88   38.49          63.80  142.89
K19         4.99    2.74   21.41          18.95   35.63  -67.30          76.15  297.90
K20         2.44    3.21    1.94          20.88  -12.15    6.28          13.68  152.65
K21         1.39    1.87    1.54          14.80  -11.06    0.03          11.06  179.85
K22         1.76    2.28    2.95          16.89  -10.11   -9.17          13.65  222.21
L1          3.67    2.99    2.78          20.00   12.96   -2.53          13.21  348.95
L2          4.64    3.06    3.10          20.27   25.51   -4.45          25.89  350.09
L3          5.70    3.12    3.55          20.53   37.34   -7.11          38.01  349.22
L4          6.72    3.39    4.01          21.56   43.84   -8.25          44.61  349.34
L5         13.17   11.29   10.23          40.07   15.83   -3.05          16.12  349.07
L6         15.77   11.30   11.23          40.08   31.73   -6.19          32.33  348.97
L7         18.89   11.44   12.08          40.30   47.69   -8.33          48.41  350.09
L8         22.84   11.43   13.11          40.30   66.70  -11.25          67.65  350.43
L9         42.13   40.97   34.50          70.15    8.08   -1.00           8.14  352.93
L10        44.59   40.99   35.48          70.17   15.24   -2.39          15.42  351.08
L11        46.99   40.91   36.20          70.11   22.30   -3.49          22.57  351.10
L12        50.22   41.13   37.01          70.27   30.45   -4.35          30.76  351.86
L13         8.73   14.41   32.51          44.81  -37.59  -41.77          56.20  228.01
L14        22.69    9.91   24.64          37.68   77.31  -41.11          87.56  332.00
L15        50.34   45.19    1.43          73.01   18.92  101.73         103.47   79.46
L16         0.33    0.34    0.28           3.08    0.09    0.09           0.16   94.92
L17        16.25    7.82    0.33          33.61   62.35   51.69          80.99   39.66
L18         2.64    6.44    0.89          30.50  -49.71   36.03          61.40  144.07
L19         2.93    1.15   14.50          10.15   43.35  -66.93          79.75  302.93
L20         0.71    0.78    0.78           7.01   -1.45   -2.53           2.92  240.33
L21         0.97    0.91    0.98           8.24    3.51   -3.80           5.18  312.73
L22         2.04    1.62    1.40          13.36   11.83   -0.70          11.85  356.61
GS0        77.92   80.87   68.67          92.07   -0.12   -1.78           1.79  266.18
GS1        68.66   71.26   58.22          87.61   -0.10    0.59           0.61  100.89
