targets/wolf_faust/reflective/R070919.it8
IT8.7/2
ORIGINATOR "Wolf Faust"
DESCRIPTOR "Kodak Professional Paper, L* a* b* (light D50, viewing angle 2)"
MANUFACTURER "Wolf Faust - http://www.coloraid.de"
CREATED "November 03, 2007"
PROD_DATE "2007:09"
SAMPLE_BACKING "black"
SERIAL "5x7 R070919 Batch Average Data"
MATERIAL "Kodak Professional Ultra Endura"
KEYWORD "MEAN_DE" # Mean Delta E of samples compared to batch average
NUMBER_OF_FIELDS 18
BEGIN_DATA_FORMAT
SAMPLE_ID  XYZ_X   XYZ_Y   XYZ_Z          LAB_L   LAB_A   LAB_B          LAB_C   LAB_H          D_RED  D_GREEN  D_BLUE  D_VIS          STDEV_X STDEV_Y STDEV_Z        MEAN_DE  STDEV_DE
END_DATA_FORMAT
NUMBER_OF_SETS 288
BEGIN_DATA
A1          3.52    2.95    2.13          19.85   11.35    2.67          11.66   13.24           1.36    1.64    1.57    1.49            0.07    0.06    0.01           0.47     0.53
A2          4.41    2.98    1.78          19.98   23.77    6.35          24.60   14.97           1.20    1.81    1.65    1.45            0.07    0.05    0.02           0.35     0.42 
A3          5.18    2.90    1.46          19.63   35.07    9.37          36.30   14.96           1.11    2.08    1.75    1.42            0.10    0.06    0.01           0.42     0.48
A4          6.08    3.13    1.43          20.54   41.47   11.19          42.95   15.09           1.03    2.23    1.76    1.37            0.10    0.06    0.02           0.42     0.50 
A5         12.86   11.27    8.31          40.04   13.93    3.55          14.38   14.30           0.80    1.03    0.99    0.92            0.12    0.10    0.08           0.38     0.41
A6         15.06   11.15    7.21          39.83   28.63    7.50          29.60   14.67           0.68    1.15    1.05    0.90            0.11    0.09    0.08           0.45     0.48 
A7         17.37   11.11    6.33          39.77   41.96   11.17          43.42   14.90           0.59    1.29    1.11    0.87            0.07    0.06    0.05           0.36     0.40
A8         21.19   11.17    5.23          39.87   60.90   16.60          63.13   15.25           0.49    1.59    1.21    0.83            0.13    0.10    0.05           0.35     0.39 
A9         41.15   40.62   32.47          69.91    6.15    1.57           6.35   14.27           0.34    0.41    0.41    0.38            0.18    0.20    0.18           0.27     0.29
A10        43.66   40.77   31.01          70.02   13.17    3.99          13.76   16.83           0.29    0.44    0.43    0.37            0.11    0.12    0.18           0.21     0.25
A11        46.00   40.74   29.83          70.00   20.02    5.79          20.84   16.14           0.25    0.46    0.44    0.36            0.14    0.17    0.19           0.21     0.24
A12        48.23   40.77   28.97          70.02   26.14    7.22          27.12   15.44           0.21    0.49    0.46    0.36            0.22    0.20    0.20           0.25     0.27 
A13        73.64   77.15   67.19          90.39   -1.55   -3.32           3.66  245.02           0.12    0.10    0.09    0.12            0.10    0.11    0.10           0.06     0.07
A14        74.50   76.52   66.94          90.10    1.47   -3.59           3.87  292.28           0.11    0.11    0.10    0.12            0.12    0.13    0.13           0.07     0.08 
A15        74.38   77.52   62.19          90.56   -0.74    1.72           1.87  113.32           0.11    0.11    0.13    0.11            0.11    0.12    0.15           0.11     0.14
A16        74.70   77.58   64.29          90.59   -0.21   -0.26           0.34  231.26           0.11    0.11    0.11    0.11            0.17    0.18    0.13           0.08     0.10
A17        72.62   74.52   61.03          89.17    1.61    0.46           1.67   15.84           0.11    0.13    0.14    0.13            0.14    0.13    0.15           0.10     0.12
A18        72.53   76.24   62.06          89.97   -2.04    0.83           2.20  157.86           0.12    0.11    0.13    0.12            0.15    0.16    0.09           0.10     0.12 
A19        73.74   76.40   66.97          90.04    0.16   -3.72           3.72  272.49           0.12    0.11    0.10    0.12            0.13    0.14    0.15           0.10     0.11
A20         1.35    1.08    0.73           9.60   10.12    2.84          10.52   15.66           1.78    2.10    2.03    1.92            0.02    0.02    0.01           0.37     0.43 
A21         5.14    3.27    0.77          21.10   28.27   21.81          35.71   37.65           1.11    1.87    1.99    1.39            0.08    0.05    0.01           0.35     0.41
A22        10.18    5.83    0.86          28.98   42.45   33.93          54.34   38.63           0.79    1.78    1.95    1.12            0.09    0.05    0.01           0.28     0.31
B1          3.36    2.96    1.68          19.88    8.63    7.29          11.30   40.17           1.38    1.61    1.66    1.49            0.05    0.04    0.01           0.43     0.50
B2          3.97    2.96    1.04          19.89   17.90   15.34          23.57   40.60           1.25    1.74    1.86    1.46            0.07    0.06    0.01           0.45     0.51
B3          4.52    2.94    0.61          19.79   25.97   22.54          34.39   40.95           1.17    1.89    2.08    1.44            0.08    0.06    0.01           0.41     0.46
B4          5.43    3.15    0.35          20.62   33.81   29.01          44.55   40.62           1.07    2.04    2.33    1.38            0.08    0.05    0.01           0.36     0.42
B5         12.94   11.31    6.15          40.09   14.24   12.55          18.98   41.38           0.78    1.04    1.11    0.91            0.15    0.13    0.07           0.34     0.41
B6         14.69   11.12    4.10          39.79   26.58   22.68          34.94   40.48           0.68    1.15    1.28    0.89            0.09    0.07    0.03           0.31     0.36
B7         17.23   11.21    2.39          39.94   40.50   35.01          53.53   40.84           0.58    1.30    1.51    0.86            0.10    0.09    0.02           0.29     0.32
B8         20.61   11.16    1.02          39.85   58.22   50.06          76.78   40.69           0.49    1.60    1.87    0.82            0.11    0.09    0.01           0.25     0.30
B9         40.93   40.49   30.19          69.82    5.86    4.93           7.66   40.03           0.34    0.41    0.44    0.38            0.17    0.20    0.21           0.28     0.33
B10        42.96   40.50   27.01          69.83   11.96   10.14          15.68   40.31           0.29    0.44    0.48    0.37            0.12    0.16    0.20           0.28     0.31
B11        45.27   40.65   24.12          69.93   18.23   15.43          23.89   40.23           0.25    0.47    0.53    0.36            0.15    0.14    0.13           0.17     0.19
B12        47.34   40.60   21.59          69.90   24.20   20.18          31.51   39.83           0.21    0.49    0.58    0.35            0.12    0.11    0.12           0.22     0.27
B13        67.06   72.30   66.23          88.11   -5.77   -6.36           8.59  227.76           0.18    0.12    0.10    0.15            0.08    0.08    0.12           0.11     0.12
B14        70.78   70.12   65.02          87.06    6.84   -7.04           9.81  314.16           0.12    0.17    0.11    0.15            0.12    0.14    0.08           0.13     0.14
B15        72.42   75.75   54.10          89.74   -1.30    8.58           8.68   98.62           0.11    0.12    0.18    0.12            0.17    0.18    0.08           0.14     0.18
B16        60.06   62.36   51.51          83.10   -0.16   -0.06           0.24  174.52           0.20    0.20    0.21    0.21            0.16    0.17    0.26           0.19     0.23
B17        67.56   67.42   52.23          85.72    5.66    3.65           6.73   32.87           0.13    0.19    0.20    0.16            0.20    0.21    0.20           0.17     0.19
B18        64.14   69.73   53.21          86.86   -6.90    4.57           8.27  146.51           0.19    0.14    0.19    0.16            0.13    0.12    0.13           0.15     0.16
B19        63.12   65.01   63.98          84.49    1.01  -10.48          10.53  275.50           0.20    0.18    0.12    0.19            0.08    0.08    0.11           0.13     0.15
B20         2.80    1.98    0.73          15.41   18.22   12.85          22.30   35.19           1.40    1.95    2.02    1.63            0.04    0.03    0.01           0.37     0.41
B21         8.46    4.95    0.83          26.59   38.57   30.27          49.03   38.12           0.87    1.82    1.96    1.19            0.10    0.06    0.01           0.34     0.39
B22        29.31   25.00   12.24          57.08   21.19   20.11          29.22   43.51           0.41    0.71    0.82    0.56            0.07    0.10    0.09           0.20     0.23
C1          4.57    4.42    2.35          25.02    4.16    9.66          10.52   66.75           1.27    1.39    1.52    1.33            0.06    0.05    0.02           0.45     0.50
C2          4.86    4.42    1.44          25.03    7.87   18.89          20.47   67.40           1.20    1.44    1.72    1.32            0.08    0.06    0.01           0.41     0.46
C3          5.19    4.41    0.74          24.98   12.15   29.14          31.58   67.36           1.15    1.49    1.99    1.30            0.08    0.06    0.01           0.41     0.45
C4          5.85    4.81    0.51          26.17   14.64   35.49          38.39   67.58           1.09    1.48    2.14    1.26            0.10    0.07    0.01           0.42     0.50
C5         23.67   22.71   11.12          54.77    8.04   19.48          21.07   67.59           0.54    0.69    0.86    0.62            0.11    0.12    0.09           0.34     0.42
C6         25.74   22.69    5.79          54.75   16.98   39.48          42.97   66.73           0.46    0.75    1.12    0.60            0.18    0.16    0.06           0.33     0.36
C7         28.07   22.84    2.45          54.90   25.78   60.29          65.57   66.85           0.40    0.82    1.48    0.58            0.06    0.06    0.02           0.21     0.24
C8         30.19   22.97    0.90          55.04   33.28   78.18          84.96   66.94           0.35    0.88    1.91    0.57            0.10    0.10    0.01           0.18     0.20
C9         47.60   47.97   33.35          74.81    3.75    8.69           9.47   66.69           0.27    0.33    0.39    0.31            0.16    0.19    0.17           0.21     0.23
C10        48.97   47.95   27.32          74.79    7.59   18.18          19.70   67.33           0.24    0.36    0.47    0.30            0.18    0.23    0.17           0.23     0.27
C11        50.60   47.93   22.29          74.78   12.01   27.24          29.77   66.20           0.20    0.38    0.56    0.30            0.15    0.18    0.14           0.24     0.28
C12        52.27   48.17   17.83          74.93   15.74   36.76          39.99   66.83           0.18    0.39    0.65    0.29            0.19    0.20    0.14           0.27     0.30
C13        58.10   65.32   64.47          84.65  -11.51  -10.67          15.69  222.85           0.27    0.14    0.11    0.20            0.11    0.11    0.12           0.14     0.15
C14        65.55   61.43   62.03          82.61   14.62  -11.84          18.81  321.00           0.14    0.24    0.13    0.20            0.15    0.17    0.17           0.16     0.18
C15        70.20   73.57   44.15          88.72   -1.58   18.19          18.26   94.97           0.11    0.14    0.27    0.13            0.21    0.22    0.22           0.16     0.19
C16        46.39   48.19   39.85          74.94   -0.21   -0.12           0.27  217.87           0.31    0.31    0.32    0.32            0.11    0.12    0.12           0.17     0.20
C17        60.40   57.37   41.22          80.39   12.35    7.50          14.44   31.26           0.15    0.28    0.30    0.23            0.22    0.23    0.28           0.26     0.29
C18        53.31   60.92   42.76          82.34  -13.49    8.90          16.16  146.59           0.28    0.18    0.28    0.22            0.15    0.14    0.19           0.22     0.24
C19        51.04   52.01   59.76          77.29    2.38  -18.76          18.91  277.23           0.30    0.27    0.15    0.29            0.12    0.12    0.16           0.16     0.19
C20         1.74    1.45    0.69          12.28    9.32    8.10          12.35   40.99           1.66    1.96    2.04    1.79            0.03    0.02    0.01           0.32     0.37
C21        23.12   17.43    4.94          48.80   31.34   33.49          45.86   46.90           0.47    0.97    1.20    0.69            0.11    0.08    0.04           0.26     0.30
C22        34.82   31.66   17.55          63.06   15.25   16.94          22.79   48.00           0.36    0.57    0.67    0.47            0.14    0.15    0.17           0.30     0.33
D1          4.22    4.41    2.31          24.98   -0.50    9.89           9.91   92.93           1.33    1.36    1.52    1.35            0.06    0.05    0.02           0.43     0.46
D2          4.19    4.42    1.44          25.02   -1.04   18.80          18.83   93.16           1.32    1.36    1.71    1.34            0.06    0.06    0.02           0.35     0.39
D3          4.08    4.33    0.74          24.73   -1.39   28.63          28.67   92.77           1.32    1.38    1.98    1.34            0.06    0.05    0.01           0.32     0.35
D4          4.79    5.11    0.60          27.06   -1.74   35.38          35.42   92.82           1.25    1.31    2.07    1.27            0.08    0.07    0.01           0.45     0.52
D5         26.55   27.80   14.29          59.71   -1.07   19.07          19.10   93.20           0.52    0.56    0.75    0.55            0.16    0.17    0.17           0.37     0.43
D6         26.46   27.92    7.90          59.81   -1.86   39.24          39.28   92.72           0.51    0.58    0.99    0.54            0.17    0.19    0.10           0.35     0.40
D7         26.28   27.94    3.71          59.84   -2.69   59.61          59.67   92.58           0.51    0.59    1.30    0.53            0.10    0.11    0.04           0.29     0.33
D8         26.35   28.28    1.27          60.14   -3.71   81.53          81.61   92.60           0.52    0.60    1.78    0.53            0.13    0.11    0.01           0.21     0.23
D9         54.07   56.42   38.71          79.85   -0.86    9.86           9.90   94.97           0.23    0.25    0.33    0.25            0.16    0.19    0.24           0.21     0.24
D10        53.98   56.23   31.05          79.75   -0.61   20.69          20.70   91.70           0.22    0.26    0.42    0.24            0.18    0.20    0.13           0.19     0.22
D11        54.13   56.64   25.28          79.98   -1.23   30.66          30.69   92.30           0.21    0.26    0.50    0.24            0.13    0.15    0.14           0.16     0.19
D12        53.68   56.63   12.09          79.97   -2.33   60.02          60.07   92.22           0.20    0.28    0.81    0.23            0.12    0.13    0.07           0.19     0.23
D13        49.81   58.44   62.47          80.98  -16.84  -15.07          22.60  221.82           0.38    0.17    0.13    0.26            0.15    0.12    0.11           0.21     0.24
D14        60.47   53.47   58.90          78.15   22.14  -16.40          27.55  323.46           0.17    0.33    0.16    0.26            0.18    0.18    0.20           0.15     0.17
D15        68.04   71.21   35.48          87.58   -1.34   27.64          27.68   92.78           0.12    0.16    0.36    0.14            0.22    0.23    0.17           0.16     0.18
D16        35.21   36.71   30.36          67.06   -0.64   -0.11           0.69  185.33           0.43    0.43    0.43    0.44            0.12    0.09    0.16           0.29     0.33
D17        53.74   48.42   31.75          75.09   18.84   11.60          22.12   31.61           0.18    0.38    0.41    0.29            0.12    0.12    0.18           0.24     0.28
D18        43.51   52.50   33.77          77.58  -19.84   12.85          23.64  147.07           0.39    0.23    0.38    0.29            0.13    0.12    0.15           0.20     0.25
D19        40.69   40.90   55.06          70.11    3.90  -26.31          26.60  278.43           0.42    0.37    0.19    0.40            0.12    0.11    0.11           0.21     0.25
D20        13.88   10.62    2.87          38.93   25.27   29.43          38.79   49.35           0.70    1.17    1.43    0.91            0.07    0.05    0.04           0.30     0.34
D21        21.53   20.94   11.90          52.88    6.45   13.90          15.32   65.12           0.59    0.72    0.83    0.66            0.09    0.09    0.11           0.24     0.28
D22        38.37   36.68   20.34          67.03    9.87   17.78          20.33   60.96           0.33    0.48    0.60    0.42            0.12    0.14    0.14           0.27     0.30
E1          3.86    4.39    2.40          24.91   -5.22    9.00          10.41  120.16           1.40    1.33    1.50    1.36            0.06    0.06    0.02           0.41     0.49
E2          3.59    4.45    1.55          25.12  -10.27   17.77          20.53  120.01           1.45    1.30    1.68    1.36            0.05    0.05    0.02           0.29     0.34
E3          3.26    4.46    0.82          25.14  -15.60   27.99          32.05  119.12           1.53    1.28    1.93    1.36            0.05    0.05    0.01           0.33     0.39
E4          3.42    4.88    0.66          26.38  -18.31   33.05          37.78  118.98           1.53    1.23    2.02    1.33            0.05    0.05    0.01           0.37     0.42
E5         12.74   14.57    7.99          45.03   -8.40   13.38          15.80  122.14           0.88    0.81    0.99    0.84            0.10    0.10    0.08           0.45     0.50
E6         11.55   14.44    4.84          44.86  -15.86   27.20          31.49  120.24           0.94    0.79    1.19    0.85            0.08    0.09    0.05           0.40     0.49
E7         10.70   14.71    2.69          45.24  -23.70   41.71          47.97  119.60           1.01    0.76    1.43    0.85            0.07    0.06    0.02           0.30     0.35
E8          9.44   14.58    1.11          45.05  -32.72   57.69          66.32  119.56           1.16    0.74    1.82    0.86            0.09    0.09    0.01           0.29     0.34
E9         37.48   40.33   28.62          69.70   -4.49    7.25           8.53  121.78           0.41    0.38    0.46    0.40            0.11    0.11    0.19           0.27     0.33
E10        36.39   40.70   24.10          69.97   -9.22   15.53          18.07  120.69           0.42    0.37    0.53    0.39            0.15    0.18    0.16           0.24     0.28
E11        35.05   40.66   20.11          69.94  -13.59   23.25          26.93  120.31           0.45    0.36    0.60    0.39            0.16    0.17    0.18           0.33     0.37
E12        32.46   40.80   13.22          70.04  -23.03   39.71          45.90  120.11           0.50    0.34    0.77    0.40            0.13    0.11    0.12           0.29     0.34
E13        42.56   52.10   60.35          77.34  -21.62  -19.26          28.96  221.70           0.49    0.20    0.14    0.32            0.15    0.13    0.09           0.19     0.21
E14        55.32   45.91   55.41          73.49   29.75  -20.84          36.33  324.99           0.19    0.42    0.19    0.32            0.09    0.09    0.09           0.13     0.16
E15        66.10   68.85   28.08          86.43   -0.63   36.98          36.98   90.97           0.12    0.18    0.46    0.15            0.19    0.19    0.17           0.21     0.25
E16        25.99   27.08   22.42          59.05   -0.51   -0.15           0.55  195.75           0.56    0.56    0.56    0.57            0.14    0.14    0.16           0.26     0.28
E17        47.54   40.37   23.98          69.73   25.48   15.34          29.74   31.06           0.21    0.50    0.53    0.36            0.08    0.07    0.08           0.14     0.15
E18        35.27   44.96   26.06          72.86  -25.46   17.01          30.63  146.25           0.50    0.28    0.49    0.37            0.13    0.11    0.16           0.30     0.32
E19        32.02   31.42   50.24          62.86    6.33  -33.53          34.13  280.70           0.55    0.48    0.23    0.52            0.09    0.08    0.09           0.19     0.21
E20        24.47   16.85    1.26          48.07   40.38   60.82          73.01   56.42           0.43    1.08    1.76    0.69            0.09    0.08    0.01           0.18     0.22
E21        16.96   14.14    2.71          44.43   19.67   40.16          44.72   63.91           0.62    1.00    1.44    0.80            0.11    0.08    0.02           0.31     0.33
E22        29.59   25.52    8.28          57.58   20.11   33.90          39.42   59.33           0.40    0.71    0.98    0.55            0.13    0.14    0.09           0.25     0.27
F1          1.48    1.89    1.37          14.91   -9.01    2.29           9.29  165.74           1.91    1.64    1.74    1.75            0.02    0.03    0.01           0.29     0.34
F2          1.19    1.90    1.10          14.95  -17.78    5.90          18.73  161.65           2.11    1.58    1.82    1.77            0.02    0.03    0.01           0.35     0.38
F3          0.97    1.93    0.93          15.13  -26.31    8.89          27.78  161.33           2.36    1.52    1.89    1.78            0.01    0.02    0.02           0.27     0.31
F4          1.05    2.22    0.98          16.61  -29.84   10.57          31.66  160.50           2.38    1.45    1.86    1.72            0.01    0.02    0.01           0.22     0.26
F5          6.76    8.48    6.09          34.96  -13.47    3.96          14.04  163.61           1.22    1.00    1.11    1.09            0.08    0.09    0.07           0.45     0.50
F6          5.52    8.46    5.05          34.92  -26.74    9.00          28.22  161.39           1.42    0.95    1.18    1.11            0.06    0.07    0.06           0.49     0.54
F7          4.54    8.52    4.33          35.04  -39.37   13.12          41.50  161.57           1.66    0.90    1.24    1.13            0.06    0.06    0.03           0.37     0.42
F8          3.44    8.66    3.40          35.32  -56.68   19.42          59.91  161.08           2.15    0.83    1.33    1.14            0.01    0.02    0.03           0.20     0.27
F9         37.06   40.35   32.36          69.72   -5.96    1.40           6.12  166.72           0.43    0.37    0.40    0.40            0.17    0.16    0.21           0.29     0.33
F10        35.39   40.54   30.99          69.85  -12.07    3.73          12.64  162.80           0.47    0.35    0.42    0.40            0.19    0.14    0.11           0.32     0.36
F11        33.73   40.42   29.59          69.77  -17.40    5.79          18.34  161.59           0.51    0.34    0.44    0.41            0.16    0.14    0.16           0.32     0.39
F12        30.43   40.72   27.16          69.98  -30.17   10.16          31.84  161.40           0.60    0.30    0.47    0.42            0.19    0.17    0.19           0.35     0.40
F13        36.00   46.04   57.89          73.57  -26.05  -23.28          34.94  221.78           0.61    0.23    0.16    0.38            0.21    0.19    0.11           0.23     0.29
F14        50.22   38.86   51.61          68.65   37.41  -25.09          45.04  326.15           0.23    0.53    0.22    0.38            0.13    0.12    0.16           0.15     0.17
F15        64.25   66.40   21.68          85.20    0.51   46.39          46.39   89.37           0.12    0.21    0.57    0.16            0.22    0.23    0.14           0.20     0.25
F16        18.48   19.28   16.03          51.01   -0.54   -0.29           0.64  204.20           0.71    0.71    0.71    0.72            0.11    0.09    0.11           0.32     0.37
F17        41.77   33.24   17.48          64.36   31.95   19.33          37.34   31.18           0.25    0.63    0.67    0.43            0.08    0.08    0.09           0.17     0.20
