targets/wolf_faust/reflective/R070807WhiteBacking.it8
IT8.7/2
ORIGINATOR "Wolf Faust"
DESCRIPTOR "L* a* b* Batch average data (light D50, viewing angle 2)"
MANUFACTURER "Wolf Faust - http://www.coloraid.de"
CREATED "October 11, 2014"
PROD_DATE "2007:08"
SAMPLE_BACKING "white"
SERIAL "R070807"
MATERIAL "Kodak Professional Ultra Endura - Lustreless"
NUMBER_OF_FIELDS 13
BEGIN_DATA_FORMAT
SAMPLE_ID  XYZ_X   XYZ_Y   XYZ_Z          LAB_L   LAB_A   LAB_B          LAB_C   LAB_H          D_RED  D_GREEN  D_BLUE  D_VIS
END_DATA_FORMAT
NUMBER_OF_SETS 288
BEGIN_DATA
A1          3.57    3.02    2.01          20.13   10.90    4.29          11.72   21.48           1.35    1.62    1.59    1.48
A2          4.44    3.05    1.70          20.26   22.97    7.66          24.22   18.44           1.20    1.78    1.67    1.44
A3          6.52    3.80    1.84          23.00   35.63   10.93          37.27   17.06           1.00    1.89    1.65    1.31
A4          5.11    3.03    1.53          20.15   31.96    9.40          33.32   16.39           1.12    1.96    1.72    1.42
A5         12.77   11.24    7.93          39.98   13.53    4.91          14.40   19.93           0.80    1.03    1.01    0.92
A6         15.00   11.12    6.80          39.77   28.50    9.13          29.93   17.77           0.68    1.15    1.08    0.90
A7         17.52   11.22    5.95          39.95   42.03   13.26          44.08   17.51           0.59    1.28    1.14    0.86
A8         21.34   11.31    4.88          40.10   60.63   18.81          63.48   17.23           0.49    1.57    1.23    0.82
A9         41.82   41.34   32.00          70.41    6.01    3.15           6.80   27.55           0.33    0.40    0.41    0.38
A10        43.74   40.94   30.47          70.13   12.91    5.03          13.87   21.26           0.29    0.43    0.43    0.37
A11        46.58   41.34   29.49          70.41   19.86    7.07          21.08   19.57           0.24    0.46    0.45    0.36
A12        48.92   41.24   28.39          70.34   26.62    8.73          28.01   18.15           0.20    0.49    0.46    0.35
A13        73.57   78.01   67.10          90.78   -3.38   -2.56           4.24  217.13           0.13    0.09    0.09    0.11
A14        75.47   77.86   66.91          90.72    0.80   -2.50           2.63  287.72           0.10    0.11    0.10    0.11
A15        76.00   79.65   63.23          91.53   -1.61    2.38           2.87  124.11           0.10    0.09    0.12    0.10
A16        75.44   78.58   63.32          91.05   -0.67    1.46           1.61  114.52           0.10    0.10    0.12    0.10
A17        74.04   76.16   62.41          89.93    1.25    0.42           1.32   18.84           0.11    0.12    0.12    0.12
A18        73.22   77.70   63.69          90.64   -3.50    0.41           3.53  173.29           0.12    0.10    0.12    0.11
A19        74.94   78.33   67.02          90.93   -1.20   -2.24           2.54  241.84           0.11    0.10    0.09    0.11
A20         1.54    1.18    0.74          10.42   12.09    4.02          12.74   18.38           1.70    2.10    2.02    1.87
A21         5.32    3.43    0.87          21.69   27.83   21.13          34.95   37.20           1.09    1.83    1.95    1.37
A22        10.34    5.95    0.89          29.30   42.33   33.84          54.20   38.65           0.79    1.76    1.93    1.11
B1          3.41    3.02    1.64          20.14    8.40    8.18          11.72   44.25           1.37    1.60    1.68    1.49
B2          4.00    3.02    1.04          20.11   17.48   15.72          23.51   41.97           1.25    1.73    1.87    1.46
B3          5.62    3.82    0.96          23.07   25.40   22.08          33.66   40.99           1.08    1.72    1.90    1.33
B4          4.37    2.91    0.71          19.68   24.43   20.60          31.96   40.14           1.18    1.86    2.03    1.45
B5         12.68   11.05    5.75          39.66   14.33   13.65          19.80   43.61           0.78    1.05    1.14    0.92
B6         14.75   11.11    3.76          39.76   27.04   24.74          36.65   42.46           0.67    1.16    1.32    0.89
B7         17.28   11.21    2.29          39.93   40.79   35.90          54.34   41.35           0.58    1.30    1.53    0.86
B8         20.72   11.30    1.09          40.08   57.77   49.41          76.01   40.54           0.49    1.57    1.84    0.82
B9         41.24   40.83   29.67          70.06    5.78    6.17           8.46   46.81           0.33    0.41    0.44    0.38
B10        43.00   40.62   26.09          69.91   11.70   11.88          16.68   45.44           0.29    0.44    0.50    0.37
B11        45.44   40.91   23.47          70.11   17.91   16.95          24.67   43.42           0.24    0.46    0.54    0.36
B12        47.90   41.03   20.46          70.19   24.46   22.96          33.55   43.19           0.20    0.49    0.60    0.35
B13        68.61   74.27   66.28          89.05   -6.43   -4.79           8.01  216.70           0.17    0.11    0.10    0.14
B14        72.04   71.94   65.20          87.94    5.68   -5.68           8.04  314.99           0.11    0.15    0.11    0.14
B15        73.94   77.79   54.01          90.69   -2.20   10.29          10.53  102.08           0.10    0.11    0.18    0.11
B16        61.12   63.71   51.19          83.81   -0.72    1.52           1.69  115.53           0.19    0.19    0.21    0.20
B17        68.84   69.01   51.84          86.51    5.02    5.46           7.42   47.38           0.12    0.18    0.20    0.15
B18        65.39   71.53   52.69          87.74   -7.89    6.65          10.32  139.87           0.18    0.13    0.19    0.15
B19        63.76   66.03   63.86          85.01    0.21   -9.46           9.46  271.27           0.19    0.17    0.12    0.19
B20         2.89    2.11    0.81          16.04   17.20   12.42          21.21   35.83           1.39    1.90    1.98    1.61
B21         8.51    5.03    0.87          26.82   38.05   29.97          48.44   38.23           0.87    1.79    1.94    1.19
B22        29.14   24.94   11.77          57.02   20.83   21.39          29.85   45.76           0.41    0.71    0.83    0.56
C1          4.49    4.39    2.23          24.92    3.54   10.56          11.14   71.45           1.27    1.39    1.54    1.34
C2          4.82    4.40    1.44          24.96    7.63   18.76          20.26   67.85           1.21    1.44    1.72    1.32
C3          5.74    4.82    0.88          26.21   13.31   28.83          31.75   65.21           1.10    1.46    1.92    1.26
C4          4.97    4.23    0.86          24.43   11.76   26.09          28.62   65.73           1.17    1.51    1.93    1.32
C5         23.57   22.64   10.70          54.70    7.87   20.69          22.14   69.17           0.54    0.69    0.87    0.62
C6         26.11   23.06    5.55          55.13   16.85   41.33          44.63   67.81           0.46    0.75    1.14    0.60
C7         28.30   23.02    2.42          55.09   25.83   60.93          66.18   67.03           0.40    0.81    1.49    0.58
C8         28.54   22.01    1.37          54.03   31.36   69.76          76.48   65.79           0.38    0.88    1.73    0.59
C9         48.21   48.72   32.88          75.28    3.41   10.20          10.75   71.51           0.27    0.33    0.40    0.30
C10        49.46   48.52   26.91          75.15    7.36   19.49          20.84   69.32           0.23    0.35    0.48    0.30
C11        51.42   48.74   21.84          75.29   11.99   28.98          31.37   67.52           0.20    0.37    0.57    0.29
C12        52.89   48.70   17.08          75.26   15.93   39.04          42.17   67.80           0.17    0.39    0.67    0.28
C13        60.00   67.57   64.73          85.79  -11.88   -8.95          14.88  216.99           0.26    0.13    0.11    0.19
C14        67.29   63.95   62.80          83.94   12.73  -10.29          16.37  321.05           0.13    0.22    0.13    0.19
C15        71.90   75.76   44.96          89.75   -2.41   18.98          19.13   97.25           0.10    0.12    0.26    0.12
C16        48.09   50.11   40.34          76.14   -0.62    1.30           1.45  115.99           0.30    0.30    0.31    0.30
C17        62.01   59.35   41.55          81.48   11.40    8.96          14.50   38.18           0.14    0.26    0.30    0.21
C18        55.02   63.09   42.84          83.49  -14.11   10.79          17.76  142.59           0.27    0.16    0.28    0.21
C19        52.20   53.56   59.98          78.20    1.45  -17.40          17.46  274.78           0.29    0.26    0.15    0.28
C20         1.82    1.50    0.66          12.58    9.91    9.17          13.50   42.77           1.63    1.96    2.06    1.78
C21        22.98   17.31    4.64          48.65   31.35   34.83          46.86   48.02           0.48    0.97    1.23    0.70
C22        35.07   32.03   17.28          63.37   14.79   18.09          23.36   50.72           0.36    0.56    0.67    0.47
D1          4.22    4.44    2.22          25.08   -0.89   10.86          10.90   94.69           1.33    1.36    1.54    1.34
D2          4.18    4.43    1.46          25.04   -1.27   18.63          18.67   93.89           1.32    1.36    1.71    1.34
D3          4.98    5.23    0.98          27.36   -0.67   29.10          29.11   91.32           1.23    1.31    1.87    1.26
D4          3.96    4.17    0.92          24.21   -0.84   24.68          24.70   91.94           1.33    1.40    1.90    1.36
D5         26.54   27.95   13.66          59.84   -1.66   20.95          21.02   94.53           0.52    0.56    0.77    0.54
D6         26.59   28.14    7.55          60.01   -2.21   40.93          40.99   93.10           0.51    0.57    1.01    0.53
D7         26.71   28.44    3.66          60.28   -2.87   60.73          60.79   92.70           0.50    0.58    1.31    0.53
D8         26.48   28.35    1.79          60.20   -3.45   75.57          75.65   92.61           0.52    0.59    1.62    0.52
D9         54.83   57.22   38.41          80.30   -0.87   11.05          11.09   94.49           0.22    0.24    0.33    0.24
D10        54.23   56.84   30.49          80.09   -1.47   22.16          22.21   93.79           0.22    0.25    0.43    0.24
D11        54.58   57.17   24.58          80.27   -1.37   32.42          32.45   92.43           0.21    0.26    0.51    0.23
D12        54.60   57.51   11.30          80.47   -2.15   63.26          63.29   91.94           0.20    0.28    0.84    0.22
D13        51.81   60.81   62.83          82.27  -17.10  -13.19          21.59  217.64           0.35    0.15    0.12    0.24
D14        62.59   56.47   60.09          79.88   19.64  -14.62          24.49  323.34           0.15    0.29    0.15    0.24
D15        69.89   73.51   36.35          88.69   -2.13   28.33          28.41   94.30           0.11    0.14    0.35    0.12
D16        36.67   38.33   30.65          68.26   -0.92    1.52           1.78  121.73           0.41    0.41    0.43    0.42
D17        55.58   50.65   32.33          76.47   17.55   13.09          21.90   36.72           0.17    0.36    0.41    0.27
D18        45.32   54.66   33.77          78.84  -20.05   15.03          25.06  143.15           0.37    0.21    0.38    0.28
D19        42.16   42.79   55.74          71.41    2.72  -24.77          24.92  276.27           0.40    0.35    0.18    0.38
D20        13.93   10.57    2.64          38.85   25.90   31.06          40.44   50.18           0.69    1.18    1.46    0.91
D21        21.75   21.15   11.45          53.11    6.46   15.64          16.92   67.54           0.58    0.71    0.85    0.66
D22        38.70   36.93   19.81          67.22   10.10   19.20          21.69   62.26           0.33    0.48    0.61    0.41
E1          3.90    4.44    2.29          25.09   -5.54   10.31          11.70  118.26           1.39    1.32    1.52    1.35
E2          3.56    4.46    1.52          25.14  -10.79   18.11          21.08  120.80           1.46    1.30    1.69    1.36
E3          3.90    5.24    1.05          27.41  -15.51   28.16          32.15  118.84           1.45    1.21    1.84    1.29
E4          3.20    4.24    0.97          24.46  -13.78   24.27          27.91  119.60           1.53    1.31    1.87    1.38
E5         12.56   14.40    7.60          44.79   -8.56   14.51          16.85  120.55           0.89    0.81    1.02    0.85
E6         11.52   14.47    4.58          44.89  -16.20   28.70          32.96  119.45           0.94    0.79    1.22    0.85
E7         10.76   14.83    2.63          45.40  -23.98   42.46          48.76  119.45           1.02    0.76    1.44    0.84
E8          9.77   14.80    1.59          45.36  -31.42   52.20          60.93  121.04           1.13    0.74    1.66    0.85
E9         37.83   40.92   27.89          70.12   -5.16    9.17          10.53  119.39           0.40    0.37    0.47    0.39
E10        36.53   40.93   23.16          70.13   -9.45   17.56          19.94  118.28           0.42    0.37    0.54    0.39
E11        35.53   41.30   19.73          70.38  -13.89   24.81          28.43  119.25           0.44    0.36    0.61    0.39
E12        32.82   41.34   12.74          70.41  -23.36   41.70          47.80  119.26           0.50    0.34    0.79    0.39
E13        44.30   54.22   60.60          78.59  -21.91  -17.35          27.95  218.39           0.46    0.18    0.14    0.30
E14        57.77   49.20   57.02          75.57   26.80  -18.93          32.81  324.77           0.18    0.38    0.17    0.29
E15        67.94   71.09   28.60          87.53   -1.31   38.01          38.04   91.98           0.11    0.17    0.45    0.14
E16        27.15   28.50   22.55          60.34   -1.34    1.83           2.29  127.30           0.54    0.54    0.56    0.55
E17        49.37   42.54   24.35          71.24   23.94   17.28          29.53   35.82           0.20    0.47    0.53    0.34
E18        36.81   46.82   26.25          74.07  -25.54   18.78          31.70  143.69           0.48    0.26    0.49    0.35
E19        33.54   33.39   51.12          64.48    4.77  -31.74          32.09  278.54           0.53    0.46    0.22    0.49
E20        24.30   16.26    1.13          47.32   42.92   61.25          74.80   54.98           0.43    1.13    1.81    0.70
E21        17.32   14.38    2.70          44.77   20.16   40.83          45.54   63.72           0.62    0.99    1.45    0.79
E22        29.68   25.69    7.99          57.74   19.74   35.31          40.45   60.79           0.40    0.71    0.99    0.55
F1          1.53    1.93    1.33          15.10   -8.30    3.13           8.88  159.36           1.88    1.64    1.76    1.73
F2          1.30    2.02    1.11          15.59  -17.21    6.85          18.53  158.29           2.05    1.56    1.82    1.73
F3          1.54    2.76    1.31          19.07  -25.13   10.18          27.11  157.94           2.07    1.39    1.75    1.61
F4          1.04    1.98    0.95          15.39  -24.85    9.00          26.43  160.09           2.28    1.52    1.88    1.76
F5          6.56    8.31    5.71          34.61  -14.05    5.17          14.98  159.81           1.24    1.01    1.14    1.10
F6          5.59    8.54    4.87          35.07  -26.67   10.18          28.55  159.12           1.41    0.94    1.20    1.11
F7          4.61    8.64    4.09          35.27  -39.54   14.93          42.27  159.31           1.65    0.89    1.26    1.12
F8          4.01    9.48    3.36          36.90  -54.78   22.37          59.18  157.79           1.98    0.81    1.34    1.10
F9         37.48   40.97   31.91          70.16   -6.47    2.84           7.07  156.34           0.42    0.36    0.41    0.39
F10        36.01   41.27   30.56          70.36  -12.18    5.28          13.29  156.61           0.46    0.35    0.43    0.40
F11        34.30   41.24   29.41          70.35  -17.89    7.08          19.25  158.43           0.50    0.33    0.44    0.40
F12        30.44   41.10   26.25          70.25  -31.32   12.17          33.61  158.77           0.60    0.30    0.49    0.41
F13        37.71   48.16   58.17          74.93  -26.28  -21.22          33.78  218.93           0.58    0.22    0.15    0.36
F14        52.34   41.47   53.27          70.51   35.00  -23.70          42.27  325.90           0.21    0.49    0.21    0.36
F15        66.17   68.74   22.68          86.37   -0.24   46.49          46.49   90.30           0.11    0.19    0.55    0.15
F16        19.61   20.51   16.52          52.40   -0.82    0.94           1.28  133.40           0.68    0.68    0.69    0.69
F17        43.51   35.21   18.29          65.91   30.45   20.19          36.54   33.55           0.23    0.59    0.65    0.41
F18        29.59   39.77   20.04          69.30  -30.42   22.31          37.73  143.76           0.60    0.32    0.60    0.42
F19        26.16   25.24   46.24          57.31    7.70  -38.50          39.26  281.31           0.66    0.58    0.27    0.62
F20        25.95   25.03   11.38          57.10    7.72   22.71          23.99   71.22           0.50    0.65    0.85    0.58
F21        33.52   30.47   10.31          62.06   15.09   34.61          37.76   66.45           0.36    0.60    0.88    0.48
F22        38.44   36.03   15.44          66.54   12.21   27.92          30.48   66.38           0.32    0.51    0.71    0.42
G1          2.38    3.02    2.57          20.10   -9.98   -0.66          10.01  183.73           1.71    1.44    1.48    1.55
G2          2.00    3.07    2.81          20.34  -19.22   -2.19          19.35  186.48           1.93    1.37    1.44    1.57
G3          1.83    3.58    3.48          22.22  -31.30   -3.74          31.53  186.81           2.23    1.24    1.34    1.53
G4          1.60    3.03    2.97          20.15  -28.35   -3.66          28.59  187.36           2.24    1.32    1.41    1.60
G5          9.02   11.14    9.47          39.82  -13.61   -0.94          13.65  183.94           1.11    0.88    0.93    0.98
G6          7.79   11.24   10.27          39.98  -25.13   -3.31          25.35  187.50           1.29    0.83    0.89    1.00
G7          6.57   11.36   10.96          40.18  -37.94   -5.18          38.30  187.78           1.56    0.77    0.86    1.01
G8          5.70   12.27   11.92          41.64  -53.68   -5.55          53.97  185.91           1.97    0.69    0.82    1.00
G9         37.33   40.92   33.66          70.12   -6.79    0.16           6.80  178.69           0.43    0.36    0.39    0.40
G10        35.11   40.90   34.35          70.11  -14.12   -0.87          14.16  183.53           0.49    0.34    0.38    0.40
G11        33.56   41.11   35.27          70.25  -20.08   -1.93          20.18  185.50           0.54    0.32    0.37    0.41
G12        30.26   41.30   36.93          70.39  -32.56   -4.03          32.81  187.06           0.66    0.28    0.34    0.42
G13        31.67   42.26   55.29          71.05  -30.21  -24.93          39.17  219.53           0.71    0.26    0.18    0.43
G14        47.47   35.03   49.53          65.77   42.33  -27.73          50.60  326.78           0.24    0.60    0.24    0.42
G15        64.24   65.94   16.70          84.96    1.51   56.65          56.67   88.48           0.12    0.22    0.68    0.16
G16        13.70   14.38   11.49          44.76   -1.02    1.12           1.53  133.58           0.84    0.83    0.85    0.84
G17        38.17   28.89   12.80          60.68   36.57   24.77          44.17   34.11           0.27    0.72    0.80    0.48
G18        23.10   33.07   14.70          64.22  -35.22   25.79          43.66  143.79           0.73    0.38    0.73    0.51
G19        19.76   18.33   41.15          49.90   10.76  -44.99          46.25  283.45           0.82    0.71    0.32    0.77
G20        35.86   34.68   14.31          65.50    8.26   29.00          30.15   74.10           0.36    0.51    0.75    0.44
G21        34.41   33.09    9.13          64.23    8.82   42.32          43.23   78.23           0.36    0.55    0.93    0.45
G22        47.71   44.37    2.81          72.48   14.12   87.74          88.87   80.86           0.21    0.47    1.43    0.31
H1          2.58    3.02    3.20          20.13   -6.29   -5.38           8.28  220.52           1.66    1.45    1.40    1.54
H2          2.28    2.99    4.29          19.99  -11.67  -12.60          17.18  227.18           1.87    1.41    1.27    1.58
H3          2.37    3.49    5.97          21.91  -18.00  -17.94          25.42  224.91           2.05    1.29    1.13    1.54
H4          1.96    3.03    5.79          20.15  -19.26  -20.14          27.88  226.27           2.27    1.33    1.15    1.61
H5          9.44   10.97   11.35          39.53   -8.93   -7.47          11.65  219.87           1.08    0.90    0.86    0.98
H6          8.57   11.03   14.68          39.63  -16.64  -16.56          23.48  224.85           1.25    0.85    0.75    1.01
H7          7.91   11.31   18.80          40.09  -24.51  -25.44          35.33  226.07           1.49    0.79    0.64    1.02
H8          6.90   11.36   24.81          40.17  -34.56  -37.13          50.73  227.05           2.10    0.73    0.52    1.06
H9         37.66   40.92   36.54          70.12   -5.72   -3.96           6.96  214.63           0.43    0.36    0.35    0.40
H10        36.56   41.02   40.20          70.19   -9.60   -8.77          13.01  222.41           0.47    0.34    0.31    0.40
H11        35.05   40.93   44.07          70.13  -14.40  -13.77          19.92  223.72           0.53    0.33    0.27    0.41
H12        31.95   41.00   54.84          70.17  -25.45  -25.96          36.35  225.57           0.68    0.28    0.18    0.43
H13        26.52   36.96   52.37          67.25  -33.66  -28.34          44.01  220.09           0.85    0.30    0.20    0.49
H14        42.77   29.21   45.70          60.96   49.58  -31.55          58.77  327.53           0.28    0.72    0.28    0.49
H15        62.20   62.93   11.93          83.41    3.55   66.42          66.51   86.94           0.12    0.26    0.82    0.18
H16         8.94    9.38    7.32          36.71   -0.90    1.69           1.93  118.34           1.02    1.02    1.04    1.03
H17        33.16   23.29    8.28          55.37   42.65   30.11          52.21   35.22           0.32    0.88    0.99    0.56
H18        17.79   27.22   10.31          59.18  -39.42   29.66          49.34  143.05           0.88    0.45    0.87    0.60
H19        14.84   13.01   36.42          42.77   14.61  -50.94          53.00  286.00           1.00    0.86    0.38    0.93
H20        40.74   41.35   14.67          70.42    2.70   36.54          36.64   85.78           0.31    0.42    0.73    0.37
H21        30.47   31.78   19.40          63.16   -0.64   13.06          13.08   92.80           0.47    0.50    0.62    0.49
H22        35.06   38.28   10.99          68.23   -6.17   43.09          43.53   98.15           0.40    0.43    0.85    0.41
I1          4.25    4.39    5.51          24.92    0.27  -10.56          10.57  271.45           1.40    1.33    1.17    1.37
I2          4.34    4.45    8.28          25.11    0.67  -22.07          22.08  271.72           1.48    1.30    1.00    1.38
I3          4.35    4.40   11.54          24.94    1.57  -33.21          33.25  272.69           1.62    1.28    0.87    1.42
I4          4.56    4.51   19.96          25.28    2.89  -53.44          53.52  273.09           2.22    1.20    0.64    1.48
I5         13.65   14.25   14.59          44.59   -0.57   -7.77           7.80  265.77           0.87    0.83    0.75    0.85
I6         13.90   14.32   19.09          44.69    0.53  -18.13          18.14  271.68           0.90    0.82    0.64    0.86
I7         13.95   14.32   23.56          44.69    0.86  -27.06          27.08  271.82           0.94    0.80    0.55    0.87
I8         14.41   14.57   37.71          45.04    2.22  -48.80          48.85  272.60           1.10    0.76    0.36    0.89
