targets/wolf_faust/reflective/R080415.it8
IT8.7/2
ORIGINATOR "Wolf Faust"
DESCRIPTOR "Kodak Professional Paper, L* a* b* (light D50, viewing angle 2)"
MANUFACTURER "Wolf Faust - http://www.coloraid.de"
CREATED "May 12, 2008"
PROD_DATE "2008:04"
SAMPLE_BACKING "black"
SERIAL "5x7 R080415 Batch Average Data"
MATERIAL "Kodak Professional Ultra Endura"
KEYWORD "MEAN_DE" # Mean Delta E of samples compared to batch average
NUMBER_OF_FIELDS 18
BEGIN_DATA_FORMAT
SAMPLE_ID  XYZ_X   XYZ_Y   XYZ_Z          LAB_L   LAB_A   LAB_B          LAB_C   LAB_H          D_RED  D_GREEN  D_BLUE  D_VIS          STDEV_X STDEV_Y STDEV_Z        MEAN_DE  STDEV_DE
END_DATA_FORMAT
NUMBER_OF_SETS 288
BEGIN_DATA
A1          3.49    2.94    2.07          19.82   11.04    3.22          11.50   16.29           1.36    1.63    1.58    1.49            0.03    0.04    0.01           0.38     0.42
A2          4.33    2.91    1.72          19.70   23.84    6.52          24.71   15.29           1.21    1.82    1.67    1.46            0.05    0.03    0.01           0.31     0.35 
A3          5.18    2.90    1.40          19.63   35.09   10.04          36.50   15.96           1.10    2.08    1.76    1.42            0.05    0.03    0.01           0.27     0.32
A4          6.00    3.14    1.42          20.58   40.49   11.45          42.08   15.79           1.04    2.19    1.76    1.38            0.07    0.04    0.01           0.33     0.37 
A5         12.63   10.99    8.15          39.56   14.45    3.34          14.84   13.01           0.80    1.04    1.00    0.93            0.09    0.07    0.07           0.31     0.35
A6         14.95   11.05    7.06          39.66   28.68    7.83          29.73   15.27           0.68    1.15    1.06    0.90            0.11    0.08    0.05           0.32     0.35 
A7         17.25   11.01    6.25          39.60   42.06   11.23          43.53   14.95           0.59    1.30    1.12    0.87            0.07    0.05    0.06           0.29     0.34
A8         21.43   11.30    5.16          40.09   61.11   17.33          63.52   15.83           0.49    1.58    1.21    0.82            0.11    0.09    0.05           0.35     0.42 
A9         41.27   40.59   32.49          69.89    6.61    1.49           6.78   12.72           0.34    0.41    0.41    0.38            0.17    0.17    0.18           0.29     0.31
A10        43.45   40.42   31.11          69.77   13.63    3.39          14.05   13.98           0.29    0.44    0.42    0.38            0.18    0.16    0.20           0.27     0.29
A11        46.09   40.59   29.87          69.89   20.75    5.54          21.48   14.96           0.25    0.47    0.44    0.37            0.13    0.13    0.11           0.25     0.28
A12        48.43   40.61   28.59          69.90   27.17    7.64          28.22   15.71           0.21    0.50    0.46    0.36            0.10    0.09    0.18           0.22     0.25 
A13        74.33   77.94   68.12          90.75   -1.68   -3.56           3.94  244.73           0.12    0.10    0.09    0.11            0.09    0.09    0.07           0.08     0.09
A14        75.60   77.77   68.00          90.67    1.25   -3.59           3.80  289.23           0.10    0.11    0.09    0.11            0.07    0.09    0.10           0.07     0.08 
A15        75.67   78.83   64.08          91.16   -0.69    0.93           1.15  126.53           0.10    0.10    0.11    0.10            0.11    0.11    0.10           0.08     0.09
A16        75.80   78.75   65.66          91.12   -0.27   -0.64           0.70  246.74           0.10    0.10    0.10    0.10            0.13    0.13    0.13           0.08     0.09
A17        74.38   76.47   63.92          90.08    1.34   -0.79           1.55  329.57           0.11    0.12    0.12    0.12            0.13    0.14    0.14           0.09     0.10
A18        73.89   77.58   64.95          90.59   -1.89   -0.88           2.08  205.04           0.12    0.10    0.11    0.11            0.07    0.08    0.08           0.07     0.07 
A19        74.18   77.00   67.89          90.32   -0.12   -4.10           4.10  268.34           0.12    0.11    0.09    0.12            0.11    0.10    0.10           0.09     0.09
A20         1.33    1.05    0.71           9.41   10.36    2.75          10.72   14.85           1.79    2.12    2.03    1.93            0.02    0.02    0.01           0.27     0.31 
A21         5.14    3.24    0.75          20.99   28.75   22.05          36.24   37.49           1.10    1.88    2.00    1.39            0.05    0.03    0.00           0.28     0.35
A22        10.08    5.75    0.83          28.77   42.55   34.02          54.47   38.64           0.80    1.80    1.96    1.12            0.08    0.05    0.01           0.22     0.25
B1          3.34    2.96    1.62          19.90    8.22    7.96          11.44   44.09           1.38    1.61    1.68    1.49            0.02    0.02    0.01           0.32     0.36
B2          3.88    2.90    1.00          19.63   17.78   15.45          23.55   40.98           1.26    1.75    1.88    1.47            0.04    0.03    0.01           0.30     0.34
B3          4.53    2.94    0.58          19.80   26.13   23.14          34.91   41.53           1.16    1.90    2.10    1.44            0.04    0.02    0.00           0.27     0.30
B4          5.37    3.14    0.35          20.61   33.20   28.84          43.98   40.98           1.07    2.03    2.32    1.39            0.05    0.04    0.00           0.24     0.29
B5         12.77   11.08    6.04          39.71   14.75   12.38          19.26   40.01           0.78    1.05    1.12    0.92            0.05    0.05    0.06           0.32     0.35
B6         14.61   11.06    4.00          39.69   26.52   23.12          35.19   41.07           0.68    1.16    1.29    0.89            0.11    0.10    0.03           0.37     0.43
B7         17.14   11.14    2.39          39.82   40.51   34.80          53.41   40.66           0.58    1.31    1.51    0.86            0.03    0.03    0.02           0.24     0.27
B8         20.77   11.22    1.01          39.94   58.61   50.33          77.26   40.65           0.49    1.60    1.87    0.82            0.08    0.07    0.01           0.20     0.23
B9         41.25   40.69   30.48          69.96    6.24    4.71           7.82   37.00           0.33    0.41    0.43    0.38            0.10    0.10    0.16           0.21     0.27
B10        43.43   40.84   27.00          70.06   12.30   10.57          16.22   40.65           0.29    0.44    0.48    0.37            0.14    0.14    0.20           0.27     0.30
B11        45.33   40.78   24.11          70.02   18.01   15.61          23.83   40.91           0.25    0.46    0.53    0.36            0.09    0.09    0.10           0.18     0.20
B12        47.76   40.77   21.35          70.01   24.86   20.86          32.46   40.00           0.20    0.50    0.58    0.35            0.14    0.17    0.18           0.29     0.33
B13        67.94   73.22   67.20          88.55   -5.73   -6.51           8.67  228.64           0.18    0.11    0.09    0.14            0.10    0.10    0.09           0.07     0.08
B14        71.28   70.37   65.83          87.18    7.35   -7.59          10.57  314.10           0.12    0.16    0.11    0.15            0.07    0.09    0.09           0.07     0.09
B15        73.47   76.90   54.34          90.28   -1.40    9.23           9.34   98.61           0.10    0.11    0.18    0.11            0.10    0.11    0.14           0.10     0.12
B16        60.50   62.66   51.72          83.26    0.18   -0.02           0.22  191.94           0.20    0.20    0.21    0.20            0.07    0.08    0.11           0.14     0.17
B17        68.24   67.91   52.54          85.96    6.09    3.74           7.15   31.54           0.12    0.19    0.20    0.16            0.11    0.11    0.13           0.13     0.14
B18        64.94   70.69   53.47          87.33   -7.12    5.09           8.75  144.42           0.18    0.13    0.19    0.16            0.12    0.09    0.15           0.16     0.18
B19        63.48   65.15   64.78          84.56    1.52  -11.12          11.22  277.81           0.19    0.18    0.11    0.19            0.12    0.12    0.06           0.14     0.15
B20         2.80    2.01    0.69          15.54   17.77   13.78          22.49   37.79           1.40    1.94    2.04    1.62            0.04    0.03    0.01           0.23     0.29
B21         8.41    4.92    0.78          26.52   38.49   31.02          49.43   38.87           0.88    1.82    1.99    1.19            0.07    0.05    0.01           0.24     0.29
B22        28.98   24.66   12.07          56.74   21.38   20.04          29.31   43.14           0.42    0.72    0.82    0.57            0.13    0.12    0.07           0.22     0.25
C1          4.49    4.31    2.28          24.67    4.51    9.68          10.68   65.02           1.27    1.41    1.53    1.34            0.03    0.03    0.02           0.30     0.33
C2          4.70    4.27    1.36          24.54    7.93   19.00          20.59   67.35           1.22    1.45    1.74    1.33            0.04    0.04    0.01           0.32     0.37
C3          5.07    4.28    0.68          24.58   12.39   29.60          32.09   67.30           1.16    1.51    2.02    1.32            0.05    0.03    0.00           0.30     0.33
C4          5.80    4.75    0.50          26.01   14.81   35.37          38.34   67.29           1.09    1.49    2.15    1.26            0.05    0.04    0.01           0.26     0.29
C5         23.60   22.56   10.95          54.61    8.40   19.74          21.46   66.95           0.54    0.70    0.86    0.62            0.09    0.06    0.13           0.39     0.43
C6         25.88   22.77    5.68          54.83   17.20   40.17          43.70   66.82           0.46    0.75    1.13    0.60            0.10    0.10    0.05           0.24     0.27
C7         28.03   22.73    2.36          54.80   26.07   60.90          66.25   66.83           0.40    0.82    1.49    0.58            0.09    0.09    0.02           0.20     0.23
C8         30.10   22.91    0.89          54.98   33.24   78.23          85.00   66.98           0.36    0.88    1.91    0.57            0.07    0.07    0.00           0.13     0.15
C9         47.83   48.17   33.19          74.93    3.83    9.15           9.92   67.27           0.27    0.33    0.39    0.31            0.17    0.20    0.25           0.24     0.29
C10        49.54   48.22   27.35          74.97    8.36   18.43          20.24   65.59           0.23    0.36    0.47    0.30            0.16    0.17    0.24           0.26     0.31
C11        50.91   48.20   22.40          74.95   12.10   27.32          29.88   66.11           0.20    0.38    0.56    0.29            0.11    0.12    0.13           0.21     0.24
C12        52.56   48.21   17.58          74.95   16.40   37.36          40.80   66.31           0.17    0.40    0.66    0.28            0.13    0.16    0.17           0.25     0.30
C13        59.10   66.32   65.55          85.16  -11.31  -10.81          15.65  223.71           0.27    0.14    0.10    0.20            0.13    0.13    0.14           0.10     0.11
C14        65.86   61.43   62.77          82.61   15.29  -12.56          19.79  320.62           0.14    0.24    0.13    0.20            0.09    0.11    0.08           0.09     0.11
C15        71.34   74.83   44.78          89.31   -1.71   18.44          18.52   95.30           0.11    0.13    0.26    0.12            0.12    0.13    0.17           0.14     0.16
C16        47.15   48.71   40.42          75.27    0.51   -0.30           0.61  330.32           0.30    0.31    0.31    0.31            0.21    0.20    0.10           0.20     0.22
C17        60.86   57.55   41.55          80.49   12.99    7.25          14.88   29.15           0.15    0.28    0.30    0.22            0.11    0.12    0.26           0.24     0.27
C18        54.43   62.19   43.35          83.02  -13.56    9.34          16.47  145.44           0.27    0.17    0.28    0.22            0.13    0.10    0.16           0.16     0.20
C19        51.58   52.20   60.52          77.40    3.30  -19.33          19.61  279.69           0.30    0.27    0.14    0.29            0.21    0.19    0.07           0.21     0.24
C20         1.71    1.43    0.68          12.19    8.89    8.27          12.14   42.92           1.67    1.96    2.05    1.80            0.02    0.02    0.00           0.28     0.30
C21        22.84   17.19    4.77          48.50   31.34   33.91          46.18   47.25           0.48    0.97    1.21    0.70            0.09    0.07    0.03           0.18     0.20
C22        34.95   31.74   17.51          63.13   15.44   17.13          23.06   47.97           0.36    0.57    0.67    0.47            0.15    0.16    0.12           0.27     0.30
D1          4.20    4.39    2.27          24.91   -0.47   10.17          10.18   92.63           1.33    1.36    1.53    1.35            0.04    0.04    0.02           0.29     0.33
D2          4.17    4.38    1.42          24.88   -0.75   18.80          18.82   92.27           1.32    1.37    1.71    1.34            0.03    0.03    0.01           0.29     0.33
D3          4.15    4.40    0.75          24.95   -1.24   28.86          28.89   92.47           1.31    1.38    1.97    1.34            0.03    0.02    0.01           0.22     0.25
D4          4.66    4.96    0.58          26.62   -1.53   34.91          34.95   92.51           1.26    1.33    2.08    1.28            0.05    0.04    0.01           0.24     0.28
D5         26.62   27.85   14.22          59.75   -0.94   19.31          19.33   92.79           0.52    0.56    0.75    0.55            0.09    0.07    0.10           0.27     0.30
D6         26.62   28.04    7.70          59.92   -1.68   40.19          40.22   92.40           0.50    0.57    1.00    0.54            0.14    0.13    0.09           0.29     0.32
D7         26.53   28.11    3.65          59.99   -2.33   60.27          60.31   92.22           0.50    0.59    1.31    0.53            0.12    0.11    0.02           0.25     0.28
D8         26.69   28.46    1.25          60.30   -3.05   82.01          82.07   92.13           0.51    0.60    1.78    0.52            0.10    0.08    0.01           0.16     0.19
D9         54.55   56.67   39.10          80.00   -0.23    9.59           9.59   91.40           0.23    0.25    0.32    0.24            0.09    0.09    0.17           0.20     0.24
D10        54.55   56.96   31.53          80.15   -0.94   20.66          20.69   92.60           0.22    0.25    0.41    0.24            0.12    0.16    0.26           0.28     0.33
D11        54.53   56.90   25.52          80.12   -0.83   30.47          30.48   91.56           0.21    0.26    0.50    0.23            0.08    0.08    0.16           0.22     0.27
D12        54.52   57.38   11.05          80.39   -2.02   63.88          63.91   91.81           0.19    0.28    0.85    0.22            0.10    0.10    0.08           0.16     0.20
D13        50.47   59.17   63.52          81.38  -16.81  -15.39          22.79  222.48           0.37    0.16    0.12    0.25            0.14    0.13    0.09           0.13     0.14
D14        60.43   53.02   59.40          77.88   23.22  -17.37          29.00  323.19           0.17    0.33    0.16    0.26            0.11    0.14    0.11           0.14     0.16
D15        69.25   72.55   35.92          88.23   -1.50   28.14          28.18   93.06           0.11    0.15    0.35    0.13            0.12    0.13    0.11           0.10     0.12
D16        35.40   36.68   30.61          67.04    0.09   -0.53           0.55  280.44           0.43    0.43    0.43    0.44            0.12    0.12    0.21           0.28     0.32
D17        53.99   48.34   32.03          75.04   19.69   11.08          22.59   29.37           0.18    0.39    0.41    0.29            0.08    0.10    0.13           0.18     0.21
D18        44.31   53.48   34.16          78.16  -20.00   13.28          24.01  146.41           0.38    0.22    0.38    0.29            0.15    0.14    0.15           0.19     0.21
D19        40.76   40.61   55.60          69.90    4.98  -27.23          27.68  280.36           0.42    0.38    0.18    0.40            0.13    0.14    0.04           0.20     0.25
D20        14.02   10.68    2.75          39.03   25.73   30.55          39.95   49.89           0.69    1.18    1.44    0.91            0.07    0.07    0.03           0.19     0.21
D21        21.54   20.89   11.85          52.83    6.69   13.93          15.46   64.33           0.59    0.72    0.83    0.66            0.11    0.09    0.06           0.27     0.30
D22        38.58   36.73   20.29          67.07   10.36   17.93          20.70   59.98           0.33    0.48    0.60    0.41            0.12    0.14    0.10           0.21     0.23
E1          3.84    4.35    2.33          24.81   -5.21    9.43          10.78  118.95           1.40    1.33    1.51    1.36            0.03    0.03    0.03           0.35     0.40
E2          3.50    4.33    1.40          24.73  -10.09   18.81          21.34  118.20           1.46    1.31    1.71    1.37            0.04    0.04    0.01           0.32     0.37
E3          3.20    4.36    0.77          24.83  -15.27   28.31          32.16  118.35           1.54    1.29    1.96    1.37            0.03    0.03    0.01           0.27     0.30
E4          3.37    4.80    0.64          26.15  -18.14   33.05          37.71  118.76           1.54    1.24    2.04    1.33            0.04    0.04    0.00           0.23     0.27
E5         12.69   14.46    7.74          44.89   -8.15   14.13          16.31  119.96           0.88    0.81    1.01    0.84            0.07    0.08    0.08           0.27     0.30
E6         11.72   14.65    4.77          45.15  -15.88   28.09          32.27  119.49           0.93    0.78    1.20    0.84            0.07    0.07    0.05           0.31     0.36
E7         10.49   14.41    2.52          44.81  -23.43   42.34          48.39  118.95           1.02    0.77    1.46    0.85            0.06    0.06    0.02           0.25     0.28
E8          9.76   14.87    1.10          45.46  -31.92   58.57          66.71  118.59           1.14    0.74    1.82    0.85            0.04    0.04    0.01           0.16     0.17
E9         37.80   40.69   28.76          69.96   -4.58    7.46           8.76  121.53           0.40    0.38    0.45    0.39            0.17    0.16    0.18           0.25     0.31
E10        36.60   40.96   24.33          70.15   -9.31   15.41          18.00  121.13           0.42    0.37    0.52    0.39            0.14    0.15    0.20           0.29     0.32
E11        35.34   40.86   19.90          70.07  -13.20   23.92          27.33  118.89           0.44    0.36    0.60    0.39            0.07    0.08    0.14           0.24     0.26
E12        32.73   41.29   12.89          70.38  -23.51   41.20          47.44  119.71           0.50    0.34    0.78    0.39            0.19    0.16    0.10           0.28     0.31
E13        43.00   52.62   61.32          77.65  -21.64  -19.69          29.25  222.30           0.48    0.20    0.13    0.31            0.12    0.09    0.05           0.14     0.16
E14        55.46   45.72   56.00          73.37   30.62  -21.68          37.52  324.71           0.19    0.42    0.18    0.32            0.09    0.08    0.10           0.08     0.10
E15        67.35   70.24   28.34          87.11   -0.82   37.73          37.74   91.24           0.11    0.18    0.45    0.14            0.11    0.12    0.17           0.19     0.24
E16        26.09   27.16   22.65          59.12   -0.40   -0.46           0.65  228.36           0.56    0.56    0.56    0.57            0.16    0.13    0.15           0.30     0.33
E17        47.91   40.55   24.27          69.86   25.95   15.03          29.99   30.07           0.21    0.50    0.53    0.36            0.07    0.09    0.12           0.22     0.26
E18        35.82   45.74   26.48          73.38  -25.82   17.17          31.01  146.38           0.49    0.27    0.48    0.36            0.19    0.16    0.13           0.24     0.27
E19        32.21   31.44   50.88          62.88    6.93  -34.23          34.92  281.45           0.55    0.49    0.23    0.52            0.19    0.19    0.09           0.23     0.26
E20        24.63   16.91    1.23          48.15   40.74   61.40          73.69   56.43           0.42    1.09    1.77    0.69            0.06    0.05    0.01           0.10     0.12
E21        17.13   14.17    2.73          44.47   20.43   40.03          44.94   62.96           0.62    1.00    1.44    0.80            0.11    0.08    0.02           0.24     0.29
E22        29.44   25.36    8.23          57.42   20.24   33.85          39.44   59.13           0.40    0.71    0.98    0.55            0.15    0.12    0.08           0.25     0.28
F1          1.53    1.93    1.33          15.13   -8.48    3.18           9.06  159.48           1.88    1.64    1.75    1.73            0.01    0.01    0.01           0.26     0.30
F2          1.20    1.90    1.07          14.97  -17.63    6.44          18.77  159.94           2.10    1.58    1.83    1.76            0.02    0.02    0.01           0.25     0.28
F3          0.99    1.97    0.91          15.32  -26.24    9.42          27.88  160.25           2.34    1.51    1.89    1.77            0.01    0.02    0.01           0.23     0.26
F4          1.09    2.24    0.99          16.72  -28.66   10.59          30.56  159.71           2.33    1.45    1.85    1.71            0.01    0.01    0.01           0.19     0.22
F5          6.76    8.42    5.96          34.83  -12.93    4.37          13.65  161.32           1.22    1.01    1.12    1.10            0.05    0.05    0.04           0.30     0.34
F6          5.59    8.51    5.02          35.02  -26.48    9.30          28.06  160.64           1.41    0.94    1.18    1.11            0.04    0.04    0.04           0.28     0.31
F7          4.62    8.67    4.28          35.34  -39.65   13.94          42.03  160.63           1.65    0.89    1.24    1.12            0.02    0.05    0.04           0.22     0.25
F8          3.51    8.87    3.34          35.74  -57.31   20.53          60.88  160.29           2.14    0.82    1.33    1.13            0.02    0.04    0.03           0.19     0.22
F9         37.20   40.57   32.37          69.88   -6.15    1.65           6.38  164.93           0.43    0.37    0.40    0.40            0.20    0.18    0.14           0.29     0.32
F10        35.77   40.73   31.06          69.99  -11.37    3.85          12.01  161.29           0.46    0.35    0.42    0.40            0.16    0.13    0.18           0.26     0.29
F11        34.29   41.10   29.98          70.25  -17.53    5.99          18.52  161.13           0.50    0.33    0.43    0.40            0.18    0.13    0.08           0.30     0.34
F12        30.47   40.97   27.13          70.16  -30.80   10.52          32.55  161.15           0.61    0.30    0.47    0.42            0.13    0.13    0.18           0.25     0.30
F13        36.67   46.77   58.89          74.04  -25.86  -23.48          34.93  222.24           0.60    0.23    0.15    0.37            0.10    0.10    0.11           0.13     0.15
F14        50.51   38.93   52.30          68.70   37.97  -25.76          45.88  325.84           0.22    0.53    0.22    0.38            0.11    0.14    0.11           0.19     0.23
F15        65.49   67.78   21.80          85.90    0.29   47.35          47.36   89.65           0.12    0.20    0.56    0.15            0.11    0.11    0.10           0.17     0.21
F16        18.72   19.50   16.13          51.26   -0.42   -0.09           0.49  185.82           0.71    0.70    0.70    0.71            0.18    0.16    0.10           0.34     0.38
F17        42.18   33.52   17.55          64.58   32.24   19.54          37.70   31.22           0.24    0.62    0.67    0.43            0.06    0.04    0.08           0.19     0.21
