targets/wolf_faust/reflective/R080505.it8
IT8.7/2
ORIGINATOR "Wolf Faust"
DESCRIPTOR "L* a* b* Batch average data (light D50, viewing angle 2)"
MANUFACTURER "Wolf Faust - http://www.coloraid.de"
CREATED "July 10, 2008"
PROD_DATE "2008:05"
SAMPLE_BACKING "white"
SERIAL "DIN A4  R080505"
MATERIAL "Kodak Professional Ultra Endura - Lustreless"
KEYWORD "MEAN_DE" # Mean Delta E of samples compared to batch average
NUMBER_OF_FIELDS 13
BEGIN_DATA_FORMAT
SAMPLE_ID  XYZ_X   XYZ_Y   XYZ_Z          LAB_L   LAB_A   LAB_B          LAB_C   LAB_H          D_RED  D_GREEN  D_BLUE  D_VIS
END_DATA_FORMAT
NUMBER_OF_SETS 288
BEGIN_DATA
A1          3.42    2.90    2.10          19.64   10.67    2.61          10.99   13.74           1.38    1.64    1.58    1.50
A2          4.23    2.88    1.69          19.57   22.99    6.62          23.93   16.07           1.22    1.81    1.67    1.46 
A3          6.21    3.62    1.89          22.39   34.94    9.43          36.19   15.10           1.03    1.91    1.64    1.34
A4          4.96    2.89    1.46          19.60   32.52    9.33          33.83   16.01           1.13    2.01    1.75    1.43 
A5         12.28   10.64    7.83          38.96   14.64    3.55          15.07   13.60           0.82    1.06    1.02    0.94
A6         14.88   11.04    7.11          39.65   28.35    7.63          29.36   15.06           0.69    1.15    1.06    0.90 
A7         17.17   10.97    6.11          39.53   41.95   11.78          43.57   15.69           0.60    1.30    1.13    0.87
A8         21.15   11.06    4.93          39.68   61.55   17.83          64.08   16.16           0.50    1.61    1.23    0.83 
A9         40.78   40.09   32.21          69.53    6.64    1.31           6.78   11.07           0.34    0.42    0.41    0.39
A10        43.22   40.26   31.17          69.65   13.45    3.12          13.82   13.04           0.30    0.44    0.42    0.38
A11        45.61   40.24   29.73          69.64   20.43    5.35          21.12   14.68           0.25    0.47    0.44    0.37
A12        48.36   40.21   28.37          69.62   28.21    7.52          29.20   14.93           0.21    0.50    0.47    0.36 
A13        75.10   78.96   68.61          91.21   -2.09   -3.21           3.83  236.88           0.12    0.09    0.08    0.11
A14        75.81   77.79   68.11          90.68    1.64   -3.67           4.02  294.05           0.10    0.11    0.09    0.11 
A15        76.51   79.89   64.93          91.64   -1.05    0.94           1.41  138.50           0.10    0.09    0.11    0.10
A16        75.94   78.69   65.78          91.09    0.13   -0.80           0.81  279.61           0.10    0.10    0.10    0.10
A17        74.23   75.93   63.46          89.83    2.10   -0.77           2.24  339.83           0.10    0.12    0.12    0.12
A18        74.45   78.44   66.01          90.98   -2.42   -1.21           2.71  206.58           0.12    0.10    0.10    0.11 
A19        73.62   76.53   67.98          90.10   -0.36   -4.55           4.56  265.53           0.12    0.11    0.09    0.12
A20         1.37    1.10    0.75           9.77    9.98    2.67          10.34   14.97           1.78    2.09    2.02    1.91 
A21         5.17    3.31    0.81          21.26   27.96   21.43          35.23   37.46           1.11    1.85    1.97    1.38
A22        10.04    5.75    0.86          28.76   42.32   33.48          53.96   38.35           0.80    1.79    1.95    1.12
B1          3.26    2.87    1.61          19.51    8.63    7.42          11.38   40.68           1.39    1.63    1.68    1.51
B2          3.82    2.89    1.06          19.57   17.18   14.53          22.50   40.22           1.27    1.74    1.86    1.48
B3          5.51    3.72    0.94          22.71   25.70   21.78          33.69   40.28           1.09    1.74    1.91    1.34
B4          4.31    2.92    0.73          19.71   23.53   20.14          30.97   40.56           1.20    1.85    2.01    1.45
B5         12.45   10.78    5.73          39.21   14.78   13.02          19.69   41.37           0.79    1.07    1.14    0.93
B6         14.34   10.79    3.90          39.22   26.90   22.91          35.34   40.43           0.69    1.17    1.30    0.90
B7         16.99   11.04    2.33          39.64   40.49   35.00          53.52   40.84           0.58    1.31    1.52    0.87
B8         20.66   11.11    0.98          39.77   58.81   50.49          77.51   40.65           0.49    1.62    1.89    0.82
B9         40.28   39.79   29.73          69.32    6.00    4.81           7.70   38.61           0.34    0.42    0.44    0.39
B10        42.53   40.06   26.66          69.51   12.04   10.20          15.78   40.25           0.30    0.45    0.49    0.38
B11        44.82   40.27   23.96          69.66   18.11   15.27          23.69   40.13           0.25    0.47    0.53    0.37
B12        47.42   40.15   20.24          69.58   25.79   22.37          34.14   40.93           0.20    0.51    0.60    0.36
B13        68.98   74.32   67.59          89.07   -5.72   -5.97           8.27  226.21           0.17    0.11    0.09    0.14
B14        72.53   72.19   66.39          88.06    6.19   -6.60           9.05  313.18           0.11    0.15    0.10    0.14
B15        74.56   78.14   56.86          90.84   -1.62    7.57           7.75  102.10           0.10    0.11    0.16    0.11
B16        61.82   64.10   53.83          84.02    0.05   -1.01           1.02  272.30           0.19    0.19    0.19    0.19
B17        69.61   69.52   54.66          86.76    5.62    2.84           6.30   26.73           0.12    0.17    0.18    0.15
B18        66.16   71.95   55.80          87.95   -7.05    3.68           7.95  152.48           0.17    0.12    0.17    0.15
B19        64.18   66.12   65.10          85.06    0.97  -10.56          10.60  275.23           0.19    0.17    0.11    0.18
B20         2.72    1.96    0.72          15.25   17.52   12.79          21.69   36.12           1.42    1.95    2.03    1.64
B21         8.27    4.84    0.79          26.26   38.31   30.32          48.85   38.36           0.89    1.83    1.98    1.20
B22        28.72   24.46   11.93          56.54   21.22   20.11          29.24   43.44           0.42    0.72    0.83    0.57
C1          4.37    4.24    2.26          24.44    3.91    9.45          10.23   67.54           1.29    1.41    1.53    1.35
C2          4.67    4.25    1.41          24.47    7.73   18.29          19.86   67.10           1.23    1.45    1.73    1.34
C3          5.83    5.03    0.95          26.81   11.72   28.70          31.00   67.79           1.10    1.43    1.89    1.25
C4          5.00    4.37    0.93          24.84   10.42   25.64          27.68   67.88           1.18    1.48    1.90    1.31
C5         23.64   22.62   11.07          54.68    8.29   19.48          21.18   66.94           0.54    0.70    0.86    0.62
C6         25.58   22.48    5.67          54.53   17.26   39.71          43.30   66.51           0.46    0.76    1.13    0.61
C7         27.70   22.53    2.43          54.59   25.67   59.97          65.24   66.82           0.41    0.82    1.48    0.59
C8         29.35   23.13    1.50          55.21   29.42   70.25          76.16   67.27           0.37    0.84    1.69    0.57
C9         47.37   47.64   33.17          74.60    4.01    8.60           9.50   64.97           0.28    0.34    0.39    0.31
C10        49.10   47.98   27.69          74.81    7.85   17.60          19.27   65.95           0.24    0.36    0.47    0.30
C11        50.29   47.83   22.58          74.72   11.45   26.59          28.95   66.71           0.21    0.38    0.55    0.30
C12        52.58   47.99   16.40          74.81   17.04   39.87          43.36   66.85           0.17    0.40    0.69    0.29
C13        60.25   67.40   65.91          85.70  -10.91  -10.21          14.94  223.09           0.25    0.13    0.10    0.19
C14        67.88   64.41   63.78          84.18   12.98  -10.82          16.90  320.18           0.13    0.22    0.12    0.18
C15        72.28   75.95   46.92          89.84   -1.98   16.79          16.91   96.75           0.10    0.12    0.24    0.11
C16        48.47   50.27   42.21          76.23    0.01   -0.92           0.93  270.32           0.29    0.29    0.29    0.30
C17        62.75   59.90   43.62          81.78   11.81    6.88          13.67   30.22           0.14    0.26    0.28    0.21
C18        55.43   63.18   45.41          83.53  -13.29    7.72          15.37  149.85           0.27    0.16    0.26    0.21
C19        52.59   53.76   60.95          78.32    1.96  -18.17          18.27  276.15           0.29    0.26    0.14    0.28
C20         1.75    1.47    0.72          12.44    8.83    7.83          11.80   41.57           1.66    1.95    2.02    1.79
C21        22.66   17.05    4.72          48.32   31.30   33.84          46.10   47.23           0.48    0.98    1.22    0.70
C22        34.72   31.55   17.60          62.97   15.32   16.67          22.65   47.41           0.36    0.57    0.66    0.47
D1          4.01    4.19    2.27          24.28   -0.50    9.08           9.10   93.14           1.35    1.38    1.53    1.37
D2          4.05    4.27    1.44          24.53   -0.92   17.99          18.02   92.92           1.33    1.38    1.71    1.36
D3          5.04    5.40    1.05          27.84   -2.02   28.87          28.94   94.01           1.24    1.28    1.84    1.25
D4          4.07    4.34    0.98          24.75   -1.57   24.69          24.75   93.63           1.33    1.38    1.87    1.35
D5         26.37   27.55   14.30          59.48   -0.80   18.65          18.67   92.46           0.53    0.57    0.75    0.55
D6         26.51   27.89    7.91          59.78   -1.52   39.14          39.17   92.23           0.51    0.58    0.99    0.54
D7         26.16   27.72    3.67          59.63   -2.34   59.55          59.59   92.25           0.51    0.59    1.31    0.54
D8         26.30   28.11    1.87          59.99   -3.28   74.41          74.48   92.53           0.52    0.60    1.60    0.53
D9         53.96   56.23   39.18          79.74   -0.64    9.06           9.08   94.07           0.23    0.25    0.32    0.25
D10        53.63   56.07   31.29          79.65   -1.12   20.17          20.20   93.17           0.22    0.26    0.41    0.24
D11        53.94   56.50   25.70          79.89   -1.36   29.78          29.81   92.63           0.21    0.26    0.50    0.24
D12        53.42   56.36   10.98          79.82   -2.35   63.12          63.16   92.13           0.21    0.29    0.85    0.23
D13        51.79   60.29   63.92          81.99  -15.96  -14.72          21.71  222.69           0.35    0.16    0.11    0.24
D14        62.88   56.47   60.65          79.88   20.33  -15.18          25.37  323.25           0.15    0.30    0.15    0.24
D15        70.31   73.80   38.06          88.83   -1.80   26.21          26.27   93.94           0.11    0.14    0.33    0.12
D16        36.78   38.16   32.15          68.14   -0.04   -1.01           1.04  268.34           0.41    0.41    0.41    0.42
D17        56.00   50.74   34.04          76.52   18.36   10.64          21.22   30.09           0.16    0.36    0.38    0.27
D18        45.49   54.51   36.01          78.76  -19.20   11.68          22.48  148.68           0.37    0.21    0.35    0.28
D19        42.18   42.48   56.22          71.20    3.69  -25.64          25.90  278.18           0.40    0.36    0.18    0.38
D20        13.60   10.37    2.78          38.50   25.36   29.41          38.83   49.23           0.71    1.19    1.44    0.92
D21        21.33   20.64   11.68          52.55    6.90   13.97          15.59   63.69           0.59    0.73    0.84    0.67
D22        37.90   36.14   20.13          66.63   10.08   17.52          20.21   60.07           0.34    0.49    0.61    0.42
E1          3.65    4.15    2.29          24.15   -5.15    8.66          10.08  120.76           1.43    1.35    1.52    1.38
E2          3.43    4.25    1.45          24.49  -10.07   17.82          20.47  119.48           1.47    1.32    1.71    1.38
E3          3.94    5.39    1.12          27.82  -16.66   27.81          32.42  120.92           1.45    1.19    1.80    1.28
E4          3.26    4.36    1.04          24.83  -14.25   23.84          27.78  120.87           1.53    1.29    1.84    1.37
E5         12.33   14.06    7.76          44.32   -8.07   13.04          15.34  121.75           0.90    0.82    1.01    0.86
E6         11.27   14.13    4.70          44.42  -15.99   27.22          31.57  120.43           0.96    0.80    1.21    0.86
E7          9.96   13.84    2.49          44.00  -23.99   41.20          47.68  120.22           1.06    0.79    1.47    0.87
E8          9.55   14.09    1.61          44.37  -28.89   50.26          57.97  119.89           1.12    0.77    1.65    0.87
E9         36.77   39.65   28.39          69.22   -4.73    6.78           8.27  124.94           0.42    0.39    0.46    0.40
E10        35.79   40.04   23.96          69.50   -9.19   14.98          17.58  121.52           0.43    0.38    0.53    0.40
E11        34.41   39.99   19.68          69.46  -13.72   23.32          27.06  120.48           0.45    0.37    0.61    0.40
E12        31.80   40.08   12.72          69.53  -23.20   40.24          46.45  119.96           0.51    0.35    0.79    0.40
E13        44.04   53.36   61.41          78.09  -20.48  -19.02          27.95  222.89           0.46    0.19    0.13    0.31
E14        57.91   49.06   57.24          75.48   27.52  -19.31          33.62  324.95           0.18    0.38    0.17    0.29
E15        68.37   71.42   30.01          87.69   -1.06   36.03          36.04   91.69           0.11    0.17    0.43    0.13
E16        27.36   28.42   23.60          60.27   -0.20   -0.27           0.46  222.15           0.54    0.54    0.54    0.55
E17        49.61   42.54   25.40          71.24   24.60   15.38          29.02   32.01           0.20    0.47    0.51    0.34
E18        36.85   46.47   27.61          73.85  -24.43   16.07          29.24  146.67           0.48    0.27    0.46    0.35
E19        33.59   33.17   51.39          64.29    5.72  -32.35          32.85  280.04           0.52    0.46    0.22    0.50
E20        24.65   16.85    1.20          48.07   41.19   61.70          74.19   56.27           0.42    1.10    1.78    0.69
E21        16.57   13.72    2.63          43.82   20.13   39.78          44.58   63.16           0.63    1.02    1.46    0.81
E22        29.01   24.98    8.08          57.05   20.17   33.79          39.35   59.16           0.41    0.72    0.99    0.56
F1          1.50    1.87    1.33          14.76   -7.93    2.50           8.32  162.49           1.90    1.65    1.76    1.75
F2          1.19    1.86    1.12          14.72  -17.03    5.30          17.84  162.72           2.11    1.59    1.82    1.77
F3          1.48    2.63    1.29          18.50  -24.41    9.51          26.19  158.71           2.09    1.41    1.75    1.63
F4          0.95    1.87    0.89          14.80  -25.46    8.94          26.99  160.65           2.35    1.54    1.91    1.79
F5          6.36    8.00    5.85          33.97  -13.36    3.38          13.78  165.80           1.26    1.02    1.13    1.12
F6          5.34    8.21    4.97          34.41  -26.65    8.50          27.97  162.31           1.44    0.96    1.19    1.13
F7          4.36    8.20    4.21          34.39  -39.11   12.71          41.12  162.00           1.69    0.91    1.25    1.15
F8          2.98    7.41    3.41          32.73  -53.14   14.90          55.19  164.33           2.21    0.90    1.33    1.21
F9         36.63   40.08   32.79          69.52   -6.51    0.41           6.53  176.36           0.44    0.37    0.40    0.40
F10        34.99   40.02   31.17          69.49  -11.83    2.82          12.16  166.58           0.47    0.36    0.42    0.41
F11        33.27   39.90   29.72          69.40  -17.42    4.94          18.12  164.17           0.51    0.34    0.44    0.42
F12        30.19   40.41   27.48          69.76  -30.15    9.24          31.53  162.96           0.61    0.30    0.47    0.42
F13        37.22   46.97   58.73          74.17  -24.60  -23.11          33.75  223.21           0.58    0.23    0.15    0.37
F14        52.75   41.90   53.39          70.80   34.79  -23.32          41.88  326.17           0.21    0.48    0.21    0.35
F15        66.65   69.11   23.70          86.56    0.03   44.88          44.88   89.97           0.11    0.19    0.53    0.14
F16        19.86   20.70   17.60          52.62   -0.49   -1.19           1.31  248.85           0.68    0.68    0.67    0.69
F17        43.99   35.53   19.05          66.15   30.80   18.97          36.18   31.63           0.23    0.59    0.63    0.40
F18        29.23   39.07   21.29          68.80  -29.65   18.90          35.17  147.50           0.60    0.33    0.57    0.43
F19        25.83   24.84   46.03          56.91    8.02  -38.92          39.74  281.64           0.67    0.58    0.27    0.63
F20        25.46   24.52   11.93          56.60    7.84   20.23          21.70   68.82           0.51    0.66    0.83    0.59
F21        33.29   30.25   10.81          61.86   15.16   32.68          36.03   65.12           0.37    0.61    0.86    0.49
F22        37.69   35.21   15.76          65.91   12.52   26.06          28.91   64.33           0.33    0.52    0.71    0.43
G1          2.26    2.82    2.61          19.31   -9.25   -2.37           9.55  194.38           1.74    1.47    1.48    1.58
G2          1.94    2.95    2.89          19.85  -18.69   -3.64          19.04  191.04           1.96    1.38    1.43    1.59
G3          1.91    3.59    3.61          22.27  -29.75   -4.48          30.08  188.56           2.19    1.25    1.33    1.53
G4          1.51    2.92    3.07          19.73  -28.91   -5.14          29.37  190.07           2.33    1.33    1.40    1.62
G5          8.79   10.77    9.82          39.18  -12.83   -3.22          13.23  194.09           1.13    0.90    0.91    0.99
G6          7.63   10.95   10.51          39.50  -24.59   -4.92          25.07  191.31           1.31    0.84    0.88    1.01
G7          6.34   10.92   11.21          39.45  -37.24   -7.19          37.93  190.92           1.59    0.79    0.85    1.03
G8          4.68    9.97   11.87          37.79  -49.45  -12.05          50.90  193.69           2.16    0.77    0.82    1.10
G9         36.81   40.29   34.56          69.67   -6.55   -1.92           6.83  196.31           0.44    0.37    0.38    0.40
G10        34.87   40.29   35.36          69.67  -13.05   -3.07          13.41  193.22           0.49    0.35    0.37    0.41
G11        33.17   40.28   36.13          69.67  -18.91   -4.16          19.37  192.41           0.55    0.33    0.36    0.42
G12        29.85   40.27   37.53          69.66  -30.99   -6.11          31.59  191.15           0.66    0.29    0.34    0.43
G13        31.10   40.94   55.78          70.14  -28.37  -27.01          39.17  223.59           0.72    0.27    0.17    0.44
G14        47.92   35.46   49.47          66.10   42.16  -27.08          50.11  327.29           0.24    0.59    0.24    0.41
G15        64.71   66.33   17.57          85.17    1.71   55.01          55.03   88.22           0.11    0.22    0.65    0.16
G16        13.54   14.15   11.88          44.45   -0.65   -0.60           0.93  215.30           0.85    0.84    0.83    0.85
G17        38.53   29.08   13.32          60.84   37.04   23.62          43.93   32.52           0.27    0.72    0.79    0.48
G18        22.69   32.31   15.43          63.60  -34.39   22.88          41.31  146.37           0.74    0.39    0.71    0.52
G19        19.63   18.13   40.97          49.65   11.16  -45.17          46.53  283.88           0.83    0.72    0.32    0.77
G20        35.36   34.19   14.74          65.11    8.27   27.22          28.45   73.09           0.36    0.52    0.73    0.44
G21        34.15   32.74    9.40          63.95    9.14   40.90          41.91   77.40           0.37    0.55    0.92    0.46
G22        46.46   42.88    2.83          71.47   14.95   85.86          87.16   80.12           0.22    0.49    1.42    0.33
H1          2.49    2.90    3.29          19.64   -5.83   -6.88           9.02  229.73           1.69    1.47    1.38    1.56
H2          2.22    2.89    4.43          19.61  -11.27  -14.03          18.00  231.21           1.90    1.42    1.26    1.60
H3          2.07    3.06    6.20          20.27  -17.48  -21.84          27.97  231.33           2.25    1.33    1.12    1.61
H4          1.93    2.94    6.05          19.81  -18.57  -21.98          28.77  229.81           2.33    1.34    1.13    1.63
H5          9.41   10.83   11.99          39.29   -8.14   -9.82          12.75  230.34           1.09    0.91    0.83    0.99
H6          8.50   10.83   15.17          39.28  -15.79  -18.39          24.24  229.35           1.26    0.86    0.73    1.01
H7          7.72   10.91   19.17          39.43  -23.42  -27.38          36.03  229.45           1.52    0.81    0.63    1.04
H8          6.71   10.86   25.12          39.34  -32.87  -39.12          51.10  229.96           2.18    0.75    0.52    1.09
H9         37.26   40.21   37.62          69.62   -4.85   -6.31           7.96  232.46           0.44    0.37    0.34    0.41
H10        36.38   40.48   40.75          69.81   -8.58  -10.13          13.28  229.73           0.47    0.35    0.31    0.41
H11        34.70   40.28   44.99          69.67  -13.63  -15.68          20.77  229.01           0.53    0.33    0.27    0.42
H12        31.65   40.22   55.66          69.63  -24.17  -27.77          36.82  228.96           0.69    0.29    0.18    0.44
H13        26.29   36.00   53.11          66.52  -31.45  -30.40          43.74  224.03           0.85    0.31    0.19    0.51
H14        43.17   29.53   45.35          61.25   49.54  -30.64          58.25  328.26           0.28    0.72    0.28    0.48
H15        63.12   63.86   13.02          83.89    3.58   64.17          64.27   86.80           0.12    0.25    0.78    0.17
H16         9.04    9.41    7.98          36.76   -0.28   -0.83           0.90  253.72           1.03    1.02    1.00    1.03
H17        33.88   23.78    9.08          55.86   43.06   28.09          51.41   33.12           0.31    0.87    0.95    0.55
H18        17.56   26.70   11.05          58.70  -38.56   26.46          46.77  145.54           0.89    0.46    0.85    0.61
H19        14.72   12.81   36.10          42.48   15.15  -51.01          53.21  286.54           1.00    0.87    0.38    0.93
H20        40.48   40.99   15.55          70.17    2.96   33.91          34.04   85.01           0.32    0.42    0.71    0.37
H21        30.16   31.35   20.30          62.80   -0.27   10.56          10.56   91.47           0.48    0.51    0.60    0.50
H22        34.39   37.49   11.14          67.64   -5.93   41.63          42.05   98.11           0.41    0.43    0.85    0.42
I1          4.20    4.29    5.74          24.61    0.87  -12.23          12.26  274.08           1.42    1.34    1.15    1.38
I2          4.26    4.27    8.66          24.55    1.98  -24.40          24.48  274.63           1.51    1.32    0.99    1.41
I3          4.35    4.28   12.13          24.58    3.08  -35.58          35.72  274.95           1.64    1.29    0.85    1.43
I4          4.49    4.32   20.27          24.72    4.45  -55.06          55.24  274.62           2.30    1.21    0.63    1.50
I5         13.66   14.09   15.28          44.36    0.45   -9.91           9.92  272.60           0.87    0.83    0.73    0.86
I6         13.85   14.14   19.49          44.43    1.37  -19.43          19.48  274.05           0.90    0.82    0.63    0.87
I7         13.88   14.05   24.05          44.30    2.12  -28.63          28.71  274.22           0.94    0.81    0.55    0.88
I8         14.05   13.90   37.11          44.09    4.13  -49.63          49.80  274.75           1.11    0.78    0.37    0.91
