targets/wolf_faust/reflective/R080415WhiteBacking.it8
IT8.7/2
ORIGINATOR "Wolf Faust"
DESCRIPTOR "Kodak Professional Paper, L* a* b* (light D50, viewing angle 2)"
MANUFACTURER "Wolf Faust - http://www.coloraid.de"
CREATED "May 12, 2008"
PROD_DATE "2008:04"
SAMPLE_BACKING "white"
SERIAL "5x7 R080415 Batch Average Data"
MATERIAL "Kodak Professional Ultra Endura"
NUMBER_OF_FIELDS 9
BEGIN_DATA_FORMAT
SAMPLE_ID  XYZ_X   XYZ_Y   XYZ_Z          LAB_L   LAB_A   LAB_B          LAB_C   LAB_H
END_DATA_FORMAT
NUMBER_OF_SETS 288
BEGIN_DATA
A1          3.57    3.00    2.08          20.04   11.26    3.45          11.78   17.03
A2          4.43    2.98    1.74          19.96   24.09    6.79          25.02   15.74 
A3          5.28    2.94    1.41          19.82   35.44   10.24          36.89   16.12
A4          6.16    3.21    1.43          20.87   40.94   11.81          42.61   16.09 
A5         12.90   11.20    8.26          39.91   14.72    3.52          15.14   13.45
A6         15.29   11.28    7.16          40.05   29.04    8.08          30.15   15.55 
A7         17.70   11.28    6.33          40.06   42.57   11.66          44.14   15.32
A8         22.07   11.62    5.23          40.61   61.84   17.89          64.38   16.13 
A9         42.27   41.51   32.87          70.53    6.85    2.03           7.15   16.52
A10        44.59   41.41   31.53          70.46   13.98    3.94          14.53   15.75
A11        47.35   41.57   30.31          70.57   21.31    6.03          22.14   15.81
A12        49.79   41.61   28.92          70.60   27.85    8.31          29.06   16.61 
A13        76.61   80.24   69.40          91.79   -1.54   -2.93           3.31  242.31
A14        77.85   79.97   69.22          91.67    1.48   -2.98           3.33  296.37 
A15        78.03   81.19   65.30          92.22   -0.51    1.59           1.67  107.84
A16        78.25   81.20   66.96          92.22   -0.09    0.04           0.11  166.74
A17        76.76   78.81   65.13          91.15    1.56   -0.09           1.56  356.79
A18        76.19   79.91   66.18          91.65   -1.73   -0.22           1.75  187.26 
A19        76.53   79.34   69.27          91.39    0.06   -3.51           3.51  270.93
A20         1.38    1.09    0.73           9.69   10.55    2.92          10.94   15.50 
A21         5.28    3.32    0.76          21.30   29.09   22.33          36.68   37.51
A22        10.33    5.88    0.84          29.10   43.03   34.50          55.16   38.72
B1          3.42    3.03    1.63          20.18    8.35    8.27          11.75   44.71
B2          3.97    2.95    1.01          19.86   18.06   15.69          23.93   40.98
B3          4.65    3.00    0.58          20.06   26.54   23.59          35.50   41.63
B4          5.52    3.22    0.36          20.91   33.57   29.25          44.53   41.06
B5         13.07   11.31    6.12          40.09   15.09   12.70          19.72   40.09
B6         15.01   11.33    4.03          40.13   27.01   23.69          35.92   41.25
B7         17.58   11.40    2.42          40.25   41.06   35.26          54.13   40.65
B8         21.42   11.55    1.02          40.49   59.34   51.10          78.31   40.73
B9         42.26   41.62   30.88          70.61    6.51    5.19           8.33   38.57
B10        44.58   41.83   27.47          70.75   12.69   10.97          16.77   40.85
B11        46.71   41.92   24.46          70.81   18.50   16.32          24.67   41.42
B12        49.10   41.76   21.58          70.70   25.57   21.60          33.47   40.18
B13        69.83   75.23   68.42          89.50   -5.75   -5.99           8.30  226.18
B14        73.42   72.37   66.98          88.14    7.68   -7.00          10.39  317.63
B15        75.77   79.18   55.32          91.31   -1.17    9.98          10.05   96.69
B16        62.30   64.45   52.66          84.20    0.36    0.57           0.68   56.68
B17        70.30   69.84   53.37          86.92    6.42    4.48           7.83   34.90
B18        66.87   72.72   54.41          88.31   -7.04    5.77           9.10  140.63
B19        65.30   66.96   65.96          85.48    1.66  -10.64          10.77  278.87
B20         2.87    2.05    0.70          15.76   18.02   13.99          22.81   37.83
B21         8.63    5.05    0.79          26.87   38.89   31.48          50.04   38.98
B22        29.75   25.25   12.26          57.32   21.85   20.48          29.95   43.15
C1          4.60    4.40    2.31          24.94    4.81    9.84          10.95   63.96
C2          4.79    4.34    1.37          24.75    8.19   19.18          20.86   66.88
C3          5.20    4.38    0.69          24.88   12.64   29.95          32.51   67.11
C4          5.93    4.85    0.51          26.29   15.04   35.77          38.80   67.19
C5         24.15   23.03   11.05          55.10    8.68   20.28          22.06   66.84
C6         26.56   23.31    5.78          55.39   17.60   40.66          44.31   66.60
C7         28.82   23.31    2.41          55.39   26.60   61.51          67.02   66.61
C8         30.98   23.51    0.91          55.59   33.86   78.89          85.85   66.77
C9         49.03   49.29   33.61          75.63    4.12    9.74          10.57   67.08
C10        50.92   49.46   27.77          75.74    8.72   19.06          20.96   65.40
C11        52.34   49.41   22.67          75.71   12.58   28.10          30.79   65.89
C12        54.08   49.42   17.83          75.71   17.03   38.12          41.75   65.93
C13        60.61   68.02   66.66          86.02  -11.42  -10.38          15.43  222.26
C14        67.77   63.09   63.85          83.49   15.72  -12.07          19.82  322.47
C15        73.49   76.95   45.47          90.30   -1.45   19.30          19.36   94.29
C16        48.32   49.86   41.03          75.98    0.68    0.15           0.71   92.41
C17        62.65   59.11   42.15          81.35   13.45    7.97          15.64   30.64
C18        55.94   63.87   44.10          83.90  -13.60    9.94          16.85  143.82
C19        52.94   53.55   61.56          78.20    3.38  -18.98          19.28  280.10
C20         1.75    1.46    0.68          12.32    9.21    8.33          12.42   42.14
C21        23.48   17.64    4.85          49.05   31.86   34.41          46.89   47.21
C22        35.84   32.45   17.77          63.71   15.91   17.55          23.69   47.80
D1          4.31    4.49    2.30          25.24   -0.36   10.48          10.49   91.95
D2          4.24    4.45    1.44          25.10   -0.67   18.97          18.98   92.02
D3          4.24    4.48    0.76          25.20   -1.11   29.14          29.16   92.18
D4          4.75    5.05    0.59          26.87   -1.45   35.27          35.30   92.36
D5         27.24   28.47   14.42          60.31   -0.83   19.77          19.78   92.40
D6         27.29   28.69    7.82          60.51   -1.49   40.75          40.77   92.10
D7         27.12   28.67    3.70          60.49   -2.11   60.79          60.83   91.99
D8         27.32   29.08    1.28          60.85   -2.89   82.66          82.71   92.00
D9         56.05   58.15   39.76          80.82   -0.04   10.14          10.14   90.25
D10        56.13   58.51   32.06          81.02   -0.71   21.35          21.36   91.92
D11        56.16   58.48   25.96          81.01   -0.57   31.23          31.23   91.05
D12        56.06   58.85   11.17          81.21   -1.68   64.91          64.94   91.48
D13        51.64   60.60   64.66          82.17  -17.07  -15.13          22.81  221.55
D14        62.18   54.44   60.39          78.72   23.71  -16.93          29.13  324.48
D15        71.33   74.57   36.45          89.19   -1.20   29.05          29.08   92.37
D16        36.22   37.50   31.11          67.65    0.19   -0.26           0.42  238.19
D17        55.61   49.65   32.55          75.86   20.26   11.69          23.39   29.98
D18        45.39   54.78   34.79          78.91  -20.17   13.68          24.37  145.86
D19        41.70   41.54   56.56          70.55    5.05  -27.10          27.57  280.55
D20        14.37   10.91    2.78          39.44   26.11   30.96          40.50   49.86
D21        22.06   21.37   12.02          53.36    6.88   14.36          15.92   64.39
D22        39.61   37.64   20.56          67.76   10.67   18.56          21.41   60.10
E1          3.91    4.43    2.37          25.05   -5.16    9.58          10.88  118.32
E2          3.56    4.40    1.42          24.95  -10.06   19.01          21.51  117.89
E3          3.26    4.44    0.78          25.07  -15.31   28.54          32.39  118.21
E4          3.44    4.89    0.64          26.41  -18.12   33.38          37.99  118.50
E5         12.91   14.71    7.82          45.23   -8.12   14.38          16.51  119.44
E6         11.95   14.91    4.84          45.51  -15.83   28.32          32.45  119.20
E7         10.71   14.68    2.55          45.19  -23.43   42.72          48.72  118.75
E8          9.95   15.15    1.11          45.84  -32.07   59.00          67.15  118.53
E9         38.63   41.57   29.20          70.58   -4.57    7.81           9.05  120.37
E10        37.37   41.79   24.63          70.72   -9.26   15.87          18.37  120.28
E11        36.17   41.78   20.21          70.72  -13.19   24.39          27.73  118.40
E12        33.51   42.22   13.10          71.02  -23.56   41.75          47.94  119.44
E13        44.04   53.93   62.45          78.42  -21.92  -19.47          29.32  221.61
E14        57.02   46.90   56.87          74.13   31.21  -21.27          37.77  325.72
E15        69.50   72.31   28.85          88.12   -0.47   38.62          38.62   90.70
E16        26.68   27.72   23.01          59.64   -0.21   -0.26           0.43  226.81
E17        49.29   41.57   24.58          70.58   26.62   15.70          30.91   30.53
E18        36.57   46.71   26.87          74.00  -26.00   17.58          31.39  145.94
E19        32.85   32.07   51.62          63.40    6.97  -34.15          34.86  281.53
E20        25.30   17.33    1.25          48.67   41.37   62.02          74.55   56.30
E21        17.53   14.46    2.77          44.89   20.82   40.46          45.50   62.77
E22        30.18   25.93    8.33          57.97   20.66   34.41          40.14   59.02
F1          1.56    1.96    1.35          15.29   -8.45    3.22           9.05  159.18
F2          1.22    1.94    1.09          15.16  -17.74    6.52          18.90  159.82
F3          1.01    2.00    0.93          15.50  -26.43    9.54          28.10  160.17
F4          1.11    2.28    1.01          16.88  -28.86   10.66          30.77  159.72
F5          6.91    8.58    6.03          35.17  -12.90    4.61          13.70  160.32
F6          5.71    8.68    5.10          35.37  -26.54    9.50          28.19  160.30
F7          4.71    8.82    4.33          35.64  -39.85   14.16          42.29  160.45
F8          3.56    9.01    3.40          35.99  -57.65   20.60          61.23  160.34
F9         38.04   41.45   32.83          70.49   -6.10    2.04           6.44  161.54
F10        36.55   41.60   31.47          70.60  -11.41    4.27          12.19  159.51
F11        35.12   42.07   30.51          70.92  -17.60    6.32          18.70  160.23
F12        31.05   41.80   27.46          70.73  -31.13   10.95          33.00  160.61
F13        37.50   47.87   59.95          74.75  -26.19  -23.34          35.08  221.70
F14        51.92   39.92   53.08          69.41   38.61  -25.38          46.21  326.68
F15        67.69   69.87   22.17          86.93    0.71   48.41          48.41   89.16
F16        19.09   19.86   16.35          51.68   -0.28    0.10           0.36  152.39
F17        43.44   34.41   17.81          65.28   32.94   20.17          38.62   31.48
F18        29.14   39.50   20.12          69.11  -31.31   21.80          38.15  145.16
F19        25.55   24.17   46.59          56.25    9.73  -40.73          41.88  283.44
F20        26.53   25.48   11.96          57.54    8.20   21.75          23.25   69.33
F21        34.67   31.33   11.01          62.79   15.96   33.63          37.23   64.61
F22        39.02   36.32   16.07          66.76   13.10   26.75          29.79   63.92
G1          2.41    3.03    2.71          20.15   -9.58   -1.70           9.74  190.07
G2          1.98    3.06    2.95          20.30  -19.46   -3.29          19.74  189.60
G3          1.68    3.23    3.33          20.94  -29.60   -4.88          30.00  189.37
G4          1.78    3.47    3.62          21.84  -31.04   -5.29          31.49  189.68
G5          9.29   11.35   10.09          40.16  -12.84   -2.45          13.07  190.80
G6          8.04   11.49   10.78          40.39  -24.64   -4.26          25.01  189.81
G7          6.72   11.57   11.51          40.53  -37.86   -6.27          38.37  189.40
G8          5.42   11.87   12.60          41.01  -54.27   -8.58          54.94  188.99
G9         38.09   41.45   34.98          70.49   -5.91   -1.12           6.02  190.70
G10        36.19   41.72   35.91          70.68  -12.95   -2.11          13.12  189.24
G11        34.39   41.92   36.75          70.81  -19.63   -3.05          19.86  188.83
G12        31.09   42.11   38.29          70.95  -31.90   -4.93          32.28  188.77
G13        31.47   41.99   57.08          70.86  -30.17  -27.12          40.57  221.95
G14        46.65   33.21   48.85          64.33   46.29  -29.44          54.85  327.55
G15        65.83   67.25   16.64          85.63    2.20   57.94          57.98   87.82
G16        12.82   13.33   11.09          43.26   -0.25   -0.27           0.44  235.95
G17        37.76   27.81   12.30          59.72   39.44   24.50          46.43   31.85
G18        22.58   32.76   14.64          63.96  -36.48   25.48          44.50  145.07
G19        19.04   17.13   41.08          48.43   13.43  -47.42          49.29  285.81
G20        36.55   35.26   14.87          65.95    8.63   28.32          29.61   73.06
G21        35.58   33.92    9.65          64.90    9.92   41.67          42.83   76.61
G22        48.23   44.25    2.78          72.39   15.91   87.81          89.24   79.73
H1          2.60    3.02    3.41          20.13   -5.83   -6.84           8.99  229.57
H2          2.33    3.05    4.53          20.24  -11.72  -13.55          17.92  229.14
H3          2.05    3.05    5.94          20.22  -17.54  -20.74          27.16  229.77
H4          2.23    3.44    6.99          21.74  -20.17  -22.79          30.43  228.49
H5          9.97   11.45   12.32          40.32   -8.12   -8.99          12.11  227.90
H6          8.96   11.39   15.67          40.24  -15.95  -18.00          24.05  228.45
H7          8.22   11.64   19.70          40.63  -24.01  -26.42          35.70  227.74
H8          7.25   11.90   26.31          41.06  -34.88  -38.25          51.76  227.64
H9         38.46   41.38   37.70          70.44   -4.53   -5.00           6.74  227.82
H10        37.56   41.91   41.52          70.81   -9.02   -9.40          13.03  226.17
H11        35.85   41.71   45.44          70.67  -14.06  -14.49          20.19  225.88
H12        32.74   41.79   57.13          70.72  -24.98  -27.40          37.08  227.65
H13        26.40   36.77   54.12          67.10  -33.54  -30.48          45.32  222.27
H14        41.98   27.61   44.83          59.54   53.36  -32.95          62.71  328.30
H15        64.08   64.58   11.90          84.27    4.14   68.00          68.13   86.52
H16         8.30    8.65    7.12          35.29   -0.32    0.05           0.41  170.28
H17        33.03   22.61    8.11          54.67   45.24   29.54          54.03   33.15
H18        17.21   26.89   10.16          58.87  -41.21   29.60          50.74  144.31
H19        14.14   11.95   36.14          41.14   17.41  -53.36          56.13  288.07
H20        41.91   42.38   15.67          71.13    3.16   35.27          35.42   84.89
H21        31.18   32.35   20.81          63.63   -0.05   10.94          10.95   90.28
H22        35.79   39.01   11.58          68.76   -6.01   42.21          42.64   98.10
I1          4.39    4.48    5.85          25.20    0.91  -11.75          11.79  274.43
I2          4.45    4.46    8.90          25.15    1.96  -24.26          24.34  274.61
I3          4.52    4.51   12.27          25.29    2.33  -34.77          34.85  273.84
I4          4.64    4.55   20.65          25.41    3.38  -54.64          54.74  273.54
I5         14.08   14.54   15.51          45.00    0.35   -9.39           9.40  272.13
I6         14.30   14.66   19.82          45.17    1.00  -18.85          18.88  273.05
I7         14.27   14.35   24.52          44.73    2.73  -28.74          28.88  275.42
I8         14.71   14.66   38.77          45.17    3.50  -50.01          50.13  274.00
I9         40.13   41.46   37.63          70.50    0.46   -4.80           4.83  275.44
I10        40.12   41.34   41.62          70.41    0.80  -10.22          10.25  274.50
I11        40.10   41.22   45.33          70.33    1.08  -14.95          14.99  274.13
I12        40.27   41.09   56.58          70.24    2.01  -27.67          27.75  274.15
I13        21.91   31.86   50.84          63.23  -36.38  -33.59          49.51  222.72
I14        37.55   22.70   40.73          54.76   60.10  -36.06          70.08  329.04
I15        62.18   61.72    8.25          82.77    6.28   77.46          77.72   85.37
I16         5.06    5.26    4.28          27.46   -0.10    0.35           0.45  108.35
I17        28.74   18.18    4.98          49.72   50.74   34.86          61.56   34.50
I18        12.97   21.89    6.81          53.91  -45.12   33.46          56.17  143.44
I19        10.30    7.92   31.31          33.82   22.48  -58.90          63.05  290.89
I20        42.41   46.57   16.21          73.91   -7.30   38.77          39.45  100.66
I21        11.13   14.93    3.47          45.54  -21.76   36.58          42.57  120.75
I22        28.73   37.24   17.43          67.46  -25.77   24.78          35.75  136.12
J1          2.20    1.91    3.09          15.02    8.02  -13.40          15.62  300.89
J2          2.53    1.97    5.07          15.30   13.73  -24.94          28.47  298.84
J3          2.92    1.94    8.08          15.14   21.64  -38.49          44.16  299.34
J4          3.99    2.00   18.85          15.51   37.18  -67.93          77.44  298.69
J5         11.55   11.27   12.40          40.04    4.92   -9.71          10.89  296.88
J6         12.41   11.35   16.28          40.16   10.40  -19.61          22.20  297.95
J7         13.10   11.23   20.26          39.96   15.84  -28.76          32.83  298.85
J8         15.37   11.26   35.04          40.01   29.68  -53.76          61.41  298.91
J9         40.65   41.13   37.78          70.27    3.08   -5.41           6.23  299.71
J10        41.80   41.35   41.31          70.42    5.91   -9.81          11.45  301.10
J11        42.76   41.33   45.44          70.41    8.83  -14.95          17.36  300.56
J12        45.02   41.41   55.93          70.46   15.21  -26.61          30.65  299.76
J13        17.68   26.88   46.89          58.86  -38.63  -36.58          53.20  223.44
J14        32.93   18.08   36.14          49.59   66.80  -38.80          77.25  329.85
J15        60.40   58.90    5.49          81.24    8.71   86.60          87.04   84.26
J16         2.72    2.81    2.31          19.27    0.09    0.06           0.30  135.89
J17        24.79   14.38    2.77          44.78   55.96   40.30          68.96   35.76
J18         9.19   17.09    4.32          48.37  -49.04   36.14          60.92  143.61
J19         7.24    4.82   26.41          26.22   28.98  -64.01          70.26  294.36
J20        30.74   39.88   22.73          69.38  -26.47   17.08          31.50  147.17
J21         4.46    8.33    1.46          34.66  -38.89   35.18          52.44  137.87
J22         1.39    2.21    0.92          16.55  -18.76   11.43          21.97  148.65
K1          5.38    4.44    5.31          25.08   13.95   -9.32          16.78  326.24
K2          6.53    4.39    7.43          24.93   27.37  -19.05          33.35  325.16
K3          7.88    4.40   10.01          24.96   40.39  -28.38          49.36  324.91
K4         10.03    4.54   14.10          25.40   56.74  -39.61          69.20  325.08
K5         16.05   14.55   15.03          45.01   12.03   -8.18          14.55  325.78
K6         18.17   14.66   18.68          45.17   22.97  -16.43          28.24  324.43
K7         20.51   14.63   22.34          45.13   35.00  -23.98          42.43  325.58
K8         26.84   14.79   34.48          45.34   62.05  -43.75          75.92  324.81
K9         41.95   41.22   37.30          70.33    6.78   -4.65           8.22  325.58
K10        44.28   41.25   40.91          70.35   13.56   -9.40          16.50  325.26
K11        46.60   41.21   44.27          70.32   20.30  -13.67          24.47  326.04
K12        52.38   41.38   54.11          70.44   35.38  -24.72          43.16  325.06
K13        14.01   22.17   42.55          54.20  -39.76  -39.34          55.93  224.69
K14        28.60   14.20   31.55          44.51   72.60  -40.82          83.29  330.66
K15        58.23   55.51    3.34          79.34   11.71   95.72          96.43   83.03
K16         1.29    1.33    1.07          11.50    0.26    0.38           0.50   53.87
K17        21.22   11.32    1.30          40.12   59.99   46.60          75.97   37.84
K18         6.26   12.87    2.49          42.56  -51.49   38.73          64.43  143.05
K19         5.10    2.78   21.75          19.13   36.30  -67.67          76.79  298.21
K20         2.52    3.30    1.99          21.19  -12.01    6.37          13.59  152.04
K21         1.36    1.85    1.54          14.66  -11.37   -0.20          11.37  181.03
K22         1.72    2.22    2.97          16.62   -9.97   -9.78          13.96  224.44
L1          3.68    2.99    2.74          20.01   13.17   -2.23          13.36  350.41
L2          4.63    3.04    3.09          20.22   25.64   -4.44          26.02  350.18
L3          5.74    3.14    3.51          20.61   37.43   -6.71          38.03  349.83
L4          6.68    3.40    3.92          21.57   43.41   -7.66          44.08  350.00
L5         13.24   11.33   10.29          40.13   16.05   -3.14          16.35  348.91
L6         15.89   11.37   11.13          40.19   31.92   -5.69          32.42  349.90
L7         18.69   11.28   12.13          40.05   47.77   -8.91          48.59  349.44
L8         22.97   11.46   13.32          40.34   67.10  -11.75          68.12  350.06
L9         42.49   41.30   35.29          70.39    8.12   -1.74           8.31  347.91
L10        45.28   41.54   36.15          70.55   15.55   -2.67          15.78  350.26
L11        47.58   41.40   36.79          70.45   22.48   -3.73          22.78  350.59
L12        50.77   41.44   37.77          70.48   31.00   -5.03          31.40  350.79
L13         8.97   14.78   33.46          45.32  -37.80  -42.30          56.72  228.22
L14        22.70    9.86   24.75          37.60   77.71  -41.46          88.08  331.92
L15        51.96   46.79    1.43          74.06   18.69  103.47         105.14   79.76
L16         0.34    0.35    0.28           3.14    0.23    0.19           0.31   40.58
L17        16.33    7.85    0.33          33.67   62.53   51.82          81.21   39.65
L18         2.74    6.66    0.90          31.02  -50.10   36.75          62.14  143.74
L19         2.99    1.15   14.74          10.18   44.24  -67.49          80.70  303.24
L20         0.75    0.80    0.82           7.18   -0.80   -2.98           3.09  254.87
L21         1.02    0.96    0.99           8.68    3.54   -3.23           4.79  317.52
L22         2.05    1.64    1.36          13.45   11.54   -0.07          11.54  279.65
GS0        78.80   81.77   69.65          92.47   -0.10   -1.98           1.99  267.20
GS1        69.23   71.93   58.50          87.94   -0.28    0.87           0.92  108.38
GS2        61.94   64.22   52.05          84.08    0.05    1.03           1.03   87.74
