targets/wolf_faust/reflective/R090703WhiteBacking.it8
IT8.7/2
ORIGINATOR "Wolf Faust"
DESCRIPTOR "Kodak Professional Paper, L* a* b* (light D50, viewing angle 2)"
MANUFACTURER "Wolf Faust - http://www.coloraid.de"
CREATED "July 12, 2009"
PROD_DATE "2009:07"
SAMPLE_BACKING "white"
SERIAL "5x7 R090703 Batch Average Data"
MATERIAL "Kodak Professional Ultra Endura"
NUMBER_OF_FIELDS 9
BEGIN_DATA_FORMAT
SAMPLE_ID  XYZ_X   XYZ_Y   XYZ_Z          LAB_L   LAB_A   LAB_B          LAB_C   LAB_H
END_DATA_FORMAT
NUMBER_OF_SETS 288
BEGIN_DATA
A1          3.59    3.01    2.01          20.08   11.37    4.19          12.12   20.23
A2          4.45    3.01    1.65          20.09   23.80    7.95          25.09   18.47 
A3          5.28    2.96    1.34          19.88   35.23   11.16          36.96   17.57
A4          5.79    3.15    1.42          20.64   37.81   11.49          39.52   16.91 
A5         12.73   11.14    7.78          39.81   14.04    5.18          14.96   20.25
A6         14.93   11.01    6.80          39.60   28.82    8.83          30.14   17.04 
A7         17.66   11.29    6.02          40.06   42.30   13.06          44.27   17.16
A8         21.60   11.51    5.04          40.43   60.44   18.56          63.22   17.07 
A9         41.48   40.74   32.05          70.00    6.78    2.35           7.17   19.11
A10        43.76   40.72   30.71          69.98   13.64    4.39          14.33   17.83
A11        46.31   40.75   29.33          70.00   20.89    6.60          21.90   17.53
A12        48.87   40.94   27.97          70.13   27.41    9.06          28.87   18.30 
A13        76.65   80.52   69.06          91.92   -1.98   -2.41           3.12  230.49
A14        77.86   79.92   68.74          91.65    1.61   -2.58           3.04  301.95 
A15        78.00   81.24   64.07          92.24   -0.66    2.79           2.87  103.29
A16        77.80   80.53   65.53          91.92    0.30    0.87           0.92   71.11
A17        75.69   77.48   62.00          90.54    2.02    1.87           2.75   42.92
A18        76.19   80.03   64.81          91.70   -1.97    1.16           2.29  149.53 
A19        76.67   79.53   68.74          91.48   -0.03   -2.88           2.88  269.38
A20         1.40    1.12    0.70           9.97    9.98    3.90          10.72   21.34 
A21         5.30    3.36    0.74          21.45   28.74   23.05          36.84   38.73
A22        10.29    5.87    0.80          29.07   42.88   35.03          55.37   39.25
B1          3.44    3.00    1.57          20.06    9.11    8.75          12.64   43.82
B2          3.99    2.98    0.97          19.95   18.01   16.54          24.46   42.56
B3          4.52    2.93    0.60          19.76   26.14   22.82          34.70   41.12
B4          5.12    3.17    0.53          20.72   29.63   25.81          39.29   41.06
B5         12.80   11.05    5.67          39.67   15.10   14.05          20.63   42.94
B6         14.92   11.22    3.84          39.96   27.25   24.52          36.66   41.98
B7         17.37   11.20    2.28          39.91   41.40   35.91          54.80   40.94
B8         20.87   11.43    1.05          40.30   57.55   50.44          76.52   41.23
B9         40.98   40.48   29.43          69.81    6.07    6.11           8.61   45.18
B10        43.29   40.55   26.58          69.86   12.78   10.93          16.82   40.55
B11        45.36   40.60   23.25          69.90   18.61   16.99          25.20   42.39
B12        47.85   40.68   20.81          69.95   25.36   21.83          33.46   40.72
B13        70.18   75.91   67.93          89.82   -6.33   -4.99           8.07  218.25
B14        73.75   72.94   66.57          88.42    7.19   -6.15           9.46  319.45
B15        75.90   79.31   55.91          91.38   -1.15    9.47           9.54   96.93
B16        62.23   64.59   53.06          84.27   -0.10    0.25           0.30  114.46
B17        70.39   69.92   53.86          86.96    6.42    4.03           7.58   32.12
B18        67.15   73.21   55.02          88.55   -7.46    5.53           9.28  143.43
B19        65.48   67.53   65.32          85.77    0.82   -9.54           9.58  274.92
B20         3.43    2.29    0.60          16.94   22.53   17.79          28.70   38.29
B21         8.50    4.98    0.76          26.67   38.66   31.68          49.99   39.33
B22        29.21   24.76   11.50          56.84   21.81   21.91          30.92   45.14
C1          4.54    4.35    2.18          24.78    4.82   10.77          11.80   65.87
C2          4.91    4.41    1.35          24.99    8.65   19.87          21.67   66.49
C3          5.22    4.40    0.72          24.94   12.63   29.39          31.99   66.75
C4          5.81    4.82    0.70          26.21   14.08   32.07          35.02   66.29
C5         23.73   22.66   10.65          54.72    8.50   20.88          22.54   67.85
C6         26.10   22.74    5.40          54.80   18.25   41.47          45.31   66.25
C7         28.05   22.58    2.29          54.64   26.81   61.28          66.88   66.37
C8         29.62   22.72    1.18          54.79   32.26   73.50          80.27   66.31
C9         48.39   48.62   32.64          75.21    4.17   10.45          11.25   68.25
C10        49.59   48.34   26.85          75.04    8.17   19.40          21.05   67.15
C11        50.95   48.11   21.65          74.89   12.45   28.68          31.26   66.54
C12        52.86   48.39   17.55          75.07   16.68   37.64          41.17   66.11
C13        61.50   69.41   66.31          86.71  -12.30   -8.86          15.16  215.76
C14        68.17   63.92   63.52          83.92   14.74  -11.02          18.40  323.22
C15        73.12   76.55   45.24          90.11   -1.42   19.27          19.32   94.22
C16        48.52   50.35   40.88          76.28   -0.07    0.86           0.87   95.11
C17        62.52   59.22   42.25          81.41   12.88    7.95          15.14   31.69
C18        56.43   64.60   44.01          84.28  -13.98   10.70          17.61  142.57
C19        53.69   54.83   61.03          78.94    2.13  -17.18          17.31  277.05
C20         2.13    1.62    0.59          13.37   13.72   11.98          18.22   41.11
C21        23.39   17.57    4.68          48.97   31.79   35.20          47.43   47.91
C22        35.06   31.80   17.02          63.18   15.59   18.36          24.08   49.66
D1          4.29    4.43    2.21          25.05    0.20   10.94          10.94   88.93
D2          4.25    4.40    1.40          24.96    0.13   19.22          19.22   89.60
D3          4.17    4.37    0.74          24.84   -0.49   28.91          28.91   90.98
D4          4.91    5.14    0.78          27.12   -0.53   32.14          32.14   90.95
D5         26.89   28.03   13.60          59.91   -0.54   21.24          21.24   91.45
D6         26.56   27.92    7.51          59.81   -1.45   40.77          40.80   92.04
D7         26.60   28.03    3.58          59.91   -1.74   60.61          60.64   91.64
D8         26.58   28.19    1.58          60.06   -2.47   77.65          77.69   91.82
D9         54.73   56.66   38.19          79.99    0.23   10.80          10.80   88.76
D10        54.98   57.10   30.52          80.24   -0.19   22.37          22.37   90.48
D11        54.53   56.90   24.58          80.12   -0.84   32.17          32.18   91.50
D12        54.34   57.17   11.19          80.27   -1.96   63.25          63.28   91.78
D13        53.12   62.76   64.30          83.32  -18.20  -12.81          22.25  215.13
D14        62.45   55.12   59.97          79.11   22.63  -15.83          27.62  325.03
D15        70.52   73.70   36.29          88.78   -1.15   28.57          28.59   92.31
D16        36.79   38.10   30.84          68.10    0.15    0.94           0.96   81.53
D17        55.10   49.43   32.44          75.72   19.57   11.62          22.76   30.70
D18        46.64   56.29   34.75          79.78  -20.35   15.22          25.41  143.20
D19        42.84   43.03   56.08          71.58    4.05  -24.85          25.17  279.25
D20        14.12   10.63    2.65          38.95   26.73   31.14          41.04   49.35
D21        21.53   20.71   11.24          52.63    7.48   15.44          17.15   64.15
D22        38.48   36.55   19.71          66.93   10.65   18.90          21.69   60.60
E1          3.93    4.40    2.23          24.94   -4.42   10.56          11.45  112.72
E2          3.62    4.38    1.42          24.90   -8.94   18.94          20.94  115.27
E3          3.26    4.36    0.80          24.82  -14.29   27.79          31.25  117.22
E4          3.60    4.88    0.83          26.38  -15.60   29.83          33.66  117.60
E5         12.70   14.39    7.52          44.79   -7.61   14.79          16.64  117.24
E6         11.54   14.32    4.56          44.68  -15.18   28.45          32.25  118.09
E7         10.58   14.42    2.48          44.83  -22.82   42.67          48.39  118.14
E8         10.05   14.79    1.37          45.34  -29.11   54.77          62.02  117.99
E9         37.88   40.70   27.62          69.97   -4.36    9.36          10.33  114.99
E10        36.57   40.84   23.48          70.06   -9.05   16.85          19.12  118.25
E11        35.62   41.14   19.53          70.27  -13.09   25.04          28.26  117.60
E12        32.11   40.95   11.31          70.14  -24.75   45.41          51.72  118.59
E13        45.33   56.24   61.96          79.75  -23.94  -16.69          29.19  214.88
E14        56.56   46.64   55.99          73.96   30.79  -20.64          37.07  326.17
E15        68.29   71.02   28.61          87.50   -0.41   37.94          37.94   90.62
E16        27.13   28.07   22.87          59.95    0.25    0.57           0.63   66.67
E17        48.19   40.66   24.35          69.93   26.39   15.01          30.36   29.64
E18        37.87   48.40   26.93          75.08  -26.42   19.33          32.74  143.80
E19        33.35   32.73   50.61          63.94    6.40  -32.08          32.72  281.28
E20        24.81   16.91    1.20          48.14   41.55   61.82          74.48   56.10
E21        17.09   14.08    2.55          44.35   20.75   41.28          46.20   63.31
E22        29.78   25.56    7.97          57.62   20.66   35.18          40.80   59.58
F1          1.55    1.90    1.26          14.97   -7.42    3.74           8.31  153.25
F2          1.23    1.91    1.03          15.00  -16.67    7.01          18.08  157.19
F3          1.14    2.12    1.01          16.13  -24.45    9.31          26.16  159.16
F4          1.24    2.36    1.10          17.28  -26.28   10.00          28.12  159.17
F5          6.82    8.48    5.72          34.95  -12.82    5.71          14.04  156.00
F6          5.68    8.47    4.82          34.94  -24.99   10.20          26.99  157.79
F7          4.62    8.55    4.02          35.10  -38.64   15.07          41.48  158.69
F8          3.62    8.58    3.28          35.17  -53.11   19.99          56.75  159.37
F9         37.44   40.78   31.53          70.02   -6.01    3.18           6.80  152.07
F10        35.79   40.87   30.71          70.08  -11.74    4.57          12.60  158.72
F11        33.99   40.88   29.27          70.09  -17.87    6.86          19.14  158.99
F12        29.44   41.09   25.62          70.24  -35.05   13.27          37.48  159.27
F13        38.71   50.38   59.38          76.30  -29.01  -20.07          35.28  214.68
F14        51.25   39.51   52.04          69.12   38.13  -24.75          45.45  327.01
F15        66.14   68.23   21.98          86.12    0.77   47.40          47.40   89.06
F16        19.50   20.20   16.22          52.06    0.14    1.06           1.07   83.27
F17        42.32   33.54   17.75          64.60   32.58   19.12          37.78   30.41
F18        30.44   41.34   20.24          70.41  -32.02   23.79          39.89  143.39
F19        25.78   24.61   45.36          56.70    8.74  -38.49          39.47  282.80
F20        25.77   24.68   11.32          56.76    8.46   22.31          23.86   69.23
F21        33.82   30.54   10.45          62.11   15.90   34.26          37.77   65.10
F22        38.29   35.48   15.15          66.12   13.54   27.93          31.04   64.15
G1          2.38    2.97    2.54          19.91   -9.18   -0.74           9.21  184.62
G2          1.95    2.98    2.77          19.96  -18.87   -2.49          19.04  187.51
G3          1.78    3.26    3.24          21.05  -27.54   -4.09          27.84  188.44
G4          1.90    3.54    3.52          22.07  -29.00   -4.26          29.31  188.35
G5          9.21   11.20    9.52          39.92  -12.46   -0.97          12.50  184.44
G6          7.98   11.26   10.28          40.02  -23.56   -3.31          23.79  188.01
G7          6.59   11.26   11.00          40.02  -37.03   -5.57          37.44  188.56
G8          5.36   11.32   11.76          40.12  -51.04   -7.71          51.62  188.59
G9         37.48   40.77   33.44          70.02   -5.85    0.30           5.86  177.08
G10        35.31   40.72   34.46          69.98  -12.88   -1.25          12.94  185.56
G11        33.74   41.03   35.33          70.20  -19.21   -2.13          19.33  186.32
G12        29.20   41.52   37.68          70.54  -37.23   -4.80          37.54  187.35
G13        32.52   44.64   56.41          72.65  -34.07  -23.33          41.29  214.40
G14        45.89   32.76   47.73          63.97   45.68  -28.76          53.98  327.80
G15        64.05   65.39   16.55          84.69    2.27   56.54          56.58   87.70
G16        13.32   13.84   11.10          44.00   -0.11    0.99           1.00   96.42
G17        36.88   27.26   12.45          59.21   38.76   23.21          45.18   30.91
G18        23.93   34.81   14.83          65.60  -37.52   27.83          46.72  143.43
G19        19.20   17.57   39.93          48.97   11.92  -45.00          46.55  284.83
G20        35.61   34.24   14.15          65.16    8.93   28.81          30.16   72.78
G21        34.47   32.80    9.00          64.00   10.01   42.37          43.54   76.71
G22        46.55   42.64    2.61          71.31   15.89   87.25          88.68   79.68
H1          2.61    3.02    3.22          20.12   -5.56   -5.54           7.85  224.88
H2          2.30    3.01    4.25          20.09  -11.58  -12.21          16.83  226.50
H3          2.02    2.99    5.59          20.01  -17.33  -19.43          26.04  228.28
H4          2.22    3.34    6.38          21.37  -18.74  -20.77          27.98  227.94
H5          9.71   11.12   11.84          39.78   -7.82   -8.53          11.58  227.47
H6          8.83   11.22   15.21          39.95  -15.77  -17.37          23.46  227.77
H7          8.04   11.34   19.16          40.14  -23.58  -26.12          35.19  227.92
H8          7.02   11.23   24.19          39.96  -32.41  -36.38          48.72  228.31
H9         37.89   40.80   36.88          70.03   -4.59   -4.58           6.48  224.94
H10        36.84   41.10   40.46          70.25   -8.95   -9.01          12.70  225.18
H11        35.25   40.80   44.44          70.04  -13.33  -14.37          19.60  227.15
H12        32.49   41.09   55.03          70.24  -23.81  -26.05          35.29  227.57
H13        27.42   39.59   53.39          69.18  -38.34  -26.13          46.40  214.27
H14        40.75   26.75   43.30          58.74   53.06  -32.45          62.19  328.55
H15        62.16   62.67   12.17          83.27    4.03   65.48          65.60   86.47
H16         8.84    9.14    7.34          36.25    0.27    0.81           0.86   71.03
H17        32.00   21.91    8.35          53.94   44.73   27.37          52.44   31.46
H18        18.76   29.26   10.61          61.01  -42.21   31.82          52.86  142.99
H19        14.25   12.23   34.87          41.58   16.18  -50.81          53.32  287.66
H20        40.90   41.31   14.81          70.39    3.28   36.13          36.28   84.82
H21        30.84   31.89   19.76          63.25    0.34   12.44          12.44   88.44
H22        35.02   38.11   10.83          68.10   -5.76   43.36          43.74   97.56
I1          4.34    4.41    5.61          24.98    1.16  -10.97          11.03  276.00
I2          4.51    4.53    8.66          25.34    2.03  -23.07          23.16  275.04
I3          4.49    4.47   11.89          25.18    2.40  -33.85          33.93  274.05
I4          4.49    4.36   19.21          24.81    3.91  -52.67          52.82  274.24
I5         13.94   14.34   14.90          44.72    0.73   -8.36           8.39  275.02
I6         14.14   14.49   19.09          44.93    1.06  -17.74          17.77  273.43
I7         14.41   14.60   23.95          45.09    2.02  -27.09          27.17  274.27
I8         14.59   14.50   36.94          44.95    3.76  -47.91          48.06  274.49
I9         39.61   40.99   36.81          70.17    0.26   -4.25           4.26  273.54
I10        39.67   40.92   40.55          70.12    0.69   -9.34           9.37  274.23
I11        39.78   40.85   44.52          70.07    1.22  -14.42          14.47  274.82
I12        39.81   40.59   54.96          69.89    2.09  -26.57          26.66  274.50
I13        22.88   34.79   50.10          65.58  -42.09  -28.70          50.94  214.29
I14        35.86   21.46   38.80          53.45   60.25  -35.79          70.07  329.29
I15        60.07   59.68    8.53          81.66    6.09   74.51          74.76   85.33
I16         5.46    5.63    4.48          28.45    0.46    0.90           1.01   63.09
I17        27.62   17.43    5.20          48.80   50.31   32.12          59.69   32.55
I18        14.36   24.18    7.20          56.27  -46.50   35.90          58.75  142.33
I19        10.26    8.03   29.95          34.04   21.24  -56.39          60.25  290.64
I20        41.46   45.37   15.29          73.13   -6.80   39.65          40.23   99.73
I21        10.97   14.62    3.28          45.11  -21.13   37.08          42.68  119.67
I22        26.91   34.29   15.99          65.19  -23.20   24.24          33.55  133.74
J1          2.23    1.95    3.01          15.22    7.92  -12.50          14.79  302.35
J2          2.54    1.95    4.95          15.21   14.21  -24.45          28.28  300.16
J3          2.94    1.97    7.88          15.34   21.13  -37.36          42.92  299.49
J4          3.87    1.95   17.72          15.22   36.64  -65.92          75.42  299.06
J5         11.67   11.33   12.08          40.13    5.36   -8.61          10.14  301.92
J6         12.39   11.27   15.77          40.02   10.82  -18.60          21.52  300.20
J7         13.13   11.21   20.12          39.93   16.14  -28.51          32.76  299.51
J8         15.38   11.47   33.93          40.36   28.21  -51.54          58.75  298.70
J9         40.76   41.16   37.11          70.29    3.33   -4.46           5.57  306.75
J10        41.26   40.96   40.38          70.15    5.44   -9.08          10.58  300.92
J11        42.32   40.87   44.60          70.08    8.94  -14.49          17.03  301.66
J12        44.53   41.13   54.77          70.27   14.63  -25.72          29.59  299.63
J13        18.91   30.26   46.57          61.88  -45.20  -31.01          54.81  214.45
J14        31.32   16.97   34.32          48.23   66.88  -38.55          77.19  330.04
J15        57.84   56.42    5.59          79.85    8.53   83.75          84.18   84.19
J16         3.14    3.22    2.49          20.91    0.63    1.35           1.49   65.22
J17        23.76   13.79    2.89          43.93   55.13   37.92          66.91   34.52
J18        10.69   19.57    4.60          51.35  -50.07   39.70          63.90  141.60
J19         7.29    4.98   25.33          26.69   27.39  -61.31          67.15  294.07
J20        28.59   36.55   20.59          66.94  -24.10   17.10          29.55  144.64
J21         4.44    8.17    1.41          34.34  -37.73   35.31          51.68  136.90
J22         1.38    2.15    0.88          16.24  -17.56   11.54          21.01  146.69
K1          5.29    4.40    5.09          24.96   13.41   -8.40          15.83  327.93
K2          6.54    4.40    7.25          24.95   27.36  -18.30          32.92  326.23
K3          7.78    4.34    9.81          24.77   40.32  -28.04          49.11  325.19
K4          9.22    4.39   12.51          24.93   52.26  -36.09          63.51  325.37
K5         15.89   14.51   14.64          44.95   11.44   -7.30          13.57  327.46
K6         17.96   14.50   18.12          44.94   22.86  -15.59          27.67  325.71
K7         20.31   14.59   22.05          45.06   34.30  -23.54          41.61  325.54
K8         26.71   14.84   33.61          45.42   61.19  -42.36          74.42  325.31
K9         41.87   41.02   36.52          70.19    7.12   -3.80           8.07  331.92
K10        43.94   40.89   40.02          70.10   13.64   -8.68          16.17  327.52
K11        46.32   40.94   43.61          70.13   20.35  -13.19          24.25  327.05
K12        52.05   41.09   53.02          70.24   35.40  -23.90          42.71  325.98
K13        15.15   25.53   42.31          57.59  -47.41  -33.19          57.88  214.99
K14        26.77   13.03   29.49          42.80   72.73  -40.55          83.27  330.86
K15        55.08   52.58    3.40          77.63   11.31   92.36          93.04   83.02
K16         1.49    1.53    1.17          12.77    0.62    1.23           1.38   62.84
K17        20.06   10.67    1.36          39.01   59.12   43.97          73.68   36.64
K18         7.49   15.08    2.68          45.75  -52.83   42.69          67.92  141.06
K19         5.01    2.81   20.63          19.25   34.57  -65.20          73.80  297.93
K20         2.48    3.20    1.86          20.82  -11.17    6.99          13.17  147.95
K21         1.40    1.86    1.47          14.75  -10.59    0.79          10.62  175.74
K22         1.72    2.22    2.82          16.60   -9.77   -8.70          13.08  221.71
L1          3.73    3.03    2.65          20.16   13.20   -1.25          13.26  354.61
L2          4.61    3.01    2.95          20.08   25.97   -3.68          26.23  351.93
L3          5.77    3.16    3.35          20.67   37.52   -5.53          37.92  351.62
L4          6.39    3.39    3.69          21.54   40.52   -6.28          41.01  351.20
L5         13.17   11.26    9.86          40.01   16.11   -1.94          16.22  353.13
L6         15.68   11.18   10.76          39.88   32.02   -5.08          32.42  350.99
L7         18.82   11.39   11.77          40.23   47.66   -7.55          48.25  350.99
L8         22.63   11.50   12.86          40.40   65.28  -10.38          66.10  350.97
L9         42.16   40.88   34.09          70.09    8.42   -0.51           8.44  356.52
L10        44.21   40.63   34.90          69.92   15.22   -2.00          15.35  352.53
L11        47.14   41.07   36.30          70.23   22.22   -3.44          22.49  351.20
L12        50.08   41.02   37.23          70.19   30.41   -4.79          30.79  351.05
L13        11.31   20.09   36.43          51.94  -48.05  -35.14          59.53  216.18
L14        22.25    9.76   24.35          37.41   76.50  -41.07          86.83  331.77
L15        50.74   47.05    1.84          74.22   14.78   99.26         100.36   81.53
L16         0.52    0.54    0.42           4.84    0.27    0.33           0.43   50.98
L17        15.84    7.74    0.50          33.44   60.74   48.23          77.56   38.45
L18         4.53   10.25    1.35          38.28  -53.61   42.83          68.62  141.38
L19         3.31    1.42   15.66          12.11   41.39  -66.45          78.28  301.92
L20         0.71    0.77    0.68           6.92   -1.13   -0.82           1.40  215.93
L21         0.99    0.92    0.92           8.29    3.95   -2.83           4.86  324.43
L22         2.30    1.68    1.17          13.71   15.95    2.79          16.20    9.93
GS0        79.33   82.36   69.45          92.73   -0.18   -1.35           1.37  262.52
GS1        68.75   71.21   57.68          87.59    0.20    1.10           1.12   79.75
GS2        60.53   62.76   50.97          83.32    0.02    0.91           0.91   88.44
