targets/wolf_faust/reflective/R090624.it8
IT8.7/2
ORIGINATOR "Wolf Faust - OEM"
DESCRIPTOR "Kodak Professional Paper, L* a* b* (light D50, viewing angle 2)"
MANUFACTURER "Wolf Faust - http://www.coloraid.de"
CREATED "June 24, 2009"
PROD_DATE "2009:06"
SAMPLE_BACKING "black"
SERIAL "5x7 R090624 Batch Average Data"
MATERIAL "Kodak Professional Ultra Endura"
KEYWORD "MEAN_DE" # Mean Delta E of samples compared to batch average
NUMBER_OF_FIELDS 18
BEGIN_DATA_FORMAT
SAMPLE_ID  XYZ_X   XYZ_Y   XYZ_Z          LAB_L   LAB_A   LAB_B          LAB_C   LAB_H          D_RED  D_GREEN  D_BLUE  D_VIS          STDEV_X STDEV_Y STDEV_Z        MEAN_DE  STDEV_DE
END_DATA_FORMAT
NUMBER_OF_SETS 288
BEGIN_DATA
A1          3.41    2.85    1.98          19.45   11.38    3.47          11.90   16.95           1.38    1.66    1.60    1.51            0.04    0.03    0.03           0.25     0.27
A2          4.34    2.90    1.60          19.62   24.29    7.66          25.47   17.50           1.22    1.84    1.70    1.46            0.05    0.03    0.02           0.26     0.30 
A3          5.23    2.94    1.35          19.78   35.06   10.92          36.72   17.30           1.11    2.07    1.78    1.42            0.06    0.04    0.02           0.27     0.30
A4          5.75    3.13    1.42          20.54   37.86   11.41          39.54   16.77           1.06    2.10    1.76    1.38            0.06    0.03    0.02           0.28     0.32 
A5         12.50   10.86    7.70          39.35   14.51    4.72          15.26   18.03           0.81    1.05    1.02    0.93            0.15    0.13    0.09           0.27     0.30
A6         14.81   10.89    6.74          39.39   28.98    8.72          30.27   16.75           0.69    1.17    1.08    0.90            0.13    0.10    0.12           0.28     0.31 
A7         17.03   10.80    5.93          39.24   42.40   12.11          44.10   15.95           0.60    1.31    1.14    0.88            0.15    0.11    0.11           0.33     0.37
A8         20.85   11.04    4.89          39.65   60.20   17.96          62.83   16.61           0.50    1.58    1.23    0.83            0.05    0.05    0.06           0.25     0.30 
A9         40.94   40.41   32.07          69.76    6.17    1.91           6.46   17.20           0.34    0.41    0.41    0.39            0.23    0.24    0.21           0.20     0.23
A10        43.36   40.42   30.85          69.76   13.39    3.79          13.92   15.79           0.29    0.44    0.43    0.38            0.27    0.28    0.23           0.27     0.30
A11        45.30   40.04   29.42          69.50   20.16    5.61          20.92   15.54           0.25    0.47    0.45    0.37            0.22    0.24    0.20           0.24     0.27
A12        48.04   40.38   28.56          69.74   26.82    7.40          27.82   15.43           0.21    0.50    0.46    0.36            0.21    0.25    0.25           0.29     0.33 
A13        74.94   78.72   68.20          91.11   -1.95   -3.02           3.59  237.19           0.12    0.09    0.09    0.11            0.08    0.08    0.13           0.07     0.08
A14        75.82   78.00   67.92          90.78    1.23   -3.33           3.55  290.26           0.10    0.11    0.09    0.11            0.13    0.13    0.13           0.09     0.09 
A15        75.97   79.27   63.60          91.36   -0.93    1.73           1.96  118.44           0.10    0.10    0.12    0.10            0.12    0.12    0.15           0.10     0.12
A16        75.77   78.60   64.97          91.05   -0.04   -0.10           0.13  237.12           0.10    0.10    0.11    0.10            0.11    0.12    0.11           0.09     0.10
A17        74.08   76.13   62.18          89.92    1.40    0.63           1.54   24.13           0.11    0.12    0.13    0.12            0.12    0.14    0.15           0.09     0.10
A18        74.55   78.31   64.19          90.92   -1.96    0.42           2.01  168.07           0.11    0.10    0.11    0.11            0.08    0.07    0.11           0.07     0.09 
A19        74.93   77.78   67.91          90.68   -0.15   -3.49           3.49  267.50           0.11    0.10    0.09    0.11            0.11    0.10    0.13           0.08     0.09
A20         1.34    1.06    0.68           9.49   10.27    3.56          10.87   19.14           1.80    2.12    2.06    1.92            0.02    0.02    0.01           0.24     0.27 
A21         5.09    3.22    0.73          20.89   28.51   22.26          36.17   37.98           1.12    1.88    2.02    1.39            0.04    0.03    0.00           0.26     0.31
A22        10.12    5.77    0.79          28.82   42.69   34.83          55.09   39.21           0.80    1.79    1.98    1.12            0.08    0.05    0.01           0.20     0.26
B1          3.32    2.88    1.54          19.54    9.53    8.19          12.57   40.68           1.39    1.64    1.70    1.50            0.04    0.04    0.02           0.22     0.27
B2          3.87    2.86    0.94          19.49   18.26   16.21          24.42   41.60           1.27    1.76    1.91    1.47            0.04    0.03    0.01           0.22     0.25
B3          4.48    2.88    0.60          19.56   26.43   22.48          34.70   40.39           1.18    1.91    2.10    1.44            0.05    0.03    0.00           0.31     0.33
B4          5.07    3.13    0.52          20.55   29.71   25.70          39.29   40.87           1.11    1.93    2.16    1.40            0.04    0.02    0.00           0.18     0.21
B5         12.67   10.94    5.68          39.48   15.08   13.67          20.36   42.20           0.79    1.06    1.15    0.92            0.10    0.07    0.04           0.23     0.27
B6         14.37   10.80    3.75          39.24   27.02   23.85          36.04   41.43           0.69    1.17    1.32    0.90            0.12    0.09    0.05           0.25     0.28
B7         16.89   10.88    2.15          39.37   41.08   36.20          54.75   41.38           0.59    1.33    1.55    0.87            0.10    0.08    0.03           0.23     0.25
B8         20.11   10.97    0.98          39.53   57.17   50.06          75.99   41.21           0.50    1.59    1.89    0.83            0.08    0.05    0.01           0.16     0.19
B9         40.71   40.23   29.65          69.63    5.97    5.45           8.09   42.39           0.34    0.42    0.44    0.39            0.22    0.21    0.16           0.16     0.20
B10        42.73   40.29   26.31          69.68   11.90   11.09          16.27   42.98           0.29    0.44    0.49    0.38            0.20    0.19    0.15           0.16     0.18
B11        44.75   40.23   23.68          69.63   18.03   15.71          23.92   41.07           0.25    0.47    0.54    0.37            0.24    0.26    0.20           0.23     0.26
B12        46.94   40.12   20.71          69.56   24.57   21.35          32.55   41.00           0.21    0.50    0.59    0.36            0.20    0.26    0.18           0.28     0.32
B13        69.16   74.60   67.21          89.21   -5.91   -5.39           7.99  222.36           0.17    0.10    0.09    0.14            0.14    0.12    0.11           0.10     0.12
B14        72.30   71.96   66.09          87.95    6.17   -6.51           8.97  313.48           0.11    0.15    0.10    0.14            0.13    0.18    0.12           0.13     0.16
B15        74.03   77.51   55.68          90.56   -1.46    8.30           8.43   99.95           0.10    0.11    0.17    0.11            0.10    0.10    0.20           0.14     0.18
B16        61.90   64.34   53.17          84.14   -0.32   -0.08           0.34  194.09           0.19    0.19    0.19    0.19            0.21    0.23    0.21           0.15     0.16
B17        69.13   69.12   53.97          86.56    5.44    3.23           6.32   30.68           0.12    0.18    0.19    0.15            0.16    0.20    0.24           0.18     0.20
B18        66.39   72.21   54.96          88.07   -7.04    4.77           8.50  145.92           0.17    0.12    0.18    0.15            0.16    0.13    0.19           0.16     0.19
B19        65.01   67.13   64.92          85.57    0.62   -9.51           9.53  273.75           0.18    0.16    0.11    0.18            0.16    0.17    0.11           0.14     0.16
B20         1.93    1.59    0.71          13.14   10.19    9.33          13.82   42.47           1.62    1.93    2.03    1.75            0.02    0.01    0.00           0.19     0.22
B21         8.39    4.89    0.75          26.42   38.70   31.38          49.82   39.03           0.88    1.83    2.00    1.20            0.06    0.04    0.00           0.24     0.28
B22        28.83   24.46   11.70          56.54   21.66   20.78          30.02   43.81           0.42    0.73    0.84    0.57            0.19    0.18    0.13           0.21     0.24
C1          4.43    4.26    2.13          24.51    4.51   10.73          11.64   67.21           1.29    1.42    1.56    1.35            0.04    0.04    0.02           0.22     0.26
C2          4.67    4.19    1.27          24.29    8.57   19.77          21.55   66.55           1.23    1.47    1.77    1.34            0.03    0.03    0.01           0.22     0.25
C3          5.11    4.27    0.70          24.55   13.00   29.05          31.83   65.90           1.16    1.52    2.01    1.31            0.06    0.05    0.01           0.30     0.36
C4          5.56    4.59    0.67          25.54   14.14   31.38          34.42   65.75           1.12    1.50    2.03    1.28            0.05    0.04    0.00           0.20     0.24
C5         23.60   22.48   10.76          54.53    8.77   20.18          22.00   66.52           0.54    0.70    0.87    0.62            0.19    0.19    0.12           0.23     0.25
C6         25.35   22.33    5.34          54.38   16.95   41.02          44.39   67.55           0.47    0.76    1.16    0.61            0.15    0.14    0.05           0.20     0.23
C7         27.41   22.17    2.22          54.21   26.14   61.13          66.49   66.85           0.41    0.83    1.52    0.59            0.11    0.11    0.02           0.17     0.18
C8         28.69   22.16    1.15          54.19   31.23   72.87          79.28   66.80           0.38    0.88    1.80    0.59            0.08    0.07    0.01           0.16     0.18
C9         47.35   47.68   32.54          74.62    3.86    9.58          10.33   68.06           0.28    0.34    0.40    0.31            0.27    0.30    0.23           0.27     0.30
C10        48.79   47.71   26.91          74.64    7.75   18.61          20.16   67.38           0.24    0.36    0.48    0.30            0.23    0.25    0.22           0.20     0.23
C11        50.20   47.69   21.73          74.63   11.59   28.07          30.36   67.56           0.21    0.38    0.57    0.30            0.20    0.22    0.19           0.21     0.24
C12        51.63   47.37   17.22          74.43   16.25   37.28          40.66   66.45           0.18    0.40    0.67    0.29            0.17    0.22    0.11           0.23     0.26
C13        60.87   68.46   65.72          86.24  -11.75   -9.11          14.87  217.79           0.25    0.12    0.10    0.18            0.18    0.15    0.12           0.14     0.17
C14        66.78   62.94   63.02          83.41   13.88  -11.40          17.96  320.58           0.14    0.23    0.13    0.19            0.15    0.22    0.13           0.19     0.23
C15        71.55   75.08   45.58          89.43   -1.76   17.68          17.76   95.69           0.11    0.13    0.26    0.12            0.08    0.09    0.25           0.20     0.26
C16        48.49   50.26   41.42          76.23    0.09    0.07           0.18  117.67           0.29    0.30    0.30    0.30            0.24    0.26    0.21           0.22     0.24
C17        61.50   58.54   42.61          81.04   12.14    6.86          13.94   29.47           0.15    0.27    0.29    0.22            0.15    0.22    0.27           0.24     0.27
C18        56.11   64.05   44.38          83.99  -13.57    9.75          16.71  144.29           0.26    0.16    0.27    0.20            0.20    0.18    0.20           0.18     0.20
C19        53.23   54.29   60.69          78.63    2.28  -17.37          17.52  277.47           0.28    0.25    0.14    0.27            0.15    0.19    0.10           0.19     0.22
C20         2.52    1.79    0.62          14.36   17.52   13.03          21.83   36.64           1.46    2.00    2.09    1.67            0.02    0.02    0.01           0.20     0.22
C21        22.96   17.25    4.65          48.58   31.55   34.65          46.87   47.69           0.48    0.97    1.22    0.70            0.15    0.13    0.05           0.19     0.21
C22        34.38   31.32   17.10          62.77   15.01   17.46          23.02   49.32           0.37    0.58    0.68    0.48            0.22    0.22    0.12           0.19     0.22
D1          4.12    4.27    2.18          24.55    0.03   10.31          10.31   89.82           1.35    1.38    1.55    1.36            0.04    0.04    0.03           0.17     0.20
D2          4.06    4.21    1.33          24.36    0.03   19.12          19.12   89.90           1.34    1.40    1.75    1.36            0.04    0.04    0.01           0.23     0.26
D3          4.01    4.22    0.73          24.39   -0.89   28.31          28.32   91.81           1.34    1.40    1.99    1.35            0.04    0.04    0.01           0.23     0.26
D4          4.68    4.87    0.76          26.37   -0.24   31.17          31.17   90.44           1.27    1.35    1.97    1.29            0.03    0.03    0.01           0.17     0.21
D5         26.40   27.51   13.65          59.44   -0.53   20.30          20.31   91.50           0.52    0.57    0.77    0.55            0.14    0.13    0.09           0.19     0.22
D6         26.23   27.44    7.28          59.38   -0.90   40.90          40.91   91.27           0.51    0.59    1.02    0.54            0.15    0.15    0.07           0.18     0.20
D7         26.17   27.60    3.50          59.52   -1.81   60.49          60.51   91.71           0.51    0.60    1.33    0.54            0.13    0.13    0.03           0.18     0.20
D8         26.18   27.83    1.55          59.73   -2.67   77.38          77.43   91.98           0.52    0.61    1.68    0.53            0.11    0.11    0.01           0.17     0.19
D9         54.36   56.56   38.14          79.93   -0.45   10.77          10.78   92.40           0.23    0.25    0.33    0.24            0.24    0.26    0.20           0.17     0.19
D10        53.81   56.14   30.85          79.69   -0.83   20.91          20.92   92.26           0.22    0.26    0.42    0.24            0.20    0.20    0.19           0.18     0.19
D11        53.47   55.90   24.58          79.56   -1.10   31.19          31.21   92.03           0.22    0.27    0.51    0.24            0.17    0.16    0.15           0.17     0.19
D12        53.22   56.02   10.76          79.63   -2.04   63.45          63.48   91.84           0.21    0.29    0.86    0.23            0.09    0.09    0.04           0.14     0.17
D13        52.59   61.95   63.84          82.89  -17.70  -13.11          22.03  216.51           0.35    0.15    0.12    0.23            0.18    0.14    0.08           0.16     0.19
D14        61.51   54.72   59.80          78.88   21.46  -16.05          26.80  323.20           0.16    0.31    0.15    0.25            0.16    0.23    0.13           0.22     0.27
D15        69.09   72.40   36.28          88.16   -1.54   27.51          27.56   93.20           0.11    0.15    0.35    0.13            0.07    0.07    0.19           0.18     0.24
D16        36.78   38.28   31.09          68.22   -0.44    0.77           0.90  120.14           0.41    0.41    0.42    0.42            0.29    0.30    0.28           0.25     0.29
D17        54.39   49.13   32.55          75.53   18.57   11.15          21.66   30.97           0.18    0.38    0.40    0.28            0.12    0.17    0.14           0.20     0.23
D18        46.10   55.60   34.61          79.39  -20.18   14.76          25.00  143.82           0.36    0.20    0.37    0.27            0.16    0.14    0.17           0.24     0.27
D19        42.64   42.96   55.97          71.53    3.64  -24.81          25.07  278.34           0.40    0.35    0.18    0.38            0.16    0.18    0.11           0.19     0.21
D20        13.78   10.41    2.60          38.56   26.21   30.94          40.55   49.73           0.70    1.19    1.47    0.92            0.08    0.06    0.02           0.22     0.26
D21        21.31   20.61   11.48          52.52    6.97   14.51          16.09   64.35           0.60    0.73    0.84    0.67            0.13    0.13    0.08           0.23     0.25
D22        38.06   36.18   19.62          66.66   10.50   18.61          21.36   60.56           0.34    0.49    0.62    0.42            0.24    0.25    0.22           0.24     0.28
E1          3.82    4.28    2.20          24.57   -4.34   10.21          11.09  113.01           1.41    1.35    1.54    1.37            0.03    0.03    0.01           0.18     0.22
E2          3.44    4.24    1.38          24.44   -9.64   18.63          20.98  117.36           1.48    1.33    1.73    1.38            0.04    0.05    0.01           0.19     0.24
E3          3.10    4.24    0.79          24.44  -15.26   27.27          31.25  119.23           1.58    1.30    1.95    1.38            0.03    0.03    0.00           0.18     0.20
E4          3.39    4.62    0.81          25.61  -15.57   28.85          32.79  118.35           1.53    1.27    1.94    1.35            0.02    0.03    0.01           0.21     0.26
E5         12.42   14.07    7.43          44.33   -7.52   14.38          16.23  117.62           0.89    0.83    1.02    0.85            0.13    0.14    0.09           0.24     0.26
E6         11.39   14.11    4.47          44.39  -15.01   28.47          32.18  117.80           0.95    0.81    1.23    0.86            0.06    0.07    0.03           0.24     0.28
E7         10.42   14.18    2.41          44.49  -22.57   42.72          48.31  117.85           1.03    0.79    1.48    0.86            0.08    0.10    0.02           0.23     0.26
E8          9.65   14.25    1.33          44.59  -29.01   53.90          61.21  118.29           1.13    0.77    1.73    0.86            0.07    0.09    0.01           0.19     0.21
E9         37.26   40.07   27.98          69.52   -4.45    7.99           9.14  119.14           0.41    0.39    0.47    0.40            0.20    0.21    0.14           0.19     0.22
E10        36.42   40.56   23.80          69.87   -8.70   15.92          18.14  118.66           0.42    0.37    0.53    0.39            0.20    0.22    0.21           0.20     0.23
E11        35.07   40.54   19.71          69.85  -13.15   23.93          27.31  118.78           0.45    0.37    0.61    0.40            0.14    0.14    0.08           0.13     0.15
E12        31.88   40.64   11.38          69.92  -24.60   44.82          51.12  118.77           0.52    0.34    0.83    0.40            0.15    0.16    0.11           0.18     0.21
E13        44.96   55.60   61.58          79.38  -23.43  -16.95          28.92  215.88           0.46    0.17    0.13    0.29            0.15    0.12    0.05           0.15     0.19
E14        55.67   46.23   55.82          73.70   29.71  -20.91          36.33  324.86           0.19    0.42    0.19    0.31            0.13    0.18    0.11           0.19     0.24
E15        66.96   69.87   28.99          86.93   -0.90   36.35          36.36   91.42           0.12    0.18    0.44    0.14            0.09    0.08    0.18           0.25     0.29
E16        27.09   28.12   23.17          60.00   -0.11    0.06           0.18  163.20           0.55    0.55    0.55    0.55            0.16    0.15    0.12           0.20     0.22
E17        47.67   40.50   24.76          69.82   25.43   14.08          29.06   28.97           0.21    0.50    0.52    0.36            0.11    0.15    0.11           0.21     0.25
E18        37.53   47.96   27.03          74.80  -26.29   18.67          32.25  144.62           0.48    0.25    0.47    0.34            0.15    0.15    0.18           0.21     0.24
E19        33.20   32.66   50.61          63.88    6.12  -32.19          32.77  280.77           0.53    0.47    0.23    0.50            0.20    0.22    0.15           0.22     0.25
E20        24.18   16.58    1.17          47.72   40.67   61.50          73.73   56.52           0.43    1.10    1.79    0.69            0.11    0.09    0.01           0.22     0.26
E21        16.87   13.85    2.55          44.01   21.00   40.67          45.77   62.69           0.63    1.02    1.47    0.80            0.10    0.09    0.02           0.20     0.23
E22        29.43   25.28    8.00          57.35   20.50   34.58          40.20   59.34           0.40    0.72    0.99    0.55            0.15    0.14    0.08           0.20     0.23
F1          1.49    1.87    1.25          14.81   -8.34    3.65           9.10  156.33           1.92    1.65    1.78    1.75            0.02    0.02    0.01           0.21     0.25
F2          1.16    1.84    1.03          14.62  -17.49    6.38          18.62  159.97           2.17    1.60    1.85    1.78            0.01    0.01    0.00           0.18     0.24
F3          1.10    2.06    0.98          15.79  -24.60    9.14          26.24  159.61           2.31    1.51    1.87    1.74            0.01    0.02    0.01           0.28     0.34
F4          1.21    2.35    1.11          17.21  -26.96    9.69          28.65  160.23           2.30    1.45    1.81    1.69            0.01    0.02    0.01           0.23     0.26
F5          6.75    8.38    5.74          34.75  -12.71    5.24          13.74  157.59           1.23    1.01    1.14    1.10            0.04    0.04    0.04           0.20     0.23
F6          5.40    8.22    4.92          34.44  -26.08    8.82          27.53  161.32           1.45    0.96    1.19    1.12            0.04    0.05    0.04           0.22     0.24
F7          4.41    8.24    3.99          34.47  -38.74   14.14          41.24  159.96           1.71    0.92    1.27    1.14            0.04    0.06    0.03           0.24     0.28
F8          3.53    8.47    3.31          34.94  -53.51   19.36          56.91  160.11           2.13    0.85    1.34    1.15            0.03    0.07    0.02           0.22     0.26
F9         37.21   40.46   31.64          69.79   -5.77    2.63           6.34  155.48           0.43    0.37    0.41    0.40            0.24    0.26    0.24           0.22     0.24
F10        35.63   40.54   30.63          69.85  -11.23    4.28          12.01  159.13           0.46    0.36    0.43    0.40            0.27    0.27    0.26           0.21     0.25
F11        34.05   40.58   29.28          69.88  -16.77    6.48          17.98  158.88           0.50    0.34    0.44    0.41            0.26    0.27    0.26           0.22     0.26
F12        29.27   40.77   25.59          70.01  -34.72   12.92          37.04  159.59           0.65    0.29    0.50    0.42            0.11    0.11    0.12           0.18     0.21
F13        38.29   49.75   59.04          75.92  -28.69  -20.40          35.20  215.42           0.58    0.20    0.15    0.35            0.16    0.14    0.08           0.21     0.23
F14        50.34   38.93   51.86          68.70   37.51  -25.27          45.23  326.03           0.23    0.52    0.22    0.38            0.15    0.19    0.11           0.29     0.32
F15        64.81   67.11   22.27          85.56    0.22   45.86          45.86   89.72           0.12    0.20    0.55    0.16            0.07    0.05    0.13           0.24     0.28
F16        19.53   20.29   16.60          52.17   -0.17    0.33           0.38  119.19           0.69    0.69    0.69    0.69            0.12    0.13    0.09           0.19     0.21
F17        41.74   33.27   18.03          64.38   31.77   18.14          36.58   29.72           0.25    0.62    0.66    0.43            0.11    0.14    0.08           0.20     0.23
