targets/wolf_faust/reflective/R090104.it8
IT8.7/2
ORIGINATOR "Wolf Faust"
DESCRIPTOR "Kodak Professional Paper, L* a* b* (light D50, viewing angle 2)"
MANUFACTURER "Wolf Faust - http://www.coloraid.de"
CREATED "January 23, 2009"
PROD_DATE "2009:01"
SAMPLE_BACKING "black"
SERIAL "5x7 R090104 Batch Average Data"
MATERIAL "Kodak Professional Ultra Endura"
KEYWORD "MEAN_DE" # Mean Delta E of samples compared to batch average
NUMBER_OF_FIELDS 18
BEGIN_DATA_FORMAT
SAMPLE_ID  XYZ_X   XYZ_Y   XYZ_Z          LAB_L   LAB_A   LAB_B          LAB_C   LAB_H          D_RED  D_GREEN  D_BLUE  D_VIS          STDEV_X STDEV_Y STDEV_Z        MEAN_DE  STDEV_DE
END_DATA_FORMAT
NUMBER_OF_SETS 288
BEGIN_DATA
A1          3.46    2.90    2.04          19.64   11.22    3.23          11.68   16.04           1.38    1.65    1.59    1.50            0.05    0.04    0.03           0.32     0.37
A2          4.25    2.87    1.70          19.53   23.50    6.40          24.36   15.24           1.23    1.82    1.67    1.46            0.06    0.04    0.02           0.31     0.35 
A3          5.20    2.92    1.43          19.70   35.01    9.85          36.37   15.72           1.11    2.07    1.76    1.42            0.05    0.03    0.02           0.23     0.27
A4          6.10    3.10    1.39          20.44   42.09   11.54          43.64   15.33           1.04    2.26    1.78    1.37            0.06    0.03    0.02           0.21     0.24 
A5         12.63   11.12    8.14          39.79   13.49    3.78          14.01   15.65           0.81    1.03    1.00    0.93            0.11    0.10    0.12           0.31     0.35
A6         14.76   10.94    7.07          39.48   28.34    7.48          29.31   14.79           0.69    1.16    1.06    0.90            0.11    0.10    0.10           0.30     0.36 
A7         17.30   11.06    6.22          39.68   41.99   11.52          43.54   15.34           0.59    1.29    1.12    0.87            0.08    0.07    0.07           0.20     0.23
A8         20.98   11.08    5.11          39.72   60.58   16.96          62.91   15.64           0.50    1.59    1.21    0.83            0.07    0.05    0.05           0.24     0.26 
A9         40.77   40.25   31.98          69.65    6.12    1.86           6.40   16.91           0.34    0.42    0.41    0.39            0.12    0.12    0.17           0.23     0.25
A10        43.26   40.40   30.88          69.75   13.14    3.73          13.67   15.86           0.30    0.44    0.43    0.38            0.15    0.15    0.22           0.25     0.27
A11        45.62   40.49   29.87          69.82   19.69    5.43          20.43   15.42           0.25    0.47    0.44    0.37            0.11    0.11    0.08           0.16     0.19
A12        48.21   40.68   28.83          69.95   26.38    7.33          27.38   15.52           0.21    0.49    0.46    0.36            0.18    0.16    0.19           0.26     0.29 
A13        72.91   76.84   66.94          90.25   -2.45   -3.34           4.14  233.72           0.13    0.10    0.10    0.12            0.11    0.11    0.16           0.09     0.10
A14        74.67   76.44   66.67          90.06    1.98   -3.41           3.94  300.10           0.11    0.12    0.10    0.12            0.13    0.14    0.13           0.10     0.11 
A15        75.27   78.38   63.22          90.95   -0.62    1.40           1.53  114.01           0.10    0.10    0.12    0.11            0.14    0.15    0.17           0.11     0.12
A16        75.58   78.52   65.31          91.02   -0.27   -0.48           0.56  240.00           0.10    0.10    0.11    0.11            0.14    0.14    0.16           0.10     0.11
A17        73.52   75.45   62.02          89.60    1.61    0.24           1.63    8.42           0.11    0.12    0.13    0.12            0.12    0.12    0.18           0.10     0.11
A18        73.33   77.05   63.42          90.34   -1.98    0.15           1.98  175.56           0.12    0.11    0.12    0.12            0.13    0.14    0.15           0.09     0.10 
A19        72.61   75.25   66.47          89.51    0.11   -4.17           4.17  271.55           0.13    0.12    0.10    0.13            0.13    0.13    0.13           0.09     0.10
A20         1.32    1.06    0.70           9.45   10.05    3.01          10.50   16.67           1.81    2.11    2.04    1.93            0.02    0.02    0.01           0.23     0.26 
A21         5.13    3.26    0.78          21.04   28.37   21.54          35.62   37.20           1.12    1.87    1.99    1.39            0.07    0.04    0.01           0.28     0.33
A22         9.97    5.72    0.86          28.70   42.03   33.38          53.68   38.46           0.80    1.79    1.94    1.13            0.09    0.06    0.02           0.22     0.25
B1          3.32    2.93    1.64          19.76    8.58    7.52          11.41   41.22           1.40    1.62    1.67    1.50            0.04    0.04    0.02           0.22     0.25
B2          3.89    2.91    1.00          19.67   17.74   15.49          23.55   41.14           1.27    1.75    1.88    1.47            0.05    0.03    0.01           0.23     0.26
B3          4.43    2.86    0.59          19.49   26.09   22.46          34.43   40.72           1.18    1.91    2.10    1.45            0.06    0.04    0.01           0.26     0.30
B4          5.33    3.09    0.34          20.39   33.56   28.66          44.13   40.49           1.08    2.05    2.33    1.39            0.06    0.03    0.00           0.27     0.30
B5         12.73   11.08    5.96          39.71   14.50   12.74          19.31   41.30           0.79    1.05    1.12    0.92            0.15    0.12    0.08           0.26     0.31
B6         14.55   11.01    3.96          39.60   26.51   23.15          35.20   41.13           0.68    1.16    1.30    0.90            0.12    0.09    0.05           0.23     0.27
B7         16.88   11.01    2.32          39.59   40.06   35.04          53.22   41.18           0.59    1.31    1.52    0.87            0.09    0.06    0.04           0.21     0.24
B8         20.49   11.14    1.00          39.82   57.80   50.33          76.64   41.05           0.49    1.59    1.88    0.83            0.08    0.05    0.01           0.18     0.21
B9         40.85   40.49   30.02          69.82    5.63    5.18           7.65   42.64           0.34    0.41    0.44    0.38            0.21    0.20    0.22           0.27     0.31
B10        42.90   40.60   27.13          69.89   11.47   10.06          15.26   41.25           0.29    0.44    0.48    0.37            0.20    0.20    0.19           0.25     0.27
B11        45.10   40.68   24.15          69.95   17.65   15.40          23.42   41.10           0.25    0.46    0.53    0.36            0.22    0.21    0.20           0.26     0.29
B12        47.46   40.79   21.41          70.03   23.96   20.77          31.71   40.91           0.21    0.49    0.58    0.35            0.13    0.10    0.21           0.34     0.38
B13        67.48   72.93   66.11          88.41   -6.15   -5.72           8.40  222.93           0.18    0.11    0.10    0.15            0.18    0.17    0.18           0.11     0.13
B14        70.83   69.90   64.70          86.95    7.40   -6.92          10.14  316.90           0.12    0.17    0.11    0.15            0.14    0.17    0.18           0.14     0.15
B15        73.05   76.39   54.19          90.04   -1.26    8.99           9.08   98.01           0.11    0.12    0.18    0.11            0.17    0.18    0.23           0.17     0.19
B16        59.99   62.28   51.50          83.06   -0.15   -0.12           0.23  222.45           0.20    0.20    0.21    0.21            0.17    0.18    0.19           0.18     0.21
B17        67.70   67.32   52.24          85.66    6.19    3.55           7.14   29.80           0.13    0.19    0.20    0.16            0.20    0.21    0.24           0.18     0.20
B18        64.37   70.20   53.33          87.10   -7.38    4.84           8.83  146.75           0.19    0.13    0.19    0.16            0.23    0.23    0.26           0.21     0.23
B19        62.91   64.79   63.62          84.38    1.01  -10.32          10.37  275.60           0.20    0.18    0.12    0.19            0.23    0.23    0.22           0.17     0.19
B20         2.79    2.00    0.69          15.49   17.72   13.76          22.43   37.84           1.42    1.94    2.04    1.62            0.03    0.03    0.01           0.21     0.23
B21         8.31    4.86    0.80          26.33   38.35   30.28          48.86   38.29           0.89    1.82    1.97    1.20            0.07    0.04    0.01           0.22     0.24
B22        28.98   24.82   12.03          56.90   20.69   20.45          29.09   44.66           0.42    0.71    0.82    0.57            0.21    0.19    0.15           0.25     0.29
C1          4.45    4.32    2.27          24.71    3.84    9.81          10.53   68.66           1.29    1.40    1.53    1.34            0.06    0.04    0.02           0.36     0.40
C2          4.76    4.34    1.37          24.75    7.73   19.20          20.70   68.09           1.23    1.45    1.73    1.33            0.06    0.04    0.02           0.34     0.38
C3          5.06    4.29    0.71          24.62   12.17   28.98          31.43   67.21           1.17    1.51    2.00    1.31            0.05    0.03    0.01           0.24     0.27
C4          5.75    4.70    0.50          25.86   14.93   35.23          38.26   67.04           1.10    1.50    2.15    1.27            0.06    0.04    0.00           0.25     0.29
C5         23.68   22.75   11.06          54.81    7.90   19.76          21.28   68.21           0.54    0.69    0.86    0.62            0.13    0.13    0.10           0.28     0.32
C6         25.63   22.66    5.71          54.72   16.67   39.84          43.18   67.29           0.46    0.75    1.13    0.60            0.14    0.14    0.09           0.27     0.31
C7         27.99   22.83    2.37          54.90   25.47   61.01          66.12   67.35           0.40    0.81    1.49    0.58            0.10    0.10    0.02           0.18     0.20
C8         30.01   22.88    0.89          54.95   33.04   78.09          84.79   67.07           0.36    0.88    1.91    0.57            0.12    0.11    0.00           0.20     0.24
C9         47.51   47.89   33.08          74.76    3.71    9.01           9.74   67.60           0.28    0.34    0.39    0.31            0.15    0.15    0.15           0.20     0.23
C10        49.13   48.12   27.24          74.90    7.53   18.50          19.97   67.84           0.24    0.35    0.48    0.30            0.19    0.19    0.15           0.20     0.21
C11        50.51   48.00   22.17          74.83   11.57   27.55          29.88   67.23           0.21    0.38    0.56    0.29            0.17    0.17    0.14           0.21     0.23
C12        52.11   47.99   17.54          74.82   15.80   37.23          40.45   67.01           0.18    0.40    0.66    0.29            0.19    0.20    0.16           0.24     0.28
C13        58.70   66.32   64.53          85.16  -12.25   -9.85          15.72  218.80           0.27    0.13    0.11    0.20            0.14    0.14    0.20           0.15     0.18
C14        65.48   61.13   61.75          82.45   15.14  -11.83          19.21  321.98           0.14    0.25    0.14    0.20            0.11    0.11    0.15           0.13     0.14
C15        70.64   74.06   44.45          88.95   -1.63   18.22          18.29   95.11           0.11    0.14    0.27    0.12            0.21    0.22    0.21           0.20     0.23
C16        46.38   48.20   40.03          74.95   -0.27   -0.34           0.45  231.12           0.31    0.31    0.31    0.32            0.16    0.17    0.18           0.18     0.19
C17        60.30   57.04   41.24          80.20   12.92    7.16          14.77   29.00           0.15    0.29    0.30    0.23            0.20    0.21    0.25           0.21     0.23
C18        53.83   61.82   43.03          82.82  -14.23    9.40          17.05  146.56           0.28    0.17    0.28    0.22            0.18    0.20    0.24           0.20     0.22
C19        51.08   52.07   59.45          77.32    2.30  -18.39          18.53  277.14           0.30    0.27    0.15    0.29            0.15    0.14    0.16           0.16     0.18
C20         1.66    1.38    0.67          11.84    9.01    7.82          11.93   40.96           1.70    1.98    2.05    1.81            0.03    0.02    0.01           0.22     0.25
C21        22.82   17.31    4.86          48.65   30.62   33.63          45.49   47.68           0.48    0.96    1.20    0.70            0.11    0.09    0.05           0.24     0.26
C22        34.61   31.61   17.50          63.02   14.75   16.96          22.48   48.99           0.37    0.57    0.67    0.47            0.19    0.18    0.16           0.31     0.35
D1          4.15    4.36    2.31          24.82   -0.77    9.63           9.66   94.56           1.35    1.37    1.52    1.35            0.06    0.05    0.03           0.23     0.27
D2          4.10    4.33    1.38          24.73   -0.99   19.03          19.05   93.00           1.34    1.38    1.72    1.35            0.06    0.05    0.02           0.28     0.31
D3          4.05    4.28    0.72          24.57   -1.11   28.83          28.86   92.21           1.34    1.39    1.99    1.35            0.05    0.05    0.01           0.25     0.29
D4          4.71    4.98    0.57          26.67   -1.10   35.14          35.15   91.79           1.27    1.33    2.08    1.28            0.05    0.04    0.00           0.23     0.26
D5         26.35   27.67   13.89          59.59   -1.38   19.90          19.95   93.96           0.53    0.57    0.76    0.55            0.18    0.18    0.15           0.34     0.38
D6         26.64   28.16    7.84          60.04   -2.10   39.83          39.89   93.02           0.51    0.57    0.99    0.53            0.17    0.18    0.11           0.28     0.31
D7         26.51   28.09    3.67          59.97   -2.33   60.12          60.16   92.22           0.51    0.59    1.30    0.53            0.18    0.18    0.05           0.22     0.25
D8         26.34   28.10    1.25          59.98   -3.08   81.53          81.59   92.16           0.52    0.60    1.78    0.53            0.12    0.10    0.01           0.21     0.24
D9         54.01   56.42   38.61          79.85   -1.00    9.99          10.04   95.70           0.23    0.25    0.33    0.25            0.20    0.22    0.24           0.18     0.21
D10        54.21   56.48   31.03          79.88   -0.63   20.96          20.97   91.72           0.22    0.26    0.42    0.24            0.13    0.13    0.16           0.23     0.25
D11        53.84   56.41   25.09          79.84   -1.40   30.76          30.79   92.60           0.21    0.26    0.51    0.24            0.17    0.19    0.16           0.25     0.27
D12        53.49   56.47   11.08          79.88   -2.44   62.91          62.96   92.22           0.20    0.28    0.85    0.23            0.22    0.22    0.09           0.22     0.24
D13        50.64   59.85   62.62          81.76  -17.96  -13.88          22.69  217.69           0.37    0.16    0.12    0.25            0.19    0.18    0.16           0.14     0.17
D14        60.48   53.40   58.65          78.11   22.36  -16.22          27.62  324.04           0.16    0.33    0.16    0.26            0.14    0.18    0.16           0.21     0.25
D15        68.33   71.57   35.81          87.76   -1.47   27.48          27.52   93.07           0.12    0.16    0.36    0.14            0.24    0.25    0.18           0.14     0.16
D16        35.40   36.95   30.56          67.24   -0.75   -0.12           0.79  187.23           0.43    0.43    0.43    0.43            0.24    0.23    0.30           0.29     0.32
D17        53.63   48.20   31.95          74.95   19.16   11.04          22.11   29.96           0.18    0.39    0.41    0.29            0.12    0.14    0.17           0.25     0.27
D18        44.35   53.83   34.19          78.36  -20.77   13.59          24.82  146.79           0.39    0.22    0.38    0.28            0.21    0.22    0.25           0.28     0.30
D19        40.97   41.35   54.90          70.42    3.40  -25.59          25.82  277.57           0.42    0.37    0.19    0.40            0.16    0.17    0.16           0.17     0.19
D20        13.69   10.50    2.79          38.73   24.93   29.70          38.78   50.00           0.71    1.18    1.44    0.92            0.12    0.10    0.05           0.26     0.30
D21        21.60   21.04   11.87          52.99    6.26   14.16          15.48   66.13           0.59    0.72    0.83    0.66            0.16    0.14    0.16           0.28     0.33
D22        38.39   36.70   20.31          67.05    9.85   17.86          20.40   61.13           0.34    0.48    0.60    0.42            0.17    0.16    0.19           0.28     0.31
E1          3.80    4.31    2.32          24.67   -5.23    9.33          10.70  119.29           1.42    1.34    1.52    1.37            0.05    0.05    0.03           0.25     0.30
E2          3.53    4.35    1.43          24.81   -9.82   18.59          21.02  117.84           1.47    1.31    1.71    1.37            0.04    0.04    0.02           0.20     0.23
E3          3.21    4.37    0.79          24.86  -15.22   28.03          31.89  118.50           1.56    1.29    1.95    1.37            0.05    0.05    0.01           0.26     0.31
E4          3.40    4.84    0.64          26.27  -18.34   33.28          38.00  118.85           1.56    1.24    2.04    1.33            0.04    0.04    0.00           0.25     0.28
E5         12.71   14.50    7.72          44.94   -8.21   14.28          16.47  119.92           0.89    0.81    1.01    0.84            0.08    0.08    0.07           0.32     0.36
E6         11.70   14.60    4.67          45.08  -15.78   28.53          32.60  118.95           0.94    0.79    1.21    0.84            0.08    0.09    0.05           0.23     0.26
E7         10.48   14.39    2.56          44.78  -23.38   41.93          48.01  119.14           1.04    0.78    1.45    0.85            0.05    0.06    0.02           0.24     0.29
E8          9.58   14.66    1.09          45.17  -32.13   58.15          66.44  118.92           1.17    0.75    1.82    0.85            0.06    0.07    0.01           0.17     0.21
E9         37.44   40.32   28.30          69.69   -4.60    7.75           9.02  120.72           0.41    0.38    0.46    0.40            0.16    0.14    0.16           0.23     0.25
E10        36.24   40.63   24.06          69.92   -9.48   15.52          18.18  121.42           0.43    0.37    0.53    0.39            0.15    0.16    0.12           0.21     0.23
E11        35.00   40.58   20.03          69.88  -13.51   23.32          26.95  120.09           0.45    0.36    0.60    0.40            0.18    0.17    0.18           0.30     0.34
E12        31.95   40.75   11.66          70.00  -24.71   44.11          50.56  119.25           0.52    0.34    0.82    0.40            0.21    0.22    0.14           0.29     0.32
E13        43.70   54.02   60.61          78.47  -23.16  -17.56          29.06  217.17           0.48    0.18    0.14    0.30            0.12    0.12    0.16           0.16     0.19
E14        55.02   45.50   54.89          73.22   30.14  -20.76          36.60  325.44           0.19    0.43    0.19    0.32            0.17    0.20    0.21           0.24     0.27
E15        66.32   69.19   28.52          86.60   -0.88   36.55          36.56   91.38           0.12    0.18    0.45    0.15            0.27    0.28    0.23           0.25     0.28
E16        26.17   27.26   22.63          59.22   -0.50   -0.24           0.59  207.60           0.56    0.56    0.56    0.57            0.23    0.21    0.23           0.27     0.31
E17        47.15   39.87   24.11          69.38   25.92   14.49          29.69   29.21           0.21    0.51    0.53    0.36            0.18    0.19    0.23           0.28     0.33
E18        36.35   46.69   26.65          73.99  -26.69   17.93          32.16  146.10           0.50    0.26    0.48    0.35            0.17    0.18    0.20           0.28     0.32
E19        32.21   31.75   49.96          63.14    5.84  -32.75          33.27  280.12           0.55    0.48    0.23    0.52            0.14    0.14    0.17           0.21     0.23
E20        24.34   16.83    1.24          48.04   39.97   61.06          72.98   56.79           0.43    1.08    1.76    0.69            0.10    0.08    0.01           0.16     0.18
E21        16.95   14.13    2.75          44.42   19.66   39.84          44.42   63.74           0.63    1.00    1.43    0.80            0.09    0.08    0.03           0.20     0.22
E22        29.49   25.56    8.27          57.61   19.56   34.01          39.23   60.10           0.40    0.71    0.98    0.55            0.21    0.19    0.12           0.27     0.32
F1          1.51    1.90    1.31          14.95   -8.32    3.14           8.89  159.35           1.92    1.65    1.76    1.74            0.02    0.02    0.02           0.23     0.27
F2          1.18    1.88    1.07          14.85  -17.79    6.26          18.86  160.60           2.16    1.59    1.84    1.77            0.01    0.02    0.01           0.15     0.17
F3          0.98    1.92    0.90          15.06  -25.44    9.27          27.07  159.97           2.39    1.53    1.90    1.78            0.01    0.02    0.01           0.15     0.17
F4          1.09    2.21    1.01          16.55  -27.98   10.05          29.73  160.24           2.38    1.46    1.85    1.72            0.01    0.02    0.01           0.13     0.15
F5          6.75    8.45    5.95          34.91  -13.41    4.53          14.15  161.34           1.24    1.00    1.12    1.09            0.08    0.08    0.08           0.29     0.33
F6          5.63    8.53    4.99          35.07  -26.17    9.54          27.85  159.97           1.43    0.95    1.19    1.11            0.06    0.07    0.06           0.28     0.31
F7          4.64    8.66    4.23          35.32  -39.31   14.21          41.80  160.12           1.68    0.90    1.25    1.12            0.02    0.03    0.05           0.21     0.25
F8          3.53    8.79    3.36          35.57  -56.21   20.11          59.70  160.32           2.19    0.83    1.33    1.14            0.03    0.05    0.03           0.14     0.16
F9         37.12   40.54   32.17          69.85   -6.32    1.92           6.61  163.15           0.43    0.37    0.41    0.40            0.17    0.21    0.21           0.25     0.29
F10        35.23   40.39   30.67          69.75  -12.15    4.04          12.81  161.59           0.47    0.36    0.43    0.41            0.20    0.19    0.21           0.24     0.28
F11        33.65   40.47   29.65          69.80  -17.81    5.76          18.72  162.08           0.51    0.34    0.44    0.41            0.15    0.15    0.19           0.22     0.25
F12        29.37   40.63   26.22          69.92  -33.91   11.65          35.85  161.03           0.65    0.30    0.49    0.42            0.13    0.15    0.24           0.32     0.36
F13        37.25   48.34   58.30          75.04  -28.24  -21.17          35.29  216.85           0.60    0.21    0.15    0.36            0.16    0.17    0.19           0.17     0.20
F14        49.87   38.46   51.06          68.36   37.73  -24.98          45.25  326.49           0.23    0.53    0.23    0.38            0.16    0.19    0.17           0.27     0.32
F15        64.58   66.90   22.12          85.45    0.16   45.97          45.97   89.80           0.12    0.20    0.56    0.16            0.24    0.25    0.20           0.30     0.34
F16        18.57   19.35   16.09          51.10   -0.48   -0.29           0.57  210.29           0.72    0.71    0.70    0.71            0.19    0.18    0.13           0.24     0.28
F17        41.29   32.65   17.56          63.88   32.56   18.31          37.36   29.35           0.25    0.64    0.67    0.44            0.13    0.13    0.17           0.28     0.32
