targets/wolf_faust/reflective/R090702.it8
IT8.7/2
ORIGINATOR "Wolf Faust"
DESCRIPTOR "FUJICOLOR Crystal Archive Paper, L* a* b* (light D50, viewing angle 2)"
MANUFACTURER "Wolf Faust - http://www.coloraid.de"
CREATED "September 08, 2009"
PROD_DATE "2009:07"
SAMPLE_BACKING "black"
SERIAL "5x7 R090702 Batch Average Data"
MATERIAL "FUJICOLOR Crystal Archive DP II Paper"
KEYWORD "MEAN_DE" # Mean Delta E of samples compared to batch average
NUMBER_OF_FIELDS 18
BEGIN_DATA_FORMAT
SAMPLE_ID  XYZ_X   XYZ_Y   XYZ_Z          LAB_L   LAB_A   LAB_B          LAB_C   LAB_H          D_RED  D_GREEN  D_BLUE  D_VIS          STDEV_X STDEV_Y STDEV_Z        MEAN_DE  STDEV_DE
END_DATA_FORMAT
NUMBER_OF_SETS 288
BEGIN_DATA
A1          3.31    2.77    1.91          19.12   11.12    3.54          11.68   17.64           1.35    1.67    1.60    1.52            0.03    0.03    0.03           0.25     0.32
A2          4.17    2.83    1.64          19.33   23.20    6.75          24.17   16.22           1.20    1.84    1.67    1.47            0.06    0.05    0.05           0.38     0.41 
A3          5.16    2.88    1.33          19.58   35.06   10.77          36.68   17.07           1.08    2.11    1.77    1.43            0.07    0.04    0.03           0.39     0.46
A4          5.79    3.15    1.38          20.62   37.98   11.96          39.82   17.48           1.03    2.14    1.76    1.38            0.07    0.04    0.04           0.40     0.46 
A5         12.44   10.83    7.79          39.29   14.37    4.26          14.99   16.50           0.79    1.06    1.01    0.94            0.15    0.13    0.14           0.40     0.45
A6         14.58   10.80    6.71          39.24   28.27    8.62          29.56   16.97           0.68    1.17    1.07    0.91            0.22    0.15    0.16           0.42     0.49 
A7         16.77   10.60    5.83          38.89   42.46   11.97          44.12   15.74           0.59    1.33    1.14    0.89            0.16    0.11    0.12           0.37     0.42
A8         21.17   10.97    4.68          39.53   62.29   18.89          65.09   16.87           0.49    1.64    1.24    0.83            0.06    0.04    0.08           0.30     0.37 
A9         39.94   39.02   30.44          68.76    7.36    2.71           7.84   20.23           0.34    0.44    0.43    0.40            0.26    0.28    0.28           0.30     0.35
A10        42.58   39.39   29.78          69.03   14.24    4.21          14.86   16.47           0.29    0.46    0.44    0.39            0.23    0.27    0.27           0.34     0.39
A11        44.89   39.30   28.20          68.96   21.28    6.66          22.30   17.38           0.25    0.49    0.46    0.38            0.26    0.27    0.31           0.32     0.38
A12        47.95   39.39   26.83          69.04   29.60    9.09          30.97   17.07           0.20    0.52    0.49    0.37            0.23    0.27    0.29           0.34     0.44 
A13        75.58   79.37   68.81          91.40   -1.93   -3.07           3.63  237.80           0.12    0.09    0.08    0.10            0.12    0.12    0.14           0.08     0.09
A14        77.28   79.30   68.66          91.37    1.66   -2.99           3.42  298.96           0.10    0.10    0.09    0.10            0.11    0.11    0.10           0.08     0.08 
A15        77.43   80.59   64.46          91.95   -0.56    1.93           2.01  106.20           0.09    0.09    0.11    0.09            0.15    0.15    0.22           0.14     0.16
A16        77.58   80.46   66.26          91.89    0.01    0.13           0.14  116.03           0.09    0.09    0.10    0.09            0.11    0.12    0.13           0.10     0.11
A17        76.32   78.41   64.75          90.96    1.45   -0.05           1.46  268.20           0.10    0.11    0.11    0.10            0.13    0.15    0.16           0.11     0.12
A18        74.57   78.68   63.17          91.09   -2.64    1.68           3.13  147.60           0.11    0.10    0.12    0.11            0.18    0.15    0.21           0.15     0.16 
A19        75.78   78.30   68.46          90.92    0.57   -3.58           3.63  278.99           0.11    0.10    0.09    0.11            0.16    0.17    0.14           0.10     0.12
A20         1.27    1.00    0.62           9.00   10.28    3.81          10.97   20.32           1.76    2.16    2.08    1.95            0.02    0.02    0.01           0.27     0.30 
A21         5.02    3.14    0.69          20.60   28.99   22.44          36.66   37.75           1.09    1.92    2.02    1.40            0.07    0.05    0.03           0.39     0.46
A22         9.82    5.52    0.71          28.16   43.17   35.09          55.63   39.10           0.79    1.86    2.00    1.14            0.13    0.08    0.02           0.32     0.40
B1          3.22    2.83    1.56          19.33    8.73    7.60          11.58   41.06           1.36    1.65    1.68    1.52            0.05    0.05    0.05           0.35     0.40
B2          3.75    2.81    0.97          19.25   17.41   15.23          23.13   41.17           1.25    1.77    1.87    1.49            0.06    0.04    0.02           0.34     0.37
B3          4.30    2.76    0.60          19.07   26.11   21.61          33.89   39.60           1.16    1.95    2.08    1.46            0.07    0.05    0.01           0.29     0.32
B4          4.78    2.99    0.57          20.01   28.51   23.72          37.09   39.76           1.11    1.95    2.10    1.42            0.05    0.04    0.01           0.27     0.30
B5         12.45   10.78    5.64          39.20   14.77   13.42          19.96   42.24           0.77    1.07    1.14    0.93            0.19    0.17    0.07           0.39     0.45
B6         14.19   10.67    3.77          39.02   26.86   23.38          35.61   41.04           0.68    1.18    1.30    0.91            0.17    0.16    0.12           0.44     0.49
B7         16.59   10.73    2.15          39.12   40.52   35.78          54.05   41.45           0.58    1.33    1.53    0.88            0.19    0.14    0.05           0.37     0.41
B8         20.79   11.14    0.90          39.81   59.24   51.82          78.71   41.17           0.48    1.62    1.90    0.82            0.08    0.06    0.01           0.16     0.18
B9         39.58   38.94   28.23          68.71    6.50    6.17           8.96   43.52           0.34    0.44    0.46    0.40            0.30    0.34    0.31           0.36     0.40
B10        41.84   39.15   25.60          68.86   12.76   10.92          16.80   40.55           0.29    0.46    0.50    0.39            0.26    0.29    0.32           0.40     0.46
B11        44.10   39.38   22.39          69.02   18.73   17.13          25.38   42.43           0.25    0.49    0.56    0.38            0.28    0.30    0.24           0.31     0.34
B12        47.11   39.43   19.34          69.06   27.16   23.35          35.82   40.69           0.20    0.52    0.62    0.36            0.23    0.28    0.20           0.33     0.38
B13        71.20   76.31   68.21          90.01   -4.98   -4.93           7.01  224.66           0.15    0.10    0.09    0.12            0.14    0.12    0.10           0.15     0.17
B14        73.56   72.88   66.81          88.39    6.90   -6.42           9.42  317.08           0.11    0.15    0.10    0.13            0.14    0.20    0.10           0.21     0.23
B15        75.69   79.26   56.66          91.35   -1.48    8.65           8.78   99.74           0.09    0.10    0.16    0.10            0.19    0.19    0.37           0.24     0.29
B16        63.81   66.01   54.32          85.00    0.37    0.16           0.42   25.65           0.17    0.18    0.18    0.18            0.26    0.28    0.22           0.18     0.21
B17        70.40   70.13   54.64          87.06    6.02    3.37           6.90   29.23           0.11    0.17    0.18    0.15            0.16    0.20    0.28           0.19     0.23
B18        68.58   74.46   56.21          89.14   -6.87    5.30           8.68  142.37           0.16    0.11    0.17    0.13            0.20    0.13    0.37           0.26     0.34
B19        66.99   68.69   65.97          86.35    1.67   -9.15           9.30  280.36           0.17    0.16    0.10    0.17            0.20    0.24    0.15           0.18     0.20
B20         2.69    1.89    0.62          14.88   18.60   13.87          23.20   36.70           1.38    2.01    2.06    1.65            0.04    0.03    0.02           0.26     0.29
B21         8.01    4.63    0.69          25.64   38.67   31.17          49.67   38.87           0.88    1.89    2.02    1.22            0.09    0.05    0.02           0.30     0.35
B22        28.01   23.78   11.50          55.87   21.36   20.22          29.41   43.43           0.42    0.74    0.84    0.58            0.23    0.23    0.19           0.35     0.40
C1          4.40    4.22    2.20          24.38    4.60    9.85          10.87   64.95           1.25    1.43    1.53    1.35            0.06    0.07    0.04           0.33     0.37
C2          4.65    4.21    1.35          24.36    8.09   18.78          20.45   66.70           1.19    1.47    1.72    1.34            0.08    0.08    0.04           0.38     0.41
C3          4.96    4.20    0.77          24.33   12.05   27.42          29.95   66.28           1.15    1.52    1.95    1.33            0.06    0.05    0.02           0.41     0.45
C4          5.48    4.60    0.78          25.56   13.05   29.30          32.08   66.00           1.10    1.49    1.94    1.29            0.09    0.07    0.01           0.36     0.42
C5         22.89   21.78   10.23          53.79    8.77   20.59          22.38   66.92           0.54    0.72    0.88    0.64            0.28    0.27    0.14           0.33     0.36
C6         24.93   21.87    5.31          53.89   17.28   40.36          43.90   66.82           0.46    0.77    1.14    0.62            0.27    0.28    0.12           0.45     0.49
C7         27.55   22.24    2.31          54.28   26.39   60.45          65.96   66.42           0.40    0.83    1.48    0.59            0.17    0.16    0.04           0.30     0.35
C8         28.68   22.18    1.36          54.22   31.08   70.11          76.69   66.09           0.37    0.87    1.70    0.59            0.15    0.16    0.02           0.26     0.30
C9         46.89   47.06   31.74          74.23    4.28   10.12          10.98   67.07           0.27    0.35    0.41    0.32            0.25    0.26    0.21           0.19     0.23
C10        48.14   46.78   25.87          74.05    8.52   19.40          21.19   66.28           0.24    0.37    0.49    0.31            0.26    0.26    0.32           0.29     0.36
C11        49.76   46.97   20.85          74.17   12.37   29.03          31.55   66.92           0.20    0.39    0.58    0.30            0.27    0.28    0.23           0.27     0.32
C12        51.92   46.87   15.32          74.11   18.39   41.26          45.18   65.98           0.17    0.42    0.71    0.29            0.18    0.25    0.18           0.29     0.35
C13        62.27   69.86   66.97          86.93  -11.49   -9.09          14.65  218.36           0.24    0.12    0.10    0.17            0.21    0.17    0.16           0.17     0.20
C14        67.60   63.10   63.54          83.49   15.34  -11.77          19.33  322.51           0.13    0.23    0.12    0.19            0.16    0.20    0.08           0.16     0.20
C15        73.38   77.28   45.68          90.45   -2.34   19.32          19.46   96.92           0.10    0.12    0.25    0.11            0.18    0.19    0.31           0.22     0.28
C16        48.90   50.66   41.33          76.47    0.12    0.61           0.64   77.47           0.28    0.29    0.30    0.30            0.41    0.42    0.47           0.34     0.38
C17        62.46   59.02   42.39          81.30   13.23    7.58          15.25   29.81           0.13    0.27    0.29    0.21            0.21    0.26    0.34           0.29     0.34
C18        57.12   65.85   44.47          84.92  -15.07   11.24          18.80  143.28           0.25    0.15    0.26    0.19            0.26    0.24    0.30           0.22     0.26
C19        54.26   54.96   61.79          79.02    3.22  -17.78          18.07  280.27           0.27    0.25    0.14    0.27            0.26    0.29    0.24           0.19     0.24
C20         1.62    1.32    0.60          11.44    9.90    8.32          12.93   40.05           1.64    2.03    2.08    1.83            0.02    0.02    0.02           0.29     0.32
C21        22.66   17.24    4.77          48.56   30.26   33.99          45.51   48.32           0.48    0.97    1.20    0.70            0.18    0.15    0.06           0.29     0.32
C22        33.68   30.56   16.84          62.13   15.36   16.97          22.89   47.84           0.37    0.59    0.68    0.49            0.29    0.28    0.21           0.35     0.39
D1          4.02    4.21    2.21          24.34   -0.48    9.69           9.70   92.86           1.32    1.39    1.52    1.37            0.06    0.06    0.05           0.32     0.36
D2          4.02    4.25    1.36          24.47   -1.15   18.84          18.87   93.48           1.31    1.39    1.71    1.36            0.05    0.05    0.02           0.27     0.30
D3          4.02    4.25    0.84          24.47   -1.07   26.48          26.50   92.31           1.30    1.39    1.91    1.35            0.06    0.08    0.01           0.39     0.44
D4          4.44    4.69    0.88          25.83   -1.14   28.13          28.16   92.33           1.26    1.35    1.89    1.31            0.05    0.06    0.02           0.34     0.40
D5         25.51   26.67   13.28          58.66   -0.83   19.95          19.96   92.38           0.53    0.59    0.77    0.56            0.26    0.32    0.22           0.40     0.44
D6         25.62   26.78    7.27          58.77   -0.83   39.93          39.93   91.19           0.50    0.60    1.01    0.56            0.29    0.31    0.14           0.38     0.42
D7         25.35   26.72    3.55          58.72   -1.76   58.76          58.79   91.72           0.51    0.61    1.30    0.55            0.19    0.22    0.06           0.31     0.35
D8         25.36   26.97    1.81          58.95   -2.71   73.24          73.29   92.12           0.52    0.61    1.58    0.55            0.22    0.25    0.03           0.32     0.37
D9         53.26   55.36   37.30          79.25   -0.30   10.73          10.74   91.60           0.23    0.26    0.34    0.25            0.23    0.24    0.28           0.20     0.25
D10        53.20   55.40   29.63          79.27   -0.56   22.11          22.12   91.45           0.22    0.27    0.43    0.25            0.27    0.30    0.28           0.27     0.31
D11        53.20   55.33   23.70          79.23   -0.39   32.24          32.24   90.69           0.21    0.28    0.52    0.24            0.23    0.26    0.36           0.38     0.47
D12        53.25   56.02    7.27          79.63   -1.95   75.89          75.91   91.47           0.20    0.29    1.00    0.23            0.18    0.16    0.04           0.13     0.14
D13        53.70   63.14   65.39          83.51  -17.58  -13.50          22.16  217.52           0.34    0.14    0.11    0.22            0.25    0.21    0.09           0.20     0.25
D14        61.76   53.93   59.94          78.42   24.03  -16.99          29.43  324.74           0.15    0.33    0.15    0.25            0.16    0.26    0.14           0.29     0.36
D15        71.24   75.10   35.92          89.44   -2.48   30.22          30.32   94.69           0.10    0.14    0.35    0.12            0.18    0.18    0.36           0.32     0.40
D16        36.57   37.89   30.88          67.94    0.10    0.61           0.66   77.60           0.41    0.42    0.42    0.42            0.27    0.32    0.27           0.34     0.39
D17        54.65   48.56   31.59          75.18   20.78   11.98          23.98   29.96           0.17    0.39    0.41    0.29            0.20    0.25    0.33           0.38     0.44
D18        46.82   57.36   34.52          80.38  -22.44   16.59          27.90  143.52           0.35    0.19    0.37    0.26            0.33    0.34    0.29           0.28     0.32
D19        43.00   42.69   57.01          71.35    5.52  -26.21          26.78  281.89           0.39    0.36    0.17    0.38            0.31    0.33    0.28           0.26     0.30
D20        13.49   10.35    2.58          38.47   24.77   30.87          39.58   51.26           0.70    1.19    1.45    0.92            0.17    0.14    0.06           0.28     0.33
D21        20.68   20.00   11.35          51.83    6.92   13.73          15.38   63.25           0.59    0.74    0.84    0.68            0.23    0.24    0.17           0.31     0.35
D22        36.78   34.89   19.17          65.66   10.62   17.86          20.78   59.28           0.34    0.51    0.62    0.44            0.38    0.38    0.33           0.34     0.40
E1          3.64    4.15    2.24          24.15   -5.36    9.11          10.57  120.47           1.39    1.36    1.51    1.39            0.05    0.07    0.04           0.30     0.34
E2          3.38    4.21    1.43          24.35  -10.29   17.85          20.61  119.96           1.45    1.33    1.69    1.38            0.05    0.07    0.05           0.39     0.45
E3          3.11    4.19    0.92          24.29  -14.51   24.81          28.74  120.33           1.51    1.31    1.86    1.39            0.04    0.06    0.02           0.43     0.48
E4          3.15    4.28    0.94          24.57  -14.97   24.98          29.13  120.93           1.51    1.30    1.86    1.38            0.04    0.07    0.02           0.27     0.30
E5         12.07   13.72    7.37          43.83   -7.79   13.75          15.80  119.54           0.88    0.84    1.02    0.87            0.17    0.19    0.14           0.33     0.37
E6         11.10   13.80    4.49          43.95  -15.18   27.58          31.48  118.83           0.93    0.81    1.21    0.87            0.13    0.16    0.06           0.36     0.39
E7         10.00   13.68    2.48          43.77  -22.70   40.86          46.74  119.06           1.02    0.80    1.44    0.88            0.09    0.13    0.04           0.30     0.35
E8          9.42   13.85    1.55          44.02  -28.44   50.29          57.77  119.49           1.09    0.78    1.64    0.88            0.07    0.11    0.02           0.29     0.34
E9         36.33   39.07   26.98          68.80   -4.40    8.43           9.51  117.54           0.41    0.40    0.48    0.41            0.28    0.34    0.32           0.35     0.39
E10        34.95   38.87   22.53          68.66   -8.39   16.22          18.26  117.36           0.43    0.39    0.55    0.41            0.27    0.30    0.23           0.23     0.28
E11        33.63   38.94   18.70          68.71  -13.19   24.13          27.50  118.66           0.45    0.38    0.62    0.41            0.19    0.22    0.17           0.33     0.36
E12        30.05   39.71    8.96          69.26  -28.51   51.58          58.93  118.93           0.54    0.35    0.92    0.41            0.25    0.25    0.16           0.33     0.40
E13        46.13   56.77   63.53          80.05  -22.95  -17.70          28.98  217.64           0.45    0.17    0.12    0.28            0.15    0.13    0.08           0.13     0.16
E14        55.74   45.20   55.71          73.02   32.81  -21.96          39.48  326.20           0.18    0.44    0.19    0.32            0.25    0.32    0.20           0.31     0.40
E15        69.32   72.86   28.02          88.38   -2.01   40.44          40.49   92.84           0.10    0.16    0.45    0.12            0.13    0.14    0.27           0.29     0.37
E16        26.77   27.69   22.71          59.61    0.29    0.26           0.45   83.25           0.54    0.56    0.55    0.56            0.27    0.29    0.29           0.35     0.40
E17        47.97   39.95   23.57          69.43   27.94   15.59          31.99   29.15           0.20    0.51    0.54    0.36            0.26    0.30    0.27           0.34     0.39
E18        38.09   49.61   26.78          75.83  -28.93   20.88          35.68  144.18           0.47    0.23    0.47    0.32            0.25    0.24    0.23           0.27     0.32
E19        33.49   32.30   51.73          63.59    8.42  -33.94          34.97  283.92           0.52    0.48    0.22    0.51            0.23    0.26    0.20           0.30     0.37
E20        24.37   16.75    1.18          47.94   40.52   61.75          73.85   56.73           0.42    1.09    1.76    0.69            0.20    0.17    0.02           0.31     0.35
E21        16.47   13.74    2.59          43.85   19.43   40.12          44.57   64.16           0.62    1.01    1.44    0.81            0.20    0.19    0.05           0.37     0.41
E22        28.35   24.46    7.94          56.55   19.80   33.45          38.87   59.38           0.41    0.73    0.98    0.57            0.28    0.29    0.14           0.44     0.49
F1          1.35    1.73    1.24          14.01   -8.78    2.44           9.12  164.46           1.90    1.69    1.77    1.79            0.02    0.03    0.02           0.32     0.36
F2          1.06    1.71    1.00          13.88  -17.61    5.66          18.50  162.19           2.12    1.63    1.85    1.81            0.02    0.04    0.03           0.40     0.44
F3          1.09    1.94    1.02          15.18  -22.30    7.51          23.53  161.40           2.17    1.55    1.83    1.77            0.02    0.03    0.02           0.37     0.42
F4          1.08    1.92    1.00          15.09  -22.27    7.69          23.56  160.94           2.17    1.55    1.84    1.77            0.01    0.03    0.02           0.32     0.36
F5          6.41    7.99    5.79          33.97  -12.84    3.65          13.35  164.14           1.22    1.03    1.12    1.12            0.08    0.11    0.10           0.36     0.41
F6          5.20    7.93    4.72          33.84  -25.92    8.86          27.39  161.13           1.41    0.98    1.20    1.14            0.06    0.10    0.07           0.32     0.36
F7          4.15    7.86    4.01          33.69  -39.00   12.67          41.00  162.01           1.68    0.93    1.26    1.17            0.05    0.10    0.09           0.36     0.42
F8          3.40    8.02    3.30          34.02  -51.66   17.83          54.66  160.96           2.00    0.88    1.33    1.17            0.03    0.07    0.05           0.29     0.32
F9         35.63   38.71   30.43          68.54   -5.59    2.34           6.06  157.25           0.43    0.39    0.43    0.42            0.25    0.28    0.26           0.32     0.36
F10        34.03   38.79   29.14          68.60  -11.31    4.49          12.17  158.36           0.47    0.38    0.44    0.42            0.35    0.38    0.35           0.28     0.34
F11        32.21   38.66   27.86          68.51  -17.33    6.44          18.49  159.63           0.52    0.36    0.46    0.43            0.17    0.20    0.27           0.39     0.49
F12        27.08   39.45   23.98          69.07  -39.28   14.21          41.77  160.11           0.69    0.29    0.52    0.44            0.17    0.17    0.19           0.24     0.31
F13        39.38   50.67   61.41          76.48  -27.65  -21.80          35.21  218.25           0.57    0.20    0.13    0.34            0.10    0.10    0.09           0.11     0.13
F14        50.17   37.66   51.39          67.77   41.07  -26.36          48.80  327.31           0.22    0.56    0.23    0.39            0.22    0.26    0.18           0.29     0.34
F15        67.31   70.25   21.28          87.12   -0.94   50.50          50.51   91.07           0.10    0.18    0.56    0.14            0.09    0.11    0.23           0.33     0.41
F16        18.94   19.54   16.03          51.31    0.50    0.22           0.58   66.36           0.68    0.71    0.70    0.71            0.22    0.24    0.25           0.32     0.36
F17        41.94   32.55   16.86          63.79   34.90   19.77          40.12   29.53           0.24    0.65    0.68    0.43            0.18    0.21    0.17           0.30     0.35
