targets/wolf_faust/reflective/R090405WhiteBacking.it8
IT8.7/2
ORIGINATOR "Wolf Faust"
DESCRIPTOR "Kodak Professional Paper, L* a* b* (light D50, viewing angle 2)"
MANUFACTURER "Wolf Faust - http://www.coloraid.de"
CREATED "May 05, 2009"
PROD_DATE "2009:04"
SAMPLE_BACKING "white"
SERIAL "5x7 R090405 Batch Average Data"
MATERIAL "Kodak Professional Ultra Endura"
NUMBER_OF_FIELDS 9
BEGIN_DATA_FORMAT
SAMPLE_ID  XYZ_X   XYZ_Y   XYZ_Z          LAB_L   LAB_A   LAB_B          LAB_C   LAB_H
END_DATA_FORMAT
NUMBER_OF_SETS 288
BEGIN_DATA
A1          3.39    2.87    1.79          19.50   10.83    5.46          12.13   26.73
A2          4.19    2.82    1.50          19.31   23.53    8.26          24.94   19.33 
A3          5.13    2.89    1.27          19.58   34.70   11.60          36.58   18.48
A4          6.06    3.23    1.34          20.95   39.55   13.08          41.66   18.30 
A5         12.59   11.06    7.61          39.68   13.68    5.63          14.79   22.36
A6         14.72   10.86    6.42          39.34   28.66   10.03          30.36   19.28 
A7         17.24   11.02    5.73          39.61   42.01   13.68          44.18   18.03
A8         20.88   10.97    4.54          39.53   60.92   19.69          64.02   17.91 
A9         40.94   40.36   31.28          69.72    6.31    3.06           7.01   25.86
A10        43.23   40.44   29.89          69.78   12.92    5.34          13.98   22.44
A11        45.79   40.70   28.73          69.96   19.56    7.51          20.96   21.00
A12        48.47   40.50   27.47          69.82   27.65    9.35          29.19   18.69 
A13        75.92   79.80   68.83          91.60   -2.08   -2.76           3.45  233.02
A14        77.51   79.74   68.60          91.57    1.24   -2.59           2.87  295.54 
A15        77.57   80.76   64.50          92.02   -0.59    2.02           2.10  106.29
A16        77.48   80.33   65.95          91.83    0.04    0.32           0.33   82.23
A17        76.31   78.46   64.19          90.99    1.32    0.53           1.42   21.85
A18        74.89   78.86   63.37          91.17   -2.34    1.63           2.85  145.19 
A19        75.92   78.69   68.39          91.09    0.11   -3.22           3.23  271.89
A20         1.29    1.03    0.63           9.24    9.80    4.11          10.63   22.77 
A21         5.06    3.19    0.67          20.77   28.68   23.20          36.90   38.97
A22        10.05    5.69    0.73          28.62   43.00   35.49          55.76   39.54
B1          3.28    2.87    1.45          19.53    8.76    9.30          12.78   46.70
B2          3.78    2.80    0.88          19.24   17.91   16.80          24.56   43.16
B3          4.45    2.87    0.54          19.51   26.22   23.45          35.18   41.81
B4          5.06    3.12    0.49          20.52   29.77   26.21          39.66   41.36
B5         12.73   11.01    5.53          39.60   14.93   14.64          20.91   44.43
B6         14.66   11.01    3.68          39.59   27.22   24.93          36.91   42.49
B7         17.01   11.03    2.14          39.62   40.66   36.74          54.80   42.10
B8         20.40   11.09    0.92          39.74   57.71   51.41          77.29   41.70
B9         40.79   40.57   29.14          69.87    5.22    6.70           8.49   52.09
B10        42.79   40.48   26.04          69.81   11.52   11.78          16.48   45.62
B11        45.05   40.54   23.17          69.85   17.92   17.06          24.74   43.58
B12        47.64   40.57   19.99          69.87   25.13   23.40          34.33   42.95
B13        69.94   75.48   67.73          89.62   -6.00   -5.16           7.91  220.67
B14        73.45   72.79   66.43          88.35    6.86   -6.14           9.21  318.19
B15        75.38   78.76   55.62          91.13   -1.13    9.34           9.41   96.93
B16        62.54   64.95   52.89          84.46   -0.20    0.76           0.79  105.16
B17        70.13   69.87   53.68          86.93    5.97    4.18           7.28   35.00
B18        67.04   72.87   54.81          88.39   -7.00    5.48           8.89  141.98
B19        65.46   67.49   65.27          85.75    0.87   -9.53           9.57  275.23
B20         2.66    1.89    0.60          14.92   17.83   14.35          22.89   38.83
B21         8.20    4.76    0.70          26.03   38.70   31.64          49.98   39.27
B22        28.89   24.57   11.20          56.66   21.40   22.49          31.04   46.43
C1          4.40    4.23    1.99          24.42    4.42   11.87          12.66   69.59
C2          4.66    4.22    1.22          24.39    8.01   20.55          22.06   68.70
C3          5.09    4.32    0.66          24.69   12.22   30.06          32.45   67.88
C4          5.63    4.71    0.65          25.91   13.32   32.46          35.09   67.69
C5         23.42   22.36   10.14          54.40    8.50   21.95          23.54   68.83
C6         25.66   22.57    5.21          54.63   17.15   42.12          45.48   67.84
C7         27.62   22.36    2.18          54.41   26.09   61.80          67.08   67.11
C8         29.15   22.56    1.11          54.61   31.22   74.19          80.49   67.18
C9         47.75   48.18   32.14          74.94    3.60   10.74          11.32   71.49
C10        49.12   48.07   26.37          74.87    7.63   19.94          21.35   69.05
C11        50.95   48.42   21.83          75.09   11.61   28.67          30.93   67.95
C12        52.32   47.81   16.08          74.70   16.86   40.43          43.81   67.37
C13        60.94   68.73   66.12          86.37  -12.17   -9.26          15.29  217.27
C14        67.99   63.90   63.47          83.91   14.38  -10.99          18.09  322.62
C15        72.72   76.09   44.88          89.90   -1.36   19.34          19.39   94.02
C16        48.30   50.25   40.38          76.22   -0.40    1.39           1.45  106.13
C17        62.33   59.19   41.68          81.39   12.51    8.65          15.21   34.67
C18        55.88   63.95   43.52          83.94  -13.90   10.72          17.55  142.37
C19        53.41   54.61   61.00          78.82    1.95  -17.36          17.47  276.40
C20         1.61    1.35    0.58          11.61    8.85    9.01          12.63   45.51
C21        22.62   17.00    4.35          48.26   31.39   35.78          47.60   48.73
C22        34.55   31.50   16.35          62.93   14.93   19.50          24.56   52.56
D1          4.07    4.23    2.02          24.41   -0.02   11.57          11.57   90.08
D2          4.09    4.27    1.24          24.55   -0.44   20.60          20.60   91.22
D3          3.99    4.24    0.69          24.45   -1.40   29.06          29.10   92.76
D4          4.61    4.92    0.72          26.51   -1.79   32.16          32.21   93.18
D5         26.50   27.82   13.28          59.72   -1.32   21.79          21.83   93.47
D6         26.18   27.61    7.15          59.54   -1.82   41.74          41.78   92.50
D7         26.06   27.48    3.37          59.42   -1.83   61.18          61.20   91.71
D8         26.20   27.79    1.48          59.70   -2.43   78.14          78.18   91.78
D9         54.29   56.62   38.12          79.96   -0.77   10.84          10.87   94.06
D10        54.12   56.52   30.41          79.91   -0.95   21.97          21.99   92.48
D11        53.89   56.34   24.25          79.81   -1.10   32.22          32.24   91.96
D12        53.76   56.49   10.83          79.89   -1.81   63.69          63.72   91.62
D13        52.66   62.12   64.14          82.98  -17.93  -13.24          22.29  216.45
D14        62.49   55.36   60.08          79.25   22.12  -15.70          27.13  324.64
D15        70.10   73.20   35.56          88.54   -1.03   29.18          29.20   92.03
D16        36.79   38.33   30.45          68.26   -0.57    1.83           1.91  107.41
D17        55.18   49.73   31.95          75.90   18.98   12.69          22.83   33.76
D18        45.88   55.40   33.74          79.27  -20.32   15.82          25.75  142.09
D19        42.57   42.96   56.08          71.53    3.44  -24.92          25.16  277.85
D20        13.60   10.33    2.46          38.43   25.64   31.80          40.85   51.13
D21        21.19   20.62   11.05          52.53    6.33   15.85          17.07   68.23
D22        37.71   36.09   19.11          66.58    9.67   19.58          21.83   63.72
E1          3.73    4.23    2.05          24.43   -5.22   11.38          12.53  114.65
E2          3.43    4.27    1.29          24.55  -10.29   19.94          22.43  117.29
E3          3.09    4.23    0.74          24.41  -15.34   28.04          31.96  118.68
E4          3.40    4.63    0.78          25.66  -15.53   29.56          33.39  117.72
E5         12.53   14.27    7.24          44.61   -8.00   15.62          17.55  117.11
E6         11.31   14.13    4.26          44.42  -15.63   29.68          33.55  117.77
E7         10.41   14.17    2.36          44.48  -22.60   43.09          48.66  117.68
E8          9.52   14.25    1.28          44.59  -30.03   54.57          62.29  118.82
E9         37.62   40.48   27.58          69.81   -4.50    9.15          10.19  116.22
E10        36.47   40.83   23.17          70.06   -9.34   17.41          19.75  118.21
E11        35.12   40.72   19.37          69.98  -13.55   24.87          28.32  118.58
E12        32.01   40.60   11.09          69.89  -24.04   45.66          51.60  117.76
E13        44.79   55.49   61.78          79.32  -23.63  -17.26          29.26  216.15
E14        56.86   47.20   56.28          74.32   30.00  -20.32          36.24  325.89
E15        68.01   70.62   27.94          87.30   -0.18   38.70          38.70   90.27
E16        27.03   28.21   22.26          60.08   -0.71    1.95           2.08  110.26
E17        48.36   41.03   23.79          70.20   25.73   16.49          30.56   32.65
E18        37.23   47.56   25.97          74.54  -26.19   20.08          33.00  142.52
E19        33.43   33.02   50.89          64.17    5.70  -32.01          32.52  280.09
E20        24.47   16.77    1.13          47.97   40.80   62.40          74.56   56.82
E21        16.88   13.91    2.45          44.11   20.61   41.72          46.54   63.71
E22        29.33   25.17    7.69          57.24   20.54   35.63          41.12   60.03
F1          1.41    1.80    1.16          14.39   -8.67    4.17           9.62  154.32
F2          1.10    1.77    0.93          14.23  -17.89    7.27          19.31  157.88
F3          1.06    2.02    0.91          15.59  -24.94    9.91          26.84  158.34
F4          1.18    2.32    1.02          17.10  -27.40   10.82          29.46  158.46
F5          6.63    8.26    5.49          34.51  -12.90    6.08          14.26  154.77
F6          5.37    8.21    4.55          34.41  -26.34   10.79          28.46  157.72
F7          4.41    8.30    3.79          34.60  -39.27   15.63          42.27  158.29
F8          3.42    8.29    3.03          34.57  -53.64   20.69          57.49  158.91
F9         37.14   40.61   31.08          69.90   -6.45    3.66           7.42  150.40
F10        35.50   40.66   29.89          69.93  -12.03    5.59          13.27  155.08
F11        33.90   40.80   28.98          70.03  -17.93    7.22          19.33  158.06
F12        29.17   40.54   25.23          69.86  -34.42   13.29          36.89  158.89
F13        37.86   49.30   59.03          75.63  -28.84  -20.88          35.60  215.91
F14        51.04   39.31   51.92          68.97   38.18  -24.87          45.57  326.93
F15        65.81   67.77   21.48          85.89    1.04   47.99          48.00   88.76
F16        19.07   19.90   15.90          51.73   -0.59    1.25           1.39  115.52
F17        42.18   33.46   17.27          64.53   32.43   20.12          38.16   31.81
F18        29.50   40.19   19.54          69.60  -32.05   23.85          39.95  143.35
F19        25.33   24.24   45.17          56.33    8.47  -38.90          39.81  282.28
F20        25.36   24.47   11.08          56.56    7.58   22.69          23.92   71.52
F21        33.52   30.41   10.02          62.00   15.35   35.44          38.62   66.58
F22        37.83   35.46   15.04          66.10   12.14   28.17          30.68   66.69
G1          2.23    2.85    2.38          19.44  -10.22   -0.20          10.22  181.14
G2          1.79    2.82    2.59          19.32  -19.83   -2.16          19.95  186.22
G3          1.67    3.15    3.05          20.62  -28.52   -3.46          28.73  186.92
G4          1.81    3.45    3.33          21.78  -29.98   -3.48          30.18  186.63
G5          8.97   11.01    9.25          39.59  -13.09   -0.60          13.10  182.63
G6          7.60   10.91    9.85          39.43  -24.57   -2.91          24.75  186.75
G7          6.23   10.84   10.36          39.31  -37.76   -4.78          38.06  187.22
G8          5.08   10.99   11.15          39.56  -52.00   -6.84          52.45  187.50
G9         36.98   40.54   32.97          69.85   -6.76    0.71           6.80  173.96
G10        35.34   40.96   34.33          70.15  -13.53   -0.77          13.55  183.25
G11        33.31   40.59   35.00          69.89  -19.37   -2.19          19.49  186.44
G12        28.97   41.01   37.57          70.18  -36.58   -5.27          36.96  188.19
G13        32.03   43.83   56.25          72.11  -33.52  -24.09          41.28  215.71
G14        45.51   32.34   47.45          63.62   46.07  -29.03          54.45  327.79
G15        63.84   65.03   16.11          84.50    2.61   57.25          57.31   87.38
G16        13.20   13.71   10.85          43.81   -0.09    1.42           1.43   94.03
G17        36.62   27.03   12.10          59.00   38.82   23.84          45.55   31.55
G18        23.51   34.09   14.40          65.04  -36.95   27.97          46.34  142.88
G19        18.97   17.31   39.71          48.65   12.16  -45.26          46.87  285.04
G20        35.25   34.04   13.76          65.00    8.41   29.56          30.73   74.12
G21        34.18   32.68    8.82          63.90    9.44   42.85          43.88   77.57
G22        46.09   42.45    2.62          71.18   15.17   87.00          88.31   80.11
H1          2.47    2.87    3.02          19.52   -5.71   -5.12           7.67  221.86
H2          2.14    2.84    4.07          19.38  -11.95  -12.37          17.20  225.98
H3          1.90    2.88    5.31          19.56  -18.19  -18.84          26.19  226.00
H4          2.17    3.36    6.20          21.42  -20.17  -19.86          28.31  224.56
H5          9.71   11.19   11.39          39.90   -8.31   -6.98          10.85  220.03
H6          8.58   10.94   14.58          39.49  -15.98  -16.56          23.01  226.02
H7          7.65   10.95   18.20          39.49  -24.30  -25.15          34.97  225.99
H8          6.86   11.12   23.99          39.77  -33.18  -36.33          49.20  227.59
H9         37.60   40.70   36.15          69.96   -5.25   -3.68           6.41  215.06
H10        36.59   40.91   40.08          70.11   -9.18   -8.74          12.67  223.58
H11        35.24   40.93   43.89          70.12  -13.74  -13.55          19.30  224.59
H12        32.30   41.09   55.17          70.24  -24.49  -26.19          35.86  226.91
H13        26.61   38.42   52.96          68.33  -37.96  -27.12          46.65  215.54
H14        40.41   26.38   43.01          58.40   53.50  -32.69          62.69  328.58
H15        61.75   62.00   11.46          82.92    4.61   66.97          67.13   86.06
H16         8.50    8.84    6.94          35.68   -0.23    1.46           1.48   98.77
H17        31.65   21.60    7.90          53.60   44.90   28.50          53.18   32.40
H18        18.06   28.23    9.97          60.09  -41.90   32.31          52.91  142.36
H19        13.90   11.90   34.49          41.05   16.23  -51.17          53.68  287.60
H20        40.24   40.82   14.55          70.05    2.75   36.21          36.31   85.66
H21        30.28   31.36   19.33          62.81    0.17   12.60          12.60   89.25
H22        34.46   37.48   10.48          67.64   -5.69   43.68          44.05   97.42
I1          4.17    4.28    5.34          24.56    0.63  -10.38          10.40  273.46
I2          4.16    4.26    7.97          24.51    0.70  -21.90          21.91  271.83
I3          4.21    4.26   11.26          24.52    1.48  -33.11          33.15  272.56
I4          4.35    4.25   18.90          24.47    3.53  -52.58          52.69  273.84
I5         13.86   14.34   14.61          44.72    0.18   -7.62           7.62  271.32
I6         14.08   14.41   18.79          44.81    1.15  -17.27          17.30  273.82
I7         14.08   14.33   23.32          44.70    1.69  -26.59          26.64  273.63
I8         14.32   14.30   36.70          44.66    3.33  -48.08          48.20  273.96
I9         39.03   40.51   35.93          69.83   -0.09   -3.60           3.60  268.52
I10        39.46   40.83   39.91          70.06    0.29   -8.61           8.62  271.95
I11        39.64   40.85   44.25          70.07    0.81  -14.09          14.12  273.31
I12        39.98   40.96   55.24          70.15    1.50  -26.43          26.47  273.26
I13        22.04   33.54   49.54          64.59  -41.65  -29.76          51.19  215.55
I14        35.40   20.99   38.33          52.94   60.87  -36.03          70.74  329.38
I15        59.57   58.85    7.84          81.21    6.84   76.35          76.65   84.88
I16         5.24    5.43    4.12          27.92    0.01    2.07           2.07   89.89
I17        27.16   17.04    4.73          48.31   50.56   33.76          60.80   33.73
I18        13.61   23.04    6.62          55.12  -46.22   36.37          58.81  141.80
I19         9.89    7.69   29.47          33.33   21.42  -56.84          60.74  290.64
I20        40.98   44.91   15.31          72.84   -7.00   39.11          39.73  100.15
I21        10.79   14.41    3.19          44.82  -21.16   37.26          42.85  119.59
I22        27.52   35.67   16.47          66.27  -25.41   24.97          35.63  135.50
J1          2.02    1.80    2.69          14.38    6.82  -11.49          13.36  300.71
J2          2.34    1.81    4.60          14.47   13.32  -23.87          27.33  299.17
J3          2.70    1.82    7.49          14.49   20.41  -37.33          42.54  298.67
J4          3.68    1.88   17.18          14.86   35.38  -65.33          74.29  298.44
J5         11.39   11.05   11.72          39.67    5.38   -8.36           9.94  302.74
J6         12.18   11.17   15.20          39.87   10.05  -17.46          20.15  299.91
J7         13.05   11.25   19.74          39.99   15.34  -27.62          31.59  299.05
J8         14.94   11.08   33.46          39.72   28.41  -51.97          59.23  298.66
J9         39.98   40.64   36.44          69.92    2.47   -4.16           4.84  300.75
J10        40.76   40.62   39.53          69.91    4.94   -8.37           9.72  300.53
J11        41.85   40.86   43.83          70.08    7.53  -13.56          15.51  299.05
J12        44.32   41.00   54.71          70.18   14.42  -25.81          29.57  299.18
J13        17.87   28.70   45.63          60.52  -44.75  -32.22          55.14  215.76
J14        30.54   16.28   33.46          47.34   67.81  -38.83          78.14  330.21
J15        57.37   55.63    5.12          79.40    9.32   85.30          85.81   83.76
J16         2.76    2.87    2.21          19.51   -0.07    1.36           1.37   92.75
J17        23.14   13.27    2.58          43.17   55.68   38.99          67.98   35.00
J18         9.79   18.23    4.18          49.77  -50.25   39.40          63.85  141.90
J19         6.79    4.56   24.45          25.44   27.84  -61.89          67.86  294.22
J20        29.71   38.45   21.47          68.35  -25.86   17.75          31.37  145.54
J21         4.18    7.88    1.33          33.73  -38.77   35.25          52.40  137.72
J22         1.24    2.00    0.78          15.50  -18.51   12.10          22.11  146.81
K1          5.05    4.26    4.76          24.52   12.47   -7.45          14.52  329.15
K2          6.29    4.30    6.91          24.64   26.08  -17.43          31.37  326.24
K3          7.60    4.26    9.16          24.52   39.70  -26.26          47.60  326.52
K4          9.25    4.33   12.63          24.72   53.42  -36.77          64.85  325.46
K5         15.71   14.40   14.25          44.80   11.00   -6.56          12.81  329.20
K6         17.86   14.51   17.81          44.95   22.28  -14.87          26.79  326.27
K7         20.14   14.54   21.56          44.99   33.79  -22.70          40.71  326.11
K8         26.28   14.45   33.09          44.87   61.79  -42.53          75.01  325.46
K9         41.29   40.87   36.03          70.09    5.82   -3.31           6.70  330.40
K10        43.10   40.42   39.31          69.77   12.62   -8.32          15.12  326.62
K11        45.85   40.82   42.93          70.05   19.38  -12.49          23.05  327.19
K12        51.99   41.14   53.11          70.27   35.10  -23.94          42.49  325.71
K13        14.09   23.84   41.04          55.93  -46.69  -34.45          58.02  216.42
K14        25.88   12.35   28.39          41.77   73.53  -40.55          83.97  331.13
K15        54.39   51.51    3.01          76.99   12.32   93.97          94.78   82.53
K16         1.24    1.29    0.99          11.18   -0.03    1.10           1.11   91.35
K17        19.30   10.11    1.13          38.03   59.57   45.26          74.82   37.23
K18         6.63   13.70    2.35          43.80  -52.90   42.07          67.59  141.51
K19         4.58    2.47   19.55          17.78   35.48  -65.51          74.50  298.44
K20         2.28    3.01    1.70          20.09  -12.15    7.39          14.23  148.69
K21         1.26    1.72    1.31          13.95  -11.23    1.41          11.32  172.83
K22         1.59    2.09    2.56          15.94  -10.35   -7.78          12.95  216.95
L1          3.50    2.87    2.48          19.53   12.45   -0.90          12.48  355.86
L2          4.34    2.86    2.75          19.48   24.88   -3.20          25.08  352.67
L3          5.67    3.12    3.16          20.53   36.95   -4.43          37.21  353.16
L4          6.47    3.39    3.60          21.53   41.42   -5.71          41.81  352.16
L5         12.83   11.07    9.52          39.69   15.24   -1.35          15.30  354.94
L6         15.46   11.15   10.43          39.82   31.01   -4.13          31.29  352.42
L7         18.48   11.24   11.42          39.99   46.98   -6.93          47.49  351.61
L8         22.09   11.09   12.44          39.73   65.75  -10.35          66.56  351.06
L9         41.56   40.59   33.72          69.89    7.48   -0.33           7.49  357.48
L10        44.19   41.02   34.73          70.19   13.99   -1.28          14.05  354.78
L11        46.73   40.94   35.51          70.14   21.48   -2.49          21.62  353.40
L12        50.23   41.32   37.06          70.40   29.91   -4.19          30.20  352.02
L13        10.17   18.13   34.35          49.66  -46.77  -36.13          59.10  217.69
L14        22.08    9.65   24.00          37.22   76.54  -40.76          86.72  331.97
L15        49.85   45.96    1.73          73.52   15.43   99.19         100.38   81.16
L16         0.42    0.46    0.39           4.16   -0.99   -0.20           1.01  191.19
L17        14.83    7.23    0.45          32.32   59.58   47.18          76.00   38.38
L18         3.65    8.67    1.20          35.34  -53.46   39.72          66.60  143.38
L19         3.05    1.31   14.73          11.33   40.23  -65.49          76.86  301.56
L20         0.64    0.70    0.67           6.35   -1.54   -1.67           2.28  227.24
L21         0.92    0.88    0.84           7.92    3.14   -2.08           3.77  326.54
L22         1.88    1.49    1.19          12.56   11.45    0.61          11.46    3.03
GS0        78.57   81.60   69.08          92.40   -0.21   -1.60           1.61  262.54
GS1        68.34   70.91   57.52          87.44   -0.06    1.02           1.02   93.67
GS2        60.54   62.97   50.76          83.43   -0.43    1.34           1.41  107.82
