targets/wolf_faust/reflective/R090104WhiteBacking.it8
IT8.7/2
ORIGINATOR "Wolf Faust"
DESCRIPTOR "Kodak Professional Paper, L* a* b* (light D50, viewing angle 2)"
MANUFACTURER "Wolf Faust - http://www.coloraid.de"
CREATED "January 23, 2009"
PROD_DATE "2009:01"
SAMPLE_BACKING "white"
SERIAL "5x7 R090104 Batch Average Data"
MATERIAL "Kodak Professional Ultra Endura"
NUMBER_OF_FIELDS 9
BEGIN_DATA_FORMAT
SAMPLE_ID  XYZ_X   XYZ_Y   XYZ_Z          LAB_L   LAB_A   LAB_B          LAB_C   LAB_H
END_DATA_FORMAT
NUMBER_OF_SETS 288
BEGIN_DATA
A1          3.52    2.95    2.06          19.84   11.39    3.35          11.87   16.39
A2          4.34    2.92    1.72          19.73   23.83    6.52          24.70   15.29 
A3          5.30    2.97    1.44          19.91   35.34   10.08          36.75   15.91
A4          6.22    3.17    1.40          20.69   42.39   11.86          44.02   15.63 
A5         12.88   11.31    8.22          40.10   13.76    4.02          14.34   16.29
A6         15.07   11.15    7.16          39.82   28.71    7.70          29.73   15.01 
A7         17.75   11.34    6.29          40.15   42.39   12.01          44.06   15.82
A8         21.56   11.36    5.16          40.19   61.28   17.50          63.73   15.94 
A9         41.77   41.17   32.45          70.29    6.38    2.26           6.77   19.48
A10        44.29   41.27   31.29          70.36   13.52    4.15          14.15   17.06
A11        46.77   41.42   30.21          70.47   20.15    6.01          21.03   16.62
A12        49.52   41.65   29.18          70.63   27.00    7.94          28.15   16.39 
A13        75.05   79.02   68.14          91.24   -2.31   -2.73           3.58  229.77
A14        76.88   78.61   67.90          91.06    2.19   -2.83           3.58  307.70 
A15        77.52   80.62   64.35          91.96   -0.44    2.05           2.10  102.10
A16        77.97   80.91   66.62          92.09   -0.09    0.14           0.17  126.93
A17        75.79   77.67   63.23          90.63    1.84    0.83           2.02   24.27
A18        75.49   79.22   64.52          91.33   -1.81    0.80           1.98  156.09 
A19        74.86   77.50   67.83          90.55    0.28   -3.64           3.65  274.43
A20         1.36    1.08    0.72           9.67   10.18    3.13          10.65   17.12 
A21         5.22    3.31    0.79          21.25   28.59   21.70          35.89   37.20
A22        10.22    5.86    0.87          29.05   42.41   33.78          54.22   38.54
B1          3.39    2.98    1.66          19.97    8.75    7.62          11.60   41.05
B2          3.98    2.97    1.01          19.92   17.96   15.79          23.91   41.32
B3          4.54    2.93    0.60          19.76   26.43   22.82          34.92   40.82
B4          5.48    3.18    0.36          20.73   33.91   29.04          44.64   40.58
B5         12.97   11.27    6.04          40.02   14.72   12.92          19.59   41.27
B6         14.88   11.24    4.03          39.98   26.93   23.44          35.70   41.04
B7         17.32   11.27    2.35          40.04   40.56   35.55          53.94   41.24
B8         21.07   11.44    1.01          40.30   58.48   50.92          77.55   41.04
B9         41.88   41.43   30.45          70.47    5.91    5.64           8.17   43.67
B10        43.96   41.50   27.39          70.52   11.90   10.70          16.01   41.98
B11        46.30   41.66   24.48          70.64   18.09   16.00          24.15   41.48
B12        48.76   41.76   21.66          70.71   24.61   21.44          32.64   41.05
B13        69.25   74.84   67.25          89.32   -6.19   -5.23           8.11  220.18
B14        72.91   71.86   65.83          87.90    7.68   -6.35           9.96  320.39
B15        75.13   78.45   55.05          90.98   -1.04    9.70           9.75   96.13
B16        61.68   63.94   52.48          83.94    0.06    0.31           0.32  105.93
B17        69.72   69.17   53.18          86.59    6.59    4.12           7.77   32.03
B18        66.21   72.17   54.19          88.05   -7.38    5.56           9.24  143.02
B19        64.66   66.53   64.72          85.26    1.17   -9.85           9.92  276.78
B20         2.85    2.04    0.69          15.71   17.95   14.00          22.76   37.96
B21         8.47    4.95    0.81          26.60   38.68   30.57          49.30   38.32
B22        29.74   25.40   12.25          57.46   21.16   20.75          29.64   44.44
C1          4.54    4.40    2.29          24.96    3.97   10.08          10.84   68.52
C2          4.88    4.44    1.39          25.06    8.02   19.50          21.08   67.64
C3          5.20    4.39    0.72          24.93   12.44   29.33          31.86   67.01
C4          5.86    4.78    0.50          26.11   15.13   35.54          38.63   66.93
C5         24.22   23.23   11.20          55.31    8.12   20.15          21.73   68.06
C6         26.26   23.15    5.76          55.23   17.09   40.45          43.91   67.10
C7         28.74   23.38    2.41          55.46   25.95   61.59          66.84   67.15
C8         30.84   23.45    0.91          55.53   33.63   78.76          85.64   66.88
C9         48.66   48.93   33.39          75.41    4.07    9.67          10.50   67.18
C10        50.45   49.31   27.62          75.64    7.90   19.14          20.71   67.57
C11        51.94   49.22   22.54          75.59   12.03   28.16          30.62   66.87
C12        53.42   49.01   17.65          75.46   16.44   38.09          41.48   66.66
C13        60.18   68.01   65.64          86.01  -12.39   -9.43          15.57  217.27
C14        67.36   62.80   62.81          83.34   15.48  -11.34          19.19  323.78
C15        72.58   75.94   44.88          89.83   -1.34   19.21          19.26   94.00
C16        47.47   49.30   40.57          75.63   -0.18    0.14           0.28  143.79
C17        61.96   58.46   41.75          80.99   13.39    7.86          15.53   30.43
C18        55.24   63.41   43.70          83.66  -14.31   10.02          17.47  145.00
C19        52.31   53.29   60.40          78.04    2.42  -18.10          18.26  277.63
C20         1.69    1.41    0.68          12.03    9.10    7.94          12.08   41.11
C21        23.44   17.73    4.94          49.17   31.13   34.14          46.20   47.64
C22        35.46   32.31   17.72          63.60   15.13   17.48          23.12   49.13
D1          4.24    4.45    2.34          25.10   -0.65    9.90           9.92   93.76
D2          4.20    4.42    1.40          25.00   -0.86   19.33          19.35   92.55
D3          4.14    4.37    0.73          24.85   -0.97   29.08          29.10   91.91
D4          4.80    5.06    0.58          26.89   -0.99   35.41          35.42   91.60
D5         26.96   28.26   14.08          60.12   -1.16   20.32          20.35   93.26
D6         27.33   28.83    7.95          60.63   -1.86   40.43          40.47   92.64
D7         27.09   28.64    3.71          60.46   -2.11   60.71          60.74   91.99
D8         26.94   28.69    1.27          60.50   -2.88   82.11          82.16   92.01
D9         55.41   57.79   39.07          80.62   -0.76   10.70          10.73   94.07
D10        55.66   57.89   31.53          80.68   -0.38   21.56          21.56   91.02
D11        55.37   57.89   25.45          80.67   -1.12   31.55          31.57   92.03
D12        54.95   57.87   11.23          80.67   -2.13   63.80          63.84   91.92
D13        51.80   61.30   63.74          82.54  -18.27  -13.61          22.78  216.68
D14        62.14   54.75   59.59          78.89   22.86  -15.82          27.80  325.32
D15        70.36   73.53   36.31          88.70   -1.17   28.40          28.42   92.35
D16        36.04   37.60   30.81          67.73   -0.73    0.35           0.84  154.46
D17        55.14   49.40   32.41          75.70   19.76   11.63          22.93   30.48
D18        45.50   55.19   34.72          79.15  -20.86   14.19          25.23  145.78
D19        41.98   42.34   55.82          71.10    3.52  -25.38          25.63  277.88
D20        13.99   10.71    2.82          39.09   25.30   30.08          39.31   49.94
D21        22.09   21.50   12.01          53.49    6.41   14.60          15.95   66.30
D22        39.32   37.51   20.58          67.66   10.20   18.34          20.99   60.91
E1          3.87    4.39    2.35          24.91   -5.15    9.47          10.78  118.57
E2          3.60    4.43    1.45          25.04   -9.80   18.75          21.16  117.59
E3          3.30    4.48    0.80          25.19  -15.24   28.37          32.21  118.25
E4          3.47    4.94    0.65          26.55  -18.33   33.59          38.27  118.62
E5         13.00   14.80    7.80          45.36   -8.11   14.67          16.76  118.92
E6         11.92   14.85    4.73          45.43  -15.72   28.78          32.80  118.64
E7         10.73   14.70    2.61          45.22  -23.37   42.34          48.36  118.90
E8          9.79   14.97    1.12          45.59  -32.18   58.43          66.71  118.85
E9         38.30   41.17   28.52          70.29   -4.42    8.42           9.51  117.67
E10        37.00   41.45   24.28          70.49   -9.48   16.10          18.68  120.49
E11        35.76   41.45   20.29          70.49  -13.57   23.82          27.42  119.67
E12        32.70   41.67   11.85          70.64  -24.76   44.65          51.05  119.01
E13        44.68   55.32   61.70          79.22  -23.54  -17.35          29.24  216.39
E14        56.52   46.59   55.79          73.93   30.85  -20.49          37.03  326.41
E15        68.33   71.11   28.87          87.54   -0.52   37.59          37.60   90.79
E16        26.78   27.88   22.96          59.78   -0.42    0.10           0.45  166.21
E17        48.48   40.86   24.46          70.08   26.56   15.06          30.53   29.56
E18        37.11   47.67   26.95          74.61  -26.88   18.50          32.63  145.46
E19        32.90   32.43   50.74          63.70    5.86  -32.65          33.17  280.17
E20        25.00   17.23    1.26          48.55   40.58   61.66          73.81   56.65
E21        17.35   14.42    2.79          44.83   20.10   40.24          44.98   63.46
E22        30.18   26.08    8.37          58.11   20.02   34.51          39.90   59.88
F1          1.53    1.93    1.33          15.11   -8.32    3.08           8.88  159.68
F2          1.19    1.91    1.08          14.98  -17.85    6.32          18.93  160.51
F3          1.00    1.95    0.90          15.22  -25.65    9.40          27.32  159.88
F4          1.12    2.25    1.02          16.76  -28.14   10.23          29.94  160.02
F5          6.88    8.61    5.99          35.22  -13.39    4.87          14.25  160.02
F6          5.74    8.69    5.08          35.38  -26.24    9.63          27.95  159.84
F7          4.75    8.84    4.30          35.68  -39.50   14.39          42.04  159.98
F8          3.58    8.92    3.40          35.84  -56.57   20.29          60.10  160.27
F9         37.92   41.38   32.63          70.44   -6.28    2.25           6.68  160.28
F10        36.04   41.30   31.21          70.39  -12.18    4.31          12.92  160.52
F11        34.43   41.37   30.11          70.43  -17.83    6.11          18.85  161.09
F12        30.08   41.59   26.66          70.59  -34.12   12.06          36.19  160.54
F13        38.10   49.49   59.32          75.76  -28.61  -20.96          35.46  216.22
F14        51.19   39.37   51.83          69.02   38.42  -24.70          45.67  327.27
F15        66.52   68.71   22.33          86.36    0.58   47.13          47.13   89.29
F16        18.94   19.73   16.31          51.53   -0.41   -0.07           0.46  187.95
F17        42.47   33.47   17.77          64.54   33.26   18.98          38.29   29.72
F18        29.67   40.67   20.40          69.94  -32.86   22.65          39.91  145.43
F19        25.31   24.20   45.49          56.28    8.58  -39.36          40.29  282.30
F20        26.21   25.25   12.04          57.32    7.83   21.13          22.53   69.65
F21        34.13   30.97   11.01          62.48   15.41   33.11          36.52   65.04
F22        39.10   36.58   16.15          66.96   12.50   26.90          29.67   65.08
G1          2.40    3.01    2.68          20.10   -9.57   -1.54           9.69  189.14
G2          1.94    3.03    2.89          20.15  -19.76   -3.07          20.00  188.82
G3          1.65    3.16    3.25          20.68  -29.15   -4.83          29.55  189.41
G4          1.82    3.54    3.62          22.10  -31.04   -4.87          31.42  188.91
G5          9.28   11.35   10.03          40.17  -13.00   -2.24          13.19  189.76
G6          7.95   11.37   10.57          40.19  -24.57   -3.94          24.89  189.11
G7          6.83   11.65   11.43          40.66  -37.36   -5.79          37.81  188.81
G8          5.40   11.80   12.48          40.90  -53.96   -8.45          54.62  188.90
G9         37.72   41.21   34.83          70.33   -6.41   -1.19           6.53  190.53
G10        35.77   41.35   35.33          70.42  -13.23   -1.73          13.35  187.45
G11        34.14   41.52   36.13          70.54  -19.29   -2.67          19.47  187.88
G12        29.61   41.60   38.35          70.59  -35.93   -5.62          36.37  188.89
G13        32.40   44.14   56.64          72.32  -33.09  -24.14          40.96  216.12
G14        45.88   32.72   47.49          63.93   45.81  -28.55          53.98  328.07
G15        64.48   65.96   16.80          84.97    2.00   56.44          56.48   87.97
G16        13.09   13.58   11.15          43.63   -0.03    0.17           0.32  122.40
G17        36.89   27.10   12.39          59.07   39.42   23.14          45.71   30.42
G18        23.63   34.51   14.95          65.37  -37.85   27.12          46.56  144.38
G19        19.14   17.50   40.22          48.88   12.02  -45.53          47.09  284.79
G20        36.29   35.05   14.62          65.79    8.46   28.68          29.90   73.57
G21        34.92   33.51    9.50          64.57    9.11   41.62          42.60   77.66
G22        47.41   43.71    2.77          72.04   15.18   87.28          88.59   80.13
H1          2.60    2.99    3.33          20.02   -5.40   -6.50           8.45  230.28
H2          2.33    3.04    4.48          20.20  -11.50  -13.33          17.61  229.20
H3          2.08    3.08    5.85          20.37  -17.56  -20.06          26.66  228.81
H4          2.27    3.49    7.05          21.90  -20.11  -22.74          30.36  228.50
H5          9.96   11.39   12.23          40.22   -7.76   -8.90          11.81  228.92
H6          8.97   11.37   15.52          40.20  -15.64  -17.70          23.62  228.54
H7          8.14   11.55   19.70          40.49  -24.10  -26.67          35.94  227.90
H8          7.16   11.71   25.60          40.76  -34.49  -37.53          50.97  227.42
H9         38.12   41.21   37.56          70.32   -5.09   -5.01           7.15  224.55
H10        37.05   41.25   41.13          70.35   -8.72   -9.68          13.03  227.99
H11        35.62   41.29   45.29          70.38  -13.57  -14.82          20.09  227.53
H12        33.26   41.96   55.88          70.85  -23.70  -25.89          35.10  227.54
H13        27.24   39.02   53.77          68.77  -37.28  -27.24          46.17  216.15
H14        41.04   26.96   43.33          58.94   53.10  -32.15          62.07  328.81
H15        62.80   63.45   12.24          83.68    3.76   65.98          66.08   86.74
H16         8.40    8.75    7.23          35.50   -0.32   -0.04           0.42  198.02
H17        32.12   21.85    8.26          53.87   45.46   27.61          53.19   31.27
H18        18.27   28.80   10.67          60.60  -43.03   30.95          53.00  144.27
H19        14.08   12.10   35.17          41.38   15.98  -51.58          53.99  287.22
H20        41.62   42.14   15.50          70.96    3.03   35.40          35.53   85.11
H21        31.21   32.53   20.60          63.78   -0.60   11.62          11.63   92.97
H22        35.25   38.47   11.42          68.37   -6.12   42.02          42.46   98.29
I1          4.38    4.49    5.91          25.23    0.75  -11.95          11.98  273.59
I2          4.42    4.47    8.78          25.15    1.51  -23.82          23.87  273.64
I3          4.51    4.52   12.15          25.32    2.03  -34.37          34.43  273.38
I4          4.72    4.63   20.88          25.65    3.38  -54.68          54.79  273.53
I5         14.26   14.72   15.45          45.24    0.42   -8.82           8.83  272.76
I6         14.59   14.98   19.95          45.61    0.88  -18.37          18.39  272.75
I7         14.37   14.59   24.27          45.07    1.90  -27.73          27.79  273.93
I8         14.93   14.98   37.91          45.61    2.95  -48.10          48.19  273.51
I9         39.95   41.38   37.37          70.44    0.16   -4.54           4.55  272.04
I10        39.70   41.08   40.86          70.23    0.28   -9.55           9.55  271.66
I11        40.07   41.21   45.47          70.32    1.04  -15.13          15.17  273.92
I12        40.24   41.29   55.48          70.38    1.33  -26.27          26.31  272.89
I13        22.76   34.28   50.64          65.18  -40.90  -29.99          50.72  216.25
I14        36.52   21.98   39.19          54.01   59.99  -35.34          69.63  329.50
I15        60.83   60.54    8.50          82.13    5.85   75.43          75.66   85.57
I16         5.09    5.31    4.38          27.59   -0.37    0.02           0.47  190.40
I17        27.85   17.50    5.05          48.88   50.86   33.03          60.64   33.00
I18        13.78   23.57    7.16          55.65  -47.45   35.00          58.97  143.59
I19        10.14    7.96   30.30          33.89   20.97  -57.20          60.92  290.13
I20        42.10   46.27   16.10          73.72   -7.42   38.70          39.41  100.85
I21        11.04   14.84    3.51          45.41  -21.90   36.04          42.17  121.28
I22        28.49   37.01   17.54          67.28  -25.94   24.23          35.50  136.95
J1          2.13    1.86    3.00          14.75    7.77  -13.21          15.33  300.46
J2          2.48    1.92    4.96          15.06   13.64  -24.82          28.32  298.79
J3          2.82    1.84    7.85          14.64   21.91  -38.46          44.26  299.68
J4          3.83    1.92   17.94          15.09   36.60  -66.67          76.06  298.77
J5         11.62   11.33   12.47          40.13    5.02   -9.75          10.97  297.23
J6         12.43   11.33   16.17          40.13   10.65  -19.40          22.14  298.78
J7         13.18   11.28   20.27          40.05   15.93  -28.61          32.74  299.11
J8         15.36   11.35   34.12          40.17   28.95  -52.16          59.65  299.03
J9         40.53   41.17   37.64          70.29    2.59   -5.17           5.78  296.57
J10        41.41   41.17   40.82          70.30    5.25   -9.39          10.76  299.22
J11        42.06   40.98   44.58          70.16    7.83  -14.33          16.33  298.64
J12        44.22   40.95   54.72          70.14   14.30  -25.89          29.57  298.91
J13        18.60   29.51   47.03          61.23  -44.01  -32.66          54.80  216.58
J14        31.84   17.33   34.53          48.67   66.83  -38.08          76.92  330.32
J15        58.96   57.60    5.57          80.52    8.37   85.00          85.41   84.38
J16         2.72    2.83    2.35          19.34   -0.07   -0.17           0.29  242.44
J17        23.92   13.75    2.78          43.88   56.10   38.65          68.13   34.57
J18        10.07   18.86    4.53          50.53  -51.31   38.70          64.27  142.97
J19         7.04    4.77   25.37          26.08   27.60  -62.43          68.26  293.85
J20        30.21   39.09   22.42          68.81  -25.99   16.70          30.89  147.28
J21         4.49    8.38    1.51          34.76  -38.89   34.83          52.21  138.15
J22         1.38    2.22    0.91          16.58  -18.97   11.68          22.28  148.38
K1          5.24    4.40    5.26          24.94   12.91   -9.28          15.90  324.29
K2          6.48    4.40    7.46          24.94   26.84  -19.18          32.99  324.46
K3          7.76    4.33    9.81          24.75   40.23  -28.09          49.07  325.08
K4          9.73    4.29   14.02          24.61   57.75  -40.75          70.68  324.79
K5         15.80   14.44   14.88          44.85   11.30   -8.06          13.88  324.48
K6         17.97   14.55   18.60          45.01   22.59  -16.53          27.99  323.81
K7         20.24   14.53   22.45          44.98   34.29  -24.44          42.11  324.52
K8         26.27   14.60   33.54          45.08   60.85  -42.83          74.41  324.86
K9         41.84   41.16   37.21          70.29    6.61   -4.60           8.06  325.19
K10        44.11   41.30   40.49          70.38   12.92   -8.81          15.64  325.72
K11        46.42   41.26   43.98          70.36   19.65  -13.26          23.70  325.98
K12        51.80   41.33   53.20          70.41   34.03  -23.80          41.53  325.03
K13        15.00   24.98   42.98          57.05  -45.96  -34.96          57.74  217.26
K14        27.49   13.51   29.94          43.53   72.50  -40.01          82.81  331.11
K15        56.44   53.83    3.27          78.36   11.52   94.49          95.19   83.05
K16         1.29    1.33    1.05          11.52   -0.04    0.77           0.79   93.00
K17        20.40   10.79    1.25          39.23   59.87   45.75          75.35   37.38
K18         7.02   14.45    2.55          44.87  -53.60   42.17          68.20  141.80
K19         4.92    2.73   20.79          18.93   34.87  -66.10          74.73  297.81
K20         2.45    3.19    1.96          20.78  -11.52    5.92          12.95  152.80
K21         1.37    1.86    1.53          14.71  -11.24   -0.04          11.25  180.21
K22         1.72    2.22    2.95          16.61   -9.95   -9.67          13.88  224.19
L1          3.60    2.96    2.73          19.89   12.45   -2.29          12.67  349.57
L2          4.45    2.92    2.99          19.72   25.30   -4.57          25.72  349.76
L3          5.63    3.08    3.48          20.37   37.26   -6.90          37.89  349.51
L4          6.67    3.31    3.93          21.26   44.67   -8.26          45.43  349.52
L5         12.93   11.07   10.04          39.70   15.81   -3.06          16.10  349.05
L6         15.57   11.22   11.00          39.95   31.15   -5.69          31.66  349.65
L7         18.42   11.17   11.93          39.86   47.18   -8.64          47.97  349.63
L8         22.69   11.35   13.34          40.17   66.58  -12.12          67.67  349.68
L9         42.34   41.19   34.80          70.31    8.00   -1.17           8.09  351.72
L10        44.73   41.26   35.70          70.36   14.82   -2.36          15.01  350.94
L11        47.37   41.34   36.87          70.41   22.07   -3.91          22.41  349.96
L12        50.58   41.51   37.87          70.53   30.26   -5.07          30.69  350.49
L13         9.73   17.19   34.20          48.50  -45.25  -37.90          59.03  219.95
L14        21.62    9.29   23.18          36.54   77.28  -40.40          87.20  332.40
L15        49.68   44.81    1.42          72.77   18.23  101.42         103.05   79.81
L16         0.33    0.34    0.28           3.04    0.21   -0.06           0.22  343.70
L17        15.48    7.36    0.32          32.62   62.16   50.15          79.87   38.90
L18         3.22    7.81    0.97          33.57  -52.65   40.00          66.12  142.77
L19         2.83    1.09   13.96           9.73   43.39  -66.26          79.20  303.22
L20         0.68    0.74    0.75           6.69   -1.22   -2.70           2.96  245.69
L21         0.95    0.90    0.96           8.10    3.50   -3.77           5.15  312.90
L22         1.99    1.59    1.34          13.14   11.60   -0.42          11.61  317.92
GS0        78.41   81.34   68.61          92.28   -0.04   -1.37           1.37  268.39
GS1        69.00   71.56   58.76          87.76    0.00    0.29           0.30   93.49
