targets/wolf_faust/reflective/R090405.it8
IT8.7/2
ORIGINATOR "Wolf Faust"
DESCRIPTOR "Kodak Professional Paper, L* a* b* (light D50, viewing angle 2)"
MANUFACTURER "Wolf Faust - http://www.coloraid.de"
CREATED "May 05, 2009"
PROD_DATE "2009:04"
SAMPLE_BACKING "black"
SERIAL "5x7 R090405 Batch Average Data"
MATERIAL "Kodak Professional Ultra Endura"
KEYWORD "MEAN_DE" # Mean Delta E of samples compared to batch average
NUMBER_OF_FIELDS 18
BEGIN_DATA_FORMAT
SAMPLE_ID  XYZ_X   XYZ_Y   XYZ_Z          LAB_L   LAB_A   LAB_B          LAB_C   LAB_H          D_RED  D_GREEN  D_BLUE  D_VIS          STDEV_X STDEV_Y STDEV_Z        MEAN_DE  STDEV_DE
END_DATA_FORMAT
NUMBER_OF_SETS 288
BEGIN_DATA
A1          3.31    2.80    1.80          19.24   10.60    4.90          11.67   24.82           1.39    1.66    1.64    1.51            0.06    0.05    0.04           0.25     0.30
A2          4.08    2.76    1.47          19.07   23.05    8.22          24.47   19.62           1.24    1.84    1.73    1.48            0.05    0.03    0.03           0.27     0.33 
A3          5.04    2.84    1.28          19.39   34.39   11.19          36.17   18.03           1.12    2.08    1.80    1.43            0.11    0.07    0.02           0.28     0.39
A4          5.92    3.18    1.31          20.75   38.87   13.04          41.00   18.55           1.05    2.12    1.79    1.37            0.10    0.06    0.01           0.36     0.44 
A5         12.35   10.87    7.54          39.35   13.46    5.35          14.48   21.69           0.82    1.05    1.03    0.94            0.09    0.07    0.04           0.17     0.20
A6         14.38   10.65    6.36          38.98   28.17    9.71          29.80   19.01           0.70    1.17    1.11    0.91            0.16    0.14    0.14           0.28     0.34 
A7         16.83   10.75    5.68          39.16   41.66   13.12          43.68   17.48           0.60    1.31    1.16    0.88            0.17    0.12    0.09           0.31     0.37
A8         20.32   10.70    4.47          39.08   60.17   19.30          63.19   17.78           0.51    1.61    1.27    0.84            0.05    0.04    0.05           0.17     0.22 
A9         39.98   39.50   30.79          69.12    5.97    2.77           6.58   24.93           0.35    0.42    0.43    0.40            0.12    0.13    0.11           0.20     0.24
A10        42.22   39.62   29.60          69.20   12.45    4.79          13.34   21.05           0.31    0.45    0.45    0.39            0.18    0.19    0.23           0.18     0.22
A11        44.63   39.77   28.30          69.30   19.08    7.08          20.35   20.37           0.26    0.47    0.47    0.37            0.15    0.15    0.18           0.18     0.21
A12        47.25   39.65   27.09          69.22   26.87    8.96          28.33   18.45           0.22    0.51    0.48    0.37            0.10    0.14    0.17           0.19     0.24 
A13        73.61   77.44   67.38          90.52   -2.18   -3.27           3.93  236.32           0.12    0.10    0.09    0.11            0.08    0.08    0.09           0.07     0.08
A14        75.26   77.54   67.30          90.57    1.00   -3.11           3.27  287.79           0.11    0.11    0.09    0.11            0.13    0.12    0.09           0.05     0.07 
A15        75.30   78.50   63.16          91.01   -0.80    1.55           1.74  117.33           0.10    0.10    0.12    0.11            0.06    0.07    0.07           0.06     0.08
A16        75.17   78.06   64.74          90.81   -0.20   -0.30           0.36  235.91           0.10    0.10    0.11    0.11            0.14    0.13    0.09           0.09     0.11
A17        74.13   76.33   63.13          90.01    1.08   -0.14           1.10  352.74           0.11    0.12    0.12    0.12            0.10    0.11    0.12           0.08     0.10
A18        72.67   76.65   62.07          90.16   -2.56    1.14           2.80  155.93           0.12    0.11    0.13    0.12            0.14    0.14    0.05           0.10     0.12 
A19        73.73   76.49   67.09          90.09   -0.05   -3.75           3.75  269.21           0.12    0.11    0.09    0.12            0.01    0.01    0.06           0.04     0.05
A20         1.26    1.02    0.62           9.12    9.61    4.04          10.42   22.79           1.83    2.13    2.10    1.94            0.01    0.00    0.00           0.13     0.16 
A21         4.99    3.15    0.66          20.62   28.44   23.05          36.61   39.02           1.12    1.90    2.06    1.40            0.05    0.04    0.01           0.18     0.22
A22         9.80    5.56    0.73          28.27   42.48   34.99          55.04   39.48           0.81    1.82    2.02    1.14            0.06    0.04    0.01           0.18     0.21
B1          3.20    2.82    1.41          19.32    8.48    9.36          12.63   47.82           1.41    1.64    1.74    1.51            0.03    0.02    0.02           0.20     0.24
B2          3.70    2.77    0.89          19.08   17.49   16.36          23.95   43.10           1.29    1.77    1.93    1.49            0.06    0.05    0.02           0.30     0.35
B3          4.33    2.80    0.54          19.24   25.85   22.98          34.59   41.63           1.19    1.92    2.14    1.46            0.06    0.04    0.01           0.27     0.32
B4          4.93    3.04    0.49          20.19   29.55   25.65          39.13   40.96           1.12    1.95    2.19    1.41            0.04    0.02    0.01           0.19     0.23
B5         12.40   10.76    5.48          39.17   14.62   14.15          20.34   44.05           0.80    1.07    1.16    0.93            0.11    0.09    0.08           0.23     0.28
B6         14.23   10.73    3.61          39.12   26.66   24.54          36.24   42.63           0.69    1.17    1.34    0.91            0.08    0.07    0.05           0.17     0.20
B7         16.63   10.81    2.13          39.25   40.14   36.19          54.05   42.03           0.59    1.32    1.56    0.87            0.11    0.08    0.04           0.19     0.24
B8         19.80   10.79    0.92          39.23   56.92   50.55          76.13   41.60           0.51    1.60    1.91    0.84            0.09    0.06    0.01           0.14     0.17
B9         39.88   39.77   28.85          69.31    4.83    6.20           7.86   52.04           0.35    0.42    0.45    0.39            0.12    0.12    0.13           0.11     0.13
B10        41.61   39.45   25.59          69.08   11.13   11.31          15.87   45.48           0.31    0.45    0.51    0.39            0.14    0.12    0.15           0.19     0.23
B11        43.93   39.63   22.86          69.21   17.47   16.54          24.06   43.42           0.26    0.48    0.55    0.37            0.15    0.17    0.22           0.26     0.31
B12        46.31   39.57   19.70          69.17   24.46   22.78          33.42   42.96           0.22    0.51    0.62    0.36            0.10    0.11    0.12           0.22     0.26
B13        67.92   73.37   66.44          88.62   -6.08   -5.68           8.31  223.06           0.18    0.11    0.10    0.14            0.09    0.06    0.06           0.08     0.10
B14        71.39   70.88   65.22          87.43    6.53   -6.59           9.27  314.73           0.12    0.16    0.11    0.15            0.07    0.07    0.09           0.09     0.11
B15        73.19   76.59   54.62          90.13   -1.37    8.70           8.80   98.94           0.11    0.12    0.18    0.11            0.13    0.13    0.21           0.17     0.21
B16        60.77   63.17   51.90          83.53   -0.33    0.25           0.42  141.79           0.20    0.20    0.20    0.20            0.14    0.13    0.13           0.12     0.15
B17        68.14   68.05   52.80          86.03    5.58    3.58           6.63   32.66           0.12    0.18    0.20    0.16            0.06    0.08    0.02           0.10     0.12
B18        65.10   70.87   53.69          87.42   -7.15    5.01           8.73  144.98           0.18    0.13    0.19    0.15            0.12    0.10    0.06           0.09     0.11
B19        63.86   65.88   64.09          84.94    0.77   -9.82           9.85  274.46           0.19    0.17    0.12    0.19            0.14    0.16    0.07           0.11     0.14
B20         2.61    1.86    0.60          14.72   17.69   14.11          22.63   38.58           1.44    1.98    2.10    1.65            0.03    0.02    0.00           0.19     0.23
B21         7.98    4.64    0.69          25.68   38.24   31.17          49.34   39.18           0.90    1.85    2.04    1.22            0.05    0.03    0.01           0.14     0.17
B22        28.18   24.04   11.05          56.13   20.92   22.05          30.39   46.50           0.43    0.73    0.86    0.58            0.20    0.18    0.17           0.22     0.28
C1          4.31    4.15    1.97          24.17    4.29   11.65          12.42   69.80           1.30    1.43    1.59    1.36            0.02    0.02    0.03           0.21     0.25
C2          4.59    4.16    1.20          24.19    7.94   20.48          21.97   68.82           1.24    1.47    1.79    1.34            0.10    0.09    0.03           0.32     0.41
C3          5.02    4.26    0.66          24.51   12.08   29.86          32.21   67.97           1.17    1.51    2.04    1.32            0.03    0.02    0.00           0.23     0.27
C4          5.48    4.59    0.63          25.54   13.16   32.07          34.66   67.69           1.13    1.49    2.05    1.28            0.03    0.02    0.00           0.11     0.15
C5         22.89   21.89   10.07          53.91    8.27   21.34          22.88   68.83           0.55    0.71    0.90    0.64            0.22    0.21    0.12           0.22     0.28
C6         25.17   22.20    5.18          54.24   16.79   41.62          44.88   68.03           0.47    0.76    1.17    0.61            0.13    0.13    0.05           0.17     0.20
C7         26.89   21.83    2.14          53.84   25.64   61.23          66.38   67.28           0.42    0.84    1.53    0.60            0.12    0.13    0.02           0.15     0.19
C8         28.47   22.08    1.09          54.11   30.75   73.55          79.72   67.31           0.38    0.88    1.82    0.59            0.17    0.15    0.02           0.23     0.27
C9         46.52   47.02   31.61          74.20    3.36   10.27          10.81   71.89           0.28    0.34    0.41    0.32            0.11    0.11    0.12           0.14     0.17
C10        47.97   47.08   26.10          74.24    7.20   19.32          20.61   69.55           0.25    0.36    0.49    0.31            0.11    0.11    0.16           0.17     0.22
C11        49.45   47.09   21.34          74.24   11.23   28.17          30.33   68.27           0.22    0.38    0.58    0.30            0.10    0.13    0.12           0.18     0.23
C12        50.91   46.67   15.88          73.98   16.30   39.67          42.89   67.66           0.18    0.41    0.70    0.30            0.11    0.12    0.13           0.21     0.25
C13        59.31   66.90   64.84          85.45  -12.06   -9.64          15.44  218.63           0.27    0.13    0.11    0.19            0.06    0.05    0.01           0.06     0.07
C14        66.12   62.29   62.34          83.07   13.91  -11.34          17.95  320.79           0.14    0.24    0.13    0.20            0.09    0.08    0.08           0.06     0.07
C15        70.54   73.96   44.07          88.90   -1.63   18.61          18.68   95.01           0.11    0.14    0.27    0.13            0.08    0.09    0.14           0.11     0.13
C16        47.00   48.95   39.72          75.42   -0.56    0.89           1.05  122.26           0.31    0.31    0.32    0.31            0.24    0.26    0.21           0.13     0.17
C17        60.66   57.76   41.15          80.60   12.03    7.96          14.42   33.48           0.15    0.28    0.30    0.22            0.10    0.11    0.23           0.16     0.21
C18        54.49   62.37   42.73          83.11  -13.82   10.28          17.22  143.37           0.27    0.17    0.28    0.21            0.16    0.15    0.21           0.18     0.23
C19        52.09   53.29   59.95          78.05    1.86  -17.64          17.74  276.01           0.29    0.26    0.15    0.28            0.16    0.12    0.04           0.14     0.17
C20         1.56    1.31    0.58          11.36    8.67    8.69          12.28   45.04           1.72    2.00    2.12    1.83            0.02    0.02    0.01           0.22     0.26
C21        22.10   16.65    4.30          47.81   30.91   35.30          46.92   48.79           0.50    0.99    1.26    0.71            0.10    0.09    0.03           0.15     0.18
C22        33.75   30.86   16.28          62.39   14.47   18.73          23.67   52.32           0.38    0.58    0.70    0.48            0.14    0.12    0.16           0.21     0.25
D1          3.99    4.16    2.00          24.18   -0.20   11.41          11.41   90.99           1.36    1.39    1.58    1.37            0.05    0.04    0.02           0.23     0.28
D2          4.00    4.19    1.22          24.29   -0.55   20.33          20.34   91.56           1.35    1.40    1.78    1.36            0.05    0.05    0.01           0.22     0.28
D3          3.89    4.13    0.68          24.10   -1.41   28.64          28.67   92.81           1.36    1.41    2.02    1.36            0.04    0.03    0.01           0.16     0.20
D4          4.54    4.85    0.72          26.30   -1.85   31.74          31.80   93.34           1.29    1.34    1.99    1.29            0.03    0.03    0.00           0.16     0.20
D5         25.80   27.12   13.06          59.08   -1.45   21.28          21.33   93.89           0.54    0.58    0.79    0.56            0.16    0.17    0.08           0.17     0.21
D6         25.55   26.99    7.02          58.96   -1.97   41.30          41.35   92.73           0.52    0.59    1.04    0.55            0.24    0.21    0.05           0.27     0.34
D7         25.52   26.98    3.34          58.96   -2.05   60.56          60.60   91.94           0.52    0.61    1.34    0.55            0.16    0.18    0.06           0.21     0.25
D8         25.68   27.30    1.47          59.25   -2.65   77.53          77.58   91.96           0.53    0.61    1.71    0.54            0.18    0.17    0.02           0.22     0.27
D9         52.76   55.10   37.43          79.10   -0.96   10.30          10.34   95.34           0.24    0.26    0.34    0.26            0.20    0.21    0.24           0.15     0.19
D10        52.75   55.17   29.91          79.14   -1.14   21.42          21.45   93.05           0.23    0.27    0.43    0.25            0.14    0.15    0.16           0.14     0.17
D11        52.47   54.93   23.84          79.00   -1.29   31.58          31.60   92.34           0.22    0.28    0.53    0.25            0.12    0.11    0.12           0.13     0.16
D12        52.24   55.01   10.62          79.05   -2.09   62.91          62.95   91.90           0.21    0.30    0.86    0.24            0.18    0.18    0.13           0.23     0.28
D13        51.24   60.44   62.89          82.08  -17.75  -13.59          22.36  217.42           0.37    0.16    0.12    0.24            0.09    0.06    0.04           0.11     0.14
D14        60.73   53.93   59.00          78.42   21.60  -16.04          26.91  323.39           0.16    0.32    0.16    0.25            0.10    0.10    0.11           0.07     0.09
D15        68.12   71.28   34.86          87.62   -1.32   28.58          28.62   92.65           0.12    0.16    0.37    0.14            0.04    0.03    0.21           0.23     0.30
D16        35.73   37.27   29.75          67.48   -0.68    1.59           1.73  113.22           0.43    0.42    0.44    0.43            0.22    0.22    0.18           0.14     0.18
D17        53.60   48.47   31.46          75.12   18.37   12.09          21.99   33.35           0.18    0.38    0.42    0.29            0.11    0.16    0.14           0.19     0.22
D18        44.86   54.14   33.25          78.54  -20.10   15.28          25.25  142.75           0.37    0.22    0.39    0.28            0.11    0.11    0.09           0.08     0.09
D19        41.70   42.12   55.16          70.95    3.34  -24.96          25.18  277.63           0.41    0.36    0.19    0.39            0.16    0.15    0.11           0.14     0.17
D20        13.30   10.13    2.46          38.08   25.27   31.24          40.18   51.03           0.72    1.20    1.49    0.93            0.07    0.06    0.01           0.17     0.21
D21        20.77   20.24   10.92          52.11    6.17   15.51          16.69   68.29           0.61    0.73    0.86    0.68            0.13    0.13    0.08           0.20     0.24
D22        36.87   35.36   18.94          66.03    9.34   18.97          21.14   63.79           0.35    0.50    0.63    0.43            0.16    0.18    0.14           0.20     0.24
E1          3.62    4.13    2.03          24.09   -5.32   10.96          12.19  115.89           1.44    1.36    1.57    1.38            0.04    0.04    0.02           0.15     0.19
E2          3.35    4.19    1.28          24.29  -10.42   19.54          22.15  118.08           1.50    1.33    1.75    1.38            0.04    0.05    0.01           0.23     0.28
E3          3.03    4.14    0.74          24.14  -15.29   27.63          31.58  118.96           1.59    1.31    1.98    1.39            0.02    0.03    0.01           0.18     0.21
E4          3.32    4.54    0.76          25.40  -15.74   29.39          33.35  118.18           1.54    1.27    1.97    1.35            0.04    0.06    0.01           0.23     0.27
E5         12.23   13.97    7.21          44.19   -8.22   15.05          17.15  118.64           0.90    0.83    1.04    0.86            0.05    0.04    0.03           0.16     0.19
E6         11.09   13.86    4.19          44.03  -15.62   29.45          33.34  117.94           0.97    0.81    1.25    0.86            0.10    0.12    0.04           0.22     0.26
E7         10.20   13.93    2.36          44.14  -22.73   42.54          48.23  118.12           1.04    0.79    1.49    0.87            0.06    0.09    0.03           0.15     0.19
E8          9.34   13.97    1.26          44.19  -29.79   54.14          61.80  118.82           1.15    0.77    1.76    0.87            0.07    0.08    0.01           0.22     0.27
E9         36.65   39.49   27.15          69.11   -4.66    8.67           9.85  118.24           0.42    0.39    0.48    0.40            0.07    0.07    0.11           0.14     0.18
E10        35.55   39.87   22.90          69.37   -9.47   16.74          19.24  119.49           0.43    0.38    0.55    0.40            0.17    0.20    0.12           0.14     0.17
E11        34.17   39.70   19.03          69.26  -13.66   24.36          27.92  119.28           0.46    0.37    0.62    0.40            0.11    0.10    0.08           0.14     0.17
E12        31.20   39.64   10.97          69.22  -24.03   44.86          50.89  118.17           0.52    0.36    0.85    0.41            0.16    0.16    0.14           0.25     0.30
E13        43.78   54.18   60.65          78.57  -23.30  -17.45          29.10  216.83           0.48    0.18    0.14    0.30            0.13    0.10    0.09           0.15     0.19
E14        55.23   45.94   55.26          73.50   29.46  -20.65          35.98  324.96           0.19    0.42    0.19    0.32            0.02    0.03    0.04           0.05     0.06
E15        65.96   68.66   27.57          86.34   -0.55   37.67          37.67   90.84           0.12    0.19    0.47    0.15            0.07    0.08    0.14           0.13     0.18
E16        26.43   27.63   21.95          59.55   -0.83    1.64           1.84  116.95           0.56    0.55    0.57    0.56            0.12    0.13    0.12           0.14     0.16
E17        47.05   40.05   23.46          69.51   25.07   15.92          29.69   32.41           0.22    0.50    0.54    0.36            0.11    0.15    0.14           0.19     0.24
E18        36.42   46.51   25.67          73.88  -25.99   19.45          32.46  143.19           0.49    0.27    0.49    0.35            0.18    0.18    0.13           0.17     0.20
E19        32.70   32.30   50.04          63.59    5.61  -32.06          32.55  279.93           0.54    0.47    0.23    0.51            0.14    0.12    0.12           0.11     0.15
E20        23.86   16.42    1.12          47.52   40.13   61.79          73.68   57.00           0.44    1.10    1.81    0.70            0.09    0.08    0.01           0.13     0.15
E21        16.47   13.61    2.41          43.66   20.27   41.27          45.98   63.85           0.64    1.02    1.49    0.81            0.10    0.08    0.04           0.17     0.21
E22        28.58   24.60    7.61          56.68   20.07   34.97          40.32   60.15           0.41    0.73    1.01    0.57            0.08    0.09    0.02           0.15     0.18
F1          1.39    1.77    1.13          14.25   -8.61    4.29           9.62  153.50           1.95    1.68    1.82    1.77            0.01    0.01    0.01           0.17     0.21
F2          1.08    1.75    0.92          14.09  -17.76    7.24          19.18  157.83           2.20    1.62    1.90    1.80            0.02    0.02    0.02           0.15     0.18
F3          1.05    1.99    0.90          15.43  -24.81    9.84          26.69  158.37           2.33    1.52    1.90    1.76            0.02    0.03    0.01           0.26     0.30
F4          1.14    2.27    1.01          16.84  -27.54   10.46          29.46  159.20           2.34    1.46    1.85    1.71            0.02    0.03    0.01           0.31     0.36
F5          6.50    8.11    5.49          34.21  -12.92    5.54          14.06  156.79           1.25    1.03    1.16    1.11            0.06    0.08    0.06           0.17     0.20
F6          5.28    8.07    4.53          34.13  -26.29   10.44          28.28  158.34           1.46    0.97    1.23    1.13            0.03    0.05    0.03           0.14     0.17
F7          4.29    8.10    3.73          34.19  -39.11   15.27          41.98  158.67           1.72    0.92    1.30    1.15            0.04    0.07    0.04           0.17     0.21
F8          3.39    8.19    3.00          34.37  -53.25   20.56          57.08  158.89           2.14    0.87    1.38    1.16            0.04    0.07    0.04           0.23     0.27
F9         36.30   39.69   30.73          69.25   -6.41    3.09           7.12  154.23           0.44    0.38    0.43    0.41            0.18    0.20    0.29           0.22     0.28
F10        34.69   39.73   29.46          69.28  -11.95    5.15          13.01  156.67           0.48    0.36    0.44    0.41            0.11    0.09    0.15           0.19     0.23
F11        33.08   39.79   28.42          69.32  -17.74    6.92          19.04  158.70           0.52    0.35    0.46    0.42            0.24    0.24    0.26           0.23     0.27
F12        28.59   39.71   24.93          69.26  -34.09   12.80          36.42  159.42           0.66    0.30    0.51    0.43            0.18    0.17    0.17           0.19     0.24
F13        37.05   48.17   57.96          74.93  -28.44  -21.00          35.35  216.44           0.60    0.21    0.16    0.36            0.12    0.13    0.11           0.12     0.14
F14        49.64   38.29   51.07          68.24   37.66  -25.20          45.32  326.21           0.23    0.53    0.23    0.39            0.16    0.18    0.14           0.16     0.21
F15        63.79   65.86   21.12          84.93    0.64   47.02          47.03   89.22           0.13    0.21    0.58    0.16            0.09    0.08    0.10           0.22     0.27
F16        18.67   19.52   15.66          51.28   -0.74    1.07           1.31  125.20           0.71    0.70    0.72    0.71            0.07    0.07    0.13           0.21     0.24
F17        41.03   32.63   16.94          63.86   31.85   19.72          37.46   31.76           0.25    0.63    0.68    0.44            0.07    0.08    0.19           0.28     0.36
