targets/wolf_faust/reflective/R090702WhiteBacking.it8
IT8.7/2
ORIGINATOR "Wolf Faust"
DESCRIPTOR "FUJICOLOR Crystal Archive Paper, L* a* b* (light D50, viewing angle 2)"
MANUFACTURER "Wolf Faust - http://www.coloraid.de"
CREATED "September 08, 2009"
PROD_DATE "2009:07"
SAMPLE_BACKING "white"
SERIAL "5x7 R090702 Batch Average Data"
MATERIAL "FUJICOLOR Crystal Archive DP II Paper"
NUMBER_OF_FIELDS 9
BEGIN_DATA_FORMAT
SAMPLE_ID  XYZ_X   XYZ_Y   XYZ_Z          LAB_L   LAB_A   LAB_B          LAB_C   LAB_H
END_DATA_FORMAT
NUMBER_OF_SETS 288
BEGIN_DATA
A1          3.36    2.81    1.93          19.28   11.21    3.60          11.78   17.80
A2          4.24    2.87    1.66          19.52   23.40    6.91          24.40   16.44 
A3          5.25    2.93    1.35          19.76   35.35   10.93          37.01   17.18
A4          5.88    3.19    1.39          20.79   38.23   12.16          40.11   17.65 
A5         12.64   10.99    7.87          39.56   14.53    4.42          15.19   16.90
A6         14.91   11.05    6.84          39.66   28.48    8.78          29.81   17.14 
A7         17.10   10.78    5.87          39.21   42.91   12.33          44.64   16.03
A8         21.67   11.20    4.70          39.91   62.98   19.45          65.91   17.16 
A9         40.88   39.91   30.99          69.40    7.52    2.95           8.08   21.46
A10        43.52   40.18   30.20          69.60   14.56    4.53          15.26   17.30
A11        46.02   40.22   28.77          69.63   21.67    6.88          22.74   17.61
A12        49.14   40.25   27.11          69.65   30.22    9.66          31.73   17.73 
A13        77.58   81.42   70.16          92.32   -1.85   -2.71           3.28  235.64
A14        79.25   81.22   69.90          92.23    1.86   -2.63           3.23  305.29 
A15        79.56   82.73   65.69          92.90   -0.42    2.39           2.43  100.07
A16        79.65   82.51   67.47          92.80    0.18    0.57           0.60   72.16
A17        78.25   80.31   65.85          91.82    1.63    0.40           1.68   13.76
A18        76.47   80.62   64.15          91.96   -2.56    2.25           3.41  138.66 
A19        77.82   80.36   69.84          91.84    0.68   -3.24           3.31  281.80
A20         1.29    1.02    0.63           9.14   10.46    3.96          11.19   20.71 
A21         5.09    3.18    0.70          20.76   29.17   22.59          36.90   37.75
A22        10.00    5.62    0.73          28.42   43.45   35.19          55.91   39.00
B1          3.29    2.88    1.58          19.56    8.91    7.76          11.81   41.04
B2          3.81    2.85    0.99          19.44   17.57   15.35          23.33   41.15
B3          4.37    2.80    0.59          19.21   26.44   21.93          34.35   39.67
B4          4.88    3.05    0.57          20.22   28.78   24.05          37.51   39.88
B5         12.61   10.90    5.68          39.41   14.95   13.60          20.21   42.28
B6         14.47   10.85    3.80          39.33   27.17   23.73          36.08   41.13
B7         16.94   10.92    2.16          39.44   41.08   36.23          54.78   41.41
B8         21.27   11.36    0.91          40.17   60.00   52.40          79.66   41.13
B9         40.26   39.53   28.52          69.13    6.76    6.43           9.33   43.57
B10        42.72   39.89   25.88          69.39   13.12   11.34          17.35   40.82
B11        45.16   40.26   22.81          69.65   19.10   17.40          25.84   42.32
B12        48.31   40.30   19.58          69.68   27.81   23.90          36.68   40.68
B13        72.99   78.22   69.54          90.88   -5.00   -4.63           6.82  222.78
B14        75.42   74.63   68.01          89.22    7.17   -6.11           9.42  319.59
B15        77.77   81.35   57.57          92.29   -1.33    9.32           9.41   98.15
B16        65.38   67.59   55.21          85.80    0.48    0.60           0.77   51.51
B17        72.22   71.83   55.50          87.89    6.29    3.89           7.40   31.70
B18        70.32   76.31   57.23          90.00   -6.86    5.73           8.94  140.14
B19        68.65   70.34   67.22          87.17    1.80   -8.92           9.10  281.41
B20         2.73    1.91    0.63          15.02   18.74   13.98          23.38   36.72
B21         8.16    4.71    0.70          25.89   38.97   31.46          50.08   38.92
B22        28.59   24.22   11.63          56.31   21.73   20.58          29.93   43.45
C1          4.45    4.26    2.20          24.51    4.69   10.12          11.15   65.15
C2          4.75    4.30    1.38          24.64    8.16   18.99          20.67   66.75
C3          5.02    4.25    0.77          24.49   12.24   27.66          30.25   66.14
C4          5.54    4.64    0.79          25.69   13.19   29.39          32.22   65.83
C5         23.42   22.24   10.39          54.27    9.07   20.91          22.80   66.55
C6         25.47   22.32    5.39          54.37   17.52   40.79          44.40   66.76
C7         28.12   22.63    2.33          54.68   26.90   60.97          66.64   66.20
C8         29.16   22.47    1.37          54.52   31.62   70.53          77.29   65.85
C9         47.95   48.03   32.25          74.84    4.55   10.40          11.35   66.38
C10        49.19   47.69   26.16          74.63    8.89   19.89          21.79   65.92
C11        50.94   47.96   21.13          74.80   12.80   29.55          32.21   66.57
C12        53.20   47.85   15.49          74.73   19.00   41.93          46.04   65.63
C13        63.61   71.45   68.24          87.70  -11.72   -8.93          14.73  217.29
C14        69.32   64.58   64.75          84.27   15.73  -11.59          19.54  323.60
C15        75.43   79.32   46.46          91.38   -2.14   19.99          20.10   96.10
C16        49.84   51.59   41.93          77.04    0.25    0.81           0.85   72.44
C17        63.80   60.08   42.76          81.88   13.78    8.12          16.00   30.51
C18        58.38   67.30   45.17          85.65  -15.16   11.66          19.13  142.44
C19        55.52   56.22   62.98          79.74    3.32  -17.71          18.01  280.62
C20         1.65    1.34    0.61          11.58    9.90    8.40          12.98   40.31
C21        23.11   17.51    4.78          48.90   30.85   34.52          46.29   48.21
C22        34.34   31.10   17.04          62.59   15.68   17.29          23.34   47.79
D1          4.07    4.25    2.22          24.50   -0.46    9.86           9.87   92.68
D2          4.08    4.31    1.37          24.66   -1.07   19.08          19.11   93.22
D3          4.08    4.30    0.84          24.65   -1.01   26.71          26.73   92.16
D4          4.51    4.75    0.88          26.02   -0.98   28.39          28.41   91.98
D5         25.90   27.04   13.42          59.01   -0.69   20.15          20.16   91.97
D6         26.18   27.32    7.35          59.27   -0.65   40.46          40.46   90.93
D7         25.81   27.16    3.57          59.12   -1.59   59.35          59.37   91.53
D8         25.90   27.50    1.83          59.43   -2.53   73.91          73.96   91.96
D9         54.51   56.57   37.95          79.94   -0.10   11.04          11.04   90.54
D10        54.61   56.81   30.22          80.07   -0.42   22.55          22.56   91.07
D11        54.51   56.59   24.05          79.95   -0.14   32.83          32.83   90.25
D12        54.68   57.38    7.36          80.39   -1.63   76.85          76.87   91.22
D13        55.02   64.73   66.67          84.35  -17.80  -13.27          22.20  216.71
D14        63.28   55.12   61.00          79.11   24.55  -16.86          29.78  325.53
D15        73.12   76.95   36.42          90.30   -2.23   31.01          31.09   94.12
D16        37.24   38.57   31.22          68.43    0.17    0.93           0.98   79.06
D17        55.96   49.55   31.98          75.79   21.39   12.46          24.75   30.21
D18        48.02   58.83   35.26          81.20  -22.64   16.94          28.28  143.19
D19        43.71   43.37   57.93          71.81    5.61  -26.37          26.96  282.01
D20        13.75   10.51    2.61          38.75   25.21   31.17          40.09   51.03
D21        21.02   20.29   11.38          52.16    7.15   14.18          15.88   63.25
D22        37.49   35.48   19.36          66.12   10.96   18.24          21.28   59.00
E1          3.72    4.25    2.28          24.47   -5.46    9.32          10.80  120.36
E2          3.41    4.23    1.42          24.43  -10.13   18.12          20.77  119.22
E3          3.14    4.23    0.93          24.41  -14.50   24.88          28.80  120.22
E4          3.18    4.31    0.93          24.68  -14.94   25.28          29.37  120.59
E5         12.27   13.95    7.46          44.15   -7.81   13.97          16.00  119.20
E6         11.29   14.04    4.54          44.29  -15.25   27.90          31.79  118.66
E7         10.20   13.96    2.52          44.17  -22.88   41.26          47.17  119.01
E8          9.56   14.05    1.56          44.30  -28.53   50.72          58.19  119.35
E9         37.03   39.80   27.34          69.32   -4.32    8.72           9.74  116.36
E10        35.64   39.62   22.89          69.20   -8.39   16.46          18.48  117.02
E11        34.27   39.67   18.89          69.23  -13.20   24.60          27.92  118.22
E12        30.68   40.51    9.07          69.83  -28.62   52.18          59.51  118.75
E13        47.06   58.00   64.64          80.74  -23.33  -17.57          29.21  216.98
E14        57.24   46.34   56.77          73.76   33.31  -21.79          39.80  326.81
E15        71.16   74.64   28.41          89.23   -1.70   41.26          41.29   92.37
E16        27.25   28.19   23.00          60.06    0.30    0.49           0.62   58.49
E17        49.06   40.68   23.67          69.95   28.67   16.29          32.98   29.60
E18        38.91   50.70   27.29          76.50  -29.22   21.18          36.08  144.07
E19        34.17   32.94   52.69          64.12    8.49  -34.09          35.13  283.98
E20        24.90   17.05    1.19          48.33   41.14   62.29          74.66   56.56
E21        16.75   13.94    2.61          44.14   19.73   40.48          45.03   64.01
E22        28.92   24.89    8.04          56.97   20.16   33.80          39.36   59.18
F1          1.37    1.74    1.24          14.08   -8.68    2.54           9.05  163.68
F2          1.08    1.74    1.01          14.07  -17.66    5.70          18.56  162.11
F3          1.10    1.97    1.03          15.35  -22.54    7.68          23.81  161.19
F4          1.09    1.95    1.01          15.21  -22.29    7.68          23.57  160.99
F5          6.53    8.14    5.86          34.28  -12.95    3.87          13.52  163.36
F6          5.29    8.06    4.78          34.12  -26.07    9.00          27.58  160.95
F7          4.22    7.99    4.06          33.96  -39.23   12.85          41.28  161.86
F8          3.45    8.15    3.32          34.29  -51.99   18.16          55.07  160.75
F9         36.34   39.42   30.83          69.06   -5.46    2.60           6.05  154.53
F10        34.75   39.64   29.64          69.21  -11.48    4.75          12.43  157.51
F11        32.82   39.41   28.22          69.05  -17.50    6.78          18.77  158.82
F12        27.57   40.22   24.31          69.63  -39.70   14.57          42.29  159.85
F13        40.12   51.73   62.45          77.12  -28.09  -21.71          35.50  217.69
F14        51.32   38.41   52.20          68.32   41.74  -26.30          49.34  327.79
F15        69.17   72.01   21.55          87.97   -0.56   51.42          51.43   90.63
F16        19.28   19.87   16.22          51.69    0.62    0.42           0.80   77.67
F17        42.84   33.12   16.97          64.26   35.57   20.33          40.97   29.75
F18        31.04   43.12   20.35          71.63  -35.07   25.68          43.47  143.79
F19        26.23   24.31   47.24          56.39   11.92  -41.25          42.94  286.12
F20        24.68   23.55   11.12          55.63    8.71   20.97          22.71   67.44
F21        32.64   29.34   10.53          61.08   16.23   32.22          36.08   63.27
F22        37.55   34.70   15.29          65.52   13.75   26.53          29.89   62.60
G1          2.17    2.75    2.48          19.02   -9.72   -1.83           9.90  190.66
G2          1.78    2.79    2.74          19.18  -19.52   -3.64          19.86  190.55
G3          1.75    3.15    3.22          20.62  -26.42   -4.71          26.84  190.11
G4          1.69    3.00    3.08          20.03  -25.52   -4.74          25.95  190.53
G5          8.80   10.74    9.75          39.14  -12.56   -3.05          12.93  193.66
G6          7.37   10.58    9.92          38.87  -24.35   -4.11          24.69  189.57
G7          6.10   10.55   10.51          38.81  -37.04   -6.12          37.55  189.37
G8          5.20   10.76   11.42          39.17  -48.93   -8.35          49.63  189.68
G9         36.40   39.71   33.10          69.26   -6.13   -0.49           6.16  184.56
G10        34.32   39.67   34.01          69.23  -13.03   -1.88          13.17  188.23
G11        32.54   39.59   34.69          69.17  -19.01   -2.97          19.24  188.87
G12        27.42   40.22   37.71          69.63  -40.29   -6.42          40.80  189.06
G13        34.21   46.04   60.18          73.57  -32.12  -25.59          41.07  218.54
G14        46.13   31.90   47.81          63.26   49.40  -30.07          57.83  328.67
G15        67.38   69.45   16.26          86.73    0.93   60.74          60.75   89.13
G16        13.35   13.76   11.32          43.88    0.55    0.09           0.61  139.12
G17        37.54   27.03   11.96          59.00   41.83   24.26          48.35   30.11
G18        24.61   36.52   15.11          66.91  -40.24   29.38          49.83  143.87
G19        19.89   17.53   42.04          48.91   15.60  -47.81          50.29  288.07
G20        34.43   32.90   13.97          64.08    9.57   27.44          29.06   70.78
G21        33.55   31.86    9.23          63.23   10.17   40.24          41.51   75.82
G22        47.10   43.08    2.58          71.61   16.14   88.07          89.53   79.62
H1          2.40    2.81    3.18          19.27   -6.04   -6.74           9.06  228.13
H2          2.09    2.78    4.19          19.12  -11.98  -13.50          18.05  228.42
H3          1.92    2.81    5.22          19.24  -16.44  -18.91          25.06  228.98
H4          2.10    3.09    5.88          20.42  -17.28  -20.10          26.51  229.33
H5          9.54   10.93   11.75          39.46   -7.83   -8.81          11.79  228.37
H6          8.42   10.70   14.81          39.07  -15.52  -17.86          23.66  229.01
H7          7.47   10.63   18.37          38.95  -23.71  -26.48          35.54  228.16
H8          6.88   10.83   22.90          39.30  -30.93  -35.12          46.80  228.62
H9         36.83   39.69   36.14          69.25   -4.68   -4.90           6.77  226.33
H10        35.73   39.73   39.70          69.27   -8.44   -9.69          12.85  228.96
H11        34.27   39.71   43.89          69.26  -13.34  -15.04          20.10  228.42
H12        31.51   40.60   57.65          69.90  -25.83  -29.37          39.11  228.66
H13        28.53   40.21   57.27          69.62  -35.87  -29.46          46.41  219.40
H14        41.38   26.42   43.53          58.43   56.31  -33.27          65.40  329.43
H15        65.40   66.43   11.52          85.21    3.03   70.75          70.81   87.54
H16         8.62    8.94    7.23          35.87   -0.02    0.62           0.65   96.34
H17        32.82   21.94    7.78          53.96   47.57   29.61          56.03   31.90
H18        18.81   30.13   10.51          61.77  -45.22   33.47          56.26  143.49
H19        14.75   12.20   37.10          41.53   19.44  -54.03          57.42  289.79
H20        39.47   39.73   14.80          69.27    3.69   34.24          34.44   83.84
H21        29.02   30.01   19.18          61.66    0.34   10.94          10.94   88.24
H22        33.63   36.54   11.03          66.93   -5.49   40.73          41.10   97.67
I1          4.13    4.24    5.57          24.45    0.52  -11.69          11.70  272.51
I2          4.22    4.26    8.40          24.51    1.57  -23.54          23.60  273.82
I3          4.20    4.22   11.54          24.37    1.95  -34.20          34.25  273.26
I4          4.35    4.26   17.92          24.51    3.37  -50.36          50.47  273.82
I5         13.68   14.17   14.74          44.48    0.09   -8.36           8.36  270.64
I6         13.69   13.98   18.90          44.20    1.34  -18.56          18.61  274.13
I7         13.91   14.15   23.49          44.45    1.64  -27.34          27.39  273.44
I8         14.14   14.00   39.15          44.23    4.08  -52.14          52.30  274.47
I9         38.51   39.82   36.04          69.34    0.37   -4.61           4.63  274.57
I10        38.58   39.72   39.64          69.27    0.92   -9.62           9.67  275.46
I11        38.84   39.86   43.75          69.37    1.28  -14.68          14.73  274.99
I12        39.41   40.22   56.76          69.62    2.01  -28.92          28.99  273.97
I13        23.99   35.21   54.33          65.91  -38.61  -32.76          50.63  220.32
I14        36.26   21.01   38.58          52.96   63.68  -36.33          73.31  330.29
I15        63.60   63.58    8.18          83.74    5.30   79.41          79.59   86.18
I16         5.23    5.37    4.47          27.76    0.60   -0.24           0.70  251.19
I17        28.26   17.33    4.75          48.67   53.39   34.31          63.46   32.72
I18        14.37   24.87    7.29          56.95  -49.36   36.70          61.51  143.37
I19        10.65    7.87   31.95          33.72   25.62  -60.05          65.28  293.10
I20        40.38   44.18   15.31          72.35   -6.73   38.24          38.83   99.99
I21        10.49   13.87    3.26          44.04  -20.11   35.44          40.74  119.57
I22        26.90   34.86   16.40          65.64  -25.19   24.03          34.82  136.34
J1          2.00    1.79    2.84          14.32    6.70  -12.80          14.45  297.65
J2          2.35    1.81    4.84          14.44   13.78  -25.21          28.73  298.67
J3          2.69    1.79    7.55          14.32   20.96  -37.87          43.28  298.96
J4          3.84    1.87   18.26          14.77   38.14  -67.92          77.90  299.31
J5         11.28   11.01   11.90          39.59    4.93   -9.02          10.28  298.64
J6         12.22   11.15   15.52          39.82   10.50  -18.34          21.13  299.79
J7         12.92   11.11   19.80          39.76   15.55  -28.15          32.16  298.92
J8         15.24   11.05   35.26          39.66   30.40  -54.67          62.55  299.07
J9         39.40   39.79   36.26          69.32    3.29   -4.95           5.94  303.57
J10        40.20   39.76   39.22          69.30    5.84   -9.01          10.74  302.97
J11        41.33   40.04   43.81          69.50    8.49  -14.53          16.83  300.28
J12        43.81   39.98   55.71          69.46   16.05  -28.11          32.37  299.72
J13        19.74   30.17   50.84          61.80  -40.69  -36.03          54.35  221.53
J14        31.84   16.81   34.05          48.03   69.62  -38.50          79.55  331.05
J15        61.30   60.03    5.40          81.85    8.15   88.10          88.47   84.72
J16         2.81    2.89    2.35          19.59    0.50    0.31           0.62   74.27
J17        24.38   13.78    2.59          43.91   57.92   40.24          70.52   34.79
J18        10.43   19.76    4.68          51.56  -52.95   39.64          66.15  143.18
J19         7.59    4.84   27.13          26.28   31.99  -65.13          72.57  296.16
J20        28.94   37.49   21.34          67.64  -25.74   16.79          30.73  146.89
J21         4.06    7.74    1.40          33.43  -39.11   33.78          51.68  139.18
J22         1.20    1.93    0.83          15.11  -18.24   10.49          21.04  150.09
K1          5.05    4.25    4.99          24.48   12.62   -8.71          15.34  325.41
K2          6.35    4.31    7.08          24.67   26.65  -18.08          32.20  325.84
K3          7.61    4.27    9.45          24.54   39.76  -27.22          48.18  325.60
K4          9.05    4.29   12.29          24.62   52.13  -35.99          63.35  325.38
K5         15.63   14.31   14.62          44.68   11.09   -7.69          13.50  325.26
K6         17.73   14.39   17.85          44.79   22.33  -15.25          27.04  325.67
K7         19.83   14.26   21.47          44.61   33.87  -23.17          41.04  325.62
K8         26.70   14.57   33.69          45.04   62.80  -43.12          76.18  325.52
K9         40.81   40.07   36.09          69.52    6.80   -4.37           8.08  327.29
K10        43.32   40.30   38.96          69.68   13.64   -8.01          15.82  329.59
K11        45.49   40.23   42.89          69.63   20.12  -13.16          24.04  326.82
K12        52.37   40.53   53.70          69.84   37.94  -25.31          45.61  326.29
K13        15.83   25.13   46.54          57.20  -41.76  -39.03          57.16  223.07
K14        27.56   13.26   29.38          43.16   74.38  -39.76          84.34  331.87
K15        58.90   56.36    3.58          79.82   11.23   94.92          95.58   83.25
K16         1.28    1.31    1.10          11.37    0.33   -0.20           0.43  196.49
K17        20.66   10.78    1.24          39.20   61.28   45.88          76.55   36.83
K18         7.13   14.97    2.85          45.59  -55.65   41.04          69.15  143.59
K19         5.24    2.71   22.18          18.85   39.23  -68.99          79.36  299.62
K20         2.27    3.01    1.85          20.09  -12.36    5.88          13.69  154.57
K21         1.21    1.68    1.43          13.69  -11.79   -0.56          11.81  182.71
K22         1.49    1.96    2.75          15.29  -10.37  -10.43          14.71  225.18
L1          3.46    2.82    2.53          19.30   12.69   -1.77          12.81  352.08
L2          4.40    2.89    2.95          19.58   25.25   -4.50          25.65  349.89
L3          5.58    3.06    3.34          20.26   37.08   -6.13          37.58  350.62
L4          6.33    3.36    3.70          21.44   40.32   -6.47          40.84  350.89
L5         12.78   10.99    9.78          39.57   15.39   -2.41          15.57  351.10
L6         15.45   11.10   10.65          39.76   31.23   -4.93          31.62  351.03
L7         18.36   11.14   11.47          39.82   47.07   -7.34          47.64  351.13
L8         22.77   11.26   12.56          40.02   67.58  -10.20          68.35  351.42
L9         41.24   40.02   33.47          69.48    8.26   -0.66           8.29  355.43
L10        44.04   40.44   34.53          69.78   15.33   -1.69          15.42  353.72
L11        46.75   40.50   35.85          69.83   22.88   -3.50          23.14  351.30
L12        50.58   40.50   37.07          69.83   33.30   -5.20          33.70  351.12
L13        11.78   19.22   40.01          50.94  -40.48  -41.69          58.12  225.84
L14        22.94   10.14   24.26          38.10   76.63  -39.71          86.30  332.60
L15        54.37   50.22    2.24          76.20   15.66   98.91         100.14   81.00
L16         0.47    0.49    0.45           4.39    0.06   -0.88           0.89  274.20
L17        16.26    7.93    0.53          33.83   61.43   48.24          78.11   38.14
L18         4.12    9.76    1.56          37.40  -55.33   38.75          67.55  144.99
L19         3.42    1.35   16.36          11.60   45.39  -69.04          82.62  303.33
L20         0.63    0.68    0.70           6.12   -1.06   -2.56           2.78  247.45
L21         0.87    0.82    0.87           7.37    3.42   -3.56           4.94  313.76
L22         1.92    1.49    1.27          12.57   12.27   -0.42          12.27  358.04
GS0        80.59   83.45   70.42          93.21    0.25   -1.41           1.44  279.94
GS1        68.70   71.30   57.68          87.63   -0.11    1.18           1.18   95.20
