targets/wolf_faust/reflective/R090703.it8
IT8.7/2
ORIGINATOR "Wolf Faust"
DESCRIPTOR "Kodak Professional Paper, L* a* b* (light D50, viewing angle 2)"
MANUFACTURER "Wolf Faust - http://www.coloraid.de"
CREATED "July 12, 2009"
PROD_DATE "2009:07"
SAMPLE_BACKING "black"
SERIAL "5x7 R090703 Batch Average Data"
MATERIAL "Kodak Professional Ultra Endura"
KEYWORD "MEAN_DE" # Mean Delta E of samples compared to batch average
NUMBER_OF_FIELDS 18
BEGIN_DATA_FORMAT
SAMPLE_ID  XYZ_X   XYZ_Y   XYZ_Z          LAB_L   LAB_A   LAB_B          LAB_C   LAB_H          D_RED  D_GREEN  D_BLUE  D_VIS          STDEV_X STDEV_Y STDEV_Z        MEAN_DE  STDEV_DE
END_DATA_FORMAT
NUMBER_OF_SETS 288
BEGIN_DATA
A1          3.51    2.95    1.99          19.85   11.21    4.00          11.90   19.63           1.37    1.64    1.60    1.49            0.04    0.04    0.04           0.32     0.34
A2          4.34    2.93    1.62          19.77   23.64    7.68          24.86   18.01           1.22    1.82    1.69    1.45            0.06    0.04    0.04           0.35     0.39 
A3          5.17    2.90    1.33          19.64   34.91   10.90          36.57   17.34           1.11    2.08    1.79    1.42            0.07    0.04    0.02           0.29     0.33
A4          5.70    3.11    1.42          20.46   37.62   11.19          39.25   16.57           1.07    2.10    1.76    1.39            0.07    0.04    0.03           0.28     0.30 
A5         12.46   10.91    7.70          39.43   13.86    4.85          14.68   19.29           0.81    1.05    1.02    0.93            0.13    0.12    0.10           0.31     0.34
A6         14.61   10.79    6.73          39.22   28.49    8.48          29.73   16.57           0.69    1.17    1.08    0.91            0.16    0.13    0.11           0.30     0.34 
A7         17.25   11.04    5.95          39.64   41.90   12.67          43.78   16.82           0.59    1.29    1.14    0.87            0.13    0.10    0.08           0.25     0.28
A8         21.05   11.24    4.98          39.98   59.80   18.06          62.47   16.80           0.50    1.56    1.23    0.83            0.08    0.06    0.05           0.19     0.21 
A9         40.51   39.83   31.63          69.35    6.60    1.86           6.86   15.76           0.35    0.42    0.42    0.39            0.32    0.31    0.24           0.25     0.28
A10        42.71   39.83   30.37          69.35   13.25    3.83          13.79   16.13           0.30    0.45    0.43    0.38            0.26    0.24    0.23           0.25     0.28
A11        45.12   39.77   28.92          69.31   20.49    6.08          21.37   16.53           0.26    0.48    0.46    0.37            0.23    0.18    0.17           0.24     0.27
A12        47.56   39.94   27.61          69.43   26.85    8.45          28.14   17.46           0.22    0.50    0.48    0.36            0.17    0.17    0.16           0.22     0.24 
A13        74.57   78.41   68.00          90.97   -2.11   -3.08           3.73  235.61           0.12    0.10    0.09    0.11            0.10    0.11    0.11           0.09     0.11
A14        75.81   77.91   67.76          90.74    1.41   -3.26           3.55  293.36           0.10    0.11    0.09    0.11            0.12    0.13    0.15           0.09     0.10 
A15        75.83   79.08   63.16          91.27   -0.85    2.00           2.18  112.96           0.10    0.10    0.12    0.10            0.08    0.08    0.12           0.12     0.13
A16        75.69   78.45   64.59          90.98    0.09    0.14           0.17   50.12           0.10    0.10    0.11    0.11            0.09    0.09    0.15           0.09     0.10
A17        73.64   75.48   61.13          89.62    1.78    1.14           2.12   32.52           0.11    0.13    0.13    0.12            0.08    0.08    0.11           0.11     0.13
A18        74.14   77.96   63.87          90.76   -2.13    0.45           2.18  168.09           0.12    0.10    0.11    0.11            0.11    0.11    0.14           0.14     0.16 
A19        74.56   77.43   67.67          90.52   -0.22   -3.54           3.55  266.51           0.11    0.11    0.09    0.11            0.08    0.09    0.11           0.08     0.09
A20         1.36    1.10    0.70           9.76    9.83    3.68          10.50   20.53           1.80    2.09    2.05    1.91            0.01    0.01    0.01           0.20     0.21 
A21         5.17    3.28    0.73          21.15   28.45   22.70          36.39   38.59           1.11    1.87    2.02    1.39            0.08    0.05    0.01           0.30     0.32
A22        10.07    5.76    0.80          28.79   42.44   34.58          54.74   39.17           0.80    1.79    1.98    1.12            0.08    0.05    0.02           0.25     0.27
B1          3.38    2.96    1.55          19.89    8.95    8.68          12.47   44.12           1.38    1.62    1.70    1.49            0.06    0.05    0.03           0.28     0.32
B2          3.93    2.94    0.96          19.78   17.80   16.31          24.14   42.50           1.27    1.75    1.90    1.46            0.05    0.03    0.02           0.27     0.30
B3          4.45    2.89    0.59          19.61   25.83   22.62          34.34   41.21           1.18    1.90    2.10    1.44            0.04    0.03    0.01           0.23     0.26
B4          5.04    3.13    0.52          20.56   29.40   25.64          39.01   41.09           1.12    1.93    2.16    1.40            0.06    0.04    0.01           0.24     0.30
B5         12.53   10.83    5.59          39.30   14.92   13.81          20.33   42.78           0.79    1.07    1.15    0.93            0.14    0.13    0.08           0.27     0.30
B6         14.64   11.03    3.79          39.63   26.95   24.28          36.28   42.02           0.68    1.16    1.32    0.89            0.14    0.11    0.06           0.30     0.33
B7         16.92   10.92    2.24          39.45   40.92   35.46          54.15   40.91           0.59    1.32    1.54    0.87            0.09    0.06    0.03           0.17     0.19
B8         20.34   11.16    1.04          39.85   56.88   49.82          75.61   41.22           0.49    1.57    1.86    0.83            0.05    0.04    0.01           0.16     0.19
B9         40.05   39.62   29.10          69.20    5.83    5.59           8.08   43.80           0.35    0.42    0.45    0.39            0.29    0.29    0.22           0.24     0.26
B10        42.32   39.72   26.27          69.27   12.46   10.46          16.26   40.01           0.30    0.45    0.49    0.38            0.32    0.31    0.30           0.28     0.31
B11        44.30   39.76   23.05          69.30   18.13   16.34          24.41   42.01           0.26    0.48    0.55    0.37            0.25    0.26    0.17           0.24     0.28
B12        46.55   39.70   20.54          69.25   24.77   21.18          32.59   40.53           0.22    0.51    0.60    0.36            0.21    0.22    0.17           0.21     0.26
B13        68.44   74.06   66.95          88.95   -6.35   -5.59           8.46  221.36           0.17    0.11    0.10    0.14            0.12    0.09    0.13           0.13     0.15
B14        71.77   71.07   65.64          87.52    6.92   -6.83           9.73  315.37           0.12    0.16    0.11    0.15            0.15    0.17    0.17           0.13     0.16
B15        73.83   77.26   55.07          90.44   -1.38    8.75           8.86   98.99           0.10    0.11    0.18    0.11            0.08    0.08    0.22           0.16     0.21
B16        60.74   63.12   52.44          83.50   -0.27   -0.38           0.48  233.73           0.20    0.20    0.20    0.20            0.16    0.15    0.17           0.14     0.16
B17        68.52   68.20   53.15          86.10    6.09    3.33           6.94   28.64           0.12    0.18    0.19    0.16            0.13    0.16    0.19           0.14     0.17
B18        65.45   71.40   54.39          87.68   -7.48    4.71           8.84  147.81           0.18    0.13    0.18    0.15            0.13    0.11    0.11           0.16     0.19
B19        63.88   65.93   64.42          84.96    0.70  -10.08          10.11  274.00           0.19    0.17    0.11    0.19            0.16    0.15    0.10           0.13     0.14
B20         3.38    2.25    0.60          16.76   22.37   17.57          28.45   38.15           1.31    1.97    2.10    1.56            0.04    0.03    0.01           0.28     0.32
B21         8.31    4.86    0.75          26.34   38.34   31.34          49.52   39.27           0.89    1.82    2.01    1.20            0.07    0.05    0.01           0.26     0.30
B22        28.58   24.29   11.39          56.38   21.41   21.42          30.28   45.01           0.42    0.73    0.85    0.57            0.19    0.19    0.12           0.20     0.23
C1          4.46    4.27    2.15          24.54    4.71   10.57          11.57   65.99           1.28    1.42    1.55    1.35            0.05    0.05    0.03           0.18     0.20
C2          4.79    4.31    1.33          24.67    8.46   19.56          21.31   66.62           1.22    1.46    1.75    1.33            0.07    0.05    0.02           0.24     0.27
C3          5.09    4.30    0.71          24.64   12.42   29.11          31.65   66.89           1.17    1.51    2.01    1.31            0.06    0.05    0.01           0.29     0.32
C4          5.69    4.72    0.68          25.93   13.87   31.79          34.68   66.42           1.11    1.48    2.02    1.27            0.05    0.05    0.01           0.24     0.28
C5         23.20   22.19   10.50          54.23    8.27   20.48          22.09   68.01           0.55    0.71    0.88    0.63            0.25    0.23    0.12           0.31     0.35
C6         25.49   22.26    5.33          54.31   17.85   40.97          44.69   66.46           0.46    0.77    1.16    0.61            0.19    0.18    0.07           0.22     0.26
C7         27.39   22.11    2.25          54.14   26.32   60.70          66.16   66.56           0.41    0.84    1.51    0.60            0.18    0.16    0.03           0.21     0.24
C8         28.88   22.20    1.16          54.24   31.76   72.85          79.47   66.44           0.38    0.88    1.80    0.58            0.13    0.12    0.01           0.21     0.24
C9         47.22   47.52   32.25          74.52    3.94    9.85          10.60   68.21           0.28    0.34    0.41    0.31            0.25    0.23    0.21           0.21     0.24
C10        48.37   47.25   26.50          74.35    7.86   18.81          20.38   67.33           0.24    0.36    0.49    0.31            0.28    0.28    0.23           0.19     0.23
C11        49.60   46.96   21.34          74.16   11.99   28.04          30.50   66.85           0.21    0.39    0.58    0.30            0.27    0.29    0.25           0.28     0.33
C12        51.47   47.27   17.35          74.36   16.10   36.88          40.24   66.42           0.18    0.40    0.66    0.29            0.17    0.22    0.17           0.27     0.29
C13        60.09   67.80   65.37          85.91  -12.18   -9.35          15.36  217.51           0.26    0.13    0.11    0.19            0.16    0.13    0.14           0.14     0.16
C14        66.46   62.42   62.66          83.14   14.34  -11.53          18.40  321.20           0.14    0.24    0.13    0.20            0.14    0.16    0.16           0.17     0.19
C15        71.10   74.57   44.70          89.19   -1.68   18.33          18.40   95.25           0.11    0.13    0.26    0.12            0.08    0.08    0.17           0.18     0.22
C16        47.45   49.30   40.38          75.64   -0.23    0.39           0.47  123.67           0.30    0.30    0.31    0.31            0.22    0.19    0.19           0.21     0.24
C17        60.92   57.85   41.76          80.66   12.43    7.27          14.40   30.34           0.15    0.28    0.30    0.22            0.15    0.18    0.18           0.15     0.17
C18        55.10   63.11   43.42          83.50  -13.98   10.09          17.24  144.17           0.27    0.17    0.28    0.21            0.18    0.15    0.14           0.20     0.22
C19        52.39   53.52   60.15          78.18    2.06  -17.61          17.73  276.67           0.29    0.26    0.15    0.28            0.19    0.19    0.13           0.22     0.26
C20         2.10    1.60    0.58          13.24   13.50   11.90          18.00   41.39           1.56    1.99    2.12    1.73            0.03    0.02    0.01           0.26     0.29
C21        22.83   17.20    4.63          48.51   31.29   34.64          46.68   47.91           0.48    0.97    1.23    0.70            0.17    0.14    0.05           0.22     0.24
C22        34.23   31.13   16.81          62.62   15.16   17.87          23.43   49.70           0.37    0.58    0.68    0.48            0.20    0.18    0.15           0.22     0.24
D1          4.21    4.37    2.18          24.84    0.06   10.83          10.83   89.65           1.34    1.37    1.55    1.35            0.07    0.08    0.04           0.30     0.34
D2          4.17    4.32    1.38          24.70    0.06   18.98          18.98   89.82           1.33    1.39    1.73    1.35            0.05    0.05    0.02           0.24     0.26
D3          4.09    4.28    0.73          24.58   -0.59   28.65          28.66   91.18           1.33    1.40    1.99    1.35            0.05    0.06    0.01           0.29     0.34
D4          4.80    5.03    0.77          26.81   -0.62   31.79          31.79   91.12           1.26    1.33    1.97    1.28            0.06    0.06    0.01           0.29     0.32
D5         26.32   27.47   13.43          59.41   -0.69   20.83          20.84   91.91           0.53    0.57    0.77    0.55            0.24    0.24    0.15           0.26     0.28
D6         25.96   27.33    7.38          59.28   -1.64   40.37          40.40   92.33           0.52    0.59    1.02    0.55            0.23    0.24    0.10           0.24     0.27
D7         25.95   27.41    3.51          59.35   -1.96   60.10          60.14   91.87           0.51    0.60    1.32    0.54            0.18    0.17    0.03           0.24     0.27
D8         26.00   27.63    1.55          59.56   -2.66   77.06          77.11   91.98           0.52    0.61    1.68    0.53            0.10    0.10    0.02           0.16     0.17
D9         53.31   55.27   37.64          79.20    0.03   10.18          10.18   89.84           0.24    0.26    0.34    0.25            0.24    0.23    0.21           0.19     0.21
D10        53.65   55.83   30.18          79.52   -0.46   21.66          21.67   91.22           0.22    0.26    0.43    0.24            0.23    0.22    0.25           0.25     0.30
D11        53.13   55.55   24.22          79.36   -1.11   31.50          31.52   92.02           0.22    0.27    0.52    0.24            0.25    0.25    0.19           0.18     0.21
D12        52.95   55.82   11.01          79.51   -2.25   62.47          62.51   92.06           0.21    0.29    0.85    0.23            0.17    0.16    0.09           0.16     0.18
D13        52.00   61.39   63.39          82.59  -17.97  -13.19          22.29  216.28           0.36    0.15    0.12    0.24            0.17    0.14    0.11           0.14     0.17
D14        60.83   53.79   59.15          78.34   22.20  -16.34          27.56  323.64           0.16    0.32    0.16    0.25            0.11    0.13    0.09           0.14     0.18
D15        68.63   71.87   35.77          87.91   -1.45   27.79          27.83   92.99           0.11    0.16    0.36    0.13            0.10    0.11    0.18           0.17     0.20
D16        36.01   37.35   30.51          67.54   -0.01    0.50           0.52   92.99           0.42    0.43    0.43    0.43            0.17    0.15    0.11           0.21     0.24
D17        53.64   48.24   31.99          74.98   19.07   11.03          22.03   30.05           0.18    0.39    0.41    0.29            0.20    0.23    0.20           0.22     0.25
D18        45.54   54.99   34.25          79.04  -20.26   14.67          25.02  144.09           0.37    0.21    0.37    0.27            0.21    0.18    0.20           0.29     0.31
D19        41.91   42.09   55.31          70.93    4.03  -25.14          25.46  279.10           0.41    0.36    0.19    0.39            0.22    0.23    0.15           0.20     0.23
D20        13.81   10.42    2.62          38.58   26.36   30.79          40.53   49.43           0.70    1.19    1.47    0.92            0.15    0.13    0.05           0.25     0.29
D21        21.09   20.32   11.14          52.19    7.31   14.99          16.68   63.99           0.60    0.74    0.86    0.67            0.21    0.20    0.15           0.28     0.31
D22        37.63   35.80   19.44          66.37   10.36   18.49          21.20   60.74           0.34    0.50    0.62    0.42            0.19    0.20    0.18           0.23     0.25
E1          3.86    4.32    2.20          24.72   -4.50   10.42          11.35  113.39           1.41    1.34    1.54    1.36            0.05    0.05    0.03           0.26     0.28
E2          3.54    4.29    1.39          24.62   -8.96   18.78          20.81  115.51           1.46    1.33    1.72    1.37            0.05    0.06    0.03           0.28     0.31
E3          3.20    4.29    0.79          24.60  -14.23   27.59          31.04  117.28           1.55    1.30    1.95    1.38            0.03    0.04    0.01           0.20     0.23
E4          3.53    4.79    0.83          26.14  -15.59   29.56          33.42  117.81           1.51    1.25    1.93    1.33            0.05    0.06    0.01           0.25     0.31
E5         12.44   14.12    7.44          44.40   -7.68   14.44          16.36  117.99           0.89    0.83    1.02    0.85            0.16    0.17    0.12           0.31     0.37
E6         11.35   14.10    4.51          44.38  -15.19   28.18          32.01  118.34           0.95    0.81    1.22    0.86            0.15    0.17    0.06           0.26     0.31
E7         10.37   14.14    2.44          44.44  -22.74   42.34          48.06  118.24           1.04    0.79    1.47    0.86            0.10    0.13    0.04           0.23     0.26
E8          9.86   14.52    1.35          44.98  -29.01   54.40          61.65  118.07           1.12    0.76    1.73    0.85            0.04    0.05    0.01           0.18     0.20
E9         37.05   39.86   27.29          69.37   -4.48    8.88           9.95  116.76           0.41    0.39    0.48    0.40            0.26    0.24    0.17           0.24     0.27
E10        35.78   40.00   23.18          69.47   -9.11   16.38          18.75  119.09           0.43    0.38    0.54    0.40            0.22    0.22    0.18           0.26     0.30
E11        34.72   40.16   19.18          69.58  -13.16   24.58          27.88  118.17           0.45    0.37    0.62    0.40            0.27    0.27    0.15           0.27     0.31
E12        31.41   40.11   11.16          69.55  -24.69   44.83          51.18  118.84           0.52    0.35    0.84    0.40            0.19    0.19    0.13           0.25     0.27
E13        44.41   55.06   61.08          79.07  -23.66  -17.00          29.13  215.69           0.47    0.18    0.13    0.29            0.27    0.23    0.14           0.24     0.29
E14        55.11   45.54   55.24          73.24   30.28  -21.08          36.89  325.15           0.19    0.43    0.19    0.32            0.14    0.17    0.08           0.20     0.25
E15        66.40   69.22   28.27          86.61   -0.76   36.97          36.98   91.18           0.12    0.18    0.45    0.15            0.12    0.13    0.17           0.17     0.22
E16        26.58   27.52   22.57          59.45    0.19    0.26           0.34   54.35           0.55    0.56    0.56    0.56            0.19    0.20    0.16           0.24     0.27
E17        46.88   39.65   23.97          69.22   25.85   14.47          29.63   29.24           0.22    0.51    0.54    0.37            0.15    0.20    0.19           0.28     0.31
E18        37.05   47.37   26.57          74.42  -26.26   18.82          32.31  144.37           0.48    0.26    0.48    0.34            0.15    0.14    0.24           0.30     0.36
E19        32.70   32.08   49.96          63.41    6.40  -32.28          32.91  281.21           0.54    0.48    0.23    0.51            0.22    0.22    0.16           0.31     0.34
E20        24.19   16.52    1.18          47.65   40.99   61.24          73.69   56.20           0.43    1.10    1.79    0.69            0.17    0.14    0.02           0.20     0.23
E21        16.65   13.74    2.51          43.86   20.42   40.80          45.62   63.41           0.63    1.02    1.47    0.81            0.20    0.18    0.05           0.26     0.31
E22        29.07   25.01    7.84          57.08   20.25   34.74          40.21   59.76           0.41    0.72    1.00    0.56            0.16    0.14    0.09           0.19     0.22
F1          1.52    1.87    1.25          14.81   -7.52    3.65           8.36  154.11           1.90    1.66    1.78    1.74            0.02    0.03    0.02           0.24     0.26
F2          1.20    1.87    1.01          14.79  -16.68    6.92          18.06  157.48           2.13    1.60    1.86    1.77            0.02    0.02    0.02           0.20     0.23
F3          1.13    2.09    1.00          15.97  -24.31    9.19          25.99  159.29           2.29    1.51    1.86    1.73            0.01    0.02    0.01           0.26     0.29
F4          1.22    2.33    1.08          17.11  -26.17    9.91          27.98  159.25           2.27    1.46    1.82    1.69            0.02    0.04    0.02           0.33     0.39
F5          6.69    8.32    5.64          34.64  -12.84    5.53          13.98  156.69           1.23    1.02    1.14    1.10            0.11    0.12    0.09           0.27     0.31
F6          5.60    8.35    4.79          34.71  -24.92   10.01          26.86  158.11           1.41    0.96    1.21    1.11            0.06    0.09    0.07           0.21     0.24
F7          4.54    8.40    3.96          34.81  -38.45   14.93          41.25  158.77           1.68    0.91    1.28    1.13            0.05    0.07    0.04           0.15     0.18
F8          3.56    8.45    3.23          34.90  -52.82   19.88          56.43  159.38           2.10    0.86    1.35    1.15            0.03    0.06    0.02           0.23     0.25
F9         36.67   39.96   31.15          69.44   -6.05    2.77           6.65  155.39           0.43    0.38    0.42    0.40            0.20    0.22    0.17           0.22     0.24
F10        35.06   40.08   30.42          69.53  -11.76    4.06          12.45  160.96           0.47    0.36    0.43    0.41            0.31    0.32    0.30           0.25     0.28
F11        33.29   40.06   28.93          69.51  -17.81    6.41          18.93  160.21           0.52    0.34    0.45    0.41            0.19    0.19    0.16           0.21     0.24
F12        28.83   40.24   25.27          69.64  -34.79   12.84          37.08  159.75           0.65    0.30    0.50    0.43            0.15    0.15    0.20           0.24     0.28
F13        37.94   49.33   58.53          75.66  -28.66  -20.34          35.15  215.36           0.59    0.20    0.15    0.35            0.15    0.13    0.14           0.14     0.16
F14        49.97   38.60   51.40          68.46   37.57  -25.18          45.23  326.17           0.23    0.53    0.22    0.38            0.17    0.18    0.10           0.21     0.25
F15        64.34   66.56   21.75          85.28    0.37   46.39          46.39   89.54           0.12    0.21    0.56    0.16            0.17    0.17    0.07           0.15     0.17
F16        19.16   19.87   16.10          51.69    0.00    0.70           0.72   90.93           0.70    0.70    0.70    0.70            0.16    0.17    0.16           0.24     0.26
F17        41.36   32.90   17.65          64.08   31.90   18.45          36.86   30.04           0.25    0.63    0.67    0.43            0.15    0.16    0.15           0.24     0.28
