targets/wolf_faust/reflective/R100604WhiteBacking.it8
IT8.7/2
ORIGINATOR "Wolf Faust"
DESCRIPTOR "Kodak Professional Paper, L* a* b* (light D50, viewing angle 2)"
MANUFACTURER "Wolf Faust - http://www.coloraid.de"
CREATED "July 09, 2010"
PROD_DATE "2010:06"
SAMPLE_BACKING "white"
SERIAL "5x7 R100604 Batch Average Data"
MATERIAL "Kodak Professional Ultra Endura"
NUMBER_OF_FIELDS 9
BEGIN_DATA_FORMAT
SAMPLE_ID  XYZ_X   XYZ_Y   XYZ_Z          LAB_L   LAB_A   LAB_B          LAB_C   LAB_H
END_DATA_FORMAT
NUMBER_OF_SETS 288
BEGIN_DATA
A1          3.60    3.01    2.07          20.10   11.49    3.67          12.06   17.73
A2          4.50    3.03    1.71          20.17   24.08    7.41          25.19   17.11 
A3          5.42    3.05    1.41          20.23   35.31   11.01          36.99   17.32
A4          6.03    3.30    1.51          21.21   38.08   11.40          39.75   16.67 
A5         13.01   11.32    8.07          40.12   14.54    4.62          15.26   17.61
A6         15.28   11.27    6.95          40.02   29.11    8.93          30.45   17.05 
A7         17.70   11.24    6.10          39.98   42.83   12.58          44.64   16.37
A8         21.54   11.41    4.93          40.27   60.85   18.81          63.69   17.18 
A9         41.74   41.00   31.97          70.18    6.79    2.79           7.34   22.32
A10        43.93   40.97   30.86          70.15   13.39    4.44          14.11   18.35
A11        46.65   41.18   29.53          70.30   20.54    6.80          21.63   18.32
A12        49.32   41.42   28.41          70.47   27.17    8.90          28.60   18.14 
A13        76.68   80.46   69.21          91.89   -1.81   -2.60           3.17  235.18
A14        77.54   79.83   68.88          91.61    1.14   -2.78           3.00  292.39 
A15        77.58   80.90   64.37          92.09   -0.84    2.25           2.40  110.42
A16        77.18   79.97   65.20          91.67    0.14    0.75           0.76   79.21
A17        75.36   77.21   62.32          90.42    1.86    1.35           2.30   35.98
A18        76.05   79.87   65.31          91.62   -1.93    0.57           2.01  163.71 
A19        76.73   79.70   68.99          91.55   -0.24   -2.98           2.99  265.43
A20         1.41    1.14    0.76          10.12    9.60    3.05          10.08   17.61 
A21         5.38    3.40    0.82          21.57   29.10   21.85          36.39   36.90
A22        10.46    5.97    0.89          29.34   43.02   34.06          54.87   38.37
B1          3.38    2.95    1.63          19.85    9.14    7.77          11.99   40.37
B2          4.04    2.99    1.02          19.98   18.58   15.77          24.37   40.32
B3          4.69    3.04    0.65          20.20   26.47   22.52          34.76   40.39
B4          5.29    3.26    0.56          21.07   30.18   25.68          39.62   40.40
B5         13.01   11.20    5.94          39.92   15.42   13.23          20.32   40.61
B6         15.16   11.33    3.96          40.13   27.94   24.09          36.89   40.76
B7         17.38   11.23    2.28          39.96   41.20   36.03          54.73   41.17
B8         20.97   11.45    1.04          40.33   57.87   50.64          76.90   41.19
B9         41.60   41.05   29.86          70.21    6.21    6.12           8.72   44.61
B10        43.66   41.08   26.59          70.23   12.28   11.56          16.86   43.29
B11        45.92   41.16   23.68          70.28   18.55   16.85          25.06   42.25
B12        48.40   41.36   20.82          70.42   24.85   22.62          33.60   42.31
B13        70.83   76.30   68.23          90.00   -5.73   -4.97           7.58  220.93
B14        73.66   73.14   66.84          88.51    6.59   -6.24           9.07  316.57
B15        75.62   79.11   56.27          91.28   -1.33    8.93           9.03   98.45
B16        63.43   65.70   53.69          84.85    0.18    0.57           0.61   70.62
B17        70.50   70.32   54.42          87.15    5.82    3.76           6.93   32.87
B18        68.06   73.89   55.62          88.87   -6.83    5.45           8.74  141.39
B19        66.53   68.50   65.81          86.26    1.07   -9.17           9.23  276.63
B20         2.94    2.09    0.75          15.96   18.50   13.32          22.80   35.75
B21         8.63    5.04    0.83          26.84   39.04   30.66          49.64   38.15
B22        29.68   25.28   12.03          57.34   21.45   21.20          30.16   44.66
C1          4.60    4.39    2.22          24.92    5.01   10.63          11.75   64.76
C2          4.93    4.42    1.38          25.03    8.70   19.57          21.41   66.04
C3          5.37    4.48    0.77          25.19   13.45   28.91          31.89   65.06
C4          5.93    4.91    0.73          26.49   14.20   31.91          34.93   66.01
C5         24.42   23.25   10.98          55.32    8.91   20.86          22.68   66.87
C6         26.43   23.11    5.58          55.18   17.97   41.24          44.98   66.46
C7         28.39   23.02    2.38          55.09   26.19   61.19          66.56   66.83
C8         29.93   23.15    1.23          55.23   31.55   73.56          80.04   66.79
C9         48.49   48.70   32.78          75.26    4.23   10.33          11.16   67.70
C10        49.78   48.54   26.94          75.17    8.16   19.46          21.11   67.24
C11        51.37   48.71   21.91          75.27   11.92   28.82          31.19   67.53
C12        53.20   48.79   17.47          75.32   16.47   38.26          41.65   66.70
C13        62.15   69.88   66.70          86.94  -11.81   -8.82          14.74  216.77
C14        68.22   64.23   63.86          84.09   14.14  -11.06          17.95  321.97
C15        73.26   76.78   46.33          90.22   -1.59   18.14          18.21   95.02
C16        49.62   51.33   41.85          76.88    0.34    0.65           0.75   61.71
C17        62.87   59.68   43.02          81.66   12.61    7.41          14.63   30.43
C18        57.39   65.45   44.96          84.72  -13.53   10.30          17.00  142.73
C19        54.53   55.52   61.61          79.34    2.54  -17.05          17.24  278.48
C20         1.77    1.48    0.72          12.45    9.16    7.91          12.11   40.81
C21        23.38   17.62    4.74          49.03   31.49   34.96          47.05   48.00
C22        35.32   32.08   17.44          63.41   15.50   17.78          23.59   48.93
D1          4.24    4.41    2.23          24.98   -0.18   10.69          10.69   90.98
D2          4.26    4.40    1.40          24.96    0.22   19.26          19.27   89.35
D3          4.24    4.43    0.79          25.04   -0.42   28.25          28.25   90.84
D4          4.89    5.12    0.81          27.08   -0.64   31.41          31.42   91.16
D5         27.07   28.19   13.92          60.06   -0.46   20.63          20.64   91.28
D6         27.25   28.41    7.72          60.26   -0.56   40.69          40.69   90.79
D7         26.92   28.28    3.62          60.14   -1.42   60.73          60.74   91.34
D8         26.58   28.23    1.63          60.10   -2.59   77.11          77.15   91.92
D9         54.78   56.87   38.47          80.11   -0.15   10.63          10.63   90.80
D10        54.92   57.27   30.74          80.33   -0.76   22.19          22.21   91.97
D11        54.98   57.25   24.87          80.32   -0.54   31.98          31.98   90.97
D12        54.49   57.26   10.94          80.33   -1.82   64.10          64.12   91.63
D13        53.37   62.99   64.70          83.44  -18.06  -12.98          22.24  215.71
D14        62.97   56.01   60.64          79.62   21.66  -15.62          26.70  324.20
D15        70.78   74.05   37.02          88.95   -1.32   27.84          27.87   92.71
D16        37.59   39.13   31.75          68.84   -0.45    0.82           0.94  119.17
D17        55.89   50.43   33.26          76.34   18.90   11.47          22.11   31.25
D18        47.13   56.85   35.39          80.09  -20.34   14.85          25.19  143.87
D19        43.38   43.76   56.78          72.07    3.51  -24.72          24.97  278.07
D20        14.20   10.75    2.74          39.15   26.33   30.79          40.51   49.46
D21        21.80   21.08   11.77          53.04    7.00   14.53          16.13   64.29
D22        39.05   37.06   20.02          67.32   10.78   18.93          21.79   60.34
E1          3.95    4.43    2.31          25.05   -4.64   10.05          11.07  114.77
E2          3.62    4.48    1.47          25.19  -10.10   18.85          21.39  118.19
E3          3.27    4.43    0.85          25.03  -15.06   27.28          31.16  118.91
E4          3.57    4.88    0.87          26.39  -16.02   29.19          33.30  118.76
E5         13.02   14.72    7.74          45.24   -7.49   14.74          16.53  116.95
E6         11.82   14.64    4.73          45.14  -15.17   28.30          32.11  118.19
E7         10.67   14.56    2.63          45.03  -23.00   41.78          47.69  118.84
E8          9.76   14.53    1.41          44.98  -29.84   53.65          61.39  119.09
E9         38.18   40.94   28.34          70.13   -4.11    8.45           9.40  115.92
E10        36.90   41.08   23.90          70.23   -8.70   16.36          18.53  118.02
E11        35.42   40.87   19.80          70.09  -12.97   24.16          27.42  118.23
E12        32.03   40.98   11.25          70.16  -25.11   45.62          52.07  118.83
E13        45.93   56.79   62.52          80.06  -23.58  -16.70          28.89  215.31
E14        56.96   47.21   56.56          74.32   30.21  -20.61          36.57  325.70
E15        68.65   71.47   29.35          87.71   -0.57   37.11          37.11   90.89
E16        27.92   28.88   23.56          60.68    0.27    0.51           0.61   54.90
E17        48.90   41.43   25.16          70.47   26.00   14.49          29.77   29.12
E18        38.53   49.16   27.61          75.55  -26.32   19.00          32.46  144.18
E19        34.20   33.60   51.48          64.65    6.33  -31.85          32.48  281.25
E20        24.95   17.16    1.25          48.46   40.79   61.65          73.92   56.51
E21        17.62   14.51    2.77          44.95   21.03   40.57          45.70   62.60
E22        30.22   26.00    8.32          58.04   20.50   34.58          40.20   59.34
F1          1.54    1.93    1.30          15.11   -8.28    3.54           9.00  156.85
F2          1.19    1.89    1.09          14.88  -17.53    6.03          18.54  161.01
F3          1.13    2.11    1.06          16.06  -24.72    8.47          26.13  161.09
F4          1.22    2.35    1.18          17.24  -26.67    8.80          28.09  161.73
F5          6.84    8.44    5.94          34.88  -12.36    4.52          13.16  159.90
F6          5.55    8.39    4.88          34.78  -25.83    9.62          27.56  159.57
F7          4.45    8.40    4.15          34.79  -39.53   13.76          41.86  160.80
F8          3.55    8.49    3.43          34.98  -53.42   18.60          56.56  160.80
F9         37.86   40.93   32.11          70.13   -5.12    2.49           5.69  154.05
F10        36.04   40.95   30.52          70.14  -11.12    4.96          12.18  155.96
F11        34.52   41.17   29.58          70.29  -16.91    6.71          18.19  158.35
F12        29.46   41.25   25.78          70.35  -35.43   13.16          37.79  159.62
F13        39.17   50.87   59.97          76.60  -28.84  -20.15          35.18  214.95
F14        51.43   39.66   52.45          69.23   38.15  -25.02          45.62  326.74
F15        66.50   68.68   22.58          86.35    0.60   46.62          46.63   89.27
F16        20.12   20.81   16.90          52.75    0.25    0.65           0.70   67.97
F17        42.74   33.93   18.26          64.90   32.50   18.51          37.40   29.67
F18        30.89   41.90   20.73          70.80  -32.03   23.46          39.71  143.78
F19        26.26   25.01   45.98          57.09    9.07  -38.56          39.62  283.24
F20        26.39   25.24   11.77          57.30    8.68   21.89          23.55   68.36
F21        34.16   30.94   10.62          62.46   15.61   34.28          37.67   65.51
F22        38.87   36.27   15.75          66.73   12.78   27.48          30.31   65.06
G1          2.37    2.97    2.58          19.92   -9.41   -1.07           9.47  186.51
G2          1.92    2.99    2.89          20.02  -19.72   -3.35          20.01  189.64
G3          1.74    3.21    3.30          20.88  -27.72   -4.79          28.14  189.79
G4          1.87    3.50    3.59          21.93  -29.18   -4.95          29.60  189.63
G5          9.32   11.35    9.90          40.16  -12.62   -1.81          12.75  188.15
G6          7.85   11.22   10.53          39.95  -24.45   -4.23          24.82  189.82
G7          6.48   11.10   11.12          39.75  -37.04   -6.43          37.60  189.85
G8          5.26   11.14   11.97          39.81  -50.91   -8.86          51.67  189.87
G9         37.39   40.66   33.96          69.94   -5.82   -0.60           5.85  185.86
G10        35.82   41.24   34.88          70.34  -12.74   -1.22          12.80  185.47
G11        33.52   40.67   35.45          69.94  -18.88   -2.73          19.07  188.23
G12        28.50   40.96   38.08          70.15  -38.28   -6.02          38.75  188.93
G13        33.00   45.18   57.18          73.01  -33.91  -23.51          41.27  214.74
G14        46.05   32.79   48.14          63.99   46.07  -29.20          54.54  327.63
G15        64.48   65.89   16.91          84.94    2.16   56.12          56.16   87.79
G16        13.71   14.20   11.44          44.52    0.13    0.82           0.84   81.95
G17        37.11   27.42   12.74          59.36   38.88   22.65          45.00   30.22
G18        24.40   35.39   15.15          66.05  -37.41   27.79          46.60  143.40
G19        19.70   17.97   40.62          49.46   12.32  -45.05          46.70  285.29
G20        36.07   34.63   14.33          65.46    9.14   28.87          30.29   72.44
G21        34.81   33.21    9.32          64.33    9.75   41.83          42.95   76.88
G22        46.78   43.07    2.74          71.60   15.27   86.76          88.10   80.02
H1          2.61    3.03    3.27          20.17   -5.79   -5.82           8.21  225.16
H2          2.29    2.97    4.35          19.91  -11.07  -13.05          17.12  229.69
H3          2.03    3.03    5.68          20.16  -17.76  -19.59          26.44  227.81
H4          2.23    3.34    6.58          21.37  -18.67  -21.62          28.57  229.20
H5          9.93   11.33   11.97          40.14   -7.63   -8.29          11.26  227.36
H6          8.84   11.21   15.40          39.93  -15.63  -17.86          23.73  228.81
H7          7.93   11.18   19.30          39.88  -23.36  -26.88          35.61  229.00
H8          7.01   11.22   24.43          39.95  -32.49  -36.83          49.11  228.58
H9         38.20   41.06   37.00          70.22   -4.41   -4.42           6.24  225.06
H10        36.93   41.08   40.77          70.23   -8.58   -9.43          12.75  227.69
H11        35.50   40.96   44.69          70.15  -12.96  -14.49          19.44  228.18
H12        32.46   40.87   55.34          70.09  -23.25  -26.64          35.35  228.89
H13        27.68   39.94   54.05          69.43  -38.38  -26.40          46.58  214.52
H14        40.98   26.80   43.72          58.79   53.56  -32.89          62.85  328.45
H15        62.48   63.01   12.26          83.45    4.03   65.55          65.67   86.49
H16         9.09    9.41    7.53          36.76    0.19    0.93           0.97   76.91
H17        32.21   22.05    8.43          54.08   44.84   27.33          52.51   31.36
H18        18.99   29.61   10.80          61.31  -42.34   31.76          52.93  143.12
H19        14.48   12.41   35.37          41.85   16.41  -51.05          53.62  287.82
H20        41.09   41.58   15.19          70.58    3.07   35.50          35.63   85.05
H21        31.23   32.34   20.44          63.62    0.19   11.67          11.67   89.05
H22        35.35   38.47   11.20          68.36   -5.78   42.66          43.05   97.71
I1          4.34    4.41    5.68          24.98    1.24  -11.32          11.39  276.28
I2          4.47    4.49    8.82          25.24    1.85  -23.80          23.87  274.46
I3          4.47    4.46   11.99          25.12    2.40  -34.24          34.33  274.00
I4          4.55    4.43   19.65          25.06    3.73  -53.18          53.31  274.02
I5         14.15   14.57   15.30          45.04    0.61   -8.80           8.83  273.99
I6         14.20   14.50   19.41          44.95    1.33  -18.37          18.42  274.15
I7         14.50   14.67   24.21          45.18    2.17  -27.40          27.49  274.52
I8         14.67   14.63   37.37          45.12    3.48  -48.21          48.33  274.12
I9         39.70   41.00   36.76          70.18    0.53   -4.17           4.21  277.21
I10        39.79   40.84   40.70          70.06    1.27   -9.64           9.72  277.50
I11        40.11   41.17   44.52          70.29    1.28  -14.03          14.09  275.22
I12        40.26   41.05   55.56          70.21    2.09  -26.65          26.73  274.48
I13        22.86   34.84   50.60          65.63  -42.39  -29.18          51.46  214.54
I14        35.86   21.25   38.96          53.22   61.18  -36.39          71.18  329.26
I15        60.45   60.01    8.50          81.85    6.19   74.94          75.19   85.28
I16         5.49    5.65    4.56          28.51    0.46    0.56           0.75   49.06
I17        27.59   17.32    5.16          48.66   50.78   32.11          60.08   32.31
I18        14.33   24.25    7.27          56.34  -46.94   35.74          58.99  142.72
I19        10.26    7.97   30.15          33.91   21.76  -56.92          60.94  290.92
I20        41.81   45.71   15.85          73.36   -6.71   38.67          39.25   99.84
I21        11.05   14.65    3.42          45.16  -20.75   36.20          41.73  119.82
I22        28.23   36.42   17.07          66.84  -25.06   24.55          35.08  135.59
J1          2.19    1.94    2.95          15.17    7.26  -12.15          14.16  300.87
J2          2.52    1.92    4.89          15.09   14.31  -24.39          28.28  300.40
J3          2.90    1.94    7.92          15.17   21.10  -37.82          43.31  299.16
J4          3.81    1.91   17.63          14.99   36.74  -66.13          75.65  299.05
J5         11.79   11.38   12.31          40.20    5.88   -9.16          10.89  302.70
J6         12.48   11.33   15.99          40.13   10.99  -18.97          21.92  300.08
J7         13.27   11.34   20.23          40.15   16.11  -28.37          32.62  299.59
J8         15.41   11.37   34.15          40.20   29.10  -52.14          59.71  299.16
J9         40.83   41.18   37.19          70.30    3.48   -4.55           5.73  307.46
J10        41.68   41.26   40.26          70.36    5.81   -8.55          10.33  304.19
J11        42.65   41.25   45.00          70.35    8.76  -14.52          16.96  301.11
J12        44.82   41.18   55.06          70.30   15.35  -25.98          30.17  300.57
J13        18.91   30.32   47.02          61.93  -45.39  -31.44          55.22  214.71
J14        31.26   16.75   34.37          47.94   67.86  -39.12          78.32  330.04
J15        58.37   56.94    5.70          80.14    8.55   83.70          84.13   84.17
J16         3.13    3.19    2.59          20.80    0.81    0.36           0.92   22.42
J17        23.71   13.67    2.96          43.76   55.64   37.11          66.88   33.70
J18        10.73   19.71    4.75          51.50  -50.48   39.15          63.88  142.20
J19         7.28    4.93   25.45          26.54   27.96  -61.78          67.82  294.35
J20        30.33   39.01   22.28          68.76  -25.30   16.86          30.40  146.33
J21         4.29    8.08    1.51          34.15  -38.99   33.72          51.55  139.15
J22         1.35    2.15    0.95          16.28  -18.59   10.57          21.38  150.37
K1          5.33    4.46    5.09          25.13   13.23   -8.11          15.52  328.47
K2          6.61    4.46    7.24          25.13   27.31  -17.96          32.69  326.68
K3          7.90    4.45    9.80          25.10   40.01  -27.45          48.52  325.55
K4          9.37    4.50   12.55          25.27   52.02  -35.60          63.03  325.61
K5         16.14   14.73   14.87          45.27   11.48   -7.32          13.62  327.49
K6         18.36   14.72   18.33          45.25   23.65  -15.52          28.29  326.72
K7         20.60   14.77   22.36          45.31   34.63  -23.71          41.97  325.61
K8         26.73   14.65   33.67          45.15   62.43  -42.90          75.75  325.51
K9         42.06   41.40   36.57          70.45    6.57   -3.43           7.41  332.46
K10        44.50   41.48   40.26          70.51   13.50   -8.29          15.84  328.44
K11        46.42   41.06   43.86          70.22   20.23  -13.35          24.24  326.58
K12        52.46   41.48   53.61          70.51   35.29  -24.06          42.71  325.72
K13        14.98   25.35   42.47          57.41  -47.65  -33.70          58.37  215.27
K14        27.01   13.08   29.78          42.88   73.34  -40.87          83.96  330.87
K15        55.78   53.23    3.48          78.01   11.41   92.50          93.20   82.97
K16         1.48    1.53    1.24          12.82    0.08    0.36           0.40   70.39
K17        20.21   10.73    1.42          39.12   59.39   43.45          73.58   36.19
K18         7.36   15.01    2.77          45.65  -53.62   41.77          67.96  142.08
K19         4.99    2.80   20.76          19.22   34.57  -65.53          74.09  297.81
K20         2.44    3.18    1.92          20.75  -11.51    6.25          13.10  151.50
K21         1.36    1.83    1.51          14.56  -11.05   -0.05          11.05  180.29
K22         1.72    2.24    2.87          16.70  -10.32   -8.94          13.66  220.89
L1          3.78    3.06    2.70          20.26   13.47   -1.40          13.55  354.06
L2          4.71    3.10    2.93          20.43   25.77   -2.95          25.94  353.47
L3          5.79    3.19    3.41          20.79   37.28   -5.73          37.72  351.27
L4          6.54    3.50    3.69          21.95   40.36   -5.57          40.74  352.14
L5         13.33   11.35   10.03          40.16   16.44   -2.24          16.59  352.23
L6         16.09   11.55   10.91          40.49   31.74   -4.49          32.06  351.95
L7         18.97   11.53   11.92          40.46   47.46   -7.61          48.06  350.89
L8         22.70   11.47   12.88          40.36   65.81  -10.52          66.65  350.92
L9         42.80   41.66   34.83          70.64    7.96   -0.65           7.99  355.33
L10        44.83   41.21   35.18          70.33   15.27   -1.69          15.36  353.70
L11        47.50   41.34   36.40          70.41   22.40   -3.25          22.64  351.74
L12        50.35   41.32   37.29          70.40   30.20   -4.51          30.54  351.51
L13        10.91   19.48   35.98          51.25  -48.00  -35.71          59.83  216.65
L14        22.65    9.91   24.77          37.69   77.10  -41.35          87.49  331.79
L15        51.93   48.11    1.91          74.89   15.03   99.75         100.87   81.43
L16         0.50    0.54    0.46           4.85   -0.51   -0.23           0.57  204.09
L17        16.40    8.02    0.54          34.02   61.42   48.46          78.23   38.27
L18         4.27    9.94    1.39          37.73  -54.73   41.36          68.60  142.92
L19         3.27    1.41   15.59          12.01   41.05  -66.46          78.12  301.70
L20         0.73    0.80    0.81           7.19   -1.44   -2.76           3.12  242.43
L21         0.98    0.92    0.98           8.33    3.40   -3.73           5.05  312.33
L22         2.04    1.63    1.37          13.39   11.66   -0.38          11.67  358.15
GS0        78.85   81.96   69.58          92.56   -0.36   -1.78           1.82  258.40
GS1        68.85   71.31   58.25          87.63    0.21    0.60           0.64   70.67
GS2        60.99   63.22   51.52          83.56    0.09    0.71           0.72   82.58
