targets/wolf_faust/reflective/R100604.it8
IT8.7/2
ORIGINATOR "Wolf Faust"
DESCRIPTOR "Kodak Professional Paper, L* a* b* (light D50, viewing angle 2)"
MANUFACTURER "Wolf Faust - http://www.coloraid.de"
CREATED "July 09, 2010"
PROD_DATE "2010:06"
SAMPLE_BACKING "black"
SERIAL "5x7 R100604 Batch Average Data"
MATERIAL "Kodak Professional Ultra Endura"
KEYWORD "MEAN_DE" # Mean Delta E of samples compared to batch average
NUMBER_OF_FIELDS 18
BEGIN_DATA_FORMAT
SAMPLE_ID  XYZ_X   XYZ_Y   XYZ_Z          LAB_L   LAB_A   LAB_B          LAB_C   LAB_H          D_RED  D_GREEN  D_BLUE  D_VIS          STDEV_X STDEV_Y STDEV_Z        MEAN_DE  STDEV_DE
END_DATA_FORMAT
NUMBER_OF_SETS 288
BEGIN_DATA
A1          3.53    2.96    2.05          19.88   11.34    3.54          11.88   17.32           1.37    1.64    1.59    1.49            0.03    0.03    0.02           0.17     0.20
A2          4.40    2.97    1.69          19.93   23.84    7.18          24.90   16.76           1.21    1.81    1.67    1.45            0.05    0.03    0.04           0.35     0.41 
A3          5.32    3.00    1.40          20.03   35.02   10.80          36.65   17.13           1.10    2.06    1.77    1.41            0.04    0.02    0.03           0.39     0.44
A4          5.89    3.23    1.48          20.94   37.72   11.28          39.37   16.65           1.05    2.07    1.74    1.37            0.04    0.02    0.03           0.41     0.46 
A5         12.72   11.08    7.98          39.72   14.35    4.29          14.98   16.63           0.80    1.04    1.01    0.93            0.08    0.07    0.11           0.30     0.36
A6         14.95   11.05    6.88          39.66   28.74    8.58          29.99   16.61           0.68    1.16    1.07    0.90            0.09    0.08    0.13           0.41     0.48 
A7         17.29   11.00    6.01          39.59   42.36   12.33          44.12   16.22           0.59    1.30    1.14    0.87            0.12    0.09    0.09           0.26     0.30
A8         20.96   11.12    4.89          39.79   60.19   18.24          62.90   16.85           0.50    1.58    1.23    0.83            0.06    0.04    0.08           0.30     0.39 
A9         40.61   39.96   31.41          69.44    6.51    2.37           6.93   19.97           0.35    0.42    0.42    0.39            0.31    0.34    0.24           0.31     0.35
A10        42.87   40.05   30.42          69.51   13.06    4.02          13.67   17.09           0.30    0.44    0.43    0.38            0.30    0.31    0.26           0.29     0.32
A11        45.53   40.33   29.15          69.70   19.95    6.38          20.95   17.75           0.25    0.47    0.45    0.37            0.31    0.35    0.24           0.33     0.36
A12        47.99   40.42   28.03          69.77   26.55    8.33          27.83   17.41           0.21    0.50    0.47    0.36            0.26    0.35    0.36           0.53     0.57 
A13        74.51   78.27   67.97          90.90   -1.97   -3.16           3.72  238.09           0.12    0.10    0.09    0.11            0.15    0.16    0.12           0.10     0.12
A14        75.42   77.75   67.68          90.67    0.92   -3.30           3.42  285.54           0.11    0.11    0.09    0.11            0.05    0.06    0.09           0.08     0.09 
A15        75.41   78.74   63.25          91.12   -1.04    1.65           1.95  122.19           0.10    0.10    0.12    0.10            0.11    0.12    0.09           0.07     0.08
A16        75.00   77.82   64.06          90.70   -0.09    0.16           0.18  121.13           0.10    0.11    0.11    0.11            0.12    0.12    0.13           0.08     0.10
A17        73.23   75.14   61.22          89.46    1.61    0.77           1.79   25.61           0.11    0.13    0.13    0.12            0.15    0.15    0.15           0.11     0.12
A18        73.97   77.77   64.21          90.68   -2.09   -0.03           2.09  180.86           0.12    0.10    0.11    0.11            0.11    0.11    0.10           0.09     0.10 
A19        74.53   77.51   67.72          90.55   -0.42   -3.53           3.55  263.25           0.11    0.10    0.09    0.11            0.10    0.11    0.10           0.07     0.08
A20         1.36    1.10    0.74           9.82    9.56    2.99          10.01   17.36           1.80    2.09    2.02    1.91            0.03    0.03    0.02           0.33     0.37 
A21         5.29    3.35    0.81          21.39   28.80   21.67          36.04   36.96           1.10    1.86    1.98    1.38            0.06    0.04    0.02           0.34     0.40
A22        10.23    5.86    0.88          29.05   42.54   33.64          54.23   38.34           0.79    1.78    1.94    1.11            0.09    0.07    0.02           0.27     0.33
B1          3.34    2.92    1.62          19.72    8.98    7.66          11.80   40.49           1.39    1.63    1.68    1.50            0.03    0.03    0.02           0.24     0.27
B2          3.96    2.93    1.01          19.75   18.39   15.49          24.04   40.10           1.26    1.76    1.88    1.46            0.04    0.03    0.02           0.28     0.31
B3          4.59    2.98    0.65          19.97   26.16   22.22          34.32   40.34           1.17    1.89    2.07    1.43            0.03    0.02    0.01           0.21     0.23
B4          5.19    3.20    0.55          20.83   29.96   25.47          39.32   40.37           1.10    1.93    2.13    1.39            0.04    0.03    0.01           0.21     0.24
B5         12.73   10.98    5.86          39.55   15.19   12.93          19.95   40.40           0.79    1.06    1.13    0.92            0.08    0.08    0.09           0.35     0.43
B6         14.82   11.09    3.91          39.74   27.55   23.71          36.35   40.72           0.67    1.16    1.30    0.89            0.12    0.09    0.06           0.27     0.31
B7         16.95   10.98    2.25          39.55   40.67   35.59          54.04   41.19           0.59    1.32    1.54    0.87            0.12    0.09    0.04           0.30     0.33
B8         20.37   11.14    1.02          39.82   57.20   49.96          75.94   41.14           0.49    1.58    1.87    0.83            0.08    0.06    0.02           0.25     0.28
B9         40.63   40.15   29.45          69.58    5.97    5.69           8.25   43.60           0.34    0.42    0.45    0.39            0.41    0.43    0.31           0.34     0.38
B10        42.64   40.19   26.23          69.60   11.94   11.10          16.30   42.91           0.29    0.44    0.50    0.38            0.39    0.41    0.28           0.30     0.34
B11        44.82   40.28   23.45          69.67   18.07   16.22          24.28   41.92           0.25    0.47    0.54    0.37            0.31    0.34    0.21           0.30     0.34
B12        47.10   40.38   20.61          69.74   24.19   21.89          32.63   42.14           0.21    0.50    0.60    0.36            0.22    0.30    0.23           0.40     0.44
B13        68.90   74.28   66.98          89.05   -5.81   -5.43           7.95  223.08           0.17    0.11    0.10    0.14            0.16    0.11    0.14           0.17     0.20
B14        71.70   71.31   65.76          87.64    6.27   -6.74           9.20  312.93           0.12    0.16    0.11    0.14            0.15    0.20    0.12           0.20     0.24
B15        73.49   77.00   55.42          90.32   -1.55    8.17           8.32  100.77           0.11    0.11    0.17    0.11            0.08    0.08    0.15           0.11     0.15
B16        61.78   64.08   52.82          84.01   -0.01    0.07           0.17  165.44           0.19    0.19    0.20    0.19            0.17    0.16    0.22           0.19     0.22
B17        68.63   68.59   53.57          86.30    5.46    3.21           6.33   30.43           0.12    0.18    0.19    0.16            0.06    0.08    0.10           0.12     0.14
B18        66.33   72.06   54.73          88.00   -6.88    4.88           8.44  144.65           0.17    0.12    0.18    0.15            0.14    0.11    0.17           0.16     0.17
B19        64.82   66.80   64.69          85.40    0.92   -9.58           9.62  275.50           0.18    0.17    0.11    0.18            0.11    0.12    0.09           0.12     0.14
B20         2.89    2.06    0.74          15.80   18.30   13.19          22.56   35.79           1.40    1.94    2.01    1.61            0.02    0.02    0.01           0.20     0.22
B21         8.46    4.95    0.83          26.58   38.67   30.24          49.09   38.02           0.88    1.82    1.96    1.19            0.07    0.05    0.03           0.41     0.52
B22        28.97   24.73   11.86          56.81   21.03   20.77          29.56   44.64           0.42    0.72    0.83    0.57            0.19    0.18    0.10           0.36     0.41
C1          4.52    4.31    2.22          24.68    4.89   10.19          11.30   64.33           1.28    1.42    1.54    1.34            0.05    0.05    0.04           0.31     0.35
C2          4.83    4.34    1.37          24.78    8.58   19.31          21.13   66.04           1.21    1.46    1.74    1.32            0.04    0.04    0.02           0.20     0.23
C3          5.26    4.39    0.77          24.91   13.24   28.50          31.43   65.09           1.15    1.51    1.98    1.30            0.06    0.05    0.01           0.25     0.28
C4          5.79    4.81    0.72          26.19   14.00   31.54          34.51   66.06           1.10    1.47    2.00    1.26            0.05    0.04    0.01           0.19     0.24
C5         23.87   22.76   10.84          54.83    8.65   20.46          22.21   67.09           0.54    0.70    0.87    0.62            0.14    0.13    0.11           0.24     0.28
C6         25.80   22.61    5.53          54.67   17.56   40.61          44.24   66.61           0.46    0.76    1.14    0.60            0.16    0.16    0.09           0.27     0.30
C7         27.79   22.60    2.37          54.66   25.71   60.60          65.83   67.01           0.40    0.82    1.49    0.59            0.16    0.16    0.03           0.21     0.23
C8         29.22   22.66    1.22          54.72   30.98   72.92          79.23   66.98           0.37    0.86    1.78    0.58            0.14    0.13    0.01           0.22     0.27
C9         47.16   47.44   32.23          74.47    3.99    9.79          10.57   67.83           0.28    0.34    0.41    0.31            0.41    0.44    0.31           0.32     0.36
C10        48.56   47.48   26.64          74.50    7.74   18.83          20.36   67.65           0.24    0.36    0.49    0.31            0.29    0.32    0.21           0.30     0.32
C11        50.01   47.55   21.64          74.54   11.47   28.09          30.34   67.79           0.21    0.38    0.57    0.30            0.22    0.28    0.08           0.31     0.35
C12        51.80   47.66   17.26          74.61   15.90   37.51          40.74   67.03           0.18    0.40    0.67    0.29            0.17    0.26    0.17           0.37     0.42
C13        60.66   68.21   65.61          86.11  -11.71   -9.22          14.90  218.23           0.25    0.12    0.10    0.18            0.30    0.24    0.10           0.26     0.30
C14        66.44   62.68   62.82          83.27   13.73  -11.46          17.88  320.15           0.14    0.23    0.13    0.20            0.19    0.30    0.15           0.28     0.36
C15        71.09   74.63   45.54          89.22   -1.85   17.37          17.46   96.07           0.11    0.13    0.26    0.12            0.10    0.10    0.13           0.12     0.14
C16        48.43   50.15   41.16          76.16    0.21    0.29           0.39   52.99           0.29    0.30    0.30    0.30            0.22    0.24    0.12           0.24     0.26
C17        61.12   58.13   42.35          80.81   12.23    6.79          14.00   29.04           0.15    0.28    0.29    0.22            0.08    0.14    0.18           0.25     0.28
C18        56.03   63.94   44.31          83.93  -13.50    9.75          16.65  144.18           0.26    0.16    0.27    0.20            0.19    0.17    0.17           0.15     0.17
C19        53.22   54.24   60.55          78.60    2.38  -17.29          17.45  277.83           0.28    0.26    0.14    0.27            0.20    0.22    0.14           0.24     0.26
C20         1.73    1.45    0.71          12.26    9.04    7.71          11.88   40.46           1.68    1.96    2.03    1.79            0.03    0.03    0.01           0.20     0.24
C21        22.81   17.23    4.67          48.55   31.01   34.52          46.40   48.07           0.48    0.97    1.22    0.70            0.16    0.15    0.07           0.29     0.33
C22        34.48   31.39   17.26          62.83   15.11   17.20          22.90   48.70           0.37    0.58    0.67    0.48            0.18    0.19    0.17           0.26     0.30
D1          4.17    4.34    2.21          24.77   -0.24   10.49          10.49   91.31           1.34    1.37    1.54    1.35            0.06    0.06    0.04           0.24     0.29
D2          4.17    4.32    1.38          24.72    0.07   19.00          19.00   89.80           1.33    1.39    1.73    1.35            0.04    0.05    0.02           0.24     0.27
D3          4.16    4.35    0.78          24.81   -0.56   28.04          28.05   91.13           1.32    1.39    1.96    1.34            0.05    0.06    0.01           0.30     0.33
D4          4.80    5.04    0.80          26.83   -0.72   31.16          31.17   91.32           1.26    1.33    1.95    1.28            0.04    0.05    0.01           0.24     0.27
D5         26.50   27.64   13.75          59.56   -0.61   20.23          20.24   91.72           0.52    0.57    0.76    0.55            0.17    0.19    0.16           0.30     0.33
D6         26.60   27.79    7.60          59.70   -0.80   40.17          40.18   91.14           0.50    0.58    1.01    0.54            0.20    0.22    0.12           0.30     0.35
D7         26.28   27.66    3.56          59.58   -1.59   60.19          60.21   91.52           0.51    0.60    1.32    0.54            0.17    0.17    0.05           0.21     0.23
D8         26.01   27.66    1.60          59.58   -2.73   76.54          76.59   92.04           0.52    0.61    1.66    0.53            0.20    0.20    0.01           0.24     0.29
D9         53.34   55.49   37.79          79.32   -0.41   10.20          10.20   92.32           0.24    0.26    0.34    0.25            0.30    0.33    0.23           0.28     0.31
D10        53.65   56.04   30.40          79.64   -1.00   21.52          21.54   92.66           0.22    0.26    0.43    0.24            0.33    0.35    0.28           0.24     0.28
D11        53.51   55.84   24.42          79.52   -0.83   31.42          31.43   91.51           0.21    0.27    0.52    0.24            0.28    0.30    0.22           0.24     0.27
D12        53.05   55.88   10.83          79.55   -2.13   63.08          63.12   91.94           0.21    0.29    0.85    0.23            0.22    0.21    0.12           0.23     0.26
D13        52.15   61.50   63.58          82.65  -17.83  -13.27          22.22  216.66           0.36    0.15    0.12    0.24            0.26    0.21    0.15           0.22     0.26
D14        61.30   54.61   59.67          78.82   21.22  -16.03          26.59  322.93           0.16    0.31    0.15    0.25            0.23    0.31    0.16           0.31     0.38
D15        68.81   72.14   36.52          88.04   -1.63   26.96          27.01   93.45           0.11    0.15    0.35    0.13            0.13    0.14    0.19           0.16     0.19
D16        36.79   38.34   31.38          68.27   -0.59    0.40           0.72  146.84           0.42    0.41    0.42    0.42            0.24    0.23    0.21           0.22     0.25
D17        54.37   49.21   32.77          75.58   18.33   10.89          21.32   30.71           0.18    0.37    0.40    0.28            0.19    0.24    0.21           0.25     0.27
D18        45.97   55.48   34.82          79.32  -20.27   14.33          24.82  144.74           0.37    0.21    0.37    0.27            0.19    0.16    0.15           0.19     0.22
D19        42.47   42.85   55.90          71.45    3.46  -24.87          25.11  277.92           0.40    0.35    0.18    0.38            0.16    0.18    0.11           0.19     0.23
D20        13.88   10.53    2.71          38.77   25.95   30.39          39.96   49.50           0.70    1.19    1.45    0.91            0.08    0.06    0.03           0.24     0.28
D21        21.35   20.69   11.60          52.61    6.75   14.31          15.82   64.74           0.60    0.73    0.84    0.67            0.17    0.17    0.13           0.33     0.38
D22        38.12   36.26   19.76          66.72   10.44   18.42          21.17   60.46           0.34    0.49    0.61    0.42            0.26    0.26    0.19           0.31     0.35
E1          3.88    4.36    2.29          24.84   -4.66    9.89          10.93  115.20           1.41    1.34    1.52    1.36            0.04    0.04    0.04           0.20     0.23
E2          3.54    4.38    1.44          24.90  -10.09   18.64          21.20  118.43           1.47    1.31    1.71    1.36            0.03    0.05    0.02           0.18     0.20
E3          3.20    4.34    0.84          24.76  -14.97   27.00          30.88  119.00           1.56    1.29    1.93    1.37            0.03    0.05    0.01           0.25     0.30
E4          3.50    4.78    0.86          26.09  -15.93   28.86          32.97  118.90           1.52    1.25    1.91    1.33            0.03    0.04    0.01           0.21     0.26
E5         12.74   14.43    7.67          44.84   -7.57   14.30          16.18  117.91           0.88    0.82    1.01    0.84            0.12    0.14    0.09           0.28     0.31
E6         11.58   14.37    4.67          44.76  -15.20   27.95          31.82  118.53           0.95    0.80    1.21    0.85            0.13    0.15    0.06           0.29     0.33
E7         10.45   14.30    2.60          44.66  -23.03   41.38          47.36  119.09           1.03    0.78    1.45    0.86            0.11    0.14    0.03           0.24     0.26
E8          9.58   14.28    1.39          44.63  -29.73   53.23          60.97  119.18           1.14    0.76    1.71    0.86            0.07    0.09    0.01           0.22     0.25
E9         37.36   40.10   28.01          69.54   -4.21    7.98           9.02  117.85           0.41    0.39    0.46    0.40            0.36    0.38    0.28           0.28     0.32
E10        36.10   40.24   23.61          69.64   -8.78   15.86          18.13  118.96           0.43    0.38    0.53    0.40            0.39    0.41    0.27           0.36     0.40
E11        34.58   39.94   19.52          69.43  -13.00   23.59          26.94  118.85           0.45    0.37    0.61    0.40            0.30    0.31    0.20           0.26     0.30
E12        31.39   40.17   11.09          69.59  -24.95   45.12          51.56  118.94           0.53    0.35    0.84    0.40            0.28    0.25    0.11           0.31     0.35
E13        44.95   55.53   61.53          79.35  -23.29  -16.96          28.82  216.06           0.46    0.17    0.13    0.29            0.29    0.24    0.14           0.28     0.32
E14        55.49   46.11   55.70          73.61   29.62  -20.93          36.27  324.76           0.19    0.42    0.19    0.31            0.22    0.32    0.18           0.40     0.48
E15        66.75   69.67   29.00          86.83   -0.95   36.16          36.17   91.50           0.12    0.18    0.44    0.14            0.15    0.14    0.18           0.24     0.33
E16        27.32   28.29   23.21          60.15    0.19    0.24           0.37   83.73           0.54    0.55    0.55    0.55            0.20    0.21    0.17           0.29     0.33
E17        47.65   40.54   24.84          69.85   25.26   13.98          28.87   28.97           0.21    0.49    0.52    0.36            0.16    0.19    0.17           0.33     0.38
E18        37.72   48.12   27.23          74.90  -26.12   18.51          32.02  144.67           0.47    0.25    0.47    0.34            0.23    0.21    0.14           0.24     0.27
E19        33.53   32.95   50.73          64.12    6.28  -31.92          32.53  281.12           0.53    0.47    0.23    0.50            0.18    0.19    0.13           0.21     0.24
E20        24.32   16.77    1.23          47.97   40.17   61.07          73.09   56.66           0.43    1.09    1.77    0.69            0.10    0.09    0.02           0.16     0.18
E21        17.23   14.21    2.73          44.53   20.70   40.16          45.18   62.73           0.62    1.00    1.44    0.79            0.13    0.12    0.04           0.21     0.25
E22        29.50   25.44    8.20          57.50   20.08   34.10          39.58   59.51           0.40    0.71    0.98    0.55            0.21    0.19    0.12           0.32     0.37
F1          1.51    1.89    1.29          14.91   -8.27    3.32           8.91  158.15           1.92    1.65    1.77    1.74            0.02    0.02    0.02           0.22     0.28
F2          1.17    1.86    1.07          14.71  -17.47    5.98          18.47  161.10           2.16    1.59    1.84    1.77            0.02    0.03    0.02           0.26     0.30
F3          1.11    2.08    1.05          15.89  -24.57    8.34          25.94  161.26           2.31    1.51    1.84    1.74            0.03    0.05    0.02           0.24     0.32
F4          1.20    2.32    1.16          17.06  -26.52    8.68          27.90  161.88           2.30    1.45    1.80    1.70            0.02    0.03    0.01           0.20     0.24
F5          6.69    8.27    5.82          34.55  -12.39    4.53          13.19  159.93           1.23    1.02    1.13    1.10            0.07    0.09    0.10           0.28     0.31
F6          5.44    8.24    4.83          34.47  -25.78    9.37          27.43  160.03           1.44    0.97    1.20    1.12            0.07    0.09    0.07           0.24     0.27
F7          4.39    8.26    4.09          34.52  -39.24   13.61          41.53  160.88           1.72    0.91    1.26    1.14            0.05    0.09    0.05           0.19     0.22
F8          3.49    8.34    3.38          34.69  -53.11   18.44          56.22  160.85           2.13    0.86    1.33    1.16            0.04    0.08    0.05           0.21     0.26
F9         37.16   40.22   31.78          69.62   -5.21    2.12           5.63  157.84           0.42    0.38    0.41    0.40            0.39    0.39    0.26           0.30     0.34
F10        35.27   40.10   30.12          69.54  -11.14    4.54          12.03  157.81           0.47    0.36    0.43    0.41            0.31    0.32    0.26           0.30     0.33
F11        33.80   40.30   29.15          69.68  -16.79    6.35          17.96  159.27           0.51    0.34    0.45    0.41            0.28    0.30    0.23           0.29     0.33
F12        28.78   40.31   25.41          69.69  -35.21   12.70          37.43  160.17           0.66    0.29    0.50    0.43            0.20    0.19    0.19           0.27     0.31
F13        38.42   49.82   59.03          75.96  -28.47  -20.32          34.97  215.51           0.58    0.20    0.15    0.35            0.21    0.18    0.14           0.21     0.25
F14        50.16   38.76   51.73          68.58   37.57  -25.34          45.32  326.00           0.23    0.53    0.22    0.38            0.22    0.30    0.18           0.38     0.47
F15        64.66   66.96   22.31          85.49    0.20   45.65          45.65   89.75           0.12    0.20    0.55    0.16            0.17    0.18    0.14           0.18     0.21
F16        19.68   20.38   16.71          52.26    0.15    0.25           0.32   91.47           0.69    0.69    0.69    0.69            0.17    0.17    0.16           0.25     0.28
F17        41.72   33.24   18.09          64.35   31.81   17.95          36.53   29.44           0.25    0.62    0.66    0.43            0.13    0.15    0.15           0.29     0.32
