targets/wolf_faust/reflective/R100205.it8
IT8.7/2
ORIGINATOR "Wolf Faust"
DESCRIPTOR "FUJICOLOR Crystal Archive Paper, L* a* b* (light D50, viewing angle 2)"
MANUFACTURER "Wolf Faust - http://www.coloraid.de"
CREATED "April 28, 2010"
PROD_DATE "2010:02"
SAMPLE_BACKING "black"
SERIAL "5x7 R100205 Batch Average Data"
MATERIAL "FUJICOLOR Crystal Archive DP II Paper"
KEYWORD "MEAN_DE" # Mean Delta E of samples compared to batch average
NUMBER_OF_FIELDS 18
BEGIN_DATA_FORMAT
SAMPLE_ID  XYZ_X   XYZ_Y   XYZ_Z          LAB_L   LAB_A   LAB_B          LAB_C   LAB_H          D_RED  D_GREEN  D_BLUE  D_VIS          STDEV_X STDEV_Y STDEV_Z        MEAN_DE  STDEV_DE
END_DATA_FORMAT
NUMBER_OF_SETS 288
BEGIN_DATA
A1          3.31    2.77    1.90          19.12   11.17    3.66          11.75   18.15           1.35    1.68    1.60    1.52            0.06    0.05    0.05           0.42     0.46
A2          4.17    2.83    1.65          19.35   23.08    6.61          24.01   15.99           1.20    1.84    1.67    1.47            0.05    0.03    0.03           0.46     0.50 
A3          5.01    2.81    1.36          19.29   34.46    9.95          35.87   16.10           1.09    2.11    1.76    1.44            0.10    0.05    0.05           0.48     0.53
A4          5.62    3.08    1.41          20.36   37.11   11.12          38.74   16.68           1.04    2.12    1.75    1.39            0.06    0.03    0.03           0.35     0.40 
A5         12.06   10.45    7.50          38.64   14.53    4.31          15.15   16.50           0.80    1.07    1.02    0.95            0.16    0.15    0.13           0.39     0.46
A6         14.36   10.54    6.51          38.80   28.86    8.73          30.15   16.83           0.68    1.19    1.09    0.92            0.23    0.19    0.15           0.48     0.56 
A7         16.58   10.49    5.63          38.71   42.24   12.58          44.07   16.59           0.60    1.33    1.15    0.89            0.14    0.12    0.12           0.38     0.45
A8         21.11   10.96    4.49          39.51   62.10   19.92          65.22   17.78           0.49    1.64    1.26    0.83            0.07    0.05    0.11           0.42     0.56 
A9         39.10   38.04   29.63          68.05    7.81    2.76           8.28   19.46           0.35    0.45    0.44    0.41            0.55    0.60    0.64           0.42     0.57
A10        41.45   38.19   28.27          68.16   14.58    5.17          15.47   19.53           0.30    0.47    0.46    0.40            0.56    0.61    0.61           0.48     0.59
A11        44.10   38.55   27.46          68.42   21.35    6.97          22.46   18.07           0.26    0.50    0.47    0.39            0.44    0.51    0.56           0.44     0.60
A12        47.31   38.68   26.10          68.52   30.07    9.45          31.52   17.45           0.21    0.53    0.50    0.37            0.38    0.48    0.52           0.49     0.64 
A13        74.66   78.33   67.48          90.93   -1.78   -2.66           3.20  236.27           0.12    0.10    0.09    0.11            0.13    0.11    0.13           0.11     0.12
A14        76.26   77.80   67.15          90.69    2.52   -2.78           3.75  312.26           0.10    0.11    0.10    0.11            0.14    0.15    0.21           0.14     0.16 
A15        76.74   79.70   62.88          91.55   -0.22    2.76           2.76   94.51           0.09    0.10    0.12    0.10            0.15    0.15    0.34           0.25     0.30
A16        77.22   80.01   65.35          91.69    0.13    0.64           0.66   76.64           0.09    0.10    0.11    0.10            0.12    0.12    0.24           0.14     0.18
A17        75.17   76.73   63.11          90.20    2.43    0.21           2.44   44.72           0.10    0.12    0.12    0.11            0.17    0.24    0.31           0.20     0.23
A18        73.96   77.82   61.66          90.70   -2.21    2.48           3.33  131.96           0.12    0.10    0.13    0.11            0.15    0.11    0.41           0.30     0.37 
A19        74.36   76.36   66.88          90.02    1.51   -3.67           3.97  292.40           0.11    0.12    0.10    0.12            0.12    0.15    0.16           0.13     0.14
A20         1.27    1.02    0.67           9.12    9.91    3.16          10.40   17.65           1.76    2.15    2.05    1.95            0.03    0.02    0.02           0.44     0.50 
A21         4.88    3.08    0.72          20.35   28.26   21.56          35.55   37.34           1.10    1.92    2.01    1.41            0.10    0.06    0.02           0.40     0.46
A22         9.57    5.43    0.78          27.92   42.16   33.41          53.79   38.39           0.80    1.84    1.97    1.15            0.12    0.06    0.02           0.50     0.55
B1          3.19    2.80    1.52          19.24    8.62    8.00          11.77   42.86           1.36    1.65    1.69    1.52            0.06    0.06    0.05           0.44     0.50
B2          3.71    2.77    0.99          19.11   17.48   14.71          22.85   40.09           1.25    1.78    1.86    1.49            0.04    0.04    0.03           0.41     0.45
B3          4.31    2.80    0.62          19.24   25.60   21.44          33.40   39.95           1.16    1.93    2.06    1.46            0.07    0.05    0.02           0.35     0.40
B4          4.80    3.08    0.63          20.38   27.14   23.25          35.73   40.59           1.11    1.90    2.06    1.42            0.09    0.06    0.02           0.51     0.60
B5         12.16   10.51    5.46          38.74   14.74   13.48          19.98   42.44           0.78    1.08    1.15    0.94            0.16    0.15    0.12           0.52     0.58
B6         14.01   10.50    3.77          38.72   26.97   22.86          35.35   40.28           0.68    1.19    1.30    0.92            0.16    0.14    0.10           0.36     0.43
B7         16.60   10.70    2.19          39.08   40.76   35.33          53.94   40.91           0.58    1.34    1.53    0.88            0.20    0.16    0.06           0.37     0.42
B8         20.63   11.01    0.93          39.60   59.38   51.10          78.34   40.71           0.48    1.63    1.89    0.83            0.09    0.07    0.01           0.21     0.26
B9         38.77   38.02   27.59          68.03    6.80    6.08           9.13   41.75           0.35    0.45    0.47    0.41            0.51    0.55    0.55           0.45     0.55
B10        40.98   38.22   24.70          68.18   13.07   11.35          17.31   40.96           0.30    0.47    0.52    0.40            0.52    0.59    0.57           0.54     0.65
B11        43.45   38.51   22.20          68.39   19.58   16.40          25.54   39.96           0.25    0.50    0.56    0.38            0.44    0.51    0.51           0.53     0.63
B12        46.56   38.78   19.03          68.59   27.64   23.21          36.09   40.02           0.20    0.53    0.62    0.37            0.31    0.41    0.34           0.55     0.63
B13        68.96   74.38   66.72          89.10   -5.89   -5.11           7.79  220.94           0.17    0.11    0.10    0.14            0.16    0.12    0.15           0.16     0.18
B14        71.86   70.35   65.04          87.17    8.62   -6.86          11.02  321.47           0.11    0.17    0.11    0.15            0.22    0.37    0.20           0.30     0.39
B15        74.68   78.09   53.60          90.82   -1.26   10.97          11.04   96.56           0.10    0.11    0.19    0.10            0.17    0.17    0.63           0.47     0.59
B16        60.47   62.50   50.97          83.18    0.49    0.68           0.85   51.96           0.19    0.20    0.21    0.20            0.47    0.53    0.64           0.31     0.40
B17        68.57   67.61   51.58          85.81    7.47    4.54           8.75   31.19           0.12    0.19    0.21    0.16            0.29    0.38    0.69           0.40     0.53
B18        65.80   72.05   52.96          87.99   -8.04    6.78          10.52  139.88           0.18    0.12    0.19    0.15            0.38    0.27    0.55           0.44     0.52
B19        63.88   65.29   64.06          84.63    2.12  -10.31          10.53  281.61           0.19    0.18    0.12    0.19            0.41    0.48    0.16           0.35     0.42
B20         2.63    1.88    0.69          14.85   17.53   12.68          21.64   35.87           1.40    1.99    2.03    1.65            0.04    0.02    0.01           0.44     0.51
B21         8.05    4.67    0.73          25.79   38.39   30.63          49.11   38.59           0.88    1.87    1.99    1.22            0.10    0.05    0.01           0.39     0.48
B22        27.60   23.28   10.99          55.36   21.95   20.90          30.31   43.59           0.42    0.75    0.86    0.59            0.39    0.37    0.29           0.42     0.51
C1          4.24    4.09    2.11          23.97    4.26    9.97          10.84   66.87           1.26    1.44    1.54    1.37            0.07    0.07    0.07           0.43     0.55
C2          4.52    4.08    1.37          23.95    8.04   17.91          19.63   65.82           1.21    1.48    1.72    1.35            0.05    0.05    0.02           0.38     0.46
C3          5.09    4.32    0.80          24.71   12.13   27.56          30.11   66.24           1.13    1.50    1.93    1.31            0.09    0.07    0.02           0.37     0.43
C4          5.39    4.57    0.81          25.46   12.49   28.57          31.18   66.39           1.11    1.48    1.92    1.29            0.08    0.07    0.02           0.45     0.52
C5         22.27   21.06   10.05          53.02    9.27   19.85          21.91   64.98           0.55    0.73    0.89    0.65            0.29    0.32    0.22           0.42     0.50
C6         24.38   21.24    5.38          53.21   17.83   38.86          42.75   65.35           0.47    0.79    1.14    0.63            0.35    0.34    0.13           0.49     0.58
C7         26.65   21.36    2.26          53.34   26.79   59.31          65.08   65.69           0.41    0.85    1.49    0.61            0.24    0.24    0.05           0.37     0.46
C8         28.02   21.65    1.37          53.65   30.96   69.11          75.73   65.87           0.38    0.88    1.70    0.60            0.25    0.24    0.03           0.51     0.61
C9         45.30   45.16   30.39          73.00    5.07   10.10          11.30   63.34           0.28    0.37    0.43    0.34            0.58    0.62    0.60           0.43     0.53
C10        46.86   45.27   25.11          73.07    9.19   19.05          21.15   64.23           0.25    0.39    0.51    0.33            0.48    0.54    0.54           0.51     0.58
C11        48.80   45.68   20.51          73.34   13.38   28.29          31.29   64.68           0.21    0.40    0.59    0.31            0.43    0.53    0.42           0.53     0.62
C12        51.17   45.87   15.14          73.46   19.21   40.61          44.92   64.69           0.17    0.43    0.71    0.30            0.34    0.48    0.28           0.51     0.61
C13        60.70   68.38   65.61          86.20  -11.97   -9.07          15.02  217.16           0.25    0.12    0.10    0.18            0.22    0.17    0.12           0.17     0.22
C14        66.03   60.82   61.95          82.28   17.09  -12.32          21.07  324.20           0.13    0.26    0.13    0.21            0.26    0.44    0.21           0.47     0.56
C15        72.46   76.13   43.45          89.92   -1.98   21.13          21.23   95.35           0.10    0.13    0.27    0.11            0.20    0.20    0.79           0.64     0.83
C16        46.53   47.93   38.80          74.78    0.91    1.00           1.37   47.51           0.30    0.32    0.33    0.32            0.57    0.61    0.61           0.40     0.48
C17        60.50   56.42   39.78          79.85   14.90    8.45          17.13   29.56           0.14    0.30    0.32    0.23            0.49    0.67    0.73           0.53     0.69
C18        55.33   64.15   41.96          84.05  -15.75   12.87          20.34  140.77           0.26    0.16    0.29    0.20            0.33    0.26    0.65           0.58     0.70
C19        51.86   52.12   60.06          77.35    4.25  -18.95          19.42  282.65           0.29    0.28    0.15    0.29            0.52    0.60    0.27           0.45     0.56
C20         1.59    1.32    0.64          11.41    9.10    7.60          11.86   39.89           1.66    2.01    2.05    1.83            0.03    0.02    0.01           0.39     0.43
C21        21.95   16.50    4.49          47.62   31.04   33.91          45.97   47.53           0.49    0.99    1.22    0.72            0.27    0.21    0.08           0.44     0.50
C22        32.80   29.50   15.89          61.22   16.20   17.65          23.96   47.44           0.37    0.61    0.70    0.50            0.50    0.51    0.48           0.51     0.67
D1          4.01    4.16    2.21          24.20   -0.02    9.49           9.50   90.12           1.31    1.39    1.52    1.37            0.07    0.07    0.06           0.48     0.51
D2          3.90    4.08    1.37          23.92   -0.46   17.80          17.81   91.47           1.31    1.41    1.71    1.38            0.06    0.06    0.03           0.38     0.45
D3          4.11    4.31    0.89          24.66   -0.61   25.99          26.00   91.34           1.29    1.39    1.88    1.35            0.07    0.06    0.01           0.40     0.47
D4          4.41    4.62    0.90          25.62   -0.56   27.47          27.47   91.17           1.25    1.36    1.88    1.32            0.07    0.07    0.02           0.38     0.42
D5         25.06   25.91   12.84          57.95    0.32   19.93          19.93   89.08           0.53    0.60    0.78    0.58            0.38    0.40    0.28           0.48     0.57
D6         24.96   25.92    7.26          57.96   -0.14   38.57          38.57   90.21           0.51    0.61    1.01    0.57            0.43    0.47    0.19           0.45     0.55
D7         24.74   25.83    3.39          57.88   -0.73   58.39          58.40   90.72           0.51    0.63    1.32    0.57            0.35    0.36    0.06           0.51     0.62
D8         24.87   26.28    1.82          58.30   -1.98   72.01          72.04   91.57           0.52    0.63    1.58    0.56            0.22    0.27    0.05           0.43     0.50
D9         51.69   53.39   35.66          78.11    0.55   11.05          11.07   87.17           0.24    0.28    0.36    0.27            0.54    0.64    0.67           0.46     0.57
D10        51.70   53.57   28.85          78.21    0.12   21.55          21.55   89.70           0.23    0.29    0.44    0.26            0.50    0.56    0.65           0.54     0.65
D11        51.50   53.47   23.13          78.15   -0.14   31.44          31.44   90.26           0.22    0.29    0.53    0.26            0.50    0.59    0.57           0.51     0.64
D12        52.39   55.30    7.32          79.21   -2.40   74.98          75.02   91.83           0.20    0.30    1.00    0.24            0.24    0.21    0.09           0.26     0.30
D13        52.98   62.34   64.08          83.09  -17.60  -12.98          21.86  216.42           0.35    0.15    0.11    0.23            0.20    0.16    0.11           0.19     0.22
D14        60.36   52.07   58.50          77.32   25.46  -17.43          30.85  325.61           0.16    0.35    0.16    0.27            0.39    0.57    0.33           0.57     0.71
D15        70.59   74.23   34.78          89.03   -2.08   31.15          31.22   93.83           0.10    0.14    0.36    0.12            0.15    0.17    0.68           0.62     0.86
D16        35.34   36.23   29.39          66.69    1.38    0.80           1.60   29.59           0.42    0.45    0.44    0.44            0.50    0.55    0.54           0.44     0.53
D17        53.34   46.86   30.42          74.10   22.08   11.95          25.11   28.41           0.17    0.41    0.43    0.30            0.41    0.52    0.65           0.54     0.69
D18        46.22   56.68   33.48          80.00  -22.47   17.46          28.46  142.16           0.36    0.19    0.38    0.26            0.58    0.50    0.74           0.64     0.81
D19        41.60   40.83   55.59          70.05    6.89  -26.95          27.82  284.33           0.40    0.38    0.18    0.40            0.53    0.60    0.33           0.48     0.63
D20        12.90    9.79    2.50          37.47   25.29   29.83          39.11   49.70           0.71    1.22    1.47    0.94            0.14    0.13    0.06           0.48     0.56
D21        20.12   19.41   10.94          51.17    7.06   13.82          15.52   62.93           0.60    0.76    0.86    0.69            0.38    0.36    0.27           0.43     0.51
D22        36.04   33.99   18.24          64.95   11.24   18.65          21.78   58.92           0.35    0.52    0.64    0.45            0.51    0.53    0.44           0.52     0.60
E1          3.61    4.10    2.21          23.98   -5.09    9.11          10.44  119.22           1.39    1.36    1.52    1.39            0.07    0.08    0.08           0.53     0.58
E2          3.33    4.09    1.41          23.95   -9.43   17.38          19.78  118.49           1.44    1.34    1.69    1.40            0.05    0.05    0.02           0.31     0.35
E3          3.27    4.33    0.95          24.73  -13.71   25.07          28.57  118.67           1.48    1.30    1.85    1.37            0.06    0.08    0.02           0.34     0.39
E4          3.38    4.50    0.97          25.25  -14.18   25.64          29.30  118.93           1.47    1.28    1.84    1.36            0.04    0.06    0.03           0.45     0.52
E5         11.83   13.33    7.03          43.26   -6.98   14.18          15.81  116.24           0.88    0.85    1.04    0.88            0.18    0.21    0.20           0.58     0.66
E6         10.79   13.31    4.43          43.22  -14.31   26.66          30.26  118.22           0.94    0.83    1.22    0.88            0.15    0.19    0.07           0.38     0.46
E7          9.72   13.22    2.35          43.09  -22.02   40.78          46.34  118.37           1.03    0.81    1.47    0.89            0.16    0.21    0.05           0.41     0.50
E8          9.26   13.47    1.56          43.46  -27.30   49.23          56.29  119.01           1.09    0.79    1.64    0.89            0.08    0.12    0.02           0.34     0.44
E9         35.33   37.64   26.12          67.76   -3.24    8.11           8.73  111.81           0.42    0.42    0.49    0.42            0.47    0.52    0.43           0.39     0.46
E10        34.38   38.06   22.21          68.06   -7.77   15.80          17.61  116.21           0.43    0.40    0.55    0.42            0.46    0.52    0.40           0.50     0.56
E11        33.23   38.11   18.11          68.10  -11.93   24.37          27.14  116.09           0.45    0.40    0.64    0.42            0.46    0.51    0.41           0.47     0.54
E12        29.87   39.52    8.88          69.13  -28.61   51.65          59.05  118.98           0.54    0.35    0.92    0.41            0.21    0.21    0.13           0.42     0.47
E13        45.46   56.06   62.48          79.65  -23.12  -17.38          28.93  216.93           0.46    0.17    0.13    0.29            0.19    0.18    0.15           0.16     0.18
E14        55.22   44.63   54.99          72.64   33.12  -21.86          39.68  326.58           0.19    0.45    0.19    0.33            0.35    0.49    0.33           0.55     0.67
E15        68.63   71.94   27.18          87.94   -1.58   41.10          41.13   92.21           0.10    0.16    0.46    0.13            0.19    0.25    0.67           0.68     0.94
E16        25.95   26.78   21.71          58.77    0.53    0.77           0.96   61.87           0.55    0.57    0.57    0.57            0.35    0.39    0.41           0.51     0.60
E17        47.22   39.10   22.68          68.82   28.49   16.22          32.78   29.65           0.20    0.53    0.55    0.37            0.35    0.47    0.49           0.54     0.70
E18        37.40   48.86   25.73          75.36  -29.15   21.91          36.47  143.08           0.47    0.24    0.49    0.33            0.33    0.32    0.55           0.60     0.77
E19        32.78   31.50   50.98          62.93    8.77  -34.26          35.36  284.35           0.52    0.49    0.23    0.52            0.32    0.40    0.29           0.44     0.56
E20        23.80   16.18    1.19          47.21   41.18   60.34          73.06   55.69           0.43    1.11    1.76    0.70            0.19    0.17    0.03           0.42     0.47
E21        16.08   13.22    2.54          43.09   20.51   39.20          44.24   62.38           0.63    1.04    1.45    0.83            0.25    0.22    0.08           0.45     0.51
E22        27.75   23.71    7.49          55.79   20.68   33.92          39.72   58.64           0.41    0.75    1.01    0.58            0.39    0.37    0.18           0.46     0.53
F1          1.41    1.77    1.27          14.21   -7.86    2.29           8.19  163.76           1.87    1.68    1.76    1.77            0.02    0.03    0.02           0.29     0.32
F2          1.10    1.73    1.03          13.99  -16.71    5.35          17.55  162.25           2.08    1.63    1.84    1.81            0.02    0.03    0.02           0.35     0.40
F3          1.17    2.10    1.11          16.00  -22.92    7.62          24.15  161.61           2.13    1.51    1.80    1.73            0.02    0.03    0.03           0.35     0.40
F4          1.05    1.81    0.98          14.44  -20.49    6.91          21.63  161.36           2.16    1.59    1.85    1.80            0.02    0.03    0.02           0.27     0.30
F5          6.22    7.75    5.47          33.45  -12.60    4.34          13.33  161.01           1.23    1.05    1.15    1.13            0.10    0.12    0.09           0.41     0.47
F6          5.08    7.69    4.67          33.33  -25.15    8.27          26.48  161.78           1.42    0.99    1.20    1.15            0.07    0.09    0.07           0.38     0.46
F7          4.15    7.79    3.87          33.54  -38.29   13.31          40.54  160.83           1.66    0.94    1.27    1.17            0.06    0.11    0.09           0.33     0.39
F8          3.37    7.78    3.27          33.52  -50.07   17.23          52.95  161.01           1.98    0.90    1.33    1.18            0.04    0.08    0.06           0.34     0.38
F9         35.01   37.92   29.43          67.96   -5.19    2.94           5.98  150.56           0.44    0.40    0.44    0.43            0.51    0.57    0.73           0.55     0.66
F10        33.71   38.02   28.57          68.04   -9.99    4.45          10.94  155.96           0.47    0.39    0.45    0.43            0.44    0.49    0.43           0.36     0.42
F11        31.84   37.91   26.87          67.95  -16.25    7.16          17.76  156.24           0.52    0.37    0.48    0.44            0.47    0.54    0.57           0.54     0.62
F12        27.13   39.49   23.51          69.10  -39.19   15.13          42.01  158.90           0.69    0.29    0.53    0.44            0.32    0.32    0.44           0.51     0.62
F13        38.93   50.20   60.40          76.19  -27.84  -21.29          35.04  217.40           0.57    0.20    0.14    0.34            0.23    0.21    0.12           0.24     0.29
F14        50.13   37.75   51.13          67.84   40.68  -25.96          48.25  327.45           0.22    0.56    0.23    0.39            0.32    0.43    0.30           0.50     0.65
F15        67.06   69.88   21.49          86.94   -0.70   49.77          49.78   90.81           0.10    0.18    0.56    0.14            0.16    0.22    0.45           0.57     0.75
F16        18.64   19.25   15.86          50.98    0.42    0.07           0.45  161.99           0.69    0.72    0.71    0.72            0.32    0.32    0.28           0.43     0.48
F17        41.70   32.34   16.76          63.62   34.91   19.73          40.10   29.47           0.24    0.65    0.68    0.44            0.35    0.43    0.35           0.47     0.62
