targets/wolf_faust/reflective/R100204WhiteBacking.it8
IT8.7/2
ORIGINATOR "Wolf Faust"
DESCRIPTOR "Kodak Professional Paper, L* a* b* (light D50, viewing angle 2)"
MANUFACTURER "Wolf Faust - http://www.coloraid.de"
CREATED "March 03, 2010"
PROD_DATE "2010:02"
SAMPLE_BACKING "white"
SERIAL "5x7 R100204 Batch Average Data"
MATERIAL "Kodak Professional Ultra Endura"
NUMBER_OF_FIELDS 9
BEGIN_DATA_FORMAT
SAMPLE_ID  XYZ_X   XYZ_Y   XYZ_Z          LAB_L   LAB_A   LAB_B          LAB_C   LAB_H
END_DATA_FORMAT
NUMBER_OF_SETS 288
BEGIN_DATA
A1          3.51    2.94    1.95          19.80   11.34    4.33          12.14   20.89
A2          4.29    2.90    1.65          19.64   23.49    7.20          24.57   17.05 
A3          5.16    2.88    1.37          19.57   35.14   10.25          36.61   16.27
A4          5.87    3.16    1.38          20.68   38.55   12.11          40.41   17.44 
A5         12.72   11.11    7.83          39.76   14.19    4.92          15.02   19.10
A6         14.87   10.97    6.87          39.52   28.79    8.41          29.99   16.28 
A7         17.24   10.98    5.83          39.54   42.27   13.06          44.24   17.16
A8         21.06   11.08    4.81          39.72   60.95   18.49          63.70   16.88 
A9         40.82   40.17   31.12          69.59    6.51    3.08           7.21   25.31
A10        43.14   40.11   30.21          69.55   13.67    4.43          14.37   17.95
A11        45.72   40.21   28.98          69.62   20.85    6.52          21.85   17.35
A12        47.90   39.94   27.39          69.42   27.80    8.80          29.16   17.57 
A13        76.89   80.67   69.20          91.99   -1.79   -2.42           3.01  233.50
A14        77.47   79.59   68.75          91.50    1.46   -2.85           3.20  297.24 
A15        77.59   80.93   63.76          92.10   -0.89    2.86           2.99  107.23
A16        77.27   80.05   65.18          91.71    0.17    0.83           0.84   78.14
A17        75.08   76.85   61.57          90.25    2.01    1.80           2.70   41.89
A18        76.11   79.93   64.41          91.65   -1.93    1.47           2.43  142.86 
A19        76.61   79.32   68.77          91.38    0.25   -3.07           3.08  274.72
A20         1.31    1.06    0.69           9.44    9.68    3.28          10.22   18.74 
A21         5.13    3.24    0.72          21.00   28.56   22.53          36.38   38.27
A22        10.09    5.74    0.78          28.75   42.72   34.88          55.15   39.23
B1          3.36    2.95    1.57          19.82    8.89    8.40          12.23   43.40
B2          3.87    2.91    0.99          19.66   17.46   15.74          23.51   42.04
B3          4.53    2.94    0.59          19.79   26.12   22.90          34.74   41.25
B4          5.03    3.12    0.53          20.52   29.42   25.48          38.92   40.89
B5         12.69   10.94    5.89          39.48   15.20   12.71          19.81   39.91
B6         14.55   10.98    3.79          39.55   26.80   24.12          36.06   41.99
B7         16.98   10.95    2.20          39.50   41.03   35.96          54.56   41.23
B8         20.54   11.15    0.97          39.83   57.98   50.71          77.03   41.18
B9         40.72   40.30   29.46          69.68    5.79    5.85           8.23   45.30
B10        42.56   39.96   26.27          69.44   12.40   10.75          16.42   40.91
B11        44.53   39.74   23.01          69.28   18.89   16.39          25.01   40.94
B12        47.29   40.17   20.60          69.59   25.38   21.65          33.36   40.46
B13        70.90   76.38   68.11          90.04   -5.77   -4.78           7.49  219.65
B14        73.65   73.11   66.66          88.50    6.62   -6.09           8.99  317.39
B15        75.33   78.83   55.58          91.16   -1.38    9.44           9.54   98.29
B16        62.86   65.17   52.81          84.57    0.06    1.05           1.05   87.14
B17        70.03   69.85   53.60          86.92    5.82    4.24           7.20   36.10
B18        67.65   73.49   54.86          88.68   -6.91    5.93           9.10  139.36
B19        66.25   68.20   65.44          86.11    1.10   -9.08           9.15  276.93
B20         2.82    2.00    0.69          15.48   18.29   13.70          22.85   36.83
B21         8.38    4.87    0.75          26.37   38.88   31.40          49.97   38.92
B22        28.80   24.40   11.44          56.49   21.78   21.46          30.58   44.57
C1          4.46    4.30    2.15          24.65    4.29   10.79          11.61   68.32
C2          4.85    4.38    1.34          24.90    8.32   19.85          21.53   67.27
C3          5.11    4.29    0.70          24.61   12.69   29.23          31.86   66.53
C4          5.68    4.74    0.68          25.99   13.53   31.94          34.69   67.04
C5         23.65   22.53   10.66          54.58    8.75   20.60          22.38   66.98
C6         25.69   22.51    5.37          54.57   17.55   41.25          44.83   66.95
C7         27.71   22.35    2.26          54.39   26.52   61.04          66.55   66.52
C8         28.98   22.28    1.15          54.32   31.80   73.11          79.72   66.49
C9         47.40   47.71   32.43          74.64    3.92    9.79          10.54   68.19
C10        48.75   47.50   26.20          74.51    8.21   19.60          21.25   67.28
C11        50.65   47.88   21.62          74.75   12.27   28.49          31.02   66.71
C12        52.00   47.46   16.66          74.48   16.98   38.68          42.24   66.29
C13        61.68   69.47   66.36          86.73  -12.01   -8.86          14.92  216.42
C14        68.00   64.02   63.56          83.97   14.13  -10.96          17.88  322.19
C15        72.88   76.40   46.08          90.04   -1.64   18.14          18.21   95.16
C16        48.74   50.54   41.44          76.40    0.02    0.34           0.36   87.78
C17        62.31   59.17   42.72          81.38   12.53    7.31          14.51   30.26
C18        56.38   64.49   44.39          84.22  -13.89   10.14          17.20  143.86
C19        53.72   54.83   60.96          78.94    2.20  -17.10          17.24  277.33
C20         1.71    1.42    0.67          12.09    9.35    8.30          12.50   41.59
C21        22.90   17.16    4.67          48.45   31.81   34.37          46.83   47.21
C22        34.71   31.40   16.82          62.85   15.81   18.24          24.14   49.09
D1          4.14    4.32    2.19          24.69   -0.34   10.51          10.51   91.88
D2          4.09    4.27    1.34          24.55   -0.40   19.22          19.23   91.19
D3          4.16    4.40    0.74          24.96   -1.17   29.07          29.09   92.31
D4          4.79    4.96    0.76          26.62    0.11   31.58          31.58   89.81
D5         26.56   27.70   13.44          59.61   -0.59   21.15          21.16   91.59
D6         26.64   27.96    7.44          59.86   -1.30   41.10          41.12   91.81
D7         26.30   27.70    3.54          59.61   -1.67   60.36          60.38   91.59
D8         26.08   27.81    1.54          59.71   -2.99   77.44          77.49   92.21
D9         54.10   56.25   37.83          79.75   -0.33   10.88          10.89   91.76
D10        53.85   56.08   30.26          79.66   -0.56   21.77          21.78   91.47
D11        53.93   56.37   24.20          79.82   -1.06   32.34          32.35   91.88
D12        53.91   56.68   10.66          80.00   -1.86   64.43          64.45   91.66
D13        52.81   62.41   64.07          83.13  -18.20  -12.90          22.31  215.32
D14        62.22   55.21   59.94          79.16   21.89  -15.71          26.94  324.34
D15        70.18   73.47   36.75          88.67   -1.41   27.73          27.77   92.91
D16        36.62   38.06   31.16          68.06   -0.24    0.38           0.49  125.10
D17        54.89   49.39   32.80          75.69   19.18   11.04          22.13   29.93
D18        46.28   55.93   35.03          79.57  -20.48   14.48          25.09  144.74
D19        42.44   42.80   55.73          71.42    3.53  -24.75          25.00  278.13
D20        13.86   10.53    2.60          38.78   25.82   31.32          40.59   50.50
D21        21.36   20.60   11.25          52.51    7.25   15.17          16.81   64.46
D22        38.27   36.38   19.52          66.81   10.52   19.09          21.80   61.13
E1          3.81    4.32    2.22          24.71   -5.16   10.23          11.46  116.78
E2          3.54    4.35    1.41          24.79   -9.68   18.83          21.18  117.21
E3          3.21    4.33    0.79          24.74  -14.81   27.80          31.50  118.06
E4          3.53    4.83    0.82          26.25  -16.09   29.80          33.87  118.37
E5         12.75   14.40    7.52          44.81   -7.39   14.84          16.58  116.48
E6         11.64   14.44    4.53          44.86  -15.17   28.92          32.65  117.68
E7         10.50   14.40    2.49          44.80  -23.31   42.59          48.55  118.69
E8          9.74   14.56    1.34          45.02  -30.17   54.59          62.37  118.93
E9         37.36   40.21   27.84          69.62   -4.56    8.39           9.55  118.52
E10        36.29   40.50   23.34          69.82   -8.91   16.69          18.92  118.10
E11        35.11   40.60   19.43          69.89  -13.19   24.60          27.91  118.19
E12        32.32   41.14   11.46          70.27  -24.55   45.18          51.42  118.52
E13        45.63   56.37   61.83          79.82  -23.40  -16.44          28.60  215.08
E14        56.37   46.79   55.91          74.06   29.90  -20.38          36.19  325.72
E15        68.02   70.90   29.35          87.44   -0.74   36.63          36.64   91.15
E16        27.43   28.34   23.23          60.19    0.45    0.29           0.56   77.29
E17        48.13   40.75   24.70          70.00   25.96   14.48          29.72   29.16
E18        38.01   48.47   27.10          75.12  -26.13   19.11          32.38  143.82
E19        33.57   32.98   50.51          64.14    6.29  -31.63          32.25  281.26
E20        24.44   16.62    1.16          47.78   41.53   61.62          74.32   56.02
E21        16.88   13.93    2.59          44.14   20.52   40.63          45.52   63.20
E22        29.35   25.15    7.88          57.23   20.73   34.82          40.52   59.23
F1          1.51    1.87    1.24          14.79   -7.70    3.79           8.58  153.82
F2          1.17    1.86    1.03          14.72  -17.44    6.62          18.65  159.21
F3          1.12    2.12    1.01          16.12  -25.28    9.21          26.91  159.98
F4          1.21    2.37    1.10          17.32  -27.34   10.03          29.12  159.86
F5          6.71    8.33    5.78          34.67  -12.71    4.91          13.63  158.87
F6          5.51    8.37    4.83          34.75  -26.12    9.85          27.91  159.34
F7          4.43    8.29    3.97          34.58  -38.95   14.44          41.54  159.66
F8          3.52    8.48    3.20          34.96  -53.84   20.17          57.49  159.46
F9         37.21   40.55   31.55          69.86   -6.04    2.87           6.69  154.64
F10        35.43   40.47   30.23          69.80  -11.72    4.83          12.68  157.58
F11        34.18   41.00   29.26          70.18  -17.61    7.03          18.96  158.23
F12        29.62   41.15   25.60          70.28  -34.50   13.36          36.99  158.84
F13        38.68   50.19   59.00          76.19  -28.61  -19.89          34.84  214.81
F14        50.75   39.27   51.68          68.95   37.55  -24.65          44.92  326.72
F15        65.74   67.96   22.21          85.99    0.47   46.71          46.72   89.42
F16        19.54   20.18   16.41          52.04    0.42    0.57           0.73   52.95
F17        42.01   33.31   17.78          64.41   32.43   18.75          37.47   30.03
F18        30.38   41.20   20.25          70.32  -31.82   23.61          39.62  143.42
F19        25.61   24.40   44.96          56.48    8.96  -38.38          39.41  283.14
F20        25.44   24.38   11.16          56.47    8.34   22.29          23.79   69.49
F21        33.27   30.04   10.38          61.69   15.82   33.75          37.27   64.89
F22        37.78   35.16   15.07          65.87   12.98   27.69          30.58   64.88
G1          2.32    2.92    2.49          19.73   -9.55   -0.67           9.57  183.99
G2          1.88    2.91    2.77          19.68  -19.18   -2.99          19.41  188.87
G3          1.72    3.20    3.23          20.83  -28.06   -4.40          28.41  188.92
G4          1.84    3.49    3.45          21.91  -29.67   -4.06          29.94  187.78
G5          9.13   11.11    9.59          39.77  -12.51   -1.46          12.59  186.64
G6          7.70   11.07   10.16          39.70  -24.78   -3.46          25.02  187.96
G7          6.50   11.16   10.75          39.85  -37.27   -5.11          37.62  187.81
G8          5.23   11.22   11.57          39.95  -51.89   -7.44          52.42  188.16
G9         37.17   40.59   33.67          69.89   -6.31   -0.25           6.31  182.27
G10        35.30   40.87   34.58          70.09  -13.37   -1.24          13.43  185.30
G11        33.58   40.85   35.31          70.07  -19.24   -2.30          19.38  186.83
G12        29.17   41.32   37.52          70.40  -36.78   -4.82          37.09  187.47
G13        32.39   44.34   56.05          72.46  -33.70  -23.30          40.97  214.66
G14        45.64   32.81   47.61          64.01   44.81  -28.55          53.13  327.49
G15        63.82   65.29   16.70          84.63    2.00   56.07          56.11   87.96
G16        13.39   13.91   11.31          44.11   -0.17    0.53           0.61  108.42
G17        36.79   27.25   12.58          59.21   38.48   22.83          44.74   30.69
G18        23.82   34.63   14.87          65.46  -37.41   27.47          46.41  143.71
G19        19.21   17.61   39.81          49.02   11.76  -44.75          46.27  284.73
G20        35.38   34.04   13.91          64.99    8.86   29.16          30.47   73.10
G21        34.09   32.51    8.94          63.77    9.72   42.17          43.28   77.02
G22        46.11   42.32    2.56          71.09   15.59   87.30          88.68   79.87
H1          2.51    2.92    3.21          19.71   -5.67   -6.18           8.39  227.43
H2          2.24    2.93    4.22          19.77  -11.51  -12.54          17.02  227.46
H3          2.01    3.05    5.55          20.22  -18.58  -18.89          26.50  225.48
H4          2.21    3.45    6.35          21.78  -20.69  -19.93          28.73  223.92
H5          9.59   11.00   11.63          39.58   -7.86   -8.25          11.39  226.37
H6          8.67   11.06   14.91          39.68  -16.00  -17.06          23.38  226.83
H7          7.76   11.02   18.66          39.61  -23.89  -25.96          35.28  227.38
H8          6.96   11.21   24.30          39.93  -32.87  -36.63          49.22  228.10
H9         37.48   40.45   36.73          69.79   -4.86   -4.79           6.83  224.58
H10        36.31   40.55   40.19          69.86   -8.99   -9.33          12.96  226.04
H11        35.21   40.85   44.18          70.07  -13.61  -14.00          19.53  225.81
H12        32.61   41.27   54.88          70.36  -23.88  -25.67          35.06  227.07
H13        27.14   39.10   52.85          68.83  -37.94  -26.14          46.07  214.57
H14        40.59   26.85   43.23          58.83   52.17  -32.20          61.31  328.32
H15        61.86   62.48   12.14          83.17    3.80   65.41          65.52   86.67
H16         8.85    9.19    7.35          36.35   -0.12    0.94           0.95   97.06
H17        32.04   22.03    8.36          54.06   44.34   27.57          52.22   31.87
H18        18.58   28.98   10.46          60.77  -42.10   31.88          52.81  142.87
H19        14.13   12.18   34.75          41.50   15.78  -50.76          53.16  287.26
H20        40.18   40.59   14.64          69.89    3.27   35.69          35.84   84.76
H21        30.32   31.34   19.72          62.79    0.40   11.74          11.75   88.07
H22        34.45   37.53   10.90          67.67   -5.86   42.40          42.81   97.87
I1          4.21    4.29    5.58          24.60    1.07  -11.49          11.53  275.30
I2          4.34    4.39    8.33          24.93    1.46  -22.56          22.61  273.71
I3          4.29    4.30   11.75          24.64    2.04  -34.37          34.43  273.40
I4          4.39    4.26   19.08          24.53    3.92  -52.88          53.03  274.24
I5         13.96   14.36   14.84          44.75    0.72   -8.16           8.20  275.02
I6         14.11   14.38   19.23          44.78    1.49  -18.29          18.35  274.67
I7         13.99   14.24   23.61          44.58    1.61  -27.33          27.38  273.37
I8         14.39   14.34   36.69          44.71    3.54  -47.97          48.10  274.22
I9         39.43   40.84   36.40          70.06    0.16   -3.87           3.88  272.43
I10        39.22   40.55   40.29          69.86    0.38   -9.45           9.46  272.28
I11        39.53   40.73   44.29          69.98    0.80  -14.28          14.30  273.22
I12        39.95   40.76   54.87          70.01    2.03  -26.27          26.35  274.41
I13        22.28   33.92   49.35          64.90  -41.91  -29.02          50.98  214.70
I14        35.53   21.35   38.59          53.33   59.63  -35.71          69.50  329.09
I15        59.93   59.67    8.64          81.66    5.76   74.13          74.35   85.56
I16         5.34    5.58    4.52          28.32   -0.44    0.47           0.65  134.37
I17        27.71   17.55    5.24          48.94   50.01   32.17          59.47   32.75
I18        13.95   23.70    7.18          55.78  -46.92   35.14          58.62  143.17
I19        10.01    7.86   29.72          33.70   20.82  -56.61          60.31  290.19
I20        40.86   44.89   15.25          72.82   -7.27   39.21          39.87  100.50
I21        10.94   14.59    3.32          45.07  -21.15   36.73          42.38  119.93
I22        28.16   36.43   16.56          66.85  -25.35   25.74          36.13  134.56
J1          2.13    1.89    2.95          14.88    7.14  -12.62          14.50  299.51
J2          2.43    1.91    4.81          14.99   13.09  -24.08          27.41  298.53
J3          2.85    1.91    7.77          15.00   20.96  -37.52          42.98  299.19
J4          3.80    1.92   17.60          15.05   36.27  -65.97          75.28  298.80
J5         11.50   11.13   11.88          39.80    5.60   -8.61          10.28  303.04
J6         12.28   11.19   15.80          39.90   10.59  -18.90          21.66  299.26
J7         13.00   11.13   20.00          39.80   15.88  -28.48          32.61  299.14
J8         15.20   11.27   33.64          40.03   28.63  -51.70          59.10  298.98
J9         40.28   40.78   36.94          70.02    3.00   -4.68           5.55  302.68
J10        40.78   40.37   40.03          69.73    5.77   -9.33          10.97  301.73
J11        41.57   40.43   44.35          69.78    8.00  -14.71          16.75  298.55
J12        43.92   40.51   54.20          69.83   14.73  -25.86          29.76  299.66
J13        18.26   29.29   45.70          61.04  -44.95  -31.42          54.84  214.96
J14        30.75   16.59   33.87          47.73   66.88  -38.74          77.29  329.92
J15        57.81   56.50    5.62          79.90    8.26   83.67          84.08   84.36
J16         2.97    3.08    2.49          20.35    0.01    0.39           0.40   80.91
J17        23.59   13.64    2.90          43.71   55.34   37.44          66.82   34.08
J18        10.28   19.04    4.55          50.73  -50.56   38.93          63.81  142.41
J19         7.00    4.74   24.91          25.97   27.63  -61.79          67.69  294.09
J20        29.86   38.52   21.67          68.40  -25.55   17.46          30.94  145.66
J21         4.26    7.97    1.38          33.92  -38.47   34.99          52.00  137.71
J22         1.34    2.12    0.85          16.11  -18.11   11.82          21.63  146.87
K1          5.19    4.36    5.07          24.82   12.88   -8.55          15.46  326.42
K2          6.50    4.39    7.15          24.93   27.02  -17.93          32.43  326.44
K3          7.77    4.37    9.71          24.86   39.89  -27.55          48.48  325.37
K4          9.20    4.32   12.76          24.69   53.05  -37.18          64.78  324.98
K5         15.83   14.38   14.54          44.77   11.81   -7.35          13.92  328.09
K6         17.89   14.38   17.96          44.78   23.20  -15.51          27.91  326.24
K7         19.98   14.35   21.87          44.73   34.09  -23.76          41.55  325.13
K8         26.03   14.41   33.15          44.81   61.05  -42.73          74.51  325.01
K9         41.33   40.61   36.38          69.90    6.72   -4.11           7.87  328.56
K10        43.45   40.55   39.59          69.86   13.25   -8.53          15.76  327.23
K11        45.89   40.67   43.69          69.94   19.94  -13.62          24.14  325.67
K12        51.37   40.65   52.63          69.93   34.94  -23.99          42.38  325.53
K13        14.71   24.79   41.66          56.87  -46.95  -33.61          57.74  215.60
K14        26.58   12.95   29.42          42.69   72.44  -40.64          83.06  330.71
K15        55.10   52.65    3.35          77.67   11.17   92.75          93.42   83.13
K16         1.45    1.50    1.18          12.62   -0.02    0.85           0.86   90.82
K17        20.06   10.67    1.36          39.02   59.13   43.99          73.70   36.65
K18         7.26   14.74    2.63          45.28  -53.01   42.20          67.76  141.48
K19         4.91    2.75   20.52          19.01   34.49  -65.41          73.94  297.80
K20         2.36    3.10    1.84          20.45  -12.00    6.52          13.66  151.48
K21         1.31    1.78    1.45          14.27  -11.25    0.21          11.25  178.95
K22         1.65    2.13    2.74          16.16   -9.89   -8.84          13.27  221.80
L1          3.64    2.97    2.60          19.90   12.94   -1.27          13.00  354.41
L2          4.46    2.92    2.92          19.72   25.48   -4.10          25.81  350.87
L3          5.62    3.06    3.39          20.30   37.41   -6.45          37.96  350.22
L4          6.40    3.36    3.72          21.45   41.01   -6.62          41.54  350.82
L5         13.15   11.29    9.86          40.07   15.73   -1.85          15.84  353.28
L6         15.52   11.10   10.67          39.75   31.67   -5.01          32.06  351.01
L7         18.36   11.09   11.53          39.73   47.46   -7.71          48.09  350.78
L8         22.23   11.21   12.65          39.93   65.47  -10.61          66.33  350.80
L9         41.59   40.45   33.95          69.79    8.02   -0.85           8.07  353.96
L10        43.79   40.41   34.69          69.76   14.66   -1.96          14.79  352.40
L11        46.50   40.53   35.70          69.84   22.09   -3.25          22.32  351.63
L12        49.29   40.28   36.83          69.67   30.54   -5.14          30.97  350.44
L13        11.14   19.71   36.20          51.50  -47.48  -35.57          59.33  216.84
L14        21.87    9.55   24.08          37.03   76.34  -41.23          86.77  331.63
L15        50.51   46.87    1.79          74.10   14.68   99.56         100.64   81.61
L16         0.51    0.52    0.42           4.67    0.43    0.13           0.46   60.75
L17        15.67    7.63    0.49          33.20   60.79   48.03          77.47   38.31
L18         4.40   10.00    1.30          37.84  -53.33   42.65          68.29  141.35
L19         3.28    1.39   15.57          11.86   41.93  -66.66          78.75  302.17
L20         0.71    0.76    0.75           6.88   -1.06   -2.31           2.55  245.30
L21         0.95    0.89    0.92           8.00    3.71   -3.25           4.94  318.79
L22         2.01    1.59    1.30          13.17   11.83    0.16          11.83    0.76
GS0        79.12   82.29   69.65          92.70   -0.44   -1.59           1.65  254.52
GS1        68.00   70.51   57.60          87.25    0.03    0.60           0.60   86.68
GS2        60.20   62.45   51.02          83.15   -0.04    0.57           0.59   92.81
