targets/wolf_faust/reflective/R100205WhiteBacking.it8
IT8.7/2
ORIGINATOR "Wolf Faust"
DESCRIPTOR "FUJICOLOR Crystal Archive Paper, L* a* b* (light D50, viewing angle 2)"
MANUFACTURER "Wolf Faust - http://www.coloraid.de"
CREATED "April 28, 2010"
PROD_DATE "2010:02"
SAMPLE_BACKING "white"
SERIAL "5x7 R100205 Batch Average Data"
MATERIAL "FUJICOLOR Crystal Archive DP II Paper"
NUMBER_OF_FIELDS 9
BEGIN_DATA_FORMAT
SAMPLE_ID  XYZ_X   XYZ_Y   XYZ_Z          LAB_L   LAB_A   LAB_B          LAB_C   LAB_H
END_DATA_FORMAT
NUMBER_OF_SETS 288
BEGIN_DATA
A1          3.36    2.81    1.91          19.27   11.24    3.80          11.87   18.66
A2          4.21    2.85    1.65          19.44   23.32    6.77          24.29   16.20 
A3          5.09    2.85    1.35          19.42   34.83   10.31          36.32   16.49
A4          5.71    3.13    1.42          20.54   37.41   11.38          39.10   16.92 
A5         12.26   10.62    7.56          38.93   14.68    4.53          15.36   17.14
A6         14.71   10.79    6.63          39.22   29.12    8.91          30.46   17.01 
A7         16.86   10.64    5.67          38.97   42.65   12.88          44.55   16.80
A8         21.62   11.18    4.52          39.88   62.87   20.43          66.11   18.00 
A9         39.93   38.81   30.05          68.61    7.99    3.07           8.56   20.99
A10        42.38   38.99   28.65          68.74   14.88    5.55          15.88   20.44
A11        45.05   39.28   27.74          68.95   21.81    7.41          23.04   18.75
A12        48.48   39.49   26.42          69.10   30.76    9.92          32.32   17.87 
A13        76.54   80.26   68.74          91.80   -1.72   -2.31           2.88  233.38
A14        78.12   79.62   68.27          91.51    2.69   -2.39           3.60  318.41 
A15        78.67   81.62   63.77          92.41   -0.07    3.38           3.38   91.21
A16        79.20   81.99   66.45          92.57    0.29    1.12           1.16   75.39
A17        77.11   78.61   64.23          91.06    2.64    0.61           2.72   12.86
A18        75.90   79.80   62.72          91.59   -2.10    2.99           3.65  125.28 
A19        76.30   78.28   68.13          90.91    1.67   -3.30           3.70  296.87
A20         1.29    1.03    0.67           9.23    9.97    3.26          10.49   18.11 
A21         4.96    3.12    0.72          20.52   28.55   21.85          35.96   37.43
A22         9.79    5.53    0.77          28.19   42.80   34.03          54.68   38.49
B1          3.21    2.82    1.51          19.29    8.77    8.12          11.96   42.78
B2          3.75    2.79    0.99          19.18   17.73   14.95          23.19   40.13
B3          4.37    2.83    0.62          19.35   25.84   21.70          33.74   40.02
B4          4.85    3.12    0.64          20.51   27.23   23.31          35.84   40.57
B5         12.35   10.65    5.48          38.99   15.03   13.80          20.41   42.55
B6         14.24   10.64    3.78          38.97   27.33   23.21          35.86   40.34
B7         16.95   10.90    2.18          39.40   41.30   35.97          54.77   41.06
B8         21.16   11.25    0.93          40.00   60.20   51.78          79.41   40.70
B9         39.53   38.73   27.92          68.55    6.98    6.43           9.49   42.63
B10        41.84   38.96   25.02          68.72   13.37   11.72          17.78   41.25
B11        44.28   39.12   22.37          68.84   20.08   16.84          26.20   39.98
B12        47.73   39.60   19.24          69.19   28.34   23.78          37.00   40.00
B13        70.75   76.28   68.05          89.99   -5.87   -4.81           7.59  219.32
B14        73.62   71.96   66.17          87.95    8.94   -6.59          11.11  323.62
B15        76.63   80.03   54.42          91.70   -1.09   11.60          11.65   95.36
B16        61.79   63.82   51.72          83.87    0.59    1.04           1.21   59.88
B17        70.26   69.14   52.39          86.57    7.81    4.96           9.25   32.36
B18        67.34   73.75   53.81          88.80   -8.13    7.26          10.91  138.26
B19        65.36   66.77   65.21          85.39    2.21  -10.10          10.34  282.32
B20         2.68    1.90    0.69          14.98   17.85   12.89          22.02   35.84
B21         8.20    4.75    0.74          26.01   38.73   30.92          49.56   38.60
B22        28.13   23.66   11.08          55.74   22.36   21.29          30.88   43.59
C1          4.28    4.12    2.11          24.08    4.26   10.18          11.05   67.29
C2          4.57    4.13    1.37          24.09    8.14   18.14          19.89   65.85
C3          5.15    4.36    0.80          24.84   12.30   27.84          30.44   66.17
C4          5.47    4.62    0.82          25.62   12.69   28.79          31.47   66.21
C5         22.68   21.41   10.14          53.40    9.50   20.24          22.35   64.86
C6         24.83   21.58    5.38          53.58   18.18   39.46          43.45   65.26
C7         27.12   21.67    2.26          53.67   27.30   59.87          65.80   65.49
C8         28.69   22.11    1.37          54.14   31.47   69.86          76.62   65.75
C9         46.28   46.09   30.77          73.60    5.25   10.55          11.79   63.53
C10        47.79   46.06   25.30          73.58    9.54   19.60          21.80   64.06
C11        49.92   46.59   20.71          73.93   13.86   28.90          32.06   64.38
C12        52.37   46.76   15.24          74.04   19.85   41.36          45.88   64.36
C13        61.99   69.90   66.74          86.95  -12.19   -8.84          15.06  215.97
C14        67.70   62.29   63.08          83.07   17.39  -12.06          21.16  325.24
C15        74.51   78.17   44.15          90.86   -1.78   21.89          21.96   94.65
C16        47.38   48.78   39.24          75.31    0.95    1.33           1.65   54.23
C17        61.97   57.64   40.33          80.53   15.39    8.91          17.79   30.07
C18        56.46   65.50   42.47          84.74  -15.94   13.43          20.85  139.91
C19        52.99   53.22   61.17          78.00    4.37  -18.93          19.43  283.00
C20         1.60    1.33    0.64          11.46    9.19    7.72          12.01   40.03
C21        22.33   16.73    4.49          47.92   31.53   34.41          46.67   47.50
C22        33.40   29.97   16.01          61.63   16.55   18.08          24.51   47.53
D1          4.07    4.21    2.22          24.36    0.11    9.62           9.62   89.38
D2          3.94    4.12    1.38          24.07   -0.44   18.00          18.01   91.39
D3          4.15    4.35    0.88          24.80   -0.59   26.28          26.29   91.28
D4          4.46    4.67    0.89          25.76   -0.53   27.75          27.75   91.09
D5         25.45   26.30   12.92          58.32    0.39   20.34          20.35   88.91
D6         25.36   26.31    7.30          58.33   -0.05   39.03          39.03   90.07
D7         25.16   26.25    3.39          58.27   -0.63   59.02          59.02   90.61
D8         25.29   26.70    1.83          58.69   -1.88   72.60          72.63   91.48
D9         52.80   54.48   36.10          78.74    0.70   11.53          11.55   86.56
D10        52.78   54.61   29.14          78.81    0.33   22.12          22.12   89.15
D11        52.67   54.59   23.39          78.80    0.11   32.08          32.08   89.81
D12        53.80   56.68    7.42          80.00   -2.16   75.92          75.95   91.63
D13        54.13   63.78   65.26          83.85  -17.92  -12.80          22.02  215.52
D14        61.78   53.15   59.49          77.96   26.04  -17.33          31.29  326.35
D15        72.33   75.92   35.15          89.82   -1.83   31.97          32.03   93.28
D16        35.93   36.83   29.71          67.14    1.42    1.08           1.79   36.90
D17        54.60   47.80   30.78          74.70   22.72   12.41          25.89   28.64
D18        47.24   57.97   33.90          80.72  -22.74   18.10          29.07  141.50
D19        42.32   41.55   56.54          70.56    6.89  -27.08          27.94  284.27
D20        13.22   10.02    2.54          37.87   25.64   30.24          39.64   49.70
D21        20.46   19.72   11.04          51.52    7.19   14.12          15.85   63.00
D22        36.77   34.61   18.43          65.44   11.54   19.08          22.30   58.82
E1          3.65    4.14    2.22          24.14   -5.15    9.30          10.64  119.01
E2          3.36    4.14    1.42          24.14   -9.63   17.58          20.05  118.71
E3          3.31    4.38    0.95          24.89  -13.79   25.33          28.84  118.56
E4          3.41    4.55    0.97          25.40  -14.29   25.93          29.61  118.85
E5         12.02   13.55    7.08          43.58   -7.05   14.53          16.15  115.89
E6         10.95   13.51    4.45          43.52  -14.41   27.06          30.66  118.03
E7          9.84   13.40    2.35          43.35  -22.19   41.23          46.82  118.29
E8          9.42   13.70    1.57          43.80  -27.46   49.75          56.82  118.90
E9         36.01   38.35   26.42          68.27   -3.18    8.49           9.07  110.57
E10        34.99   38.73   22.43          68.56   -7.85   16.24          18.04  115.81
E11        33.85   38.81   18.27          68.61  -11.98   24.89          27.62  115.71
E12        30.43   40.28    8.93          69.67  -28.84   52.40          59.82  118.83
E13        46.35   57.26   63.53          80.33  -23.53  -17.22          29.16  216.21
E14        56.56   45.58   55.97          73.27   33.78  -21.81          40.21  327.15
E15        70.47   73.72   27.48          88.79   -1.29   42.05          42.07   91.75
E16        26.39   27.23   21.95          59.18    0.56    1.01           1.18   63.94
E17        48.31   39.86   22.90          69.36   29.18   16.74          33.64   29.83
E18        38.13   49.86   26.00          75.98  -29.49   22.50          37.10  142.66
E19        33.37   32.05   51.86          63.38    8.86  -34.44          35.56  284.43
E20        24.34   16.49    1.19          47.61   41.82   60.97          73.94   55.55
E21        16.39   13.43    2.55          43.41   20.89   39.67          44.84   62.23
E22        28.30   24.10    7.53          56.19   21.13   34.43          40.40   58.47
F1          1.43    1.79    1.28          14.36   -8.08    2.45           8.44  163.12
F2          1.11    1.75    1.03          14.12  -16.89    5.51          17.77  161.94
F3          1.17    2.11    1.10          16.07  -23.17    7.87          24.47  161.24
F4          1.05    1.83    0.97          14.56  -20.75    7.15          21.95  160.98
F5          6.29    7.85    5.49          33.66  -12.77    4.56          13.56  160.34
F6          5.14    7.80    4.69          33.55  -25.43    8.56          26.84  161.40
F7          4.20    7.91    3.88          33.79  -38.65   13.68          41.00  160.51
F8          3.42    7.92    3.29          33.82  -50.52   17.61          53.50  160.78
F9         35.61   38.58   29.73          68.44   -5.26    3.29           6.22  148.04
F10        34.30   38.71   28.85          68.54  -10.10    4.87          11.21  154.25
F11        32.42   38.61   27.16          68.47  -16.41    7.56          18.07  155.27
F12        27.73   40.39   23.95          69.75  -39.58   15.43          42.49  158.71
F13        39.68   51.30   61.46          76.86  -28.34  -21.19          35.38  216.78
F14        51.44   38.68   52.10          68.52   41.21  -25.85          48.65  327.90
F15        68.82   71.55   21.69          87.75   -0.36   50.78          50.78   90.40
F16        18.94   19.56   16.02          51.33    0.43    0.30           0.55   76.67
F17        42.59   32.89   16.85          64.07   35.66   20.29          41.03   29.64
F18        30.65   42.75   19.99          71.38  -35.42   25.99          43.94  143.73
F19        25.84   24.01   46.90          56.09   11.61  -41.37          42.97  285.68
F20        24.35   23.11   10.77          55.18    9.22   21.29          23.20   66.57
F21        31.95   28.51    9.92          60.35   16.90   32.92          37.01   62.83
F22        36.51   33.63   14.48          64.67   14.02   27.11          30.52   62.66
G1          2.19    2.78    2.55          19.14   -9.92   -2.19          10.16  192.44
G2          1.78    2.78    2.71          19.13  -19.19   -3.49          19.50  190.31
G3          1.78    3.16    3.28          20.68  -25.88   -5.05          26.37  191.03
G4          1.66    2.93    2.95          19.75  -24.88   -4.22          25.24  189.63
G5          8.61   10.45    9.09          38.63  -11.95   -1.70          12.07  188.08
G6          7.26   10.37    9.67          38.49  -23.75   -3.93          24.07  189.40
G7          6.05   10.48   10.36          38.69  -37.06   -5.84          37.51  188.95
G8          5.03   10.34   10.69          38.45  -47.93   -7.32          48.48  188.68
G9         35.74   38.64   31.89          68.49   -5.01   -0.01           5.03  180.00
G10        33.28   38.31   32.46          68.25  -12.41   -1.28          12.48  185.89
G11        31.83   38.47   33.17          68.37  -18.08   -2.13          18.21  186.72
G12        27.35   40.23   36.43          69.63  -40.58   -4.65          40.85  186.54
G13        33.75   45.62   59.24          73.30  -32.55  -25.11          41.11  217.65
G14        46.31   32.18   47.86          63.49   48.94  -29.74          57.27  328.71
G15        67.00   68.91   16.10          86.46    1.22   60.65          60.67   88.85
G16        13.01   13.43   10.87          43.40    0.40    0.64           0.78   59.52
G17        37.35   26.86   11.65          58.85   41.88   24.91          48.73   30.74
G18        24.27   36.18   14.55          66.66  -40.60   30.38          50.71  143.20
G19        19.60   17.32   41.87          48.66   15.28  -48.02          50.40  287.64
G20        33.42   31.79   13.22          63.17    9.98   27.88          29.62   70.31
G21        32.29   30.44    8.50          62.03   10.87   40.79          42.22   75.08
G22        45.37   41.08    2.59          70.23   17.22   85.63          87.34   78.63
H1          2.41    2.80    3.21          19.22   -5.69   -7.03           9.05  230.99
H2          2.08    2.74    4.11          18.96  -11.39  -13.28          17.50  229.37
H3          1.98    2.89    5.36          19.59  -16.40  -19.05          25.14  229.28
H4          2.04    2.99    5.53          20.01  -16.98  -19.13          25.58  228.40
H5          9.14   10.46   11.21          38.65   -7.64   -8.58          11.49  228.28
H6          8.29   10.56   14.41          38.82  -15.66  -17.27          23.31  227.81
H7          7.38   10.46   17.87          38.65  -23.32  -25.86          34.83  227.95
H8          6.68   10.48   21.94          38.69  -30.33  -34.32          45.80  228.53
H9         36.40   38.95   35.05          68.71   -3.78   -4.28           5.72  228.56
H10        35.17   39.00   38.71          68.75   -8.08   -9.28          12.30  228.95
H11        33.50   38.63   42.43          68.48  -12.66  -14.57          19.30  229.03
H12        31.08   39.65   56.54          69.22  -24.52  -29.39          38.28  230.16
H13        28.52   40.29   56.64          69.68  -36.14  -28.70          46.15  218.46
H14        41.31   26.39   43.42          58.40   56.24  -33.19          65.30  329.46
H15        65.14   66.10   11.61          85.05    3.17   70.21          70.28   87.42
H16         8.52    8.83    7.20          35.66   -0.03    0.37           0.48  108.21
H17        32.68   21.80    7.67          53.81   47.70   29.76          56.22   31.96
H18        18.76   30.12   10.35          61.76  -45.46   33.94          56.74  143.25
H19        14.65   12.11   36.98          41.38   19.42  -54.11          57.49  289.75
H20        38.41   38.25   13.94          68.20    4.93   34.63          34.98   81.89
H21        28.51   29.30   18.40          61.04    1.01   11.55          11.61   85.01
H22        32.62   35.23   10.26          65.92   -4.75   41.42          41.69   96.54
I1          4.11    4.18    5.46          24.24    1.12  -11.50          11.55  275.53
I2          4.10    4.16    8.06          24.20    1.21  -22.82          22.85  273.03
I3          4.17    4.17   11.46          24.22    2.20  -34.22          34.30  273.67
I4          4.20    4.10   17.15          24.01    3.38  -49.48          49.59  273.91
I5         13.21   13.58   14.07          43.63    0.74   -8.08           8.12  275.25
I6         13.33   13.56   18.29          43.59    1.64  -18.28          18.36  275.14
I7         13.50   13.70   22.71          43.80    1.86  -26.99          27.05  273.94
I8         14.07   13.83   38.96          43.99    4.65  -52.31          52.52  275.08
I9         37.76   38.72   34.86          68.55    1.36   -4.28           4.50  287.73
I10        37.87   38.89   38.43          68.67    1.21   -9.03           9.12  277.66
I11        37.87   38.72   42.42          68.54    1.74  -14.45          14.55  276.86
I12        38.60   39.03   55.70          68.77    3.11  -29.29          29.45  276.06
I13        24.04   35.38   53.86          66.04  -38.94  -32.03          50.43  219.44
I14        36.62   21.39   38.94          53.37   63.06  -36.09          72.66  330.22
I15        63.33   63.21    8.12          83.55    5.51   79.32          79.51   86.02
I16         5.22    5.39    4.37          27.81    0.30    0.42           0.57   46.43
I17        28.37   17.44    4.74          48.81   53.17   34.60          63.43   33.05
I18        14.42   24.96    7.13          57.04  -49.40   37.52          62.03  142.78
I19        10.71    7.97   32.12          33.91   25.24  -59.98          65.07  292.82
I20        38.95   42.31   14.30          71.08   -5.74   38.64          39.07   98.45
I21        10.08   13.34    3.17          43.27  -19.96   34.71          40.04  119.90
I22        26.19   33.93   15.62          64.90  -24.92   24.66          35.06  135.30
J1          2.04    1.81    2.87          14.46    7.08  -12.77          14.60  298.99
J2          2.32    1.80    4.69          14.40   13.40  -24.47          27.89  298.70
J3          2.68    1.80    7.47          14.40   20.39  -37.38          42.58  298.62
J4          3.80    1.86   18.01          14.75   37.63  -67.39          77.19  299.18
J5         10.96   10.58   11.51          38.85    5.73   -9.14          10.80  302.08
J6         11.77   10.67   14.94          39.01   10.90  -18.29          21.29  300.78
J7         12.44   10.65   19.06          38.98   15.64  -27.92          32.00  299.26
J8         14.99   10.81   35.08          39.26   30.63  -55.09          63.03  299.07
J9         38.47   38.54   34.95          68.42    4.21   -4.65           6.28  312.26
J10        39.05   38.61   37.93          68.46    5.85   -8.72          10.50  303.83
J11        40.35   38.62   42.66          68.47    9.88  -14.86          17.85  303.61
J12        42.98   39.24   54.91          68.92   15.90  -28.19          32.36  299.43
J13        19.86   30.47   50.50          62.05  -41.16  -35.23          54.18  220.56
J14        32.09   17.03   34.34          48.30   69.33  -38.46          79.28  330.98
J15        61.25   59.97    5.54          81.82    8.18   87.37          87.76   84.65
J16         2.86    2.94    2.40          19.79    0.48    0.19           0.63   94.40
J17        24.49   13.87    2.67          44.04   57.88   39.79          70.23   34.51
J18        10.64   20.07    4.69          51.91  -52.92   40.21          66.46  142.77
J19         7.64    4.90   27.33          26.44   31.81  -65.20          72.55  296.01
J20        28.12   36.16   20.20          66.64  -24.66   17.38          30.17  144.83
J21         3.90    7.40    1.38          32.71  -38.30   32.79          50.42  139.43
J22         1.21    1.95    0.86          15.21  -18.22   10.20          20.88  150.75
K1          5.07    4.27    5.03          24.53   12.59   -8.80          15.36  325.03
K2          6.22    4.22    6.95          24.39   26.47  -18.05          32.04  325.71
K3          7.49    4.21    9.27          24.35   39.47  -26.95          47.79  325.67
K4          9.00    4.29   12.20          24.61   51.76  -35.74          62.90  325.38
K5         15.28   13.85   14.27          44.02   11.89   -7.94          14.30  326.28
K6         17.12   13.78   17.18          43.92   22.77  -15.22          27.39  326.24
K7         19.51   13.97   20.96          44.19   34.12  -22.87          41.08  326.16
K8         26.44   14.48   33.77          44.91   62.26  -43.46          75.93  325.08
K9         39.78   38.79   34.35          68.60    7.55   -3.47           8.32  335.31
K10        42.28   39.23   38.22          68.92   13.83   -8.32          16.15  328.96
K11        44.90   39.39   42.03          69.03   21.05  -13.11          24.80  328.07
K12        51.43   39.78   53.02          69.31   37.77  -25.50          45.57  325.98
K13        16.09   25.61   46.50          57.67  -42.26  -38.18          56.95  222.09
K14        28.04   13.65   29.97          43.72   73.85  -39.72          83.86  331.73
K15        58.77   56.20    3.64          79.73   11.30   94.40          95.07   83.17
K16         1.36    1.42    1.18          12.08   -0.12   -0.14           0.33  240.46
K17        21.05   11.07    1.36          39.70   60.98   45.10          75.84   36.48
K18         7.40   15.40    2.90          46.17  -55.52   41.71          69.44  143.08
K19         5.39    2.85   22.68          19.41   38.56  -68.98          79.03  299.21
K20         2.24    2.95    1.81          19.84  -11.80    5.80          13.15  153.82
K21         1.24    1.68    1.42          13.73  -11.13   -0.33          11.14  181.68
K22         1.55    2.00    2.68          15.46   -9.53   -9.59          13.52  225.16
L1          3.46    2.84    2.61          19.39   12.42   -2.25          12.62  349.73
L2          4.37    2.89    2.91          19.58   24.92   -4.27          25.28  350.29
L3          5.47    3.01    3.35          20.08   36.64   -6.49          37.21  349.95
L4          6.04    3.24    3.63          20.96   39.20   -6.86          39.80  350.07
L5         12.45   10.64    9.43          38.96   15.84   -2.30          16.01  351.76
L6         15.04   10.74   10.23          39.13   31.49   -4.67          31.83  351.57
L7         18.06   10.86   11.09          39.34   47.55   -7.01          48.07  351.61
L8         22.79   11.32   12.37          40.11   67.28   -9.51          67.95  351.96
L9         40.22   38.86   32.19          68.65    8.71   -0.18           8.71  238.79
L10        42.84   38.96   33.24          68.72   16.35   -1.64          16.43  354.29
L11        45.35   39.06   33.95          68.79   23.35   -2.55          23.49  353.77
L12        49.68   39.61   35.22          69.19   33.63   -3.70          33.83  353.73
L13        12.22   20.01   40.58          51.85  -41.35  -40.88          58.14  224.68
L14        23.50   10.50   25.00          38.73   76.39  -39.96          86.21  332.38
L15        54.36   50.15    2.26          76.16   15.80   98.66          99.91   80.90
L16         0.52    0.54    0.47           4.92   -0.11   -0.34           0.37  256.89
L17        16.68    8.19    0.56          34.37   61.51   48.71          78.46   38.37
L18         4.46   10.34    1.61          38.45  -55.26   40.05          68.25  144.07
L19         3.62    1.47   17.19          12.42   44.97  -69.56          82.84  302.88
L20         0.65    0.70    0.70           6.30   -1.09   -2.43           2.66  245.79
L21         0.89    0.83    0.93           7.54    3.38   -4.23           5.42  308.60
L22         1.84    1.47    1.25          12.40   11.14   -0.51          11.16  357.33
GS0        80.19   82.86   69.35          92.95    0.58   -0.88           1.06  303.36
GS1        67.33   69.67   56.56          86.83    0.35    0.96           1.04   69.48
