targets/wolf_faust/reflective/R100204.it8
IT8.7/2
ORIGINATOR "Wolf Faust"
DESCRIPTOR "Kodak Professional Paper, L* a* b* (light D50, viewing angle 2)"
MANUFACTURER "Wolf Faust - http://www.coloraid.de"
CREATED "March 03, 2010"
PROD_DATE "2010:02"
SAMPLE_BACKING "black"
SERIAL "5x7 R100204 Batch Average Data"
MATERIAL "Kodak Professional Ultra Endura"
KEYWORD "MEAN_DE" # Mean Delta E of samples compared to batch average
NUMBER_OF_FIELDS 18
BEGIN_DATA_FORMAT
SAMPLE_ID  XYZ_X   XYZ_Y   XYZ_Z          LAB_L   LAB_A   LAB_B          LAB_C   LAB_H          D_RED  D_GREEN  D_BLUE  D_VIS          STDEV_X STDEV_Y STDEV_Z        MEAN_DE  STDEV_DE
END_DATA_FORMAT
NUMBER_OF_SETS 288
BEGIN_DATA
A1          3.44    2.89    1.93          19.58   11.22    4.16          11.96   20.36           1.38    1.65    1.61    1.50            0.05    0.04    0.03           0.24     0.26
A2          4.17    2.82    1.62          19.32   23.19    6.91          24.20   16.59           1.24    1.83    1.69    1.47            0.05    0.04    0.02           0.20     0.23 
A3          5.04    2.82    1.36          19.32   34.75   10.01          36.16   16.06           1.12    2.09    1.78    1.43            0.06    0.03    0.02           0.23     0.26
A4          5.74    3.10    1.36          20.44   38.16   11.89          39.97   17.31           1.06    2.12    1.78    1.39            0.05    0.03    0.02           0.22     0.25 
A5         12.44   10.87    7.74          39.37   13.96    4.60          14.70   18.22           0.81    1.05    1.02    0.93            0.10    0.09    0.10           0.21     0.25
A6         14.52   10.72    6.79          39.11   28.48    8.03          29.59   15.75           0.70    1.17    1.08    0.91            0.09    0.08    0.08           0.28     0.33 
A7         16.83   10.74    5.77          39.14   41.78   12.68          43.66   16.89           0.60    1.31    1.15    0.88            0.09    0.06    0.08           0.30     0.35
A8         20.49   10.81    4.75          39.25   60.23   18.04          62.88   16.68           0.51    1.60    1.25    0.84            0.09    0.06    0.07           0.23     0.30 
A9         39.79   39.18   30.65          68.88    6.39    2.59           6.89   22.04           0.35    0.43    0.43    0.40            0.15    0.19    0.23           0.23     0.27
A10        42.02   39.15   29.73          68.86   13.32    3.99          13.90   16.65           0.31    0.46    0.44    0.39            0.22    0.23    0.24           0.22     0.26
A11        44.52   39.24   28.57          68.92   20.39    5.99          21.25   16.37           0.26    0.48    0.46    0.38            0.25    0.28    0.24           0.31     0.36
A12        46.58   38.95   27.05          68.71   27.18    8.17          28.38   16.72           0.22    0.52    0.49    0.37            0.19    0.23    0.28           0.34     0.39 
A13        74.72   78.47   67.88          90.99   -1.93   -2.92           3.50  236.54           0.12    0.10    0.09    0.11            0.05    0.05    0.06           0.06     0.07
A14        75.34   77.52   67.55          90.56    1.22   -3.37           3.58  289.89           0.10    0.11    0.09    0.11            0.06    0.08    0.08           0.08     0.08 
A15        75.42   78.78   62.66          91.14   -1.10    2.25           2.51  116.03           0.10    0.10    0.12    0.10            0.10    0.09    0.12           0.08     0.10
A16        75.08   77.89   64.05          90.73   -0.05    0.22           0.23  103.17           0.10    0.11    0.11    0.11            0.08    0.09    0.10           0.06     0.07
A17        72.92   74.75   60.51          89.28    1.77    1.16           2.11   33.21           0.11    0.13    0.14    0.12            0.09    0.11    0.12           0.12     0.13
A18        74.02   77.83   63.25          90.70   -2.10    0.94           2.30  156.00           0.12    0.10    0.12    0.11            0.15    0.15    0.12           0.12     0.14 
A19        74.36   77.11   67.45          90.37    0.03   -3.60           3.60  270.47           0.11    0.11    0.09    0.11            0.08    0.09    0.09           0.07     0.07
A20         1.28    1.03    0.68           9.27    9.46    3.16           9.97   18.47           1.83    2.11    2.06    1.94            0.02    0.01    0.01           0.26     0.29 
A21         5.00    3.17    0.71          20.72   28.22   22.23          35.93   38.23           1.13    1.89    2.03    1.40            0.04    0.03    0.01           0.29     0.34
A22         9.85    5.62    0.77          28.43   42.26   34.41          54.50   39.16           0.81    1.80    1.99    1.13            0.05    0.03    0.01           0.19     0.22
B1          3.27    2.87    1.54          19.51    8.79    8.18          12.01   42.95           1.40    1.63    1.70    1.51            0.05    0.04    0.02           0.20     0.23
B2          3.80    2.86    0.98          19.48   17.24   15.52          23.20   42.00           1.28    1.75    1.89    1.48            0.04    0.03    0.01           0.25     0.31
B3          4.43    2.88    0.59          19.56   25.86   22.60          34.34   41.15           1.18    1.90    2.11    1.45            0.04    0.03    0.00           0.19     0.23
B4          4.93    3.06    0.52          20.27   29.20   25.20          38.57   40.79           1.13    1.94    2.16    1.41            0.03    0.02    0.00           0.19     0.22
B5         12.42   10.71    5.80          39.09   15.05   12.42          19.51   39.54           0.80    1.07    1.14    0.93            0.07    0.06    0.05           0.19     0.22
B6         14.25   10.78    3.74          39.21   26.42   23.85          35.59   42.08           0.69    1.17    1.32    0.90            0.13    0.10    0.05           0.18     0.22
B7         16.55   10.70    2.16          39.07   40.53   35.53          53.89   41.24           0.60    1.33    1.55    0.88            0.09    0.06    0.03           0.21     0.24
B8         19.95   10.85    0.97          39.33   57.27   49.97          76.01   41.11           0.50    1.60    1.89    0.84            0.07    0.05    0.01           0.25     0.32
B9         39.69   39.36   29.03          69.01    5.51    5.38           7.70   44.34           0.35    0.43    0.45    0.40            0.17    0.20    0.25           0.24     0.28
B10        41.51   39.05   25.90          68.79   12.05   10.28          15.84   40.46           0.31    0.46    0.50    0.39            0.17    0.18    0.22           0.23     0.28
B11        43.53   38.98   22.86          68.74   18.32   15.73          24.15   40.64           0.26    0.49    0.55    0.38            0.22    0.23    0.24           0.31     0.35
B12        45.88   39.08   20.17          68.81   24.81   21.18          32.62   40.48           0.22    0.52    0.61    0.37            0.15    0.19    0.18           0.28     0.31
B13        68.91   74.31   66.81          89.07   -5.84   -5.25           7.86  221.93           0.17    0.11    0.10    0.14            0.08    0.06    0.06           0.08     0.09
B14        71.63   71.23   65.51          87.60    6.30   -6.57           9.10  313.81           0.12    0.16    0.11    0.14            0.12    0.15    0.18           0.14     0.17
B15        73.29   76.82   54.78          90.24   -1.60    8.70           8.85  100.43           0.11    0.11    0.18    0.11            0.05    0.05    0.15           0.14     0.16
B16        61.27   63.60   52.01          83.76   -0.13    0.52           0.54  104.07           0.19    0.19    0.20    0.20            0.13    0.14    0.09           0.10     0.12
B17        68.17   68.13   52.86          86.07    5.47    3.59           6.54   33.27           0.12    0.18    0.20    0.16            0.14    0.15    0.21           0.13     0.16
B18        65.75   71.50   53.85          87.73   -7.02    5.37           8.84  142.61           0.17    0.13    0.19    0.15            0.14    0.13    0.17           0.14     0.17
B19        64.50   66.48   64.30          85.24    0.90   -9.49           9.53  275.43           0.18    0.17    0.11    0.18            0.12    0.13    0.06           0.10     0.12
B20         2.75    1.96    0.68          15.27   18.03   13.49          22.52   36.81           1.42    1.96    2.05    1.63            0.02    0.01    0.00           0.25     0.29
B21         8.18    4.77    0.74          26.06   38.44   31.00          49.39   38.88           0.89    1.84    2.01    1.21            0.05    0.02    0.01           0.18     0.21
B22        28.11   23.88   11.31          55.97   21.32   20.97          29.91   44.53           0.43    0.74    0.85    0.58            0.13    0.13    0.13           0.23     0.29
C1          4.39    4.24    2.14          24.44    4.18   10.52          11.32   68.34           1.29    1.42    1.56    1.35            0.02    0.03    0.02           0.14     0.16
C2          4.76    4.30    1.33          24.65    8.13   19.61          21.23   67.47           1.22    1.46    1.75    1.33            0.06    0.05    0.02           0.25     0.29
C3          5.00    4.21    0.70          24.35   12.49   28.87          31.45   66.61           1.17    1.52    2.02    1.32            0.04    0.04    0.01           0.21     0.25
C4          5.57    4.67    0.68          25.76   13.32   31.67          34.35   67.20           1.12    1.48    2.03    1.28            0.04    0.03    0.01           0.22     0.26
C5         23.09   22.05   10.55          54.08    8.44   20.08          21.79   67.20           0.55    0.71    0.88    0.63            0.09    0.09    0.11           0.25     0.29
C6         25.06   22.02    5.30          54.05   17.16   40.69          44.16   67.13           0.47    0.77    1.16    0.61            0.09    0.09    0.05           0.18     0.20
C7         27.05   21.88    2.23          53.89   26.03   60.49          65.85   66.72           0.41    0.84    1.52    0.60            0.13    0.12    0.02           0.22     0.25
C8         28.26   21.79    1.13          53.81   31.22   72.50          78.93   66.70           0.39    0.89    1.81    0.59            0.11    0.10    0.01           0.28     0.33
C9         46.26   46.64   32.00          73.96    3.65    9.26           9.96   68.48           0.29    0.35    0.41    0.32            0.17    0.19    0.21           0.22     0.26
C10        47.59   46.48   25.93          73.86    7.84   18.95          20.51   67.54           0.25    0.37    0.50    0.32            0.14    0.17    0.17           0.21     0.26
C11        49.31   46.76   21.31          74.03   11.76   27.87          30.25   67.12           0.22    0.39    0.58    0.31            0.14    0.17    0.21           0.27     0.32
C12        50.72   46.49   16.59          73.86   16.28   37.76          41.12   66.68           0.19    0.41    0.68    0.30            0.17    0.20    0.19           0.25     0.30
C13        60.18   67.78   65.19          85.89  -11.92   -9.21          15.06  217.69           0.26    0.13    0.11    0.19            0.13    0.11    0.08           0.09     0.11
C14        66.18   62.45   62.47          83.15   13.68  -11.33          17.76  320.37           0.14    0.23    0.13    0.20            0.16    0.19    0.23           0.20     0.24
C15        70.75   74.30   45.29          89.07   -1.89   17.39          17.50   96.21           0.11    0.13    0.26    0.12            0.15    0.15    0.18           0.17     0.19
C16        47.61   49.44   40.90          75.72   -0.17   -0.13           0.25  216.61           0.30    0.30    0.31    0.31            0.18    0.17    0.15           0.18     0.21
C17        60.59   57.67   42.03          80.56   12.08    6.76          13.85   29.24           0.15    0.28    0.29    0.22            0.17    0.18    0.21           0.21     0.24
C18        55.09   63.04   43.76          83.46  -13.83    9.60          16.83  145.23           0.27    0.17    0.27    0.21            0.14    0.11    0.19           0.19     0.23
C19        52.42   53.55   59.91          78.20    2.06  -17.35          17.47  276.76           0.29    0.26    0.15    0.28            0.25    0.28    0.15           0.22     0.26
C20         1.69    1.40    0.66          11.99    9.20    8.25          12.36   41.89           1.69    1.98    2.06    1.80            0.02    0.02    0.01           0.27     0.30
C21        22.36   16.79    4.59          47.99   31.35   33.99          46.24   47.31           0.49    0.99    1.23    0.71            0.21    0.18    0.08           0.28     0.31
C22        33.92   30.76   16.62          62.31   15.41   17.79          23.54   49.09           0.37    0.59    0.69    0.48            0.19    0.19    0.17           0.22     0.25
D1          4.05    4.23    2.17          24.42   -0.43   10.24          10.25   92.38           1.36    1.38    1.55    1.36            0.05    0.05    0.03           0.21     0.23
D2          4.00    4.18    1.33          24.27   -0.53   18.86          18.87   91.60           1.35    1.40    1.74    1.36            0.04    0.04    0.01           0.22     0.24
D3          4.07    4.31    0.73          24.68   -1.30   28.83          28.86   92.59           1.34    1.39    1.99    1.34            0.04    0.04    0.01           0.25     0.30
D4          4.69    4.86    0.75          26.33    0.01   31.32          31.32   89.98           1.26    1.35    1.98    1.29            0.05    0.05    0.01           0.27     0.32
D5         26.01   27.17   13.32          59.13   -0.77   20.64          20.66   92.13           0.53    0.58    0.78    0.56            0.11    0.12    0.08           0.23     0.25
D6         25.96   27.32    7.34          59.27   -1.55   40.51          40.54   92.20           0.52    0.59    1.02    0.55            0.14    0.14    0.08           0.17     0.20
D7         25.68   27.11    3.48          59.07   -1.89   59.79          59.82   91.81           0.52    0.60    1.33    0.55            0.14    0.14    0.03           0.20     0.22
D8         25.51   27.23    1.52          59.19   -3.13   76.86          76.92   92.33           0.53    0.61    1.69    0.54            0.12    0.11    0.01           0.21     0.27
D9         52.68   54.84   37.23          78.95   -0.53   10.32          10.33   92.92           0.24    0.26    0.34    0.26            0.17    0.17    0.16           0.18     0.21
D10        52.64   54.93   29.99          79.00   -0.84   21.07          21.09   92.29           0.23    0.27    0.43    0.25            0.31    0.35    0.31           0.25     0.30
D11        52.54   55.02   23.87          79.05   -1.33   31.63          31.66   92.40           0.22    0.28    0.53    0.25            0.23    0.24    0.24           0.23     0.29
D12        52.42   55.24   10.51          79.18   -2.18   63.47          63.51   91.97           0.21    0.29    0.87    0.24            0.25    0.24    0.11           0.16     0.21
D13        51.60   60.96   62.94          82.35  -18.00  -13.16          22.29  216.17           0.36    0.15    0.12    0.24            0.14    0.13    0.08           0.14     0.16
D14        60.54   53.86   58.91          78.38   21.34  -16.02          26.69  323.10           0.17    0.32    0.16    0.25            0.15    0.16    0.16           0.21     0.24
D15        68.30   71.65   36.21          87.80   -1.70   26.98          27.04   93.61           0.12    0.16    0.35    0.14            0.09    0.09    0.24           0.23     0.29
D16        35.88   37.32   30.80          67.51   -0.36   -0.00           0.39  195.42           0.43    0.42    0.43    0.43            0.11    0.12    0.14           0.23     0.27
D17        53.40   48.19   32.35          74.94   18.62   10.43          21.34   29.25           0.18    0.38    0.41    0.29            0.08    0.10    0.13           0.17     0.19
D18        45.17   54.60   34.48          78.81  -20.34   13.94          24.66  145.57           0.38    0.21    0.37    0.28            0.15    0.14    0.16           0.15     0.19
D19        41.57   41.97   54.86          70.85    3.36  -24.82          25.04  277.72           0.41    0.36    0.19    0.39            0.31    0.31    0.25           0.23     0.27
D20        13.54   10.31    2.56          38.39   25.43   30.92          40.03   50.57           0.71    1.19    1.47    0.92            0.07    0.05    0.03           0.20     0.22
D21        20.89   20.19   11.11          52.05    6.99   14.81          16.38   64.72           0.60    0.74    0.86    0.68            0.17    0.16    0.11           0.29     0.32
D22        37.31   35.54   19.22          66.17   10.19   18.61          21.21   61.28           0.35    0.50    0.62    0.43            0.16    0.18    0.19           0.26     0.30
E1          3.74    4.24    2.19          24.46   -5.21   10.13          11.39  117.20           1.43    1.35    1.54    1.37            0.04    0.04    0.03           0.17     0.20
E2          3.46    4.26    1.39          24.53   -9.72   18.66          21.03  117.52           1.48    1.32    1.72    1.37            0.04    0.04    0.02           0.22     0.26
E3          3.15    4.26    0.78          24.52  -14.78   27.60          31.31  118.17           1.56    1.30    1.96    1.38            0.03    0.04    0.01           0.21     0.27
E4          3.46    4.74    0.81          25.98  -16.08   29.50          33.60  118.58           1.53    1.25    1.94    1.34            0.04    0.04    0.00           0.26     0.30
E5         12.46   14.10    7.40          44.38   -7.44   14.56          16.35  117.06           0.89    0.83    1.03    0.85            0.08    0.09    0.06           0.20     0.22
E6         11.37   14.11    4.43          44.39  -15.12   28.70          32.44  117.78           0.95    0.81    1.23    0.86            0.09    0.10    0.05           0.17     0.19
E7         10.27   14.10    2.44          44.38  -23.22   42.25          48.22  118.79           1.04    0.78    1.47    0.86            0.08    0.09    0.03           0.21     0.24
E8          9.53   14.27    1.32          44.62  -30.06   54.16          61.94  119.03           1.14    0.76    1.74    0.86            0.07    0.08    0.01           0.19     0.22
E9         36.48   39.30   27.39          68.97   -4.64    8.03           9.27  119.99           0.42    0.39    0.47    0.41            0.11    0.13    0.17           0.22     0.24
E10        35.47   39.62   23.00          69.20   -8.97   16.25          18.56  118.90           0.43    0.38    0.55    0.40            0.17    0.17    0.14           0.20     0.23
E11        34.32   39.72   19.14          69.27  -13.21   24.14          27.52  118.68           0.46    0.37    0.62    0.40            0.22    0.24    0.19           0.20     0.24
E12        31.62   40.28   11.33          69.67  -24.46   44.52          50.80  118.78           0.52    0.35    0.84    0.40            0.26    0.27    0.15           0.25     0.29
E13        44.68   55.15   60.81          79.12  -23.12  -16.63          28.48  215.74           0.46    0.18    0.14    0.29            0.13    0.13    0.11           0.16     0.17
E14        54.83   45.62   54.97          73.30   29.33  -20.70          35.90  324.78           0.20    0.42    0.19    0.32            0.16    0.19    0.18           0.25     0.32
E15        66.04   68.98   28.74          86.50   -1.05   36.00          36.02   91.66           0.12    0.18    0.45    0.15            0.16    0.17    0.23           0.29     0.33
E16        26.86   27.77   22.91          59.68    0.33    0.02           0.39   95.39           0.55    0.55    0.55    0.56            0.15    0.16    0.21           0.24     0.28
E17        46.83   39.77   24.37          69.31   25.33   13.90          28.89   28.75           0.22    0.50    0.53    0.36            0.08    0.09    0.14           0.20     0.25
E18        37.19   47.42   26.71          74.46  -25.94   18.64          31.95  144.30           0.48    0.26    0.48    0.34            0.11    0.12    0.13           0.19     0.23
E19        32.87   32.30   49.72          63.59    6.22  -31.70          32.30  281.10           0.53    0.48    0.23    0.51            0.15    0.15    0.12           0.17     0.20
E20        23.80   16.22    1.14          47.27   40.93   61.03          73.48   56.15           0.44    1.11    1.80    0.70            0.12    0.10    0.01           0.20     0.25
E21        16.50   13.64    2.55          43.72   20.19   40.23          45.01   63.35           0.64    1.02    1.47    0.81            0.08    0.08    0.03           0.22     0.25
E22        28.66   24.62    7.77          56.70   20.30   34.37          39.91   59.43           0.41    0.73    1.00    0.57            0.13    0.13    0.07           0.18     0.20
F1          1.47    1.83    1.22          14.56   -7.63    3.55           8.41  155.05           1.92    1.67    1.79    1.75            0.02    0.02    0.02           0.24     0.27
F2          1.15    1.82    1.01          14.52  -17.33    6.56          18.53  159.26           2.17    1.60    1.86    1.78            0.01    0.01    0.01           0.20     0.23
F3          1.10    2.09    1.01          15.96  -25.11    9.07          26.70  160.15           2.32    1.50    1.86    1.74            0.01    0.02    0.02           0.25     0.29
F4          1.20    2.34    1.09          17.17  -27.09    9.97          28.86  159.80           2.30    1.45    1.82    1.69            0.01    0.02    0.01           0.20     0.23
F5          6.58    8.17    5.70          34.34  -12.69    4.73          13.54  159.57           1.24    1.02    1.14    1.11            0.05    0.06    0.05           0.21     0.23
F6          5.41    8.22    4.77          34.45  -25.98    9.67          27.72  159.58           1.44    0.96    1.21    1.12            0.03    0.04    0.04           0.21     0.23
F7          4.35    8.14    3.92          34.27  -38.70   14.24          41.24  159.80           1.72    0.92    1.28    1.15            0.04    0.06    0.02           0.18     0.21
F8          3.47    8.34    3.15          34.69  -53.43   20.04          57.07  159.44           2.14    0.86    1.36    1.15            0.04    0.06    0.02           0.19     0.24
F9         36.43   39.72   31.16          69.27   -6.09    2.47           6.57  157.95           0.44    0.38    0.42    0.41            0.15    0.17    0.14           0.18     0.21
F10        34.65   39.59   29.78          69.18  -11.66    4.48          12.49  158.99           0.48    0.37    0.44    0.41            0.16    0.16    0.11           0.18     0.21
F11        33.43   40.12   28.85          69.55  -17.52    6.61          18.72  159.34           0.51    0.34    0.45    0.41            0.17    0.20    0.24           0.23     0.27
F12        28.99   40.25   25.21          69.65  -34.22   12.96          36.59  159.25           0.65    0.30    0.50    0.43            0.17    0.19    0.20           0.25     0.28
F13        37.97   49.20   58.06          75.57  -28.22  -20.00          34.59  215.32           0.58    0.21    0.16    0.35            0.14    0.18    0.13           0.14     0.16
F14        49.43   38.33   50.89          68.26   36.95  -24.95          44.59  325.97           0.23    0.53    0.23    0.39            0.16    0.18    0.13           0.25     0.30
F15        63.94   66.27   21.89          85.13    0.10   45.86          45.86   89.87           0.13    0.21    0.56    0.16            0.10    0.09    0.19           0.30     0.41
F16        19.13   19.76   16.17          51.57    0.36    0.33           0.52   41.33           0.70    0.70    0.70    0.70            0.10    0.11    0.13           0.19     0.23
F17        40.97   32.60   17.61          63.83   31.77   18.13          36.58   29.71           0.26    0.63    0.67    0.44            0.09    0.10    0.09           0.23     0.25
