targets/wolf_faust/reflective/R101208WhiteBacking.it8
IT8.7/2
ORIGINATOR "Wolf Faust"
DESCRIPTOR "Kodak Professional Paper, L* a* b* (light D50, viewing angle 2)"
MANUFACTURER "Wolf Faust - http://www.coloraid.de"
CREATED "January 04, 2011"
PROD_DATE "2010:12"
SAMPLE_BACKING "white"
SERIAL "5x7 R101208 Batch Average Data"
MATERIAL "Kodak Professional Ultra Endura"
NUMBER_OF_FIELDS 9
BEGIN_DATA_FORMAT
SAMPLE_ID  XYZ_X   XYZ_Y   XYZ_Z          LAB_L   LAB_A   LAB_B          LAB_C   LAB_H
END_DATA_FORMAT
NUMBER_OF_SETS 288
BEGIN_DATA
A1          3.49    2.93    2.05          19.76   11.30    3.33          11.79   16.44
A2          4.33    2.92    1.66          19.70   23.78    7.15          24.84   16.74 
A3          5.33    3.01    1.42          20.09   34.92   10.61          36.50   16.90
A4          5.83    3.21    1.49          20.87   37.35   11.06          38.95   16.50 
A5         12.70   11.13    7.88          39.80   13.89    4.79          14.70   19.01
A6         15.04   11.10    6.89          39.75   28.83    8.71          30.12   16.81 
A7         17.62   11.24    6.00          39.98   42.44   13.07          44.40   17.11
A8         21.54   11.41    4.97          40.26   60.86   18.63          63.65   17.02 
A9         41.59   41.01   31.88          70.18    6.32    2.92           6.97   24.82
A10        44.00   40.95   30.56          70.14   13.63    4.89          14.49   19.75
A11        46.49   41.08   29.66          70.23   20.40    6.47          21.40   17.60
A12        49.25   41.38   28.21          70.44   27.11    9.19          28.63   18.73 
A13        76.53   80.34   68.85          91.84   -1.88   -2.36           3.02  231.49
A14        77.61   79.86   68.59          91.62    1.21   -2.49           2.77  295.85 
A15        77.85   81.13   64.45          92.19   -0.75    2.35           2.47  107.72
A16        77.70   80.61   66.03          91.96   -0.04    0.46           0.46   95.49
A17        75.76   77.75   62.70          90.67    1.61    1.41           2.14   41.18
A18        75.92   79.78   64.80          91.59   -2.02    0.98           2.25  154.16 
A19        76.58   79.53   68.65          91.47   -0.21   -2.80           2.81  265.72
A20         1.41    1.15    0.77          10.15    9.60    2.93          10.04   16.95 
A21         5.22    3.33    0.82          21.31   28.31   21.41          35.49   37.09
A22        10.25    5.87    0.88          29.08   42.53   33.66          54.24   38.36
B1          3.34    2.93    1.59          19.77    8.86    8.05          11.97   42.24
B2          3.92    2.96    1.04          19.87   17.40   15.23          23.12   41.20
B3          4.51    2.95    0.66          19.83   25.78   21.79          33.75   40.22
B4          5.25    3.23    0.55          20.93   30.34   25.75          39.79   40.32
B5         12.86   11.19    5.91          39.90   14.50   13.32          19.69   42.55
B6         14.88   11.26    3.97          40.01   26.76   23.81          35.82   41.66
B7         17.36   11.29    2.31          40.06   40.70   35.93          54.30   41.44
B8         20.95   11.45    1.07          40.33   57.81   50.16          76.54   40.95
B9         41.15   40.70   29.78          69.97    5.90    5.82           8.29   44.61
B10        43.46   40.91   26.57          70.11   12.20   11.39          16.69   43.03
B11        46.11   41.40   23.66          70.46   18.35   17.18          25.13   43.12
B12        48.44   41.41   20.93          70.46   24.78   22.48          33.46   42.21
B13        69.78   75.56   67.82          89.65   -6.50   -5.17           8.31  218.55
B14        73.36   72.66   66.36          88.29    6.93   -6.18           9.29  318.31
B15        75.73   79.17   55.99          91.31   -1.22    9.27           9.35   97.52
B16        62.13   64.50   53.02          84.23   -0.15    0.22           0.29  123.37
B17        70.13   69.72   53.88          86.86    6.31    3.83           7.38   31.26
B18        66.94   73.07   55.11          88.48   -7.61    5.33           9.29  145.02
B19        65.08   67.17   65.14          85.59    0.70   -9.69           9.71  274.16
B20         1.82    1.52    0.74          12.71    9.29    7.90          12.20   40.39
B21         8.46    4.97    0.83          26.63   38.41   30.26          48.90   38.23
B22        29.48   25.19   11.85          57.26   21.05   21.57          30.14   45.70
C1          4.45    4.32    2.25          24.69    3.94    9.94          10.70   68.38
C2          4.77    4.36    1.39          24.82    7.67   19.09          20.58   68.13
C3          5.07    4.32    0.76          24.71   11.83   28.20          30.58   67.24
C4          5.72    4.80    0.72          26.16   13.27   31.60          34.27   67.22
C5         23.97   22.94   10.71          55.01    8.31   21.17          22.74   68.57
C6         25.88   22.80    5.57          54.87   17.03   40.75          44.17   67.32
C7         28.36   23.13    2.45          55.21   25.58   60.88          66.04   67.21
C8         29.86   23.03    1.21          55.10   31.81   73.60          80.18   66.63
C9         48.14   48.47   32.58          75.12    3.91   10.37          11.09   69.36
C10        49.67   48.44   26.92          75.10    8.13   19.40          21.03   67.27
C11        51.37   48.71   22.08          75.27   11.92   28.49          30.89   67.30
C12        53.24   48.83   17.15          75.35   16.46   39.03          42.36   67.13
C13        60.68   68.79   66.20          86.40  -12.91   -9.29          15.90  215.75
C14        67.74   63.52   63.26          83.72   14.68  -11.11          18.41  322.87
C15        73.25   76.69   45.34          90.18   -1.44   19.25          19.31   94.28
C16        47.89   49.84   40.70          75.97   -0.46    0.55           0.73  128.83
C17        62.31   58.90   41.96          81.23   13.17    8.01          15.41   31.32
C18        55.64   64.07   43.74          84.00  -14.79   10.56          18.17  144.47
C19        52.72   53.96   60.72          78.44    1.80  -17.74          17.83  275.79
C20         2.82    2.03    0.77          15.64   17.63   12.43          21.58   35.19
C21        23.24   17.49    4.69          48.88   31.55   34.96          47.09   47.94
C22        35.24   32.08   17.12          63.41   15.20   18.53          23.96   50.63
D1          4.20    4.38    2.23          24.90   -0.40   10.48          10.49   92.17
D2          4.13    4.38    1.43          24.88   -1.20   18.72          18.76   93.67
D3          4.10    4.32    0.78          24.69   -0.95   27.84          27.86   91.95
D4          4.68    4.97    0.79          26.63   -1.45   30.97          31.00   92.68
D5         26.58   27.95   13.85          59.84   -1.51   20.45          20.50   94.22
D6         26.88   28.32    7.74          60.18   -1.72   40.49          40.53   92.43
D7         26.21   27.88    3.64          59.78   -2.73   59.96          60.02   92.60
D8         26.11   27.99    1.61          59.88   -3.61   77.02          77.10   92.68
D9         54.81   57.02   38.05          80.19   -0.42   11.33          11.34   92.11
D10        54.89   57.38   30.58          80.39   -1.11   22.54          22.56   92.82
D11        54.92   57.48   24.72          80.45   -1.26   32.46          32.49   92.23
D12        54.31   57.20   10.77          80.29   -2.12   64.57          64.60   91.88
D13        52.84   62.62   64.41          83.24  -18.59  -13.04          22.70  215.05
D14        62.08   54.75   59.76          78.90   22.70  -15.98          27.76  324.85
D15        70.78   73.95   36.11          88.90   -1.11   29.02          29.04   92.20
D16        36.44   37.85   30.63          67.91   -0.19    0.95           0.97  101.07
D17        55.02   49.24   32.07          75.60   19.88   11.98          23.21   31.07
D18        46.19   56.03   34.30          79.63  -20.98   15.61          26.16  143.35
D19        42.24   42.46   55.87          71.19    3.93  -25.29          25.60  278.84
D20        14.04   10.75    2.74          39.15   25.35   30.77          39.87   50.52
D21        21.68   21.07   11.64          53.02    6.53   14.89          16.26   66.32
D22        38.75   36.92   19.69          67.22   10.29   19.43          21.99   62.10
E1          3.84    4.35    2.32          24.80   -5.19    9.56          10.88  118.49
E2          3.58    4.43    1.47          25.05  -10.06   18.51          21.06  118.53
E3          3.22    4.39    0.84          24.91  -15.23   27.12          31.11  119.32
E4          3.53    4.86    0.86          26.33  -16.44   29.35          33.64  119.25
E5         12.58   14.37    7.56          44.76   -8.30   14.59          16.78  119.63
E6         11.46   14.39    4.58          44.78  -16.19   28.49          32.77  119.61
E7         10.37   14.36    2.60          44.75  -24.04   41.56          48.02  120.05
E8          9.50   14.33    1.39          44.70  -30.74   53.43          61.64  119.91
E9         37.65   40.53   28.07          69.84   -4.58    8.40           9.57  118.61
E10        36.58   40.82   23.48          70.05   -8.94   16.82          19.05  117.99
E11        35.30   40.83   19.69          70.06  -13.26   24.34          27.72  118.58
E12        31.69   40.75   11.11          70.00  -25.62   45.77          52.46  119.24
E13        44.75   55.86   61.99          79.53  -24.65  -17.10          30.00  214.75
E14        56.70   46.91   56.10          74.13   30.38  -20.46          36.63  326.05
E15        68.81   71.54   28.79          87.74   -0.36   38.08          38.08   90.54
E16        26.90   28.10   22.91          59.98   -0.77    0.52           0.95  145.95
E17        48.55   41.01   24.45          70.18   26.31   15.25          30.41   30.10
E18        37.37   48.16   26.89          74.93  -27.37   19.14          33.40  145.04
E19        32.99   32.63   50.69          63.86    5.51  -32.32          32.79  279.67
E20        25.02   17.23    1.26          48.55   40.66   61.69          73.89   56.62
E21        17.14   14.26    2.67          44.60   19.92   40.73          45.34   63.94
E22        29.88   25.75    8.07          57.80   20.25   35.10          40.53   60.02
F1          1.50    1.89    1.33          14.92   -8.36    2.84           8.83  161.28
F2          1.22    1.93    1.10          15.12  -17.64    6.19          18.69  160.66
F3          1.16    2.15    1.11          16.25  -24.43    8.02          25.71  161.82
F4          1.26    2.40    1.20          17.46  -26.36    8.89          27.82  161.35
F5          6.70    8.42    5.92          34.85  -13.62    4.57          14.37  161.47
F6          5.57    8.49    5.05          34.98  -26.44    9.10          27.96  161.01
F7          4.49    8.43    4.16          34.85  -39.29   13.77          41.63  160.68
F8          3.56    8.43    3.39          34.87  -52.77   18.69          55.99  160.49
F9         37.05   40.36   31.60          69.72   -6.00    2.56           6.52  156.86
F10        35.39   40.45   30.42          69.79  -11.78    4.52          12.62  159.03
F11        33.88   40.62   29.40          69.91  -17.45    6.33          18.57  160.08
F12        28.53   40.40   25.37          69.75  -36.46   12.87          38.67  160.56
F13        38.16   50.03   59.49          76.09  -29.83  -20.56          36.23  214.57
F14        50.88   39.03   51.76          68.77   38.65  -25.04          46.06  327.06
F15        66.68   68.76   22.01          86.38    0.84   47.79          47.79   89.00
F16        19.31   20.11   16.28          51.96   -0.42    0.74           0.86  119.43
F17        42.29   33.41   17.70          64.49   32.94   19.07          38.06   30.07
F18        30.06   41.17   20.17          70.29  -32.93   23.74          40.60  144.21
F19        25.30   24.18   45.19          56.27    8.59  -39.03          39.96  282.41
F20        25.64   24.71   11.53          56.79    7.78   21.72          23.07   70.29
F21        34.03   30.85   10.51          62.38   15.50   34.53          37.85   65.83
F22        38.68   36.17   15.33          66.65   12.51   28.39          31.02   66.22
G1          2.39    3.02    2.68          20.10   -9.79   -1.52           9.91  188.82
G2          1.94    3.03    2.88          20.15  -19.77   -3.02          20.00  188.67
G3          1.76    3.21    3.24          20.85  -27.22   -4.46          27.58  189.30
G4          1.94    3.58    3.72          22.24  -28.93   -5.21          29.39  190.21
G5          9.06   11.14    9.69          39.82  -13.29   -1.70          13.41  187.28
G6          7.70   11.12   10.33          39.77  -25.07   -3.88          25.37  188.80
G7          6.48   11.20   11.22          39.91  -37.77   -6.44          38.32  189.67
G8          5.32   11.22   11.86          39.94  -50.73   -8.31          51.41  189.30
G9         37.20   40.71   33.96          69.97   -6.59   -0.54           6.61  184.65
G10        35.07   40.50   34.76          69.83  -13.02   -1.94          13.16  188.48
G11        33.21   40.38   35.43          69.74  -19.08   -3.05          19.32  189.09
G12        28.04   40.57   38.21          69.87  -38.86   -6.67          39.43  189.74
G13        32.42   44.68   56.79          72.68  -34.57  -23.68          41.91  214.41
G14        45.65   32.42   47.54          63.69   46.20  -29.02          54.56  327.86
G15        64.82   66.16   16.65          85.08    2.32   56.98          57.02   87.67
G16        13.28   13.84   11.23          44.01   -0.42    0.60           0.78  128.13
G17        36.85   27.14   12.41          59.11   39.13   23.12          45.45   30.58
G18        23.90   34.95   14.88          65.71  -38.11   27.88          47.22  143.81
G19        19.11   17.46   39.94          48.84   12.02  -45.24          46.81  284.88
G20        36.05   34.71   14.28          65.52    8.83   29.11          30.42   73.12
G21        34.74   33.23    9.22          64.35    9.45   42.20          43.25   77.37
G22        47.08   43.52    2.79          71.90   14.83   86.93          88.18   80.32
H1          2.62    3.02    3.36          20.11   -5.30   -6.54           8.42  230.98
H2          2.30    3.01    4.38          20.08  -11.59  -12.98          17.40  228.24
H3          2.03    3.00    5.69          20.02  -17.20  -19.89          26.30  229.15
H4          2.25    3.38    6.47          21.51  -18.82  -20.90          28.13  227.99
H5          9.70   11.17   11.92          39.87   -8.28   -8.61          11.95  226.15
H6          8.78   11.22   15.29          39.95  -16.23  -17.55          23.90  227.24
H7          7.93   11.25   19.59          40.00  -23.97  -27.29          36.32  228.70
H8          7.14   11.32   24.84          40.11  -31.88  -37.29          49.06  229.47
H9         37.52   40.69   36.72          69.96   -5.48   -4.48           7.08  219.28
H10        36.28   40.53   40.35          69.85   -9.08   -9.54          13.17  226.43
H11        35.01   40.65   44.97          69.93  -13.67  -15.21          20.45  228.05
H12        32.09   40.48   54.94          69.81  -23.36  -26.69          35.47  228.81
H13        27.25   39.55   53.73          69.15  -38.90  -26.54          47.09  214.30
H14        40.36   26.20   42.91          58.23   54.06  -32.85          63.26  328.72
H15        62.85   63.36   12.18          83.63    4.07   66.09          66.21   86.48
H16         8.73    9.05    7.38          36.09   -0.04    0.36           0.42  123.54
H17        31.83   21.64    8.28          53.65   45.35   27.15          52.86   30.91
H18        18.59   29.23   10.60          60.98  -42.99   31.82          53.49  143.50
H19        13.97   11.95   34.68          41.13   16.32  -51.31          53.84  287.65
H20        40.59   41.19   14.99          70.31    2.72   35.54          35.65   85.62
H21        30.54   31.69   19.82          63.08   -0.05   12.03          12.03   90.21
H22        34.77   37.92   10.98          67.96   -6.02   42.66          43.08   98.04
I1          4.29    4.41    5.70          24.98    0.49  -11.40          11.41  272.48
I2          4.33    4.39    8.52          24.91    1.32  -23.28          23.31  273.23
I3          4.43    4.41   12.02          24.99    2.40  -34.55          34.63  273.98
I4          4.59    4.46   19.69          25.15    3.83  -53.11          53.25  274.12
I5         14.00   14.46   15.01          44.88    0.37   -8.35           8.36  272.53
I6         14.15   14.51   19.51          44.95    1.01  -18.59          18.62  273.10
I7         14.19   14.47   24.02          44.90    1.49  -27.55          27.59  273.10
I8         14.52   14.45   37.00          44.87    3.61  -48.13          48.26  274.29
I9         39.33   40.73   37.09          69.98    0.19   -4.96           4.96  272.11
I10        39.39   40.68   40.35          69.95    0.52   -9.38           9.39  273.20
I11        39.35   40.56   44.62          69.86    0.76  -14.89          14.91  272.91
I12        39.61   40.47   55.00          69.80    1.86  -26.77          26.83  273.97
I13        22.58   34.58   50.34          65.42  -42.76  -29.24          51.80  214.36
I14        35.48   20.94   38.34          52.89   61.37  -36.13          71.22  329.51
I15        60.81   60.37    8.43          82.04    6.18   75.54          75.80   85.32
I16         5.34    5.54    4.50          28.22    0.00    0.43           0.48  116.99
I17        27.45   17.20    5.11          48.51   50.88   32.10          60.16   32.25
I18        14.15   24.09    7.19          56.17  -47.34   35.77          59.34  142.93
I19        10.03    7.81   29.75          33.58   21.45  -56.86          60.77  290.67
I20        41.10   45.19   15.39          73.02   -7.39   39.22          39.91  100.67
I21        10.75   14.41    3.39          44.82  -21.52   35.83          41.79  120.99
I22        27.50   35.77   16.80          66.34  -25.81   24.31          35.46  136.72
J1          2.20    1.94    3.02          15.17    7.49  -12.68          14.73  300.58
J2          2.50    1.92    4.96          15.08   13.92  -24.75          28.40  299.35
J3          2.89    1.95    7.97          15.21   20.85  -37.93          43.28  298.79
J4          3.87    1.94   17.80          15.19   36.79  -66.16          75.70  299.08
J5         11.51   11.21   12.12          39.94    5.08   -9.09          10.42  299.22
J6         12.20   11.17   15.53          39.86   10.25  -18.29          20.97  299.26
J7         12.98   11.19   19.98          39.89   15.32  -28.29          32.17  298.44
J8         15.00   11.03   33.51          39.63   29.10  -52.18          59.75  299.15
J9         40.48   41.12   36.92          70.26    2.60   -4.25           4.98  301.46
J10        41.12   40.84   40.24          70.06    5.41   -9.04          10.54  300.89
J11        41.90   40.70   44.44          69.96    8.17  -14.50          16.64  299.40
J12        44.31   40.95   54.68          70.14   14.56  -25.84          29.66  299.39
J13        18.70   30.09   46.83          61.74  -45.66  -31.56          55.50  214.65
J14        31.13   16.69   33.96          47.87   67.70  -38.65          77.95  330.28
J15        58.62   57.19    5.57          80.29    8.53   84.58          85.00   84.24
J16         3.04    3.15    2.51          20.63    0.08    0.71           0.73   82.01
J17        23.71   13.69    2.87          43.78   55.57   37.76          67.18   34.20
J18        10.53   19.48    4.63          51.24  -50.83   39.39          64.31  142.23
J19         7.15    4.87   25.18          26.37   27.41  -61.60          67.42  293.99
J20        29.46   38.17   21.70          68.15  -25.93   16.96          30.99  146.82
J21         4.31    8.09    1.52          34.17  -38.77   33.66          51.34  139.04
J22         1.35    2.15    0.96          16.23  -18.28   10.29          20.98  150.62
K1          5.16    4.35    5.12          24.79   12.58   -8.85          15.38  324.90
K2          6.37    4.33    7.11          24.74   26.48  -18.10          32.07  325.66
K3          7.75    4.36    9.66          24.84   39.79  -27.42          48.32  325.43
K4          9.12    4.41   12.51          24.99   51.16  -35.97          62.54  324.89
K5         15.88   14.54   14.70          45.00   11.13   -7.35          13.34  326.56
K6         17.93   14.47   18.15          44.90   22.89  -15.73          27.78  325.50
K7         20.25   14.56   22.29          45.02   34.15  -24.07          41.78  324.82
K8         26.79   14.81   33.58          45.38   61.70  -42.38          74.86  325.52
K9         41.90   41.21   36.78          70.32    6.64   -3.94           7.72  329.30
K10        44.22   41.25   40.39          70.35   13.38   -8.73          15.97  326.88
K11        46.50   41.25   43.88          70.35   19.90  -13.15          23.85  326.55
K12        52.30   41.51   53.27          70.53   34.79  -23.66          42.08  325.78
K13        15.03   25.44   42.64          57.50  -47.73  -33.76          58.46  215.27
K14        26.80   12.95   29.32          42.69   73.32  -40.46          83.74  331.11
K15        56.31   53.88    3.55          78.39   11.07   92.66          93.32   83.18
K16         1.47    1.52    1.26          12.71    0.33   -0.09           0.38  309.64
K17        20.11   10.65    1.43          38.98   59.54   42.98          73.43   35.82
K18         7.42   15.16    2.83          45.85  -53.90   41.67          68.13  142.29
K19         4.94    2.75   20.54          19.01   34.78  -65.45          74.12  297.99
K20         2.41    3.15    1.92          20.62  -11.73    6.02          13.19  152.82
K21         1.37    1.84    1.52          14.63  -10.98   -0.01          10.98  180.06
K22         1.69    2.19    2.87          16.45   -9.96   -9.31          13.63  223.07
L1          3.64    2.97    2.73          19.93   12.91   -2.27          13.11  350.01
L2          4.51    2.97    2.99          19.92   25.29   -4.25          25.65  350.46
L3          5.78    3.18    3.42          20.74   37.31   -5.89          37.77  351.03
L4          6.32    3.41    3.79          21.63   39.42   -6.75          40.00  350.29
L5         12.94   11.11    9.82          39.77   15.63   -2.21          15.78  351.93
L6         15.87   11.42   10.88          40.28   31.43   -4.74          31.79  351.43
L7         18.77   11.44   11.78          40.30   47.09   -7.44          47.68  351.02
L8         22.81   11.53   13.07          40.47   65.83  -10.84          66.72  350.65
L9         42.19   41.12   34.41          70.26    7.79   -0.70           7.82  354.88
L10        44.64   41.15   35.09          70.28   14.92   -1.65          15.01  353.71
L11        47.34   41.30   36.57          70.38   22.10   -3.55          22.39  350.87
L12        50.31   41.25   37.22          70.35   30.31   -4.49          30.64  351.57
L13        11.24   20.00   36.78          51.84  -48.19  -35.80          60.04  216.61
L14        22.84   10.04   24.82          37.91   76.97  -41.05          87.23  331.93
L15        52.21   48.49    1.89          75.13   14.71  100.30         101.37   81.65
L16         0.52    0.55    0.45           4.96   -0.29    0.05           0.31  172.50
L17        16.07    7.86    0.53          33.70   60.97   48.16          77.70   38.31
L18         4.45   10.23    1.39          38.26  -54.53   42.22          68.96  142.25
L19         3.35    1.46   15.87          12.33   40.99  -66.59          78.20  301.61
L20         2.04    1.62    1.37          13.36   11.81   -0.37          11.82  358.21
L21         0.98    0.93    0.97           8.35    3.38   -3.46           4.83  314.35
L22         0.74    0.80    0.82           7.22   -1.26   -3.04           3.29  247.42
GS0        78.94   82.04   69.30          92.59   -0.32   -1.46           1.50  257.66
GS1        69.01   71.59   58.41          87.77   -0.03    0.68           0.68   92.41
