targets/wolf_faust/reflective/R101208.it8
IT8.7/2
ORIGINATOR "Wolf Faust"
DESCRIPTOR "Kodak Professional Paper, L* a* b* (light D50, viewing angle 2)"
MANUFACTURER "Wolf Faust - http://www.coloraid.de"
CREATED "January 04, 2011"
PROD_DATE "2010:12"
SAMPLE_BACKING "black"
SERIAL "5x7 R101208 Batch Average Data"
MATERIAL "Kodak Professional Ultra Endura"
KEYWORD "MEAN_DE" # Mean Delta E of samples compared to batch average
NUMBER_OF_FIELDS 18
BEGIN_DATA_FORMAT
SAMPLE_ID  XYZ_X   XYZ_Y   XYZ_Z          LAB_L   LAB_A   LAB_B          LAB_C   LAB_H          D_RED  D_GREEN  D_BLUE  D_VIS          STDEV_X STDEV_Y STDEV_Z        MEAN_DE  STDEV_DE
END_DATA_FORMAT
NUMBER_OF_SETS 288
BEGIN_DATA
A1          3.42    2.87    2.01          19.52   11.11    3.27          11.58   16.39           1.38    1.65    1.60    1.50            0.05    0.05    0.04           0.34     0.38
A2          4.23    2.86    1.64          19.47   23.52    7.02          24.55   16.62           1.23    1.83    1.69    1.47            0.06    0.04    0.04           0.32     0.36 
A3          5.20    2.94    1.40          19.81   34.62   10.36          36.13   16.66           1.11    2.05    1.77    1.42            0.07    0.04    0.03           0.33     0.38
A4          5.72    3.16    1.48          20.69   36.90   10.93          38.49   16.50           1.07    2.06    1.74    1.38            0.06    0.03    0.03           0.34     0.38 
A5         12.42   10.90    7.76          39.41   13.67    4.58          14.42   18.53           0.82    1.04    1.02    0.93            0.12    0.10    0.13           0.41     0.44
A6         14.69   10.86    6.78          39.35   28.50    8.50          29.74   16.60           0.69    1.16    1.08    0.91            0.09    0.08    0.13           0.37     0.43 
A7         17.20   10.99    5.92          39.56   41.96   12.71          43.85   16.85           0.60    1.29    1.14    0.87            0.10    0.08    0.10           0.37     0.44
A8         20.98   11.14    4.89          39.81   60.16   18.27          62.88   16.89           0.50    1.57    1.23    0.83            0.13    0.10    0.09           0.29     0.33 
A9         40.56   40.05   31.35          69.50    6.10    2.57           6.62   22.86           0.35    0.42    0.42    0.39            0.17    0.17    0.27           0.31     0.39
A10        42.84   39.95   30.05          69.43   13.29    4.47          14.02   18.59           0.30    0.45    0.44    0.38            0.23    0.24    0.23           0.31     0.34
A11        45.24   40.07   29.15          69.52   19.92    6.07          20.82   16.94           0.26    0.47    0.45    0.37            0.16    0.17    0.29           0.31     0.36
A12        47.83   40.28   27.73          69.67   26.52    8.66          27.90   18.08           0.21    0.50    0.48    0.36            0.18    0.20    0.26           0.35     0.40 
A13        74.26   78.03   67.52          90.80   -2.01   -2.94           3.56  235.57           0.12    0.10    0.09    0.11            0.15    0.15    0.12           0.08     0.10
A14        75.40   77.69   67.36          90.64    1.00   -3.06           3.22  288.07           0.10    0.11    0.09    0.11            0.17    0.19    0.18           0.10     0.11 
A15        75.45   78.73   63.17          91.11   -0.95    1.72           1.97  119.04           0.10    0.10    0.12    0.10            0.07    0.07    0.09           0.09     0.10
A16        75.40   78.32   64.79          90.92   -0.24   -0.16           0.29  211.90           0.10    0.10    0.11    0.11            0.11    0.11    0.06           0.07     0.08
A17        73.57   75.61   61.62          89.68    1.38    0.76           1.58   28.80           0.11    0.12    0.13    0.12            0.09    0.09    0.07           0.10     0.11
A18        73.70   77.54   63.65          90.57   -2.18    0.32           2.21  171.68           0.12    0.10    0.12    0.11            0.11    0.11    0.12           0.08     0.08 
A19        74.30   77.26   67.31          90.44   -0.40   -3.35           3.38  263.20           0.12    0.11    0.09    0.11            0.07    0.08    0.14           0.08     0.09
A20         1.37    1.11    0.76           9.90    9.51    2.82           9.92   16.50           1.80    2.08    2.01    1.91            0.02    0.02    0.02           0.21     0.24 
A21         5.09    3.25    0.80          21.00   28.10   21.18          35.18   37.01           1.12    1.86    1.98    1.39            0.06    0.04    0.02           0.28     0.30
A22         9.97    5.71    0.86          28.67   42.13   33.30          53.70   38.32           0.80    1.78    1.95    1.13            0.06    0.04    0.02           0.26     0.30
B1          3.27    2.87    1.58          19.51    8.73    7.73          11.66   41.54           1.41    1.63    1.69    1.51            0.04    0.04    0.03           0.27     0.30
B2          3.83    2.89    1.03          19.58   17.23   14.98          22.84   41.00           1.28    1.74    1.87    1.47            0.04    0.03    0.02           0.40     0.46
B3          4.43    2.90    0.65          19.62   25.49   21.50          33.35   40.15           1.19    1.89    2.06    1.44            0.04    0.03    0.01           0.18     0.21
B4          5.12    3.14    0.54          20.61   30.10   25.37          39.36   40.13           1.11    1.93    2.15    1.40            0.04    0.03    0.01           0.22     0.25
B5         12.57   10.95    5.82          39.50   14.26   13.04          19.33   42.43           0.79    1.06    1.14    0.93            0.09    0.07    0.09           0.27     0.32
B6         14.53   11.01    3.91          39.59   26.42   23.46          35.33   41.60           0.69    1.16    1.30    0.90            0.09    0.07    0.06           0.26     0.30
B7         16.88   10.99    2.26          39.56   40.25   35.47          53.65   41.39           0.59    1.31    1.53    0.87            0.11    0.08    0.05           0.29     0.32
B8         20.36   11.15    1.05          39.82   57.12   49.56          75.63   40.94           0.50    1.57    1.86    0.83            0.09    0.06    0.02           0.15     0.18
B9         40.12   39.75   29.31          69.29    5.65    5.41           7.82   43.77           0.35    0.42    0.45    0.39            0.23    0.22    0.22           0.24     0.29
B10        42.33   39.91   26.14          69.41   11.87   10.92          16.13   42.63           0.30    0.45    0.50    0.38            0.27    0.28    0.26           0.31     0.34
B11        44.95   40.45   23.32          69.79   17.89   16.66          24.45   42.96           0.25    0.47    0.54    0.36            0.20    0.22    0.24           0.32     0.37
B12        47.01   40.31   20.59          69.69   24.17   21.84          32.58   42.09           0.21    0.50    0.60    0.36            0.21    0.23    0.25           0.35     0.40
B13        67.89   73.53   66.53          88.70   -6.47   -5.63           8.57  221.03           0.18    0.11    0.10    0.14            0.18    0.16    0.20           0.13     0.15
B14        71.25   70.65   65.23          87.31    6.72   -6.79           9.55  314.69           0.12    0.16    0.11    0.15            0.16    0.20    0.19           0.17     0.20
B15        73.45   76.90   55.02          90.27   -1.44    8.51           8.64   99.62           0.11    0.11    0.18    0.11            0.12    0.12    0.17           0.13     0.14
B16        60.45   62.83   52.14          83.35   -0.29   -0.32           0.44  228.40           0.20    0.20    0.20    0.20            0.09    0.08    0.09           0.12     0.14
B17        68.13   67.84   52.94          85.93    6.00    3.24           6.81   28.37           0.12    0.18    0.20    0.16            0.08    0.11    0.15           0.12     0.14
B18        65.04   71.07   54.03          87.52   -7.70    4.81           9.07  148.01           0.18    0.13    0.18    0.15            0.10    0.10    0.10           0.08     0.10
B19        63.35   65.46   64.00          84.72    0.52  -10.09          10.11  272.94           0.19    0.17    0.12    0.19            0.11    0.13    0.10           0.12     0.14
B20         1.78    1.48    0.73          12.50    9.17    7.78          12.03   40.31           1.67    1.95    2.02    1.78            0.03    0.03    0.01           0.25     0.28
B21         8.25    4.84    0.82          26.29   38.01   29.88          48.35   38.17           0.89    1.81    1.97    1.20            0.08    0.04    0.02           0.27     0.30
B22        28.79   24.66   11.71          56.75   20.63   21.10          29.51   45.64           0.42    0.72    0.84    0.57            0.18    0.17    0.21           0.37     0.43
C1          4.36    4.24    2.22          24.44    3.78    9.76          10.46   68.81           1.30    1.41    1.54    1.35            0.07    0.07    0.06           0.35     0.39
C2          4.67    4.26    1.38          24.53    7.57   18.77          20.24   68.03           1.24    1.45    1.74    1.33            0.07    0.07    0.03           0.27     0.30
C3          4.94    4.22    0.75          24.38   11.61   27.84          30.17   67.36           1.18    1.51    1.99    1.32            0.05    0.05    0.01           0.23     0.25
C4          5.57    4.69    0.71          25.82   13.01   31.21          33.82   67.37           1.13    1.47    2.01    1.28            0.05    0.04    0.01           0.20     0.23
C5         23.43   22.48   10.62          54.53    8.02   20.64          22.14   68.75           0.55    0.70    0.88    0.63            0.11    0.10    0.14           0.34     0.37
C6         25.21   22.26    5.47          54.30   16.68   40.27          43.59   67.50           0.47    0.76    1.15    0.61            0.10    0.10    0.06           0.26     0.29
C7         27.63   22.59    2.39          54.64   25.16   60.39          65.42   67.38           0.41    0.82    1.49    0.59            0.16    0.14    0.04           0.21     0.23
C8         29.04   22.45    1.18          54.50   31.27   72.99          79.41   66.81           0.37    0.87    1.79    0.58            0.16    0.14    0.01           0.18     0.22
C9         46.90   47.30   32.08          74.38    3.66    9.85          10.51   69.62           0.28    0.34    0.41    0.32            0.25    0.26    0.25           0.29     0.34
C10        48.36   47.27   26.48          74.36    7.79   18.86          20.41   67.57           0.24    0.36    0.49    0.31            0.25    0.27    0.23           0.28     0.31
C11        49.93   47.48   21.70          74.49   11.46   27.89          30.15   67.67           0.21    0.38    0.57    0.30            0.26    0.28    0.23           0.28     0.32
C12        51.72   47.58   16.86          74.56   15.91   38.34          41.51   67.47           0.18    0.40    0.68    0.29            0.21    0.25    0.20           0.34     0.37
C13        59.13   67.04   65.01          85.52  -12.81   -9.67          16.05  217.06           0.27    0.13    0.11    0.19            0.28    0.24    0.16           0.19     0.22
C14        65.88   61.88   62.20          82.85   14.31  -11.58          18.41  321.01           0.14    0.24    0.13    0.20            0.18    0.25    0.15           0.23     0.27
C15        70.98   74.45   44.57          89.13   -1.70   18.39          18.47   95.29           0.11    0.13    0.26    0.12            0.18    0.18    0.24           0.19     0.23
C16        46.76   48.71   40.18          75.27   -0.59    0.02           0.61  178.71           0.31    0.31    0.31    0.31            0.11    0.11    0.13           0.22     0.24
C17        60.55   57.38   41.33          80.39   12.68    7.37          14.66   30.16           0.15    0.28    0.30    0.23            0.06    0.06    0.17           0.20     0.22
C18        54.25   62.51   42.96          83.18  -14.73   10.11          17.87  145.53           0.28    0.17    0.28    0.21            0.13    0.11    0.14           0.17     0.19
C19        51.40   52.63   59.68          77.66    1.72  -18.04          18.13  275.45           0.30    0.27    0.15    0.29            0.13    0.13    0.07           0.16     0.18
C20         2.75    1.98    0.76          15.40   17.33   12.29          21.24   35.34           1.43    1.94    2.01    1.63            0.04    0.03    0.02           0.25     0.28
C21        22.70   17.14    4.67          48.44   31.00   34.32          46.25   47.91           0.48    0.97    1.22    0.70            0.17    0.14    0.14           0.47     0.54
C22        34.39   31.39   16.92          62.83   14.79   17.97          23.28   50.54           0.37    0.57    0.68    0.48            0.25    0.23    0.23           0.31     0.36
D1          4.08    4.27    2.18          24.54   -0.47   10.30          10.31   92.60           1.36    1.38    1.55    1.36            0.06    0.06    0.06           0.31     0.34
D2          4.05    4.29    1.40          24.61   -1.27   18.57          18.61   93.90           1.35    1.38    1.72    1.35            0.05    0.06    0.03           0.26     0.29
D3          4.00    4.22    0.77          24.39   -1.02   27.62          27.64   92.11           1.34    1.40    1.97    1.35            0.05    0.06    0.01           0.24     0.28
D4          4.58    4.86    0.78          26.34   -1.47   30.73          30.77   92.75           1.29    1.34    1.96    1.29            0.03    0.03    0.01           0.16     0.18
D5         25.95   27.34   13.62          59.29   -1.68   20.09          20.16   94.77           0.54    0.57    0.77    0.55            0.11    0.11    0.11           0.29     0.35
D6         26.20   27.65    7.58          59.57   -1.90   40.06          40.11   92.71           0.51    0.58    1.01    0.54            0.20    0.20    0.12           0.31     0.34
D7         25.57   27.25    3.58          59.20   -2.90   59.37          59.44   92.80           0.52    0.60    1.32    0.54            0.15    0.15    0.05           0.22     0.25
D8         25.48   27.37    1.57          59.31   -3.76   76.47          76.56   92.82           0.53    0.61    1.68    0.54            0.14    0.15    0.02           0.22     0.24
D9         53.34   55.56   37.45          79.36   -0.59   10.72          10.74   93.15           0.24    0.26    0.34    0.25            0.27    0.32    0.35           0.29     0.33
D10        53.43   55.93   30.08          79.58   -1.27   21.92          21.95   93.32           0.22    0.26    0.43    0.24            0.21    0.25    0.29           0.29     0.36
D11        53.27   55.86   24.15          79.53   -1.50   31.94          31.97   92.69           0.22    0.27    0.52    0.24            0.21    0.23    0.32           0.35     0.44
D12        52.72   55.65   10.54          79.41   -2.42   63.80          63.84   92.17           0.21    0.29    0.87    0.24            0.23    0.24    0.20           0.37     0.46
D13        51.56   61.07   63.23          82.41  -18.36  -13.34          22.69  215.99           0.36    0.15    0.12    0.24            0.27    0.23    0.17           0.20     0.23
D14        60.34   53.31   58.76          78.06   22.24  -16.43          27.65  323.55           0.17    0.33    0.16    0.26            0.16    0.19    0.17           0.21     0.24
D15        68.67   71.90   35.47          87.92   -1.41   28.23          28.27   92.86           0.11    0.16    0.36    0.13            0.14    0.15    0.16           0.17     0.20
D16        35.62   37.03   30.16          67.30   -0.29    0.63           0.71  114.79           0.43    0.43    0.44    0.43            0.14    0.15    0.18           0.25     0.27
D17        53.46   48.00   31.64          74.83   19.28   11.30          22.34   30.37           0.18    0.39    0.42    0.29            0.10    0.09    0.18           0.21     0.24
D18        45.06   54.70   33.75          78.87  -20.90   15.10          25.78  144.14           0.38    0.21    0.38    0.28            0.17    0.14    0.19           0.23     0.26
D19        41.22   41.47   54.92          70.50    3.79  -25.47          25.75  278.47           0.42    0.37    0.19    0.39            0.08    0.10    0.08           0.15     0.18
D20        13.70   10.50    2.72          38.73   25.04   30.22          39.25   50.34           0.71    1.18    1.45    0.92            0.09    0.08    0.07           0.35     0.40
D21        21.25   20.68   11.45          52.60    6.34   14.75          16.05   66.74           0.60    0.72    0.85    0.67            0.22    0.21    0.19           0.30     0.36
D22        37.84   36.14   19.59          66.62    9.94   18.63          21.12   61.91           0.34    0.49    0.62    0.42            0.23    0.23    0.28           0.33     0.40
E1          3.76    4.27    2.28          24.55   -5.25    9.49          10.85  118.94           1.43    1.34    1.53    1.37            0.08    0.08    0.06           0.30     0.33
E2          3.50    4.34    1.45          24.75  -10.13   18.31          20.93  118.95           1.48    1.31    1.71    1.37            0.05    0.05    0.03           0.28     0.30
E3          3.16    4.31    0.83          24.66  -15.20   27.01          30.99  119.36           1.57    1.30    1.93    1.38            0.03    0.05    0.01           0.18     0.20
E4          3.45    4.76    0.84          26.04  -16.36   29.17          33.44  119.29           1.53    1.25    1.93    1.33            0.02    0.03    0.01           0.14     0.17
E5         12.30   14.07    7.44          44.33   -8.33   14.32          16.57  120.19           0.90    0.82    1.02    0.85            0.08    0.08    0.11           0.31     0.36
E6         11.17   14.04    4.47          44.29  -16.13   28.29          32.57  119.70           0.97    0.80    1.23    0.86            0.09    0.10    0.08           0.26     0.31
E7         10.18   14.10    2.55          44.37  -23.93   41.31          47.74  120.08           1.05    0.78    1.46    0.86            0.10    0.11    0.04           0.29     0.32
E8          9.31   14.05    1.36          44.31  -30.57   53.13          61.30  119.92           1.16    0.77    1.72    0.87            0.08    0.11    0.02           0.23     0.25
E9         36.76   39.62   27.66          69.20   -4.68    7.96           9.24  120.47           0.42    0.39    0.47    0.40            0.23    0.24    0.28           0.31     0.36
E10        35.76   39.94   23.13          69.43   -8.98   16.41          18.70  118.70           0.43    0.38    0.54    0.40            0.23    0.25    0.24           0.29     0.33
E11        34.47   39.91   19.38          69.40  -13.26   23.87          27.30  119.07           0.45    0.37    0.62    0.40            0.22    0.24    0.23           0.30     0.36
E12        30.98   39.85   10.90          69.37  -25.49   45.33          52.00  119.35           0.53    0.35    0.85    0.41            0.21    0.22    0.23           0.42     0.51
E13        43.76   54.57   60.90          78.80  -24.37  -17.29          29.88  215.36           0.48    0.18    0.14    0.30            0.23    0.21    0.13           0.20     0.23
E14        55.11   45.70   55.19          73.35   29.83  -20.85          36.39  325.05           0.20    0.42    0.19    0.32            0.13    0.16    0.11           0.17     0.20
E15        66.80   69.60   28.30          86.80   -0.70   37.25          37.26   91.07           0.12    0.18    0.45    0.14            0.21    0.22    0.22           0.25     0.29
E16        26.28   27.49   22.57          59.42   -0.90    0.21           0.94  166.81           0.56    0.55    0.56    0.56            0.08    0.08    0.14           0.19     0.23
E17        47.20   39.99   24.14          69.46   25.67   14.59          29.53   29.60           0.21    0.50    0.53    0.36            0.08    0.08    0.14           0.22     0.27
E18        36.53   47.08   26.42          74.24  -27.19   18.77          33.04  145.38           0.49    0.26    0.48    0.35            0.17    0.15    0.23           0.26     0.31
E19        32.26   31.91   49.87          63.27    5.44  -32.42          32.88  279.53           0.55    0.48    0.23    0.51            0.06    0.08    0.06           0.13     0.15
E20        24.32   16.79    1.23          48.00   40.06   61.10          73.06   56.74           0.43    1.08    1.77    0.69            0.10    0.09    0.02           0.16     0.19
E21        16.78   13.99    2.65          44.22   19.58   40.28          44.78   64.08           0.63    1.00    1.45    0.80            0.18    0.16    0.06           0.29     0.32
E22        29.14   25.18    7.99          57.25   19.83   34.46          39.76   60.08           0.41    0.71    0.99    0.56            0.21    0.19    0.15           0.30     0.37
F1          1.47    1.85    1.30          14.68   -8.37    2.71           8.80  162.05           1.94    1.66    1.77    1.75            0.02    0.02    0.02           0.25     0.27
F2          1.20    1.90    1.08          14.93  -17.59    6.24          18.66  160.47           2.15    1.58    1.84    1.76            0.01    0.02    0.02           0.32     0.38
F3          1.14    2.11    1.10          16.08  -24.26    7.93          25.52  161.90           2.29    1.50    1.82    1.73            0.02    0.04    0.03           0.30     0.33
F4          1.24    2.36    1.18          17.26  -26.16    8.86          27.62  161.29           2.27    1.45    1.79    1.69            0.03    0.05    0.03           0.33     0.37
F5          6.55    8.24    5.78          34.47  -13.53    4.59          14.29  161.27           1.25    1.01    1.14    1.10            0.06    0.06    0.09           0.27     0.32
F6          5.46    8.32    4.96          34.65  -26.36    8.97          27.84  161.21           1.45    0.96    1.19    1.12            0.06    0.08    0.10           0.29     0.32
F7          4.41    8.27    4.07          34.54  -39.02   13.79          41.39  160.53           1.71    0.91    1.27    1.14            0.05    0.08    0.07           0.28     0.32
F8          3.52    8.32    3.35          34.63  -52.44   18.59          55.64  160.49           2.11    0.86    1.34    1.16            0.04    0.08    0.08           0.37     0.41
F9         36.19   39.45   31.11          69.07   -6.04    2.20           6.43  159.98           0.44    0.38    0.42    0.41            0.13    0.15    0.13           0.27     0.30
F10        34.58   39.54   29.94          69.14  -11.74    4.14          12.45  160.60           0.48    0.37    0.44    0.41            0.18    0.19    0.30           0.31     0.35
F11        33.12   39.71   28.95          69.27  -17.36    5.96          18.36  161.07           0.52    0.35    0.45    0.42            0.15    0.16    0.22           0.27     0.32
F12        27.89   39.49   24.96          69.11  -36.18   12.49          38.27  160.95           0.68    0.30    0.51    0.44            0.14    0.15    0.31           0.36     0.45
F13        37.40   48.97   58.49          75.43  -29.46  -20.67          35.99  215.06           0.60    0.20    0.15    0.35            0.16    0.15    0.13           0.15     0.18
F14        49.51   38.05   50.98          68.06   38.07  -25.41          45.78  326.28           0.23    0.54    0.23    0.39            0.12    0.14    0.15           0.16     0.19
F15        64.69   66.87   21.65          85.44    0.47   46.85          46.86   89.43           0.12    0.21    0.57    0.16            0.18    0.19    0.16           0.16     0.20
F16        18.88   19.69   16.01          51.48   -0.53    0.57           0.80  133.67           0.71    0.70    0.71    0.71            0.11    0.10    0.12           0.25     0.27
F17        41.21   32.65   17.48          63.88   32.31   18.50          37.24   29.79           0.25    0.63    0.67    0.44            0.08    0.08    0.21           0.30     0.40
