targets/wolf_faust/reflective/R101001.it8
IT8.7/2
ORIGINATOR "Wolf Faust"
DESCRIPTOR "FUJICOLOR Crystal Archive Paper, L* a* b* (light D50, viewing angle 2)"
MANUFACTURER "Wolf Faust - http://www.coloraid.de"
CREATED "January 31, 2011"
PROD_DATE "2010:10"
SAMPLE_BACKING "black"
SERIAL "5x7 R101001 Batch Average Data"
MATERIAL "FUJICOLOR Crystal Archive DP II Paper"
KEYWORD "MEAN_DE" # Mean Delta E of samples compared to batch average
NUMBER_OF_FIELDS 18
BEGIN_DATA_FORMAT
SAMPLE_ID  XYZ_X   XYZ_Y   XYZ_Z          LAB_L   LAB_A   LAB_B          LAB_C   LAB_H          D_RED  D_GREEN  D_BLUE  D_VIS          STDEV_X STDEV_Y STDEV_Z        MEAN_DE  STDEV_DE
END_DATA_FORMAT
NUMBER_OF_SETS 288
BEGIN_DATA
A1          3.38    2.83    1.94          19.33   11.29    3.61          11.85   17.70           1.34    1.67    1.59    1.51            0.05    0.04    0.04           0.40     0.46
A2          4.26    2.89    1.57          19.58   23.39    7.91          24.69   18.69           1.18    1.84    1.69    1.46            0.06    0.05    0.03           0.42     0.46 
A3          5.16    2.92    1.37          19.71   34.47   10.52          36.04   16.97           1.08    2.09    1.76    1.42            0.06    0.03    0.02           0.36     0.40
A4          5.80    3.16    1.40          20.66   37.85   11.86          39.66   17.39           1.03    2.13    1.76    1.38            0.06    0.03    0.03           0.36     0.40 
A5         12.43   10.78    7.56          39.20   14.62    5.04          15.47   19.01           0.79    1.06    1.02    0.94            0.07    0.06    0.09           0.38     0.42
A6         14.66   10.87    6.53          39.36   28.22    9.57          29.80   18.74           0.67    1.17    1.09    0.91            0.08    0.04    0.12           0.45     0.52 
A7         17.18   10.99    5.85          39.56   41.88   13.03          43.86   17.29           0.58    1.30    1.14    0.87            0.10    0.08    0.08           0.21     0.27
A8         21.35   11.11    4.70          39.77   62.12   19.20          65.02   17.17           0.49    1.63    1.24    0.83            0.10    0.07    0.07           0.34     0.41 
A9         40.27   39.56   30.99          69.15    6.69    2.52           7.16   20.63           0.34    0.43    0.42    0.39            0.24    0.20    0.28           0.33     0.37
A10        42.51   39.60   29.68          69.18   13.38    4.63          14.16   19.10           0.29    0.45    0.44    0.38            0.22    0.20    0.30           0.34     0.38
A11        45.05   39.69   28.23          69.25   20.54    7.10          21.74   19.07           0.25    0.48    0.46    0.37            0.27    0.30    0.32           0.35     0.40
A12        48.01   39.62   26.63          69.20   29.07    9.71          30.64   18.46           0.20    0.52    0.49    0.36            0.21    0.23    0.29           0.31     0.39 
A13        75.48   79.32   68.25          91.38   -2.03   -2.59           3.30  231.88           0.12    0.09    0.09    0.10            0.16    0.14    0.13           0.11     0.13
A14        77.15   79.15   68.03          91.30    1.68   -2.53           3.04  303.51           0.10    0.10    0.09    0.10            0.12    0.14    0.11           0.10     0.12 
A15        77.50   80.64   64.57          91.97   -0.52    1.86           1.94  105.55           0.09    0.09    0.11    0.09            0.08    0.09    0.13           0.11     0.13
A16        77.92   80.95   66.44          92.11   -0.27    0.34           0.44  129.95           0.09    0.09    0.10    0.09            0.06    0.05    0.09           0.11     0.12
A17        76.25   78.28   64.40          90.91    1.56    0.19           1.57   47.02           0.10    0.11    0.11    0.10            0.14    0.16    0.18           0.13     0.16
A18        75.42   79.24   64.07          91.34   -1.99    1.26           2.36  147.87           0.11    0.10    0.11    0.10            0.12    0.11    0.12           0.13     0.16 
A19        75.60   78.10   67.77          90.82    0.60   -3.11           3.17  280.93           0.11    0.11    0.09    0.11            0.17    0.15    0.09           0.09     0.11
A20         1.32    1.07    0.73           9.58    9.25    2.73           9.65   16.41           1.75    2.11    2.01    1.93            0.02    0.02    0.02           0.38     0.42 
A21         5.13    3.24    0.76          20.98   28.60   21.83          35.98   37.36           1.08    1.90    1.98    1.39            0.07    0.04    0.01           0.38     0.49
A22         9.93    5.67    0.84          28.55   42.32   33.51          53.98   38.38           0.79    1.81    1.94    1.13            0.08    0.04    0.01           0.24     0.33
B1          3.22    2.82    1.53          19.30    8.87    7.97          11.93   41.90           1.36    1.65    1.69    1.52            0.03    0.02    0.03           0.45     0.48
B2          3.86    2.89    1.00          19.59   17.62   15.43          23.42   41.20           1.23    1.76    1.86    1.47            0.04    0.03    0.02           0.27     0.30
B3          4.44    2.90    0.61          19.62   25.63   22.23          33.93   40.94           1.15    1.91    2.07    1.45            0.05    0.03    0.01           0.40     0.43
B4          5.06    3.17    0.58          20.70   29.05   24.83          38.21   40.52           1.08    1.93    2.10    1.40            0.05    0.03    0.02           0.34     0.40
B5         12.59   10.86    5.66          39.35   15.13   13.54          20.31   41.83           0.77    1.07    1.14    0.93            0.08    0.07    0.09           0.44     0.50
B6         14.44   10.87    3.69          39.35   26.96   24.44          36.39   42.19           0.67    1.17    1.31    0.90            0.12    0.11    0.06           0.38     0.43
B7         16.75   10.89    2.27          39.40   40.20   35.14          53.40   41.16           0.58    1.32    1.51    0.87            0.08    0.06    0.03           0.31     0.35
B8         20.67   11.03    0.91          39.64   59.41   51.40          78.56   40.87           0.49    1.63    1.90    0.83            0.11    0.09    0.02           0.26     0.32
B9         40.20   39.63   28.93          69.20    6.26    5.88           8.59   43.21           0.34    0.43    0.45    0.39            0.33    0.32    0.36           0.32     0.36
B10        42.08   39.45   25.75          69.08   12.56   11.03          16.72   41.30           0.29    0.46    0.50    0.38            0.24    0.24    0.23           0.32     0.36
B11        44.47   39.82   22.71          69.34   18.46   17.05          25.14   42.72           0.25    0.48    0.55    0.37            0.21    0.23    0.23           0.35     0.39
B12        47.06   39.48   19.37          69.10   26.86   23.34          35.59   40.99           0.20    0.52    0.62    0.36            0.21    0.25    0.27           0.37     0.45
B13        70.43   75.76   67.44          89.75   -5.52   -4.66           7.23  220.19           0.16    0.10    0.09    0.13            0.12    0.12    0.11           0.11     0.13
B14        73.30   72.62   66.12          88.27    6.91   -5.99           9.15  319.10           0.11    0.15    0.10    0.14            0.16    0.20    0.20           0.18     0.20
B15        75.73   79.24   56.57          91.34   -1.38    8.73           8.84   99.00           0.09    0.10    0.16    0.10            0.07    0.08    0.20           0.17     0.20
B16        63.37   65.84   54.23          84.92   -0.26    0.11           0.32  163.66           0.18    0.18    0.19    0.18            0.13    0.13    0.19           0.23     0.25
B17        70.55   70.33   54.77          87.16    5.90    3.40           6.81   29.97           0.11    0.17    0.18    0.15            0.12    0.14    0.17           0.21     0.25
B18        67.90   73.93   55.91          88.89   -7.27    5.19           8.93  144.48           0.16    0.11    0.17    0.14            0.21    0.17    0.17           0.14     0.17
B19        66.13   68.08   65.24          86.05    1.09   -8.99           9.06  276.90           0.17    0.16    0.11    0.17            0.20    0.19    0.13           0.13     0.15
B20         2.75    1.97    0.73          15.32   17.68   12.72          21.78   35.72           1.38    1.96    2.00    1.63            0.05    0.03    0.03           0.48     0.53
B21         8.29    4.86    0.78          26.32   38.24   30.72          49.05   38.78           0.86    1.84    1.97    1.20            0.07    0.05    0.02           0.28     0.33
B22        28.40   24.05   11.30          56.14   21.72   21.31          30.42   44.45           0.41    0.74    0.84    0.58            0.19    0.18    0.16           0.32     0.38
C1          4.34    4.19    2.14          24.30    4.19   10.32          11.15   67.92           1.25    1.43    1.54    1.36            0.06    0.06    0.04           0.36     0.41
C2          4.68    4.22    1.33          24.40    8.24   19.18          20.88   66.76           1.19    1.47    1.73    1.34            0.07    0.06    0.04           0.41     0.46
C3          5.30    4.48    0.76          25.19   12.52   29.17          31.74   66.78           1.11    1.49    1.96    1.30            0.07    0.06    0.01           0.42     0.48
C4          5.62    4.73    0.78          25.94   13.05   30.03          32.74   66.52           1.09    1.47    1.94    1.27            0.06    0.05    0.02           0.39     0.44
C5         23.34   22.19   10.39          54.23    8.92   20.83          22.66   66.83           0.53    0.71    0.88    0.63            0.09    0.10    0.15           0.40     0.48
C6         25.23   22.13    5.25          54.17   17.36   41.12          44.64   67.10           0.46    0.77    1.15    0.61            0.11    0.10    0.05           0.36     0.41
C7         27.40   22.20    2.33          54.24   25.96   60.23          65.59   66.68           0.40    0.83    1.48    0.60            0.23    0.22    0.05           0.33     0.38
C8         28.63   22.19    1.33          54.23   30.86   70.58          77.03   66.38           0.37    0.87    1.71    0.59            0.15    0.12    0.02           0.38     0.43
C9         46.60   46.92   31.61          74.14    3.84   10.17          10.87   69.28           0.28    0.35    0.41    0.32            0.27    0.25    0.30           0.31     0.36
C10        48.10   47.00   26.55          74.19    7.77   18.46          20.03   67.17           0.24    0.37    0.48    0.31            0.18    0.13    0.18           0.26     0.29
C11        49.77   46.91   21.21          74.13   12.58   28.24          30.91   65.99           0.21    0.39    0.57    0.30            0.25    0.25    0.26           0.31     0.38
C12        51.80   46.77   15.32          74.04   18.36   41.15          45.06   65.96           0.17    0.42    0.71    0.29            0.22    0.27    0.17           0.34     0.40
C13        61.81   69.48   66.25          86.74  -11.75   -8.74          14.64  216.66           0.24    0.12    0.10    0.17            0.29    0.25    0.12           0.21     0.25
C14        67.39   62.95   62.92          83.42   15.20  -11.30          18.94  323.37           0.13    0.24    0.13    0.19            0.23    0.29    0.19           0.23     0.28
C15        73.31   77.12   45.43          90.37   -2.16   19.48          19.60   96.33           0.10    0.12    0.25    0.11            0.15    0.15    0.16           0.17     0.22
C16        48.91   50.74   41.44          76.52   -0.04    0.56           0.59   91.29           0.28    0.29    0.30    0.29            0.23    0.19    0.20           0.27     0.30
C17        62.38   58.97   42.33          81.28   13.16    7.62          15.20   30.06           0.14    0.27    0.29    0.21            0.16    0.22    0.27           0.26     0.30
C18        57.20   65.82   44.63          84.90  -14.80   11.02          18.45  143.33           0.25    0.15    0.26    0.19            0.21    0.18    0.27           0.30     0.35
C19        53.74   54.60   61.15          78.81    2.83  -17.53          17.75  279.17           0.28    0.26    0.14    0.27            0.22    0.22    0.14           0.21     0.24
C20         1.66    1.41    0.68          12.00    8.52    7.90          11.62   42.82           1.64    1.98    2.03    1.81            0.03    0.02    0.01           0.37     0.41
C21        22.51   16.93    4.58          48.18   31.27   34.37          46.46   47.70           0.48    0.98    1.22    0.71            0.18    0.13    0.09           0.35     0.41
C22        33.92   30.65   16.64          62.21   15.87   17.55          23.66   47.89           0.36    0.59    0.68    0.49            0.21    0.17    0.13           0.35     0.40
D1          4.08    4.24    2.20          24.45   -0.17   10.03          10.03   90.98           1.31    1.38    1.53    1.36            0.06    0.06    0.04           0.35     0.39
D2          3.99    4.20    1.41          24.31   -0.80   18.02          18.04   92.56           1.30    1.39    1.70    1.36            0.06    0.07    0.04           0.38     0.43
D3          4.17    4.37    0.83          24.87   -0.73   27.31          27.32   91.53           1.28    1.39    1.91    1.34            0.06    0.06    0.02           0.34     0.40
D4          4.50    4.72    0.87          25.93   -0.70   28.50          28.51   91.41           1.25    1.35    1.89    1.31            0.07    0.07    0.02           0.33     0.38
D5         26.35   27.47   13.58          59.40   -0.55   20.41          20.42   91.55           0.51    0.57    0.76    0.55            0.17    0.16    0.14           0.41     0.46
D6         25.93   27.21    7.40          59.17   -1.28   40.07          40.09   91.82           0.50    0.59    1.00    0.55            0.23    0.25    0.10           0.32     0.37
D7         26.01   27.46    3.61          59.40   -1.93   59.53          59.56   91.86           0.50    0.60    1.29    0.54            0.18    0.20    0.05           0.27     0.30
D8         25.89   27.40    1.79          59.34   -2.18   74.16          74.19   91.69           0.51    0.61    1.59    0.54            0.20    0.18    0.03           0.38     0.44
D9         53.42   55.57   37.22          79.37   -0.41   11.05          11.05   92.12           0.23    0.26    0.34    0.25            0.23    0.21    0.20           0.25     0.27
D10        53.34   55.65   30.30          79.41   -0.81   21.28          21.30   92.17           0.22    0.27    0.42    0.25            0.26    0.25    0.20           0.23     0.26
D11        53.07   55.42   23.98          79.28   -0.94   31.81          31.82   91.70           0.21    0.27    0.52    0.24            0.32    0.35    0.33           0.38     0.44
D12        52.60   55.62    7.79          79.40   -2.65   73.44          73.48   92.07           0.20    0.29    0.98    0.23            0.24    0.22    0.12           0.34     0.40
D13        53.53   62.94   64.62          83.41  -17.54  -12.95          21.80  216.44           0.34    0.14    0.11    0.23            0.22    0.19    0.13           0.21     0.24
D14        61.67   54.04   59.42          78.49   23.54  -16.36          28.66  325.20           0.15    0.33    0.16    0.25            0.15    0.19    0.17           0.19     0.21
D15        71.49   75.26   36.93          89.51   -2.26   28.94          29.03   94.46           0.10    0.14    0.34    0.11            0.15    0.16    0.16           0.24     0.29
D16        37.19   38.62   31.85          68.48   -0.17    0.03           0.30  180.47           0.40    0.41    0.41    0.41            0.20    0.16    0.24           0.30     0.34
D17        55.27   49.35   32.93          75.67   20.20   10.81          22.92   28.15           0.16    0.38    0.40    0.28            0.17    0.20    0.24           0.26     0.30
D18        47.43   57.78   35.90          80.61  -21.74   15.03          26.43  145.34           0.35    0.19    0.35    0.25            0.28    0.23    0.20           0.28     0.30
D19        43.11   43.05   56.54          71.59    4.80  -25.31          25.76  280.73           0.39    0.36    0.18    0.38            0.23    0.24    0.15           0.25     0.28
D20        13.60   10.34    2.66          38.44   25.62   30.23          39.62   49.72           0.69    1.19    1.44    0.92            0.13    0.10    0.06           0.39     0.44
D21        21.08   20.36   11.19          52.24    7.08   14.91          16.51   64.62           0.58    0.74    0.85    0.67            0.25    0.19    0.14           0.39     0.43
D22        37.84   35.81   19.23          66.38   10.98   18.96          21.91   59.92           0.33    0.50    0.62    0.42            0.23    0.22    0.19           0.28     0.32
E1          3.72    4.22    2.25          24.39   -5.12    9.48          10.78  118.40           1.38    1.35    1.51    1.38            0.04    0.05    0.06           0.37     0.43
E2          3.42    4.20    1.46          24.32   -9.61   17.38          19.87  118.94           1.43    1.33    1.68    1.38            0.04    0.05    0.03           0.41     0.46
E3          3.37    4.52    0.92          25.32  -14.64   26.51          30.29  118.91           1.47    1.28    1.86    1.36            0.04    0.05    0.02           0.36     0.40
E4          3.46    4.68    0.95          25.81  -15.38   26.86          30.96  119.79           1.47    1.26    1.85    1.34            0.03    0.04    0.02           0.33     0.37
E5         12.40   14.03    7.48          44.27   -7.40   14.09          15.92  117.72           0.87    0.83    1.01    0.86            0.11    0.14    0.14           0.44     0.51
E6         11.12   13.87    4.49          44.05  -15.42   27.72          31.72  119.09           0.93    0.81    1.21    0.87            0.15    0.18    0.08           0.32     0.36
E7         10.21   13.98    2.52          44.20  -22.91   41.27          47.21  119.04           1.01    0.79    1.44    0.87            0.09    0.11    0.05           0.42     0.46
E8          9.60   14.08    1.54          44.35  -28.39   51.02          58.39  119.10           1.08    0.77    1.65    0.87            0.06    0.08    0.03           0.38     0.45
E9         37.08   39.66   27.58          69.23   -3.76    8.15           8.98  114.77           0.40    0.39    0.47    0.40            0.31    0.33    0.36           0.41     0.48
E10        35.43   39.54   23.07          69.14   -8.86   16.02          18.31  118.94           0.42    0.38    0.54    0.41            0.21    0.20    0.17           0.33     0.36
E11        34.62   39.83   19.27          69.35  -12.49   23.99          27.05  117.52           0.44    0.38    0.61    0.40            0.31    0.32    0.35           0.44     0.49
E12        30.01   39.48    9.09          69.10  -27.97   50.84          58.02  118.82           0.54    0.35    0.91    0.41            0.28    0.27    0.18           0.56     0.65
E13        46.43   56.95   62.83          80.15  -22.54  -16.85          28.14  216.79           0.44    0.17    0.12    0.28            0.20    0.20    0.13           0.18     0.19
E14        55.99   45.78   55.51          73.40   31.78  -21.09          38.14  326.43           0.18    0.43    0.19    0.32            0.14    0.15    0.14           0.17     0.20
E15        69.32   72.69   28.32          88.30   -1.66   39.80          39.84   92.39           0.10    0.16    0.45    0.13            0.14    0.14    0.23           0.33     0.40
E16        27.63   28.64   23.23          60.46    0.07    0.76           0.81   83.42           0.52    0.54    0.54    0.54            0.21    0.19    0.23           0.35     0.38
E17        48.41   40.65   24.10          69.93   27.03   15.46          31.14   29.77           0.20    0.50    0.53    0.35            0.14    0.19    0.21           0.30     0.33
E18        38.67   49.89   27.12          76.00  -27.85   20.61          34.65  143.50           0.46    0.23    0.47    0.32            0.20    0.19    0.19           0.27     0.31
E19        34.23   33.29   51.59          64.39    7.51  -32.40          33.26  283.05           0.50    0.47    0.22    0.49            0.15    0.13    0.09           0.22     0.25
E20        23.97   16.40    1.23          47.49   40.73   60.28          72.75   55.96           0.43    1.10    1.75    0.70            0.12    0.10    0.03           0.25     0.28
E21        16.57   13.69    2.63          43.78   20.32   39.66          44.57   62.88           0.62    1.02    1.44    0.81            0.17    0.11    0.05           0.37     0.45
E22        28.81   24.70    7.75          56.78   20.53   34.57          40.21   59.29           0.40    0.73    0.99    0.56            0.20    0.20    0.11           0.32     0.37
F1          1.43    1.80    1.25          14.40   -8.25    2.91           8.75  160.60           1.86    1.67    1.76    1.77            0.01    0.02    0.03           0.38     0.42
F2          1.17    1.82    1.08          14.53  -16.81    5.56          17.71  161.68           2.05    1.61    1.82    1.78            0.02    0.03    0.03           0.34     0.38
F3          1.22    2.22    1.14          16.60  -23.88    8.19          25.25  161.06           2.13    1.49    1.78    1.71            0.01    0.02    0.02           0.24     0.27
F4          1.06    1.81    0.98          14.47  -20.24    6.89          21.38  161.21           2.15    1.59    1.85    1.79            0.02    0.03    0.02           0.26     0.30
F5          6.45    8.08    5.60          34.15  -13.23    4.92          14.11  159.60           1.21    1.03    1.14    1.11            0.05    0.06    0.06           0.38     0.43
F6          5.27    8.04    4.84          34.07  -26.03    8.60          27.41  161.71           1.40    0.97    1.19    1.14            0.05    0.07    0.07           0.36     0.41
F7          4.32    8.10    4.04          34.19  -38.74   13.36          40.98  160.97           1.64    0.92    1.25    1.15            0.04    0.04    0.07           0.36     0.43
F8          3.45    8.00    3.34          33.99  -50.64   17.54          53.60  160.89           1.97    0.89    1.33    1.17            0.02    0.04    0.06           0.31     0.37
F9         36.79   40.04   31.22          69.49   -5.87    2.75           6.48  154.89           0.42    0.38    0.42    0.40            0.21    0.19    0.17           0.31     0.35
F10        34.71   39.48   30.00          69.10  -11.12    3.99          11.82  160.27           0.46    0.37    0.43    0.41            0.18    0.19    0.23           0.36     0.40
F11        33.44   39.85   28.57          69.36  -16.64    6.75          17.96  157.93           0.50    0.35    0.45    0.41            0.16    0.15    0.18           0.28     0.32
F12        27.60   39.74   24.35          69.28  -38.10   13.90          40.56  159.96           0.67    0.29    0.51    0.44            0.25    0.26    0.31           0.36     0.43
F13        39.58   50.77   60.60          76.54  -27.27  -20.89          34.35  217.46           0.56    0.20    0.14    0.34            0.11    0.12    0.11           0.14     0.16
F14        50.34   38.14   51.13          68.13   39.99  -25.46          47.41  327.52           0.22    0.55    0.23    0.39            0.09    0.11    0.12           0.18     0.20
F15        67.44   70.19   21.67          87.09   -0.53   49.66          49.67   90.62           0.10    0.18    0.56    0.14            0.07    0.08    0.20           0.30     0.38
F16        19.73   20.37   16.68          52.26    0.41    0.31           0.58   78.24           0.66    0.69    0.69    0.69            0.17    0.13    0.16           0.38     0.42
F17        42.28   33.08   17.48          64.22   34.07   19.08          39.06   29.25           0.24    0.64    0.66    0.43            0.15    0.16    0.18           0.26     0.30
