targets/wolf_faust/reflective/R101001WhiteBacking.it8
IT8.7/2
ORIGINATOR "Wolf Faust"
DESCRIPTOR "FUJICOLOR Crystal Archive Paper, L* a* b* (light D50, viewing angle 2)"
MANUFACTURER "Wolf Faust - http://www.coloraid.de"
CREATED "January 31, 2011"
PROD_DATE "2010:10"
SAMPLE_BACKING "white"
SERIAL "5x7 R101001 Batch Average Data"
MATERIAL "FUJICOLOR Crystal Archive DP II Paper"
NUMBER_OF_FIELDS 9
BEGIN_DATA_FORMAT
SAMPLE_ID  XYZ_X   XYZ_Y   XYZ_Z          LAB_L   LAB_A   LAB_B          LAB_C   LAB_H
END_DATA_FORMAT
NUMBER_OF_SETS 288
BEGIN_DATA
A1          3.43    2.86    1.94          19.49   11.49    3.86          12.13   18.54
A2          4.34    2.94    1.60          19.80   23.54    8.02          24.87   18.82 
A3          5.27    2.97    1.38          19.94   34.84   10.81          36.48   17.24
A4          5.90    3.21    1.41          20.88   38.02   12.05          39.89   17.58 
A5         12.67   10.98    7.66          39.55   14.75    5.23          15.65   19.52
A6         14.91   11.08    6.60          39.71   28.25    9.88          29.93   19.28 
A7         17.53   11.21    5.93          39.93   42.21   13.29          44.25   17.48
A8         21.83   11.35    4.74          40.17   62.64   19.66          65.66   17.42 
A9         41.25   40.49   31.59          69.82    6.84    2.74           7.38   21.83
A10        43.38   40.34   30.08          69.71   13.66    4.92          14.53   19.80
A11        45.99   40.42   28.57          69.77   20.97    7.45          22.25   19.54
A12        49.11   40.45   26.93          69.79   29.55   10.21          31.26   19.06 
A13        77.27   81.15   69.26          92.20   -1.94   -2.11           2.87  227.31
A14        78.90   80.87   69.00          92.07    1.83   -2.08           2.78  311.33 
A15        79.41   82.56   65.60          92.82   -0.38    2.35           2.38   99.28
A16        79.71   82.74   67.43          92.90   -0.13    0.78           0.79   99.91
A17        77.99   79.97   65.29          91.67    1.75    0.66           1.88   20.45
A18        77.21   81.05   65.03          92.15   -1.87    1.74           2.56  137.04 
A19        77.47   79.98   68.96          91.67    0.70   -2.74           2.83  284.41
A20         1.35    1.10    0.74           9.79    9.40    2.84           9.82   16.84 
A21         5.22    3.30    0.78          21.22   28.74   21.98          36.18   37.40
A22        10.13    5.78    0.85          28.86   42.55   33.76          54.32   38.42
B1          3.28    2.88    1.56          19.54    8.79    7.98          11.88   42.23
B2          3.92    2.93    1.01          19.76   17.77   15.62          23.66   41.33
B3          4.52    2.94    0.61          19.79   25.97   22.52          34.38   40.93
B4          5.13    3.21    0.59          20.87   29.13   24.81          38.27   40.43
B5         12.82   11.04    5.73          39.65   15.33   13.76          20.60   41.90
B6         14.71   11.07    3.74          39.70   27.08   24.75          36.69   42.43
B7         17.11   11.11    2.30          39.77   40.59   35.54          53.95   41.20
B8         21.18   11.30    0.93          40.08   59.97   51.92          79.33   40.88
B9         41.05   40.39   29.31          69.75    6.53    6.20           9.01   43.54
B10        42.95   40.20   26.11          69.61   12.84   11.33          17.13   41.41
B11        45.40   40.57   23.06          69.87   18.84   17.30          25.58   42.56
B12        48.16   40.28   19.60          69.66   27.46   23.84          36.36   40.96
B13        72.05   77.48   68.50          90.54   -5.51   -4.28           6.98  217.80
B14        75.03   74.25   67.11          89.04    7.13   -5.58           9.05  321.93
B15        77.49   81.00   57.36          92.13   -1.22    9.26           9.34   97.47
B16        64.73   67.17   55.00          85.59   -0.08    0.45           0.48  102.56
B17        72.16   71.83   55.41          87.89    6.15    3.99           7.33   32.93
B18        69.39   75.51   56.73          89.63   -7.24    5.61           9.16  142.22
B19        67.60   69.54   66.18          86.77    1.20   -8.62           8.71  277.95
B20         2.82    2.02    0.74          15.59   17.82   12.84          21.97   35.77
B21         8.44    4.94    0.78          26.56   38.57   31.04          49.50   38.82
B22        28.92   24.43   11.36          56.51   22.14   21.77          31.05   44.52
C1          4.43    4.28    2.18          24.59    4.15   10.42          11.22   68.29
C2          4.76    4.29    1.34          24.60    8.39   19.35          21.09   66.56
C3          5.39    4.56    0.78          25.43   12.57   29.23          31.81   66.74
C4          5.71    4.79    0.79          26.14   13.21   30.21          32.97   66.38
C5         23.83   22.60   10.51          54.66    9.22   21.19          23.11   66.50
C6         25.69   22.50    5.34          54.55   17.64   41.33          44.94   66.89
C7         27.91   22.57    2.37          54.63   26.31   60.51          65.98   66.50
C8         29.22   22.59    1.35          54.64   31.35   70.98          77.59   66.17
C9         47.55   47.80   32.00          74.70    4.09   10.54          11.30   68.78
C10        49.05   47.84   26.77          74.72    8.09   19.00          20.65   66.92
C11        50.80   47.73   21.46          74.66   13.08   28.64          31.48   65.45
C12        52.91   47.61   15.49          74.58   18.93   41.65          45.75   65.56
C13        63.02   70.86   67.18          87.42  -11.84   -8.44          14.54  215.47
C14        68.87   64.21   63.79          84.07   15.60  -11.02          19.10  324.78
C15        75.23   79.02   46.13          91.24   -1.95   20.15          20.24   95.54
C16        49.80   51.65   41.96          77.07    0.00    0.83           0.87   88.46
C17        63.83   60.20   42.92          81.95   13.58    8.04          15.78   30.62
C18        58.28   67.05   45.18          85.53  -14.89   11.44          18.78  142.47
C19        54.89   55.71   62.04          79.45    2.97  -17.30          17.55  279.75
C20         1.69    1.43    0.69          12.14    8.64    7.97          11.76   42.70
C21        22.91   17.20    4.62          48.51   31.61   34.72          46.96   47.68
C22        34.60   31.20   16.84          62.67   16.18   17.90          24.13   47.90
D1          4.16    4.32    2.24          24.72   -0.13   10.08          10.09   90.76
D2          4.06    4.27    1.43          24.56   -0.84   18.20          18.22   92.65
D3          4.22    4.44    0.85          25.06   -0.73   27.31          27.32   91.54
D4          4.56    4.79    0.87          26.12   -0.68   28.71          28.72   91.35
D5         26.79   27.91   13.77          59.80   -0.46   20.59          20.60   91.29
D6         26.41   27.67    7.47          59.58   -1.10   40.51          40.53   91.56
D7         26.56   27.99    3.67          59.88   -1.74   59.94          59.97   91.66
D8         26.30   27.80    1.82          59.71   -2.08   74.44          74.47   91.60
D9         54.55   56.67   37.75          80.00   -0.24   11.41          11.41   91.19
D10        54.40   56.66   30.65          79.99   -0.58   21.73          21.73   91.53
D11        54.23   56.56   24.31          79.93   -0.77   32.32          32.33   91.37
D12        53.83   56.77    7.89          80.05   -2.32   74.17          74.21   91.79
D13        54.58   64.20   65.57          84.07  -17.72  -12.71          21.81  215.64
D14        63.08   55.18   60.27          79.14   23.95  -16.07          28.84  326.13
D15        73.10   76.82   37.39          90.24   -2.01   29.56          29.63   93.89
D16        37.87   39.31   32.22          68.97   -0.08    0.33           0.39  106.66
D17        56.54   50.37   33.31          76.29   20.68   11.31          23.58   28.68
D18        48.40   58.95   36.41          81.26  -21.85   15.43          26.75  144.77
D19        43.90   43.83   57.31          72.11    4.84  -25.20          25.66  280.88
D20        13.87   10.52    2.69          38.76   25.94   30.50          40.04   49.62
D21        21.43   20.68   11.33          52.60    7.16   15.10          16.72   64.65
D22        38.49   36.39   19.40          66.82   11.19   19.35          22.35   59.96
E1          3.78    4.29    2.28          24.60   -5.07    9.57          10.84  117.89
E2          3.47    4.26    1.48          24.53   -9.65   17.47          19.96  118.90
E3          3.44    4.60    0.93          25.57  -14.60   26.77          30.49  118.61
E4          3.50    4.74    0.97          25.98  -15.44   26.98          31.09  119.79
E5         12.64   14.29    7.61          44.64   -7.38   14.18          15.99  117.47
E6         11.33   14.12    4.58          44.40  -15.43   27.84          31.83  119.00
E7         10.42   14.22    2.53          44.55  -22.83   41.82          47.65  118.63
E8          9.76   14.31    1.57          44.67  -28.52   51.26          58.65  119.09
E9         37.87   40.47   28.02          69.80   -3.68    8.41           9.19  113.66
E10        36.06   40.22   23.40          69.63   -8.86   16.24          18.50  118.61
E11        35.26   40.51   19.52          69.83  -12.42   24.29          27.28  117.09
E12        30.58   40.23    9.33          69.63  -28.10   50.95          58.19  118.88
E13        47.19   57.94   63.69          80.71  -22.81  -16.72          28.28  216.24
E14        57.31   46.79   56.32          74.05   32.24  -20.82          38.38  327.14
E15        70.98   74.27   28.71          89.05   -1.35   40.47          40.49   91.91
E16        28.12   29.13   23.48          60.90    0.13    1.04           1.08   81.86
E17        49.51   41.45   24.40          70.49   27.60   15.88          31.84   29.92
E18        39.49   50.92   27.58          76.63  -27.96   20.91          34.91  143.21
E19        34.77   33.79   52.20          64.79    7.65  -32.38          33.28  283.29
E20        24.50   16.73    1.25          47.92   41.17   60.77          73.40   55.88
E21        16.95   13.98    2.68          44.20   20.60   39.97          44.97   62.74
E22        29.41   25.17    7.87          57.24   20.89   34.91          40.69   59.10
F1          1.45    1.82    1.26          14.53   -8.19    2.99           8.73  159.95
F2          1.19    1.86    1.09          14.71  -16.82    5.61          17.73  161.55
F3          1.24    2.25    1.15          16.74  -24.07    8.29          25.46  161.00
F4          1.07    1.84    0.99          14.62  -20.29    6.95          21.45  161.09
F5          6.55    8.19    5.65          34.37  -13.13    5.01          14.06  159.12
F6          5.36    8.16    4.90          34.32  -26.08    8.75          27.51  161.45
F7          4.38    8.21    4.08          34.42  -38.90   13.50          41.18  160.87
F8          3.50    8.12    3.39          34.23  -50.89   17.61          53.86  160.91
F9         37.46   40.73   31.62          69.99   -5.78    2.99           6.51  152.63
F10        35.32   40.16   30.35          69.59  -11.17    4.27          11.96  159.06
F11        34.04   40.55   28.87          69.86  -16.70    7.12          18.16  156.93
F12        28.06   40.43   24.61          69.77  -38.35   14.26          40.92  159.61
F13        40.26   51.69   61.43          77.10  -27.55  -20.76          34.49  216.99
F14        51.49   38.96   51.79          68.73   40.46  -25.16          47.65  328.13
F15        69.04   71.69   21.94          87.82   -0.19   50.39          50.40   90.21
F16        20.17   20.80   16.96          52.73    0.56    0.46           0.77   37.16
F17        43.15   33.66   17.65          64.69   34.64   19.53          39.76   29.41
F18        31.47   43.25   20.86          71.73  -33.88   24.80          41.99  143.79
F19        26.67   24.96   46.68          57.04   10.96  -39.48          40.97  285.51
F20        25.66   24.49   11.37          56.57    8.79   21.82          23.52   68.05
F21        33.56   30.27   10.65          61.89   15.98   33.23          36.88   64.32
F22        37.96   35.11   15.12          65.84   13.72   27.50          30.74   63.49
G1          2.28    2.89    2.53          19.61  -10.01   -1.22          10.09  186.97
G2          1.85    2.87    2.75          19.50  -19.08   -3.14          19.34  189.34
G3          1.86    3.30    3.42          21.20  -26.33   -5.05          26.81  190.86
G4          1.73    3.05    3.02          20.22  -25.32   -3.95          25.62  188.86
G5          8.90   10.90    9.65          39.42  -12.92   -2.25          13.12  189.85
G6          7.57   10.88   10.20          39.38  -24.58   -4.13          24.93  189.55
G7          6.29   10.89   10.93          39.39  -37.51   -6.45          38.06  189.76
G8          5.28   10.78   11.52          39.22  -48.09   -8.54          48.84  190.07
G9         37.22   40.62   33.40          69.91   -6.25    0.17           6.26  178.41
G10        35.20   40.60   34.80          69.89  -12.87   -1.89          13.01  188.35
G11        33.48   40.51   35.30          69.83  -18.54   -2.71          18.74  188.32
G12        27.80   40.33   37.54          69.71  -39.12   -6.05          39.59  188.78
G13        34.10   45.76   58.96          73.39  -31.73  -24.67          40.19  217.87
G14        46.30   32.43   47.46          63.70   48.01  -28.91          56.04  328.95
G15        67.11   68.93   16.31          86.47    1.41   60.16          60.18   88.66
G16        13.82   14.31   11.57          44.67    0.17    0.70           0.76   78.67
G17        37.75   27.44   12.22          59.38   40.88   24.16          47.49   30.58
G18        24.82   36.44   15.21          66.85  -39.08   29.03          48.68  143.39
G19        20.27   18.15   41.63          49.68   14.23  -45.98          48.13  287.20
G20        35.08   33.80   13.98          64.80    8.64   28.65          29.92   73.22
G21        34.33   32.66    9.05          63.88   10.06   42.02          43.21   76.53
G22        46.62   42.74    2.72          71.38   15.81   86.55          87.98   79.65
H1          2.48    2.88    3.21          19.56   -5.59   -6.48           8.56  229.22
H2          2.20    2.90    4.20          19.65  -11.80  -12.64          17.29  226.97
H3          2.06    3.01    5.53          20.09  -16.93  -18.99          25.44  228.29
H4          2.12    3.09    5.82          20.40  -16.79  -19.88          26.02  229.82
H5          9.59   10.94   11.76          39.47   -7.49   -8.82          11.57  229.68
H6          8.53   10.91   14.92          39.43  -16.14  -17.52          23.82  227.34
H7          7.73   10.98   18.95          39.55  -23.82  -26.69          35.77  228.25
H8          7.07   11.04   23.33          39.64  -30.56  -35.34          46.72  229.14
H9         37.82   40.72   37.28          69.98   -4.61   -5.22           6.96  228.55
H10        36.46   40.40   40.28          69.75   -8.08   -9.62          12.56  229.98
H11        35.02   40.52   44.67          69.84  -13.26  -15.00          20.02  228.52
H12        32.07   40.70   56.60          69.97  -24.11  -28.16          37.07  229.43
H13        28.64   40.17   56.18          69.59  -35.31  -28.38          45.30  218.79
H14        41.31   26.61   43.01          58.62   55.31  -32.30          64.05  329.71
H15        65.24   66.11   11.90          85.05    3.37   69.37          69.45   87.22
H16         9.05    9.35    7.64          36.65    0.28    0.28           0.47   72.34
H17        32.82   22.06    8.06          54.09   46.99   28.74          55.08   31.45
H18        19.19   30.32   10.94          61.93  -43.98   32.37          54.61  143.65
H19        14.99   12.57   36.59          42.11   18.38  -52.33          55.46  289.36
H20        40.67   40.93   14.76          70.13    3.72   35.81          36.00   84.06
H21        30.43   31.41   19.72          62.85    0.55   11.84          11.86   87.35
H22        34.58   37.49   10.92          67.64   -5.29   42.30          42.63   97.13
I1          4.15    4.26    5.55          24.51    0.58  -11.46          11.48  272.88
I2          4.22    4.26    8.32          24.50    1.61  -23.24          23.29  273.97
I3          4.27    4.26   11.78          24.52    2.21  -34.67          34.74  273.65
I4          4.45    4.34   18.26          24.78    3.63  -50.67          50.80  274.09
I5         13.81   14.17   14.81          44.48    0.89   -8.54           8.60  275.94
I6         13.89   14.25   19.15          44.59    0.95  -18.43          18.45  272.96
I7         14.05   14.28   23.88          44.64    1.76  -27.74          27.80  273.63
I8         14.37   14.19   38.41          44.51    4.28  -50.67          50.85  274.83
I9         39.50   40.81   36.59          70.04    0.48   -4.16           4.20  276.56
I10        39.27   40.48   40.27          69.81    0.78   -9.51           9.55  274.66
I11        39.55   40.54   44.67          69.85    1.44  -14.97          15.04  275.50
I12        39.76   40.53   56.00          69.84    2.16  -27.75          27.84  274.45
I13        23.69   34.76   52.92          65.56  -38.38  -31.85          49.87  219.68
I14        36.52   21.50   38.48          53.49   62.25  -35.29          71.56  330.45
I15        63.16   62.93    8.24          83.41    5.75   78.61          78.82   85.82
I16         5.40    5.59    4.54          28.36    0.10    0.41           0.56  114.42
I17        28.41   17.58    4.92          48.98   52.61   33.90          62.59   32.80
I18        14.38   24.69    7.39          56.77  -48.54   35.98          60.42  143.45
I19        10.76    8.20   31.61          34.39   23.50  -58.36          62.91  291.93
I20        40.87   44.77   15.47          72.74   -6.89   38.53          39.14  100.14
I21        10.70   14.26    3.35          44.61  -20.94   35.78          41.46  120.34
I22        27.73   35.79   16.69          66.36  -24.97   24.61          35.06  135.41
J1          2.09    1.86    2.98          14.76    6.75  -13.10          14.74  297.24
J2          2.40    1.85    4.90          14.68   13.67  -25.14          28.62  298.55
J3          2.82    1.88    7.80          14.86   20.99  -37.90          43.32  298.97
J4          3.82    1.89   18.02          14.92   37.13  -67.13          76.71  298.94
J5         11.30   10.98   11.97          39.54    5.29   -9.32          10.72  299.60
J6         12.12   11.07   15.53          39.70   10.35  -18.58          21.27  299.13
J7         12.98   11.14   19.84          39.82   15.66  -28.12          32.19  299.12
J8         15.12   11.04   34.45          39.64   29.78  -53.55          61.27  299.08
J9         40.20   40.62   37.03          69.91    3.24   -5.00           5.96  302.90
J10        40.95   40.60   40.17          69.90    5.58   -9.23          10.79  301.18
J11        41.80   40.41   44.34          69.76    8.77  -14.73          17.14  300.76
J12        44.28   40.72   55.27          69.98   15.16  -26.75          30.74  299.54
J13        19.77   30.17   49.75          61.80  -40.49  -34.82          53.41  220.70
J14        32.26   17.35   34.15          48.70   68.24  -37.49          77.86  331.21
J15        61.18   59.88    5.73          81.77    8.23   86.39          86.78   84.56
J16         3.05    3.16    2.59          20.66    0.13    0.11           0.49  146.45
J17        24.74   14.16    2.82          44.46   57.14   39.30          69.35   34.52
J18        10.70   19.97    4.85          51.80  -51.98   39.14          65.07  143.02
J19         7.77    5.16   27.09          27.19   29.80  -63.51          70.15  295.14
J20        29.51   38.15   21.64          68.13  -25.68   17.03          30.81  146.45
J21         4.10    7.68    1.42          33.32  -38.07   33.35          50.61  138.78
J22         1.29    2.03    0.91          15.67  -17.85   10.03          20.47  150.67
K1          5.17    4.31    5.04          24.68   13.17   -8.61          15.74  326.82
K2          6.40    4.37    7.22          24.84   26.43  -18.35          32.17  325.22
K3          7.78    4.44    9.57          25.06   39.07  -26.74          47.35  325.62
K4          9.32    4.42   12.93          25.02   52.68  -37.10          64.43  324.85
K5         15.85   14.47   14.72          44.89   11.44   -7.60          13.74  326.40
K6         17.92   14.45   18.01          44.87   22.98  -15.47          27.70  326.04
K7         20.16   14.46   21.95          44.89   34.30  -23.65          41.66  325.41
K8         26.50   14.68   33.42          45.19   61.35  -42.47          74.61  325.31
K9         41.64   40.71   36.88          69.97    7.36   -4.69           8.73  327.52
K10        43.86   40.80   40.13          70.03   13.71   -8.94          16.36  326.88
K11        46.03   40.73   43.52          69.98   20.14  -13.34          24.16  326.47
K12        52.36   41.07   53.33          70.22   36.26  -24.25          43.62  326.23
K13        16.00   25.37   45.76          57.43  -41.76  -37.70          56.26  222.08
K14        28.05   13.75   29.64          43.87   73.25  -38.96          82.97  332.00
K15        58.58   55.97    3.68          79.60   11.42   93.90          94.59   83.07
K16         1.45    1.50    1.23          12.62    0.01    0.16           0.27  137.80
K17        21.16   11.18    1.39          39.89   60.69   45.09          75.61   36.61
K18         7.45   15.37    2.99          46.13  -54.83   40.92          68.42  143.27
K19         5.41    2.94   22.40          19.81   37.11  -67.75          77.25  298.71
K20         2.28    2.99    1.89          20.01  -11.68    5.26          12.81  155.73
K21         1.31    1.75    1.46          14.14  -10.59   -0.18          10.60  180.96
K22         1.69    2.15    2.86          16.28   -9.31   -9.54          13.33  225.70
L1          3.63    2.96    2.65          19.89   12.85   -1.69          12.97  352.52
L2          4.51    2.97    3.03          19.93   25.29   -4.52          25.69  349.87
L3          5.70    3.15    3.41          20.64   36.87   -5.94          37.35  350.84
L4          6.43    3.43    3.63          21.68   40.34   -5.66          40.73  352.02
L5         13.05   11.15    9.74          39.83   16.06   -1.84          16.17  353.46
L6         15.69   11.29   10.86          40.07   31.30   -5.07          31.71  350.80
L7         18.69   11.42   11.65          40.27   46.79   -7.11          47.33  351.36
L8         23.09   11.51   12.96          40.42   67.29  -10.61          68.13  351.04
L9         41.98   40.90   34.54          70.10    7.82   -1.15           7.90  351.65
L10        44.37   40.81   35.34          70.04   15.13   -2.40          15.32  350.99
L11        47.31   41.19   36.10          70.31   22.33   -3.02          22.53  352.30
L12        50.64   40.79   37.19          70.03   32.60   -5.02          32.98  351.25
L13        12.06   19.75   39.90          51.55  -41.13  -40.51          57.73  224.56
L14        23.71   10.65   24.81          38.98   76.26  -39.20          85.75  332.80
L15        53.72   49.41    2.15          75.71   16.13   98.82         100.13   80.73
L16         0.53    0.55    0.46           5.01   -0.24   -0.06           0.26  197.90
L17        17.13    8.43    0.55          34.86   61.88   49.77          79.41   38.81
L18         4.40   10.16    1.55          38.13  -54.65   40.14          67.80  143.70
L19         3.60    1.50   17.02          12.59   43.91  -68.88          81.69  302.52
L20         0.71    0.77    0.78           6.94   -1.09   -2.68           2.90  247.75
L21         0.97    0.92    0.96           8.31    3.21   -3.32           4.62  313.94
L22         1.95    1.56    1.32          12.97   11.32   -0.42          11.32  357.88
GS0        80.42   83.31   69.74          93.15    0.18   -0.90           0.92  281.58
GS1        69.11   71.48   58.35          87.72    0.41    0.65           0.78   56.98
