targets/wolf_faust/reflective/R110714.it8
IT8.7/2
ORIGINATOR "Wolf Faust"
DESCRIPTOR "Kodak Professional Paper, L* a* b* (light D50, viewing angle 2)"
MANUFACTURER "Wolf Faust - http://www.coloraid.de"
CREATED "December 07, 2011"
PROD_DATE "2011:07"
SAMPLE_BACKING "black"
SERIAL "5x7 R110714 Batch Average Data"
MATERIAL "Kodak Professional Ultra Endura"
KEYWORD "MEAN_DE" # Mean Delta E of samples compared to batch average
NUMBER_OF_FIELDS 18
BEGIN_DATA_FORMAT
SAMPLE_ID  XYZ_X   XYZ_Y   XYZ_Z          LAB_L   LAB_A   LAB_B          LAB_C   LAB_H          D_RED  D_GREEN  D_BLUE  D_VIS          STDEV_X STDEV_Y STDEV_Z        MEAN_DE  STDEV_DE
END_DATA_FORMAT
NUMBER_OF_SETS 288
BEGIN_DATA
A1          3.54    2.97    1.98          19.91   11.37    4.26          12.15   20.55           1.36    1.64    1.60    1.49            0.06    0.05    0.04           0.28     0.32
A2          4.35    2.93    1.60          19.78   23.79    7.91          25.07   18.40           1.21    1.82    1.70    1.45            0.06    0.04    0.03           0.31     0.34 
A3          5.24    2.94    1.35          19.79   35.10   10.95          36.77   17.33           1.11    2.07    1.78    1.42            0.08    0.05    0.03           0.29     0.32
A4          6.01    3.22    1.39          20.89   39.27   12.29          41.15   17.38           1.04    2.12    1.77    1.37            0.09    0.05    0.02           0.34     0.38 
A5         12.45   10.82    7.70          39.27   14.51    4.59          15.22   17.56           0.81    1.05    1.02    0.94            0.16    0.14    0.11           0.29     0.33
A6         14.94   11.04    6.79          39.64   28.73    8.94          30.09   17.29           0.68    1.16    1.08    0.90            0.18    0.15    0.07           0.35     0.40 
A7         17.62   11.25    5.91          40.00   42.34   13.49          44.44   17.67           0.58    1.29    1.14    0.86            0.15    0.12    0.08           0.27     0.31
A8         21.02   11.24    5.06          39.98   59.60   17.67          62.17   16.52           0.50    1.55    1.22    0.83            0.09    0.06    0.05           0.18     0.21 
A9         40.75   39.98   31.59          69.46    6.86    2.12           7.18   17.17           0.34    0.42    0.42    0.39            0.30    0.29    0.26           0.24     0.27
A10        43.24   40.19   30.45          69.60   13.72    4.15          14.34   16.81           0.29    0.44    0.43    0.38            0.25    0.26    0.25           0.25     0.28
A11        45.68   40.42   29.49          69.76   20.09    5.94          20.95   16.47           0.25    0.47    0.45    0.37            0.27    0.28    0.26           0.28     0.32
A12        47.74   40.33   27.99          69.70   26.14    8.28          27.42   17.57           0.22    0.49    0.47    0.36            0.24    0.25    0.27           0.30     0.34 
A13        74.42   77.84   67.73          90.71   -1.29   -3.28           3.53  248.55           0.12    0.10    0.09    0.11            0.19    0.19    0.12           0.13     0.15
A14        75.15   77.15   67.33          90.39    1.56   -3.45           3.79  294.34           0.10    0.11    0.09    0.11            0.19    0.20    0.19           0.14     0.16 
A15        75.13   78.11   62.82          90.83   -0.38    1.57           1.62  103.59           0.10    0.10    0.12    0.11            0.16    0.17    0.14           0.13     0.15
A16        74.94   77.53   63.71          90.56    0.38    0.25           0.47   71.92           0.10    0.11    0.12    0.11            0.20    0.21    0.13           0.16     0.18
A17        73.09   74.79   60.84          89.29    2.03    0.86           2.21   23.01           0.11    0.13    0.14    0.12            0.21    0.22    0.11           0.13     0.15
A18        73.43   76.95   63.28          90.30   -1.59    0.21           1.61  172.35           0.12    0.11    0.12    0.12            0.22    0.22    0.09           0.17     0.20 
A19        74.17   76.82   67.38          90.24    0.20   -3.76           3.77  273.07           0.11    0.11    0.09    0.12            0.20    0.19    0.11           0.13     0.15
A20         1.38    1.09    0.71           9.75   10.36    3.34          10.88   17.87           1.79    2.10    2.04    1.91            0.02    0.01    0.01           0.22     0.26 
A21         5.19    3.28    0.76          21.13   28.77   22.04          36.24   37.45           1.11    1.87    2.00    1.39            0.08    0.05    0.01           0.33     0.37
A22        10.21    5.79    0.85          28.88   43.07   33.88          54.79   38.19           0.79    1.80    1.95    1.12            0.11    0.06    0.01           0.27     0.30
B1          3.32    2.89    1.57          19.60    9.25    8.00          12.23   40.83           1.39    1.64    1.69    1.50            0.04    0.04    0.02           0.25     0.28
B2          3.96    2.95    0.99          19.84   17.98   15.96          24.04   41.60           1.26    1.74    1.89    1.46            0.07    0.05    0.02           0.30     0.33
B3          4.54    2.93    0.61          19.76   26.37   22.56          34.70   40.55           1.17    1.90    2.09    1.44            0.07    0.04    0.01           0.28     0.32
B4          5.26    3.23    0.53          20.96   30.34   26.08          40.01   40.68           1.10    1.92    2.15    1.38            0.07    0.04    0.01           0.28     0.32
B5         12.69   10.95    5.66          39.50   15.09   13.79          20.45   42.43           0.79    1.06    1.15    0.92            0.16    0.15    0.09           0.29     0.32
B6         14.76   11.09    3.89          39.73   27.25   23.82          36.19   41.16           0.68    1.16    1.31    0.89            0.14    0.11    0.07           0.25     0.30
B7         17.19   11.11    2.24          39.77   41.05   36.07          54.64   41.31           0.58    1.31    1.54    0.86            0.11    0.08    0.03           0.15     0.17
B8         20.21   11.08    1.05          39.72   56.83   49.40          75.30   41.00           0.50    1.57    1.86    0.83            0.13    0.09    0.01           0.17     0.20
B9         40.86   40.22   29.60          69.63    6.47    5.54           8.52   40.55           0.34    0.42    0.44    0.39            0.29    0.29    0.25           0.23     0.26
B10        43.05   40.38   26.29          69.74   12.58   11.22          16.86   41.74           0.29    0.44    0.49    0.37            0.32    0.30    0.27           0.27     0.29
B11        44.93   40.19   23.32          69.60   18.65   16.35          24.80   41.23           0.25    0.47    0.55    0.37            0.28    0.27    0.22           0.27     0.30
B12        46.81   40.14   20.96          69.57   24.12   20.87          31.90   40.87           0.21    0.50    0.59    0.36            0.22    0.22    0.19           0.27     0.30
B13        67.82   73.12   66.55          88.51   -5.79   -5.98           8.32  225.90           0.18    0.11    0.10    0.14            0.18    0.18    0.08           0.13     0.16
B14        71.09   70.26   65.23          87.12    7.19   -7.12          10.12  315.29           0.12    0.17    0.11    0.15            0.18    0.19    0.10           0.16     0.18
B15        72.82   75.98   53.75          89.85   -0.93    9.14           9.18   95.80           0.11    0.12    0.19    0.12            0.16    0.17    0.16           0.19     0.23
B16        59.99   62.16   51.05          83.00    0.12    0.27           0.33  100.71           0.20    0.20    0.21    0.21            0.25    0.23    0.29           0.19     0.23
B17        67.63   67.15   51.86          85.58    6.40    3.82           7.46   30.84           0.12    0.19    0.20    0.17            0.19    0.21    0.23           0.15     0.17
B18        64.74   70.40   53.04          87.19   -6.97    5.31           8.76  142.70           0.18    0.13    0.19    0.16            0.29    0.27    0.31           0.26     0.29
B19        63.29   65.11   64.01          84.54    1.17  -10.42          10.49  276.39           0.19    0.18    0.12    0.19            0.21    0.20    0.13           0.15     0.16
B20         2.88    2.05    0.73          15.76   18.33   13.37          22.69   36.11           1.40    1.94    2.02    1.61            0.03    0.02    0.01           0.27     0.30
B21         8.45    4.91    0.81          26.48   38.94   30.50          49.47   38.07           0.88    1.82    1.98    1.19            0.12    0.07    0.02           0.31     0.35
B22        29.11   24.70   11.73          56.79   21.68   21.12          30.27   44.26           0.41    0.72    0.84    0.57            0.26    0.24    0.14           0.29     0.32
C1          4.50    4.32    2.16          24.70    4.63   10.77          11.72   66.73           1.28    1.41    1.55    1.34            0.05    0.04    0.03           0.17     0.19
C2          4.90    4.41    1.35          24.98    8.59   19.84          21.62   66.60           1.21    1.45    1.74    1.32            0.08    0.07    0.02           0.29     0.33
C3          5.18    4.32    0.73          24.71   13.15   28.81          31.67   65.47           1.16    1.51    2.00    1.31            0.09    0.08    0.01           0.32     0.36
C4          5.71    4.69    0.69          25.84   14.58   31.62          34.82   65.24           1.11    1.49    2.02    1.27            0.06    0.06    0.01           0.26     0.29
C5         23.80   22.66   10.68          54.72    8.83   20.76          22.56   66.96           0.54    0.70    0.87    0.62            0.25    0.24    0.15           0.28     0.32
C6         25.44   22.23    5.36          54.27   17.81   40.75          44.47   66.39           0.46    0.77    1.16    0.61            0.21    0.18    0.07           0.26     0.29
C7         27.81   22.48    2.30          54.53   26.36   60.93          66.38   66.61           0.40    0.83    1.50    0.59            0.19    0.17    0.03           0.17     0.21
C8         29.08   22.38    1.16          54.43   31.74   73.10          79.70   66.53           0.37    0.87    1.79    0.58            0.16    0.14    0.01           0.22     0.25
C9         47.32   47.46   32.22          74.48    4.36    9.83          10.75   66.08           0.27    0.34    0.41    0.31            0.26    0.25    0.22           0.23     0.26
C10        48.45   47.21   26.54          74.33    8.18   18.71          20.42   66.39           0.24    0.36    0.49    0.31            0.26    0.25    0.19           0.19     0.22
C11        50.23   47.63   21.52          74.59   11.84   28.41          30.78   67.37           0.21    0.38    0.57    0.30            0.27    0.28    0.20           0.25     0.28
C12        51.47   47.31   17.43          74.39   16.00   36.73          40.06   66.46           0.18    0.40    0.66    0.29            0.27    0.29    0.18           0.24     0.27
C13        59.69   67.09   64.98          85.55  -11.59   -9.60          15.05  219.65           0.26    0.13    0.11    0.19            0.21    0.22    0.14           0.13     0.16
C14        65.60   61.42   62.05          82.60   14.73  -11.86          18.92  321.16           0.14    0.24    0.13    0.20            0.27    0.26    0.21           0.15     0.17
C15        70.09   73.24   43.64          88.56   -1.13   18.55          18.58   93.48           0.11    0.14    0.27    0.13            0.28    0.29    0.14           0.18     0.23
C16        46.56   48.16   39.21          74.93    0.34    0.71           0.79   64.40           0.31    0.32    0.32    0.32            0.33    0.33    0.26           0.24     0.27
C17        59.80   56.52   40.47          79.91   13.00    7.63          15.08   30.42           0.15    0.29    0.31    0.23            0.26    0.26    0.19           0.24     0.27
C18        54.39   62.12   42.41          82.98  -13.50   10.45          17.08  142.26           0.27    0.17    0.29    0.22            0.26    0.24    0.31           0.28     0.32
C19        51.59   52.48   59.57          77.57    2.60  -18.09          18.28  278.17           0.30    0.27    0.15    0.29            0.32    0.31    0.20           0.25     0.27
C20         1.74    1.44    0.69          12.23    9.37    8.15          12.42   41.03           1.68    1.97    2.05    1.79            0.02    0.02    0.01           0.24     0.26
C21        23.01   17.28    4.70          48.61   31.64   34.45          46.78   47.43           0.48    0.97    1.22    0.70            0.25    0.20    0.08           0.29     0.33
C22        34.85   31.60   17.07          63.01   15.58   17.96          23.77   49.06           0.36    0.57    0.68    0.47            0.28    0.26    0.18           0.25     0.28
D1          4.18    4.33    2.23          24.73    0.07   10.22          10.22   89.59           1.34    1.38    1.54    1.35            0.06    0.06    0.04           0.31     0.34
D2          4.10    4.25    1.36          24.47    0.02   18.87          18.87   89.93           1.33    1.39    1.74    1.35            0.05    0.05    0.02           0.27     0.30
D3          4.04    4.22    0.74          24.37   -0.29   28.09          28.09   90.58           1.33    1.41    1.99    1.35            0.06    0.06    0.01           0.29     0.34
D4          4.72    4.92    0.77          26.51   -0.38   31.25          31.25   90.70           1.26    1.34    1.97    1.28            0.09    0.09    0.01           0.41     0.46
D5         26.69   27.71   13.64          59.63   -0.15   20.63          20.63   90.41           0.52    0.57    0.77    0.55            0.27    0.29    0.17           0.28     0.31
D6         26.28   27.57    7.52          59.50   -1.25   40.19          40.21   91.78           0.51    0.58    1.01    0.54            0.23    0.24    0.11           0.32     0.35
D7         26.38   27.75    3.58          59.66   -1.56   60.20          60.22   91.49           0.50    0.60    1.32    0.53            0.20    0.21    0.03           0.24     0.27
D8         26.05   27.58    1.54          59.50   -2.20   77.09          77.12   91.63           0.52    0.61    1.68    0.54            0.18    0.17    0.01           0.22     0.25
D9         53.76   55.75   37.89          79.47    0.00   10.32          10.32   89.99           0.23    0.26    0.34    0.25            0.33    0.33    0.23           0.26     0.29
D10        53.64   55.86   30.53          79.53   -0.57   21.13          21.14   91.54           0.22    0.26    0.43    0.24            0.28    0.27    0.17           0.21     0.23
D11        53.31   55.60   24.35          79.38   -0.77   31.31          31.32   91.41           0.22    0.27    0.52    0.24            0.25    0.27    0.23           0.30     0.33
D12        52.85   55.41   11.48          79.28   -1.48   60.63          60.65   91.40           0.21    0.29    0.83    0.24            0.29    0.28    0.11           0.23     0.27
D13        51.91   60.91   62.98          82.33  -17.10  -13.23          21.63  217.73           0.36    0.15    0.12    0.24            0.22    0.20    0.11           0.19     0.23
D14        60.27   53.35   58.73          78.08   21.99  -16.35          27.40  323.37           0.17    0.33    0.16    0.26            0.19    0.18    0.15           0.17     0.19
D15        67.80   70.71   35.41          87.34   -0.83   27.33          27.34   91.74           0.12    0.16    0.36    0.14            0.32    0.33    0.22           0.23     0.26
D16        35.89   37.11   30.18          67.36    0.37    0.69           0.79   62.09           0.42    0.43    0.44    0.43            0.25    0.25    0.21           0.20     0.22
D17        53.11   47.69   31.59          74.63   19.23   11.03          22.17   29.84           0.18    0.39    0.42    0.30            0.19    0.16    0.16           0.18     0.21
D18        45.27   54.40   33.76          78.69  -19.55   14.79          24.52  142.89           0.37    0.22    0.38    0.28            0.24    0.25    0.19           0.20     0.22
D19        41.66   41.76   54.87          70.71    4.25  -25.07          25.43  279.62           0.41    0.37    0.19    0.39            0.27    0.27    0.21           0.25     0.28
D20        13.78   10.37    2.61          38.50   26.47   30.68          40.53   49.21           0.70    1.20    1.47    0.92            0.14    0.11    0.04           0.22     0.24
D21        21.46   20.65   11.44          52.57    7.45   14.70          16.48   63.13           0.59    0.73    0.85    0.67            0.25    0.25    0.18           0.35     0.38
D22        38.30   36.39   19.71          66.82   10.59   18.69          21.48   60.46           0.33    0.49    0.61    0.42            0.32    0.32    0.22           0.28     0.31
E1          3.81    4.26    2.25          24.53   -4.36    9.68          10.61  114.27           1.41    1.35    1.53    1.37            0.06    0.06    0.04           0.28     0.31
E2          3.50    4.30    1.41          24.64   -9.68   18.56          20.94  117.55           1.47    1.32    1.72    1.37            0.05    0.06    0.02           0.29     0.32
E3          3.22    4.31    0.80          24.67  -14.34   27.43          30.96  117.60           1.55    1.30    1.95    1.37            0.06    0.08    0.02           0.33     0.38
E4          3.50    4.74    0.83          25.97  -15.38   29.25          33.05  117.74           1.52    1.26    1.93    1.33            0.06    0.08    0.01           0.33     0.37
E5         12.64   14.28    7.51          44.63   -7.37   14.59          16.35  116.80           0.88    0.82    1.02    0.85            0.15    0.17    0.11           0.29     0.32
E6         11.57   14.35    4.53          44.72  -15.13   28.71          32.45  117.79           0.95    0.80    1.22    0.85            0.13    0.15    0.06           0.26     0.29
E7         10.46   14.27    2.46          44.62  -22.77   42.48          48.20  118.20           1.03    0.78    1.47    0.86            0.08    0.10    0.03           0.20     0.22
E8          9.64   14.32    1.34          44.69  -29.52   54.00          61.54  118.67           1.13    0.76    1.73    0.86            0.09    0.10    0.01           0.26     0.30
E9         37.55   40.27   27.69          69.66   -4.09    8.72           9.63  115.11           0.40    0.39    0.47    0.40            0.22    0.23    0.19           0.22     0.24
E10        36.22   40.27   23.44          69.66   -8.47   16.22          18.30  117.58           0.42    0.38    0.54    0.40            0.26    0.28    0.21           0.24     0.26
E11        35.02   40.34   19.57          69.71  -12.69   23.99          27.14  117.88           0.44    0.37    0.61    0.40            0.33    0.34    0.25           0.33     0.37
E12        31.84   40.29   11.65          69.68  -23.71   43.59          49.62  118.55           0.51    0.35    0.82    0.40            0.19    0.19    0.13           0.32     0.36
E13        44.57   54.88   60.81          78.97  -22.78  -16.90          28.37  216.57           0.46    0.18    0.14    0.29            0.23    0.22    0.14           0.20     0.24
E14        54.86   45.54   54.99          73.25   29.63  -20.82          36.21  324.92           0.20    0.42    0.19    0.32            0.26    0.25    0.20           0.22     0.25
E15        65.79   68.30   28.40          86.16   -0.15   35.98          35.98   90.25           0.12    0.19    0.45    0.15            0.31    0.32    0.31           0.30     0.33
E16        26.64   27.58   22.59          59.50    0.21    0.32           0.41   81.18           0.55    0.56    0.56    0.56            0.21    0.21    0.12           0.27     0.31
E17        46.88   39.71   24.18          69.26   25.66   14.16          29.31   28.90           0.22    0.51    0.53    0.36            0.20    0.18    0.18           0.25     0.27
E18        36.86   46.92   26.45          74.14  -25.62   18.53          31.62  144.12           0.48    0.26    0.48    0.35            0.24    0.27    0.19           0.29     0.32
E19        32.76   32.19   49.76          63.50    6.20  -31.90          32.50  281.01           0.54    0.48    0.23    0.51            0.25    0.25    0.21           0.23     0.26
E20        24.43   16.69    1.21          47.86   41.11   61.22          73.74   56.12           0.43    1.09    1.78    0.69            0.18    0.15    0.01           0.28     0.31
E21        17.02   14.02    2.61          44.26   20.76   40.63          45.63   62.93           0.62    1.01    1.46    0.80            0.19    0.17    0.04           0.27     0.30
E22        29.58   25.44    8.08          57.50   20.40   34.54          40.11   59.43           0.40    0.71    0.99    0.55            0.26    0.24    0.10           0.29     0.34
F1          1.51    1.87    1.27          14.81   -7.62    3.31           8.30  156.53           1.91    1.66    1.78    1.74            0.02    0.02    0.02           0.22     0.24
F2          1.17    1.85    1.05          14.67  -17.42    6.15          18.47  160.55           2.16    1.60    1.85    1.78            0.02    0.04    0.02           0.30     0.34
F3          1.12    2.07    1.03          15.85  -23.97    8.47          25.42  160.54           2.29    1.51    1.85    1.74            0.01    0.03    0.02           0.31     0.33
F4          1.23    2.33    1.12          17.14  -26.02    9.42          27.68  160.10           2.27    1.46    1.81    1.69            0.02    0.04    0.02           0.29     0.34
F5          6.72    8.32    5.71          34.64  -12.56    5.22          13.60  157.42           1.23    1.02    1.14    1.10            0.10    0.11    0.09           0.24     0.29
F6          5.48    8.28    4.79          34.56  -25.63    9.72          27.41  159.22           1.43    0.96    1.21    1.12            0.07    0.10    0.05           0.27     0.30
F7          4.43    8.26    3.98          34.52  -38.67   14.31          41.23  159.69           1.70    0.92    1.28    1.14            0.05    0.08    0.04           0.24     0.26
F8          3.51    8.30    3.37          34.60  -52.36   18.36          55.49  160.67           2.11    0.87    1.34    1.16            0.03    0.06    0.02           0.24     0.26
F9         37.04   40.14   31.67          69.57   -5.37    2.20           5.81  157.75           0.43    0.38    0.41    0.40            0.20    0.20    0.21           0.21     0.24
F10        35.57   40.41   30.25          69.76  -11.03    4.72          12.00  156.82           0.46    0.36    0.43    0.40            0.19    0.18    0.13           0.25     0.28
F11        33.76   40.24   29.17          69.64  -16.73    6.25          17.86  159.53           0.51    0.34    0.45    0.41            0.25    0.28    0.29           0.29     0.31
F12        29.13   40.24   25.30          69.64  -33.65   12.79          36.00  159.19           0.64    0.30    0.50    0.43            0.27    0.29    0.29           0.30     0.34
F13        37.89   48.96   58.04          75.43  -27.85  -20.23          34.42  216.00           0.58    0.21    0.16    0.35            0.23    0.26    0.21           0.20     0.23
F14        49.34   38.14   50.84          68.12   37.34  -25.14          45.02  326.05           0.23    0.53    0.23    0.39            0.26    0.23    0.22           0.23     0.27
F15        63.62   65.51   21.75          84.75    1.03   45.47          45.48   88.71           0.13    0.22    0.56    0.17            0.30    0.31    0.19           0.26     0.29
F16        18.96   19.59   15.91          51.37    0.37    0.62           0.73   59.02           0.70    0.71    0.71    0.71            0.17    0.17    0.09           0.25     0.28
F17        40.90   32.42   17.44          63.69   32.21   18.26          37.03   29.55           0.26    0.64    0.67    0.44            0.23    0.19    0.14           0.24     0.28
