targets/wolf_faust/reflective/R110112WhiteBacking.it8
IT8.7/2
ORIGINATOR "Wolf Faust"
DESCRIPTOR "Kodak Professional Paper, L* a* b* (light D50, viewing angle 2)"
MANUFACTURER "Wolf Faust - http://www.coloraid.de"
CREATED "March 29, 2011"
PROD_DATE "2011:01"
SAMPLE_BACKING "white"
SERIAL "5x7 R110112 Batch Average Data"
MATERIAL "Kodak Professional Ultra Endura"
NUMBER_OF_FIELDS 9
BEGIN_DATA_FORMAT
SAMPLE_ID  XYZ_X   XYZ_Y   XYZ_Z          LAB_L   LAB_A   LAB_B          LAB_C   LAB_H
END_DATA_FORMAT
NUMBER_OF_SETS 288
BEGIN_DATA
A1          3.59    3.04    2.10          20.20   10.94    3.61          11.53   18.27
A2          4.46    3.00    1.71          20.05   24.07    7.18          25.12   16.61 
A3          5.34    2.99    1.41          20.00   35.44   10.61          37.00   16.67
A4          6.00    3.25    1.45          21.03   38.55   11.78          40.32   16.99 
A5         12.87   11.24    7.78          39.98   14.23    5.47          15.25   21.04
A6         15.36   11.30    6.95          40.09   29.27    9.03          30.63   17.15 
A7         17.85   11.37    6.00          40.19   42.75   13.42          44.81   17.43
A8         21.66   11.56    5.01          40.51   60.39   18.84          63.26   17.32 
A9         42.39   41.61   32.34          70.60    6.89    2.96           7.51   23.25
A10        45.17   42.09   31.56          70.93   13.63    4.71          14.43   19.05
A11        47.65   42.17   30.14          70.98   20.36    7.01          21.54   19.00
A12        49.67   41.98   28.68          70.86   26.42    9.14          27.96   19.09 
A13        77.12   80.84   69.24          92.06   -1.66   -2.33           2.86  234.49
A14        77.81   80.24   68.94          91.79    0.87   -2.51           2.66  289.17 
A15        77.81   81.14   64.65          92.19   -0.85    2.17           2.34  111.46
A16        77.54   80.53   65.69          91.92   -0.20    0.71           0.74  106.06
A17        75.87   77.98   63.12          90.77    1.39    1.17           1.82   40.14
A18        76.28   80.09   65.38          91.72   -1.89    0.67           2.01  160.58 
A19        76.97   79.99   68.97          91.68   -0.32   -2.74           2.76  263.28
A20         1.38    1.10    0.74           9.82   10.02    2.89          10.43   16.07 
A21         5.45    3.45    0.82          21.76   29.09   22.12          36.55   37.25
A22        10.62    6.07    0.88          29.59   43.18   34.60          55.33   38.71
B1          3.48    3.03    1.63          20.17    9.34    8.36          12.54   41.81
B2          4.05    3.02    1.05          20.14   17.99   15.60          23.81   40.93
B3          4.67    3.02    0.66          20.11   26.59   22.27          34.69   39.94
B4          5.30    3.23    0.54          20.96   30.83   25.93          40.29   40.07
B5         13.06   11.32    5.85          40.11   14.96   13.94          20.45   42.98
B6         15.19   11.46    3.95          40.34   27.22   24.54          36.65   42.03
B7         17.80   11.52    2.32          40.45   41.38   36.53          55.19   41.44
B8         21.10   11.61    1.10          40.59   57.39   50.14          76.21   41.14
B9         42.11   41.62   30.19          70.61    6.03    6.28           8.71   46.13
B10        44.99   42.32   27.12          71.09   12.41   12.13          17.36   44.35
B11        46.95   42.12   24.34          70.95   18.57   16.80          25.04   42.13
B12        48.75   41.85   21.49          70.77   24.32   21.88          32.72   41.97
B13        70.32   76.01   68.01          89.87   -6.26   -4.99           8.01  218.54
B14        73.57   72.98   66.77          88.44    6.72   -6.30           9.21  316.84
B15        75.62   79.12   55.53          91.29   -1.36    9.72           9.81   97.95
B16        62.38   64.77   52.83          84.36   -0.17    0.67           0.71  104.01
B17        70.12   69.80   53.61          86.90    6.12    4.20           7.42   34.46
B18        67.23   73.31   54.78          88.59   -7.47    5.87           9.50  141.83
B19        65.60   67.70   65.44          85.86    0.72   -9.50           9.53  274.35
B20         2.93    2.07    0.75          15.87   18.59   13.26          22.83   35.50
B21         8.84    5.17    0.85          27.22   39.17   31.06          49.99   38.41
B22        30.39   25.82   12.02          57.86   21.87   22.13          31.11   45.34
C1          4.67    4.48    2.30          25.21    4.60   10.38          11.35   66.12
C2          4.96    4.49    1.43          25.22    8.28   19.35          21.05   66.84
C3          5.29    4.47    0.78          25.17   12.55   28.76          31.38   66.43
C4          6.01    5.00    0.72          26.73   14.04   32.43          35.34   66.60
C5         24.53   23.39   10.96          55.48    8.72   21.21          22.93   67.64
C6         26.38   23.18    5.55          55.26   17.47   41.54          45.06   67.19
C7         28.84   23.40    2.42          55.49   26.25   61.58          66.94   66.92
C8         30.07   23.22    1.22          55.30   31.75   73.80          80.34   66.72
C9         49.20   49.36   33.16          75.67    4.40   10.47          11.36   67.18
C10        50.71   49.48   27.15          75.75    8.12   20.12          21.69   68.02
C11        52.37   49.66   22.41          75.86   12.00   28.87          31.26   67.43
C12        53.78   49.64   17.90          75.85   15.68   38.19          41.28   67.68
C13        61.42   69.44   66.32          86.72  -12.54   -8.84          15.34  215.19
C14        67.82   63.65   63.61          83.78   14.56  -11.34          18.45  322.09
C15        73.09   76.59   45.21          90.13   -1.57   19.33          19.40   94.63
C16        48.28   50.12   40.64          76.14   -0.11    0.92           0.94   95.96
C17        62.29   58.97   41.96          81.28   12.95    8.09          15.26   32.00
C18        56.30   64.62   43.79          84.29  -14.38   10.99          18.10  142.59
C19        53.39   54.50   61.02          78.75    2.16  -17.49          17.62  277.03
C20         1.76    1.48    0.73          12.45    8.90    7.67          11.75   40.77
C21        23.72   17.84    4.71          49.31   31.78   35.61          47.73   48.26
C22        36.47   33.11   17.71          64.25   15.67   18.61          24.33   49.90
D1          4.35    4.50    2.29          25.26    0.20   10.59          10.59   88.89
D2          4.27    4.43    1.44          25.05   -0.12   18.89          18.89   90.35
D3          4.25    4.44    0.79          25.09   -0.50   28.41          28.41   91.01
D4          4.79    5.06    0.80          26.91   -1.17   31.38          31.40   92.13
D5         27.22   28.35   13.71          60.20   -0.47   21.44          21.45   91.25
D6         27.39   28.66    7.68          60.48   -0.98   41.25          41.26   91.36
D7         27.33   28.88    3.67          60.67   -2.03   61.31          61.35   91.90
D8         27.08   28.81    1.63          60.62   -2.82   78.05          78.10   92.07
D9         56.10   58.28   39.05          80.89   -0.23   11.21          11.21   91.18
D10        56.23   58.71   31.61          81.13   -0.92   22.21          22.23   92.36
D11        56.04   58.58   25.50          81.06   -1.11   32.13          32.15   91.97
D12        55.23   58.03   11.32          80.75   -1.80   63.68          63.70   91.62
D13        52.93   62.77   64.26          83.32  -18.71  -12.76          22.65  214.28
D14        62.15   54.86   60.19          78.96   22.58  -16.31          27.85  324.16
D15        70.71   73.95   36.30          88.90   -1.26   28.76          28.78   92.51
D16        36.54   37.95   30.88          67.98   -0.16    0.68           0.72  101.76
D17        54.99   49.27   32.36          75.62   19.74   11.57          22.89   30.38
D18        46.48   56.36   34.66          79.82  -20.97   15.43          26.04  143.65
D19        42.41   42.66   55.96          71.32    3.85  -25.16          25.45  278.69
D20        14.61   11.08    2.76          39.71   26.47   31.58          41.21   50.03
D21        22.34   21.56   11.76          53.56    7.25   15.47          17.08   64.85
D22        39.66   37.74   20.13          67.83   10.52   19.57          22.22   61.74
E1          3.92    4.42    2.29          25.02   -4.90   10.17          11.29  115.73
E2          3.57    4.40    1.49          24.96   -9.88   18.17          20.68  118.53
E3          3.20    4.40    0.84          24.94  -15.74   27.26          31.48  120.00
E4          3.46    4.78    0.85          26.10  -16.59   29.09          33.49  119.70
E5         12.98   14.65    7.67          45.16   -7.32   14.84          16.55  116.27
E6         11.88   14.72    4.68          45.25  -15.23   28.76          32.54  117.90
E7         10.76   14.65    2.58          45.15  -22.85   42.45          48.21  118.30
E8          9.69   14.56    1.38          45.03  -30.63   54.05          62.13  119.54
E9         38.71   41.63   28.65          70.61   -4.48    8.77           9.85  117.03
E10        37.64   41.90   24.36          70.80   -8.73   16.49          18.66  117.88
E11        36.08   41.62   19.78          70.61  -13.02   25.09          28.27  117.44
E12        32.50   41.52   11.46          70.54  -25.05   45.64          52.06  118.76
E13        45.57   56.65   61.95          79.98  -24.25  -16.28          29.21  213.87
E14        56.40   46.50   56.35          73.87   30.78  -21.17          37.35  325.48
E15        68.61   71.41   28.91          87.68   -0.53   37.77          37.77   90.80
E16        27.30   28.22   22.99          60.09    0.38    0.56           0.71   53.33
E17        48.25   40.66   24.60          69.94   26.53   14.56          30.26   28.76
E18        38.24   48.95   27.01          75.42  -26.71   19.79          33.24  143.46
E19        33.47   32.78   50.71          63.98    6.64  -32.14          32.82  281.67
E20        25.51   17.51    1.28          48.90   41.24   62.08          74.53   56.40
E21        17.71   14.58    2.75          45.06   21.04   40.88          45.98   62.77
E22        30.58   26.31    8.27          58.33   20.58   35.26          40.83   59.73
F1          1.54    1.94    1.35          15.15   -8.49    2.88           8.96  161.22
F2          1.19    1.91    1.11          15.02  -18.01    5.91          18.96  161.83
F3          1.14    2.14    1.09          16.23  -25.05    8.27          26.38  161.73
F4          1.25    2.40    1.18          17.45  -26.88    9.11          28.38  161.29
F5          6.81    8.50    5.86          35.01  -13.23    5.12          14.19  158.87
F6          5.53    8.48    4.98          34.95  -26.81    9.38          28.41  160.72
F7          4.38    8.30    4.08          34.61  -39.77   13.84          42.11  160.81
F8          3.55    8.46    3.53          34.92  -53.09   17.87          56.01  161.39
F9         38.00   41.36   32.00          70.43   -5.95    3.17           6.74  152.02
F10        36.76   41.83   31.12          70.75  -11.37    5.07          12.45  155.98
F11        34.92   41.82   29.92          70.74  -17.51    6.95          18.84  158.36
F12        29.53   41.43   26.07          70.47  -35.72   12.87          37.97  160.18
F13        38.61   50.55   59.15          76.41  -29.75  -19.67          35.66  213.47
F14        50.89   39.04   52.24          68.78   38.65  -25.56          46.34  326.51
F15        66.58   68.74   22.25          86.38    0.66   47.31          47.31   89.20
F16        19.58   20.33   16.46          52.21   -0.12    0.76           0.78  100.75
F17        42.29   33.45   17.95          64.52   32.79   18.55          37.68   29.50
F18        30.49   41.62   20.34          70.61  -32.67   23.93          40.50  143.79
F19        25.76   24.58   45.43          56.66    8.82  -38.64          39.64  282.86
F20        26.64   25.53   11.70          57.59    8.45   22.58          24.11   69.47
F21        34.85   31.55   10.87          62.97   15.76   34.39          37.83   65.38
F22        39.79   37.04   15.80          67.31   13.16   28.36          31.26   65.10
G1          2.35    2.97    2.64          19.93   -9.82   -1.53           9.94  188.85
G2          1.93    3.02    2.88          20.13  -19.86   -3.08          20.10  188.82
G3          1.77    3.27    3.28          21.09  -28.06   -4.28          28.39  188.67
G4          1.91    3.57    3.63          22.18  -29.38   -4.77          29.77  189.23
G5          9.17   11.23    9.71          39.97  -13.01   -1.51          13.10  186.62
G6          7.82   11.20   10.44          39.91  -24.53   -4.02          24.85  189.30
G7          6.41   11.10   11.12          39.75  -37.72   -6.43          38.27  189.68
G8          5.30   11.22   11.87          39.94  -51.05   -8.34          51.73  189.27
G9         38.21   41.60   34.39          70.59   -5.98   -0.10           5.98  180.92
G10        36.27   41.65   35.52          70.63  -12.49   -1.64          12.60  187.51
G11        34.26   41.57   36.12          70.57  -19.03   -2.59          19.20  187.76
G12        28.94   41.53   38.83          70.55  -38.27   -6.33          38.79  189.40
G13        32.49   44.89   56.23          72.82  -34.89  -22.86          41.72  213.24
G14        45.34   32.01   47.81          63.35   46.77  -29.91          55.52  327.40
G15        64.53   65.89   16.44          84.94    2.27   57.22          57.27   87.73
G16        13.35   13.84   11.16          44.00    0.03    0.80           0.81   88.92
G17        36.63   26.93   12.43          58.91   39.23   22.75          45.35   30.11
G18        24.02   35.09   14.71          65.81  -38.04   28.50          47.54  143.16
G19        19.10   17.41   39.84          48.77   12.26  -45.22          46.85  285.18
G20        36.60   35.32   14.53          66.00    8.58   29.28          30.51   73.68
G21        35.70   34.09    9.45          65.03    9.75   42.60          43.71   77.11
G22        47.67   44.00    2.77          72.23   15.06   87.58          88.87   80.24
H1          2.57    3.01    3.33          20.07   -6.16   -6.41           8.90  226.09
H2          2.28    3.02    4.42          20.13  -12.13  -13.08          17.84  227.16
H3          2.05    3.06    5.84          20.29  -17.94  -20.15          26.98  228.32
H4          2.20    3.31    6.42          21.25  -18.74  -21.14          28.25  228.45
H5          9.85   11.32   11.97          40.12   -8.19   -8.31          11.67  225.40
H6          8.91   11.25   15.49          40.00  -15.37  -17.95          23.63  229.43
H7          7.97   11.26   19.44          40.02  -23.69  -26.93          35.87  228.67
H8          7.09   11.31   24.78          40.09  -32.32  -37.22          49.29  229.02
H9         38.59   41.60   37.74          70.59   -4.76   -4.79           6.75  225.19
H10        37.72   41.95   41.45          70.83   -8.60   -9.27          12.64  227.13
H11        36.10   41.83   45.42          70.75  -13.57  -14.34          19.74  226.58
H12        33.12   41.49   55.04          70.52  -22.74  -25.58          34.22  228.36
H13        27.13   39.58   52.93          69.17  -39.46  -25.64          47.06  213.01
H14        40.38   26.23   43.50          58.25   54.04  -33.54          63.60  328.17
H15        62.58   63.13   12.13          83.51    3.99   66.02          66.14   86.54
H16         8.83    9.17    7.39          36.31   -0.11    0.70           0.71   99.18
H17        31.84   21.71    8.38          53.72   45.08   26.90          52.49   30.82
H18        18.74   29.42   10.56          61.15  -42.90   32.24          53.67  143.07
H19        14.08   12.09   34.76          41.36   16.09  -51.03          53.50  287.50
H20        41.90   42.38   15.16          71.13    3.14   36.53          36.66   85.09
H21        31.76   32.82   20.43          64.01    0.43   12.36          12.37   88.00
H22        35.87   38.93   11.19          68.70   -5.48   43.30          43.64   97.21
I1          4.42    4.52    5.80          25.34    0.78  -11.28          11.31  273.94
I2          4.44    4.50    8.72          25.27    1.35  -23.40          23.44  273.31
I3          4.49    4.48   12.10          25.20    2.31  -34.42          34.50  273.83
I4          4.59    4.48   19.84          25.19    3.73  -53.36          53.49  273.99
I5         14.27   14.68   15.21          45.19    0.71   -8.32           8.36  274.89
I6         14.49   14.77   19.74          45.32    1.52  -18.42          18.48  274.72
I7         14.49   14.68   24.33          45.19    2.05  -27.61          27.69  274.24
I8         14.61   14.53   36.87          44.99    3.70  -47.74          47.88  274.43
I9         40.39   41.77   37.49          70.71    0.37   -4.25           4.27  274.94
I10        40.42   41.67   41.05          70.64    0.75   -9.09           9.12  274.74
I11        40.42   41.73   45.24          70.68    0.59  -14.24          14.25  272.37
I12        40.96   41.80   55.62          70.74    2.00  -25.82          25.89  274.43
I13        22.43   34.57   49.40          65.41  -43.40  -28.19          51.75  213.01
I14        35.32   20.75   38.80          52.68   61.73  -37.11          72.03  328.98
I15        60.65   60.23    8.39          81.96    6.14   75.55          75.80   85.35
I16         5.31    5.49    4.44          28.10    0.16    0.51           0.56   67.20
I17        27.21   17.00    5.11          48.26   50.98   31.67          60.01   31.85
I18        14.21   24.18    7.12          56.26  -47.35   36.21          59.61  142.60
I19        10.02    7.79   29.65          33.55   21.49  -56.76          60.69  290.74
I20        42.29   46.35   15.86          73.77   -7.06   39.37          40.00  100.17
I21        11.03   14.73    3.48          45.27  -21.34   36.01          41.86  120.65
I22        28.90   37.17   17.10          67.40  -24.89   25.44          35.59  134.38
J1          2.18    1.93    3.02          15.10    7.42  -12.75          14.75  300.21
J2          2.49    1.92    4.97          15.06   13.83  -24.83          28.43  299.12
J3          2.88    1.93    7.89          15.10   21.13  -37.82          43.33  299.19
J4          3.78    1.89   17.45          14.91   36.54  -65.86          75.32  299.02
J5         11.95   11.57   12.39          40.53    5.60   -8.84          10.47  302.38
J6         12.68   11.56   16.11          40.51   10.66  -18.58          21.42  299.86
J7         13.45   11.48   20.53          40.38   16.28  -28.58          32.89  299.67
J8         15.49   11.42   33.99          40.29   29.19  -51.76          59.43  299.42
J9         41.62   42.04   37.99          70.90    3.30   -4.60           5.66  305.70
J10        42.25   41.84   41.09          70.76    5.80   -8.93          10.65  303.02
J11        43.53   42.35   45.79          71.11    8.06  -14.15          16.28  299.68
J12        45.49   42.03   55.29          70.89   14.73  -25.20          29.19  300.30
J13        18.38   29.88   45.61          61.55  -46.51  -30.43          55.57  213.19
J14        30.80   16.37   34.25          47.45   68.29  -39.79          79.03  329.77
J15        58.43   57.03    5.56          80.19    8.49   84.46          84.88   84.26
J16         2.98    3.08    2.49          20.35    0.27    0.37           0.49   53.16
J17        23.37   13.43    2.87          43.40   55.71   37.11          66.94   33.67
J18        10.47   19.43    4.57          51.19  -51.07   39.58          64.61  142.22
J19         7.01    4.75   24.88          26.01   27.64  -61.67          67.58  294.14
J20        30.72   39.53   22.32          69.13  -25.48   17.44          30.88  145.61
J21         4.21    8.02    1.50          34.02  -39.57   33.61          51.92  139.66
J22         1.36    2.17    0.95          16.38  -18.79   10.71          21.62  150.32
K1          5.45    4.53    5.29          25.35   13.60   -8.74          16.17  327.28
K2          6.69    4.54    7.38          25.37   27.15  -18.13          32.64  326.27
K3          8.01    4.51    9.78          25.30   40.16  -27.05          48.42  326.04
K4          9.57    4.53   12.95          25.35   53.24  -36.58          64.59  325.50
K5         16.31   14.80   14.86          45.35   12.07   -7.15          14.03  329.38
K6         18.43   14.87   18.46          45.45   23.11  -15.47          27.81  326.21
K7         20.89   15.04   22.38          45.68   34.41  -23.10          41.45  326.13
K8         27.43   15.08   34.19          45.74   62.72  -42.65          75.84  325.78
K9         42.80   42.05   37.30          70.91    6.82   -3.65           7.74  331.87
K10        44.94   42.02   40.63          70.88   13.17   -8.14          15.48  328.29
K11        47.21   41.91   44.45          70.81   19.93  -13.06          23.82  326.76
K12        52.80   41.84   53.88          70.76   35.08  -23.91          42.46  325.72
K13        14.58   25.01   41.16          57.08  -48.64  -32.60          58.56  213.83
K14        26.54   12.74   29.67          42.36   73.68  -41.59          84.61  330.56
K15        55.83   53.33    3.39          78.07   11.28   93.16          93.84   83.10
K16         1.41    1.47    1.18          12.41   -0.15    0.37           0.42  109.60
K17        19.91   10.53    1.37          38.78   59.39   43.40          73.56   36.16
K18         7.27   14.93    2.71          45.54  -53.98   42.08          68.44  142.07
K19         4.85    2.71   20.33          18.83   34.49  -65.32          73.86  297.84
K20         2.43    3.20    1.91          20.81  -12.11    6.45          13.72  151.97
K21         1.35    1.81    1.51          14.43  -10.70   -0.19          10.70  181.02
K22         1.69    2.21    2.88          16.55  -10.38   -9.22          13.89  221.60
L1          3.80    3.11    2.76          20.47   13.03   -1.54          13.12  353.26
L2          4.78    3.13    3.10          20.57   26.06   -3.93          26.36  351.42
L3          5.84    3.17    3.43          20.70   38.15   -6.01          38.62  351.05
L4          6.66    3.52    3.76          22.00   41.39   -5.90          41.81  351.89
L5         13.52   11.59   10.00          40.56   15.98   -1.45          16.04  354.81
L6         16.18   11.57   11.05          40.53   32.10   -4.85          32.46  351.41
L7         19.37   11.70   11.98          40.74   48.26   -7.27          48.81  351.44
L8         22.93   11.70   13.12          40.74   65.21  -10.52          66.05  350.83
L9         43.23   41.99   34.97          70.86    8.28   -0.46           8.30  356.86
L10        45.83   42.17   35.57          70.99   15.25   -1.09          15.29  355.91
L11        48.00   41.96   36.58          70.84   21.96   -2.76          22.13  352.83
L12        50.66   41.76   37.81          70.70   29.73   -4.69          30.10  351.04
L13        10.79   19.49   35.13          51.26  -48.99  -34.49          59.91  215.15
L14        22.24    9.64   24.68          37.19   77.34  -42.04          88.02  331.47
L15        51.75   48.09    1.89          74.88   14.63   99.86         100.93   81.67
L16         0.48    0.50    0.44           4.52   -0.16   -0.47           0.51  251.72
L17        15.56    7.57    0.52          33.07   60.71   47.13          76.86   37.82
L18         4.27    9.94    1.37          37.74  -54.69   41.64          68.74  142.71
L19         3.21    1.36   15.31          11.70   41.35  -66.30          78.13  301.95
L20         0.71    0.77    0.80           6.97   -1.43   -3.06           3.38  244.93
L21         0.96    0.90    0.95           8.15    3.52   -3.55           5.00  314.86
L22         2.03    1.61    1.35          13.32   11.77   -0.18          11.77  239.14
GS0        78.90   82.06   69.53          92.60   -0.45   -1.66           1.72  254.90
GS1        69.97   72.66   59.16          88.29   -0.20    0.80           0.83  103.87
GS2        62.18   64.47   52.25          84.21    0.03    1.04           1.04   87.59
