targets/wolf_faust/reflective/R110112.it8
IT8.7/2
ORIGINATOR "Wolf Faust"
DESCRIPTOR "Kodak Professional Paper, L* a* b* (light D50, viewing angle 2)"
MANUFACTURER "Wolf Faust - http://www.coloraid.de"
CREATED "March 29, 2011"
PROD_DATE "2011:01"
SAMPLE_BACKING "black"
SERIAL "5x7 R110112 Batch Average Data"
MATERIAL "Kodak Professional Ultra Endura"
KEYWORD "MEAN_DE" # Mean Delta E of samples compared to batch average
NUMBER_OF_FIELDS 18
BEGIN_DATA_FORMAT
SAMPLE_ID  XYZ_X   XYZ_Y   XYZ_Z          LAB_L   LAB_A   LAB_B          LAB_C   LAB_H          D_RED  D_GREEN  D_BLUE  D_VIS          STDEV_X STDEV_Y STDEV_Z        MEAN_DE  STDEV_DE
END_DATA_FORMAT
NUMBER_OF_SETS 288
BEGIN_DATA
A1          3.52    2.98    2.07          19.96   10.84    3.41          11.37   17.44           1.37    1.63    1.58    1.49            0.03    0.03    0.03           0.24     0.27
A2          4.37    2.94    1.70          19.80   23.88    6.95          24.87   16.24           1.22    1.82    1.67    1.45            0.04    0.03    0.03           0.29     0.32 
A3          5.23    2.93    1.38          19.74   35.17   10.48          36.70   16.60           1.11    2.07    1.77    1.42            0.05    0.04    0.02           0.32     0.37
A4          5.88    3.19    1.45          20.77   38.26   11.44          39.94   16.64           1.05    2.10    1.75    1.38            0.06    0.04    0.02           0.30     0.33 
A5         12.62   11.03    7.71          39.64   14.05    5.17          14.97   20.21           0.81    1.04    1.02    0.93            0.12    0.10    0.09           0.29     0.33
A6         15.03   11.08    6.88          39.71   28.95    8.67          30.22   16.67           0.68    1.16    1.07    0.90            0.13    0.10    0.07           0.33     0.40 
A7         17.46   11.14    5.91          39.82   42.28   13.17          44.29   17.30           0.59    1.29    1.14    0.87            0.15    0.11    0.07           0.36     0.41
A8         21.11   11.29    4.92          40.07   59.70   18.54          62.51   17.25           0.50    1.55    1.23    0.82            0.09    0.06    0.08           0.25     0.32 
A9         41.42   40.72   31.92          69.98    6.66    2.52           7.13   20.65           0.34    0.41    0.41    0.38            0.18    0.18    0.38           0.40     0.45
A10        44.10   41.18   31.14          70.30   13.25    4.26          13.93   17.83           0.29    0.43    0.42    0.37            0.25    0.29    0.30           0.36     0.42
A11        46.41   41.16   29.64          70.29   19.91    6.61          20.98   18.38           0.24    0.46    0.45    0.36            0.16    0.18    0.22           0.28     0.31
A12        48.36   41.00   28.36          70.18   25.79    8.49          27.16   18.22           0.21    0.49    0.47    0.35            0.12    0.15    0.17           0.27     0.30 
A13        75.00   78.69   68.09          91.10   -1.78   -2.94           3.44  238.77           0.11    0.09    0.09    0.11            0.07    0.08    0.07           0.07     0.08
A14        75.74   78.21   67.87          90.87    0.69   -3.12           3.19  282.39           0.10    0.10    0.09    0.11            0.07    0.09    0.08           0.07     0.08 
A15        75.59   78.92   63.57          91.20   -1.03    1.48           1.80  124.87           0.10    0.10    0.12    0.10            0.12    0.12    0.14           0.09     0.10
A16        75.46   78.45   64.64          90.99   -0.38    0.10           0.40  165.93           0.10    0.10    0.11    0.11            0.10    0.10    0.09           0.08     0.09
A17        73.84   75.99   62.13          89.86    1.16    0.56           1.29   25.84           0.11    0.12    0.13    0.12            0.11    0.13    0.10           0.09     0.10
A18        74.25   78.04   64.36          90.80   -2.03    0.03           2.04  179.12           0.12    0.10    0.11    0.11            0.13    0.12    0.14           0.08     0.10 
A19        74.82   77.84   67.77          90.71   -0.49   -3.31           3.35  261.57           0.11    0.10    0.09    0.11            0.11    0.12    0.08           0.10     0.11
A20         1.34    1.07    0.73           9.55    9.97    2.63          10.32   14.78           1.81    2.10    2.03    1.92            0.01    0.01    0.01           0.27     0.30 
A21         5.32    3.38    0.81          21.49   28.78   21.87          36.15   37.23           1.10    1.85    1.98    1.37            0.06    0.04    0.01           0.29     0.33
A22        10.36    5.93    0.87          29.24   42.70   34.11          54.65   38.62           0.79    1.77    1.94    1.11            0.05    0.03    0.01           0.26     0.28
B1          3.40    2.97    1.60          19.90    9.15    8.18          12.28   41.81           1.38    1.62    1.69    1.49            0.05    0.05    0.04           0.40     0.46
B2          3.95    2.96    1.04          19.87   17.73   15.34          23.44   40.87           1.27    1.74    1.87    1.46            0.05    0.04    0.02           0.32     0.34
B3          4.56    2.96    0.65          19.88   26.20   21.92          34.16   39.91           1.17    1.89    2.06    1.43            0.04    0.03    0.01           0.33     0.37
B4          5.20    3.19    0.54          20.78   30.43   25.59          39.76   40.05           1.10    1.93    2.14    1.39            0.05    0.03    0.02           0.37     0.47
B5         12.81   11.12    5.80          39.78   14.68   13.63          20.04   42.86           0.78    1.05    1.14    0.92            0.14    0.11    0.10           0.34     0.38
B6         14.86   11.22    3.90          39.95   26.90   24.12          36.13   41.88           0.67    1.15    1.30    0.89            0.12    0.09    0.06           0.36     0.41
B7         17.38   11.28    2.29          40.04   40.87   36.12          54.54   41.47           0.58    1.30    1.53    0.86            0.10    0.07    0.03           0.22     0.26
B8         20.53   11.32    1.08          40.11   56.73   49.57          75.33   41.14           0.49    1.55    1.84    0.82            0.10    0.07    0.02           0.23     0.25
B9         41.09   40.70   29.75          69.97    5.73    5.88           8.21   45.70           0.34    0.41    0.44    0.38            0.30    0.30    0.31           0.28     0.32
B10        43.85   41.33   26.75          70.41   12.05   11.59          16.72   43.88           0.28    0.43    0.49    0.36            0.20    0.22    0.23           0.31     0.34
B11        45.83   41.22   24.07          70.33   18.10   16.21          24.29   41.85           0.24    0.46    0.53    0.36            0.16    0.17    0.21           0.29     0.34
B12        47.40   40.84   21.17          70.06   23.66   21.30          31.84   42.00           0.21    0.49    0.59    0.35            0.17    0.20    0.24           0.37     0.40
B13        68.46   74.03   66.85          88.94   -6.26   -5.52           8.34  221.37           0.17    0.11    0.10    0.14            0.18    0.18    0.12           0.11     0.13
B14        71.58   71.12   65.71          87.54    6.44   -6.85           9.40  313.22           0.12    0.16    0.11    0.15            0.08    0.12    0.09           0.11     0.13
B15        73.48   76.99   54.73          90.32   -1.56    8.89           9.03   99.99           0.11    0.11    0.18    0.11            0.12    0.12    0.24           0.21     0.26
B16        60.80   63.22   52.01          83.56   -0.37    0.17           0.42  153.15           0.20    0.20    0.20    0.20            0.20    0.23    0.22           0.20     0.22
B17        68.28   68.08   52.82          86.04    5.81    3.58           6.83   31.59           0.12    0.18    0.20    0.16            0.11    0.15    0.22           0.18     0.21
B18        65.52   71.49   54.01          87.72   -7.50    5.18           9.12  145.35           0.18    0.13    0.18    0.15            0.12    0.09    0.17           0.15     0.18
B19        63.87   65.93   64.34          84.96    0.68  -10.01          10.03  273.89           0.19    0.17    0.11    0.19            0.12    0.18    0.08           0.17     0.20
B20         2.87    2.04    0.74          15.71   18.25   13.04          22.43   35.55           1.41    1.94    2.01    1.61            0.05    0.04    0.02           0.37     0.41
B21         8.61    5.03    0.83          26.83   38.83   30.67          49.48   38.31           0.87    1.80    1.96    1.18            0.06    0.04    0.01           0.24     0.27
B22        29.63   25.25   11.83          57.31   21.42   21.72          30.51   45.39           0.41    0.71    0.83    0.56            0.15    0.14    0.16           0.40     0.46
C1          4.59    4.41    2.28          24.98    4.51   10.16          11.12   66.03           1.27    1.40    1.53    1.33            0.05    0.04    0.04           0.24     0.27
C2          4.86    4.41    1.41          24.98    8.09   19.14          20.78   67.09           1.22    1.44    1.73    1.32            0.07    0.06    0.03           0.28     0.31
C3          5.18    4.39    0.76          24.91   12.32   28.55          31.10   66.65           1.16    1.50    1.98    1.31            0.06    0.05    0.01           0.21     0.25
C4          5.86    4.88    0.71          26.40   13.81   32.09          34.93   66.71           1.10    1.46    2.01    1.26            0.07    0.05    0.01           0.29     0.33
C5         23.98   22.93   10.82          55.00    8.41   20.80          22.44   67.98           0.53    0.69    0.87    0.62            0.22    0.22    0.12           0.35     0.39
C6         25.80   22.73    5.49          54.79   17.09   41.00          44.41   67.37           0.46    0.75    1.15    0.60            0.15    0.13    0.07           0.28     0.34
C7         28.17   22.92    2.38          54.99   25.78   61.07          66.29   67.11           0.40    0.81    1.49    0.58            0.15    0.13    0.04           0.24     0.28
C8         29.41   22.78    1.20          54.84   31.20   73.28          79.64   66.94           0.37    0.86    1.78    0.57            0.12    0.11    0.02           0.18     0.20
C9         48.02   48.27   32.73          74.99    4.11    9.94          10.76   67.49           0.27    0.33    0.40    0.31            0.24    0.23    0.30           0.34     0.40
C10        49.42   48.33   26.84          75.03    7.74   19.42          20.91   68.27           0.23    0.35    0.48    0.30            0.19    0.18    0.20           0.32     0.37
C11        50.91   48.39   21.95          75.07   11.59   28.40          30.68   67.79           0.20    0.37    0.57    0.29            0.13    0.17    0.24           0.40     0.45
C12        52.34   48.45   17.66          75.11   15.15   37.46          40.41   67.98           0.18    0.39    0.66    0.28            0.14    0.16    0.23           0.34     0.39
C13        59.99   67.80   65.27          85.91  -12.40   -9.25          15.47  216.73           0.26    0.12    0.11    0.19            0.14    0.13    0.11           0.09     0.11
C14        66.10   62.19   62.66          83.01   14.10  -11.75          18.35  320.19           0.14    0.24    0.13    0.20            0.08    0.12    0.10           0.17     0.18
C15        70.98   74.50   44.48          89.16   -1.81   18.55          18.63   95.57           0.11    0.13    0.27    0.12            0.13    0.12    0.18           0.18     0.25
C16        47.19   49.03   40.07          75.47   -0.22    0.50           0.55  113.01           0.31    0.31    0.31    0.31            0.26    0.29    0.20           0.21     0.24
C17        60.66   57.56   41.40          80.49   12.51    7.45          14.56   30.77           0.15    0.28    0.30    0.22            0.11    0.18    0.23           0.26     0.29
C18        54.99   63.15   43.16          83.52  -14.34   10.45          17.75  143.92           0.27    0.16    0.28    0.21            0.15    0.13    0.15           0.15     0.17
C19        52.09   53.21   60.06          78.00    2.06  -17.84          17.95  276.57           0.29    0.26    0.15    0.28            0.18    0.21    0.09           0.18     0.21
C20         1.72    1.45    0.71          12.26    8.78    7.65          11.65   41.07           1.69    1.95    2.03    1.79            0.02    0.02    0.01           0.27     0.31
C21        23.19   17.48    4.66          48.86   31.33   35.12          47.07   48.26           0.48    0.96    1.22    0.69            0.16    0.13    0.08           0.35     0.38
C22        35.63   32.42   17.49          63.69   15.31   18.14          23.74   49.83           0.35    0.56    0.67    0.46            0.12    0.10    0.14           0.29     0.33
D1          4.28    4.43    2.26          25.03    0.13   10.43          10.43   89.26           1.33    1.37    1.53    1.34            0.06    0.06    0.05           0.37     0.42
D2          4.16    4.34    1.42          24.75   -0.27   18.65          18.65   90.83           1.33    1.38    1.72    1.35            0.05    0.05    0.03           0.25     0.28
D3          4.17    4.37    0.78          24.86   -0.58   28.17          28.18   91.19           1.32    1.39    1.96    1.34            0.04    0.04    0.01           0.22     0.25
D4          4.70    4.98    0.79          26.66   -1.28   31.12          31.14   92.35           1.27    1.33    1.96    1.28            0.05    0.04    0.01           0.25     0.27
D5         26.65   27.80   13.51          59.71   -0.64   21.11          21.12   91.72           0.52    0.57    0.77    0.55            0.15    0.16    0.12           0.31     0.36
D6         26.71   28.01    7.56          59.89   -1.18   40.71          40.73   91.67           0.50    0.58    1.01    0.54            0.15    0.16    0.10           0.30     0.33
D7         26.71   28.28    3.63          60.14   -2.27   60.68          60.73   92.14           0.50    0.58    1.31    0.53            0.17    0.18    0.06           0.30     0.34
D8         26.49   28.23    1.60          60.10   -2.98   77.46          77.52   92.21           0.51    0.60    1.67    0.53            0.12    0.11    0.02           0.24     0.27
D9         54.69   56.89   38.49          80.12   -0.42   10.61          10.62   92.26           0.23    0.25    0.33    0.24            0.26    0.26    0.29           0.23     0.27
D10        54.85   57.37   31.20          80.38   -1.16   21.55          21.59   93.08           0.21    0.25    0.42    0.23            0.10    0.12    0.18           0.21     0.24
D11        54.61   57.20   25.13          80.29   -1.36   31.46          31.49   92.47           0.21    0.26    0.51    0.23            0.16    0.17    0.25           0.31     0.37
D12        53.77   56.63   11.22          79.97   -2.13   62.63          62.67   91.95           0.20    0.28    0.84    0.23            0.23    0.23    0.14           0.30     0.35
D13        51.69   61.28   63.18          82.53  -18.52  -13.09          22.68  215.24           0.36    0.15    0.12    0.24            0.13    0.11    0.07           0.14     0.17
D14        60.57   53.57   59.30          78.21   22.13  -16.71          27.73  322.94           0.17    0.32    0.16    0.26            0.12    0.16    0.08           0.21     0.24
D15        68.83   72.13   35.83          88.03   -1.54   27.92          27.96   93.16           0.11    0.15    0.36    0.13            0.11    0.11    0.11           0.15     0.17
D16        35.72   37.15   30.44          67.39   -0.33    0.35           0.50  136.62           0.43    0.43    0.43    0.43            0.19    0.22    0.23           0.31     0.35
D17        53.52   48.08   31.91          74.88   19.21   10.97          22.12   29.74           0.18    0.39    0.41    0.29            0.09    0.13    0.16           0.21     0.24
D18        45.39   55.07   34.18          79.08  -20.87   14.85          25.61  144.57           0.37    0.21    0.38    0.27            0.17    0.14    0.16           0.18     0.23
D19        41.49   41.74   55.12          70.69    3.83  -25.37          25.66  278.58           0.41    0.36    0.19    0.39            0.25    0.28    0.18           0.23     0.28
D20        14.28   10.84    2.72          39.32   26.12   31.23          40.71   50.09           0.69    1.17    1.45    0.90            0.10    0.08    0.07           0.37     0.41
D21        21.84   21.11   11.57          53.07    7.06   15.19          16.76   65.05           0.59    0.72    0.84    0.66            0.14    0.13    0.17           0.37     0.46
D22        38.67   36.87   19.89          67.18   10.18   18.95          21.52   61.75           0.33    0.48    0.61    0.41            0.23    0.25    0.10           0.28     0.34
E1          3.83    4.33    2.26          24.74   -4.98    9.97          11.14  116.54           1.42    1.34    1.53    1.36            0.04    0.04    0.04           0.24     0.29
E2          3.50    4.32    1.47          24.71   -9.90   17.98          20.52  118.83           1.48    1.32    1.70    1.37            0.04    0.04    0.03           0.24     0.28
E3          3.15    4.33    0.83          24.73  -15.75   27.03          31.29  120.23           1.57    1.29    1.93    1.38            0.02    0.03    0.01           0.19     0.21
E4          3.40    4.71    0.84          25.89  -16.57   28.93          33.34  119.80           1.54    1.25    1.93    1.34            0.03    0.04    0.01           0.24     0.26
E5         12.73   14.37    7.61          44.76   -7.33   14.39          16.15  116.99           0.88    0.82    1.01    0.84            0.07    0.08    0.09           0.36     0.40
E6         11.63   14.44    4.62          44.86  -15.25   28.42          32.26  118.22           0.94    0.80    1.21    0.85            0.09    0.10    0.07           0.31     0.37
E7         10.53   14.36    2.55          44.74  -22.83   42.01          47.81  118.52           1.03    0.78    1.46    0.85            0.12    0.14    0.05           0.34     0.39
E8          9.48   14.27    1.36          44.62  -30.54   53.59          61.68  119.68           1.15    0.76    1.72    0.86            0.10    0.13    0.02           0.26     0.30
E9         37.85   40.74   28.26          70.00   -4.59    8.34           9.52  118.83           0.40    0.38    0.46    0.39            0.29    0.28    0.31           0.33     0.38
E10        36.86   41.07   24.06          70.23   -8.80   16.04          18.30  118.74           0.42    0.37    0.53    0.39            0.27    0.27    0.25           0.31     0.36
E11        35.37   40.83   19.62          70.06  -13.03   24.48          27.73  118.02           0.44    0.36    0.61    0.39            0.23    0.24    0.23           0.31     0.36
E12        31.80   40.65   11.27          69.93  -24.95   45.15          51.58  118.92           0.52    0.34    0.84    0.40            0.22    0.21    0.16           0.34     0.38
E13        44.70   55.48   61.00          79.32  -23.87  -16.49          29.01  214.63           0.47    0.17    0.13    0.29            0.11    0.09    0.06           0.14     0.15
E14        54.96   45.41   55.52          73.16   30.23  -21.52          37.11  324.55           0.20    0.43    0.19    0.32            0.12    0.17    0.11           0.19     0.23
E15        66.75   69.62   28.51          86.81   -0.84   36.92          36.93   91.31           0.12    0.18    0.45    0.14            0.14    0.14    0.21           0.27     0.31
E16        26.72   27.64   22.70          59.56    0.27    0.21           0.42   77.32           0.55    0.56    0.56    0.56            0.20    0.20    0.23           0.31     0.35
E17        46.99   39.72   24.22          69.27   25.92   14.11          29.51   28.57           0.22    0.51    0.53    0.36            0.07    0.09    0.16           0.28     0.32
E18        37.36   47.85   26.59          74.73  -26.57   19.32          32.86  143.98           0.48    0.25    0.48    0.34            0.23    0.22    0.18           0.24     0.28
E19        32.79   32.13   50.00          63.45    6.54  -32.25          32.91  281.47           0.54    0.48    0.23    0.51            0.17    0.19    0.11           0.24     0.28
E20        24.85   17.10    1.26          48.39   40.66   61.46          73.69   56.51           0.42    1.08    1.76    0.68            0.12    0.10    0.02           0.20     0.22
E21        17.30   14.28    2.72          44.63   20.68   40.41          45.40   62.90           0.62    1.00    1.44    0.79            0.14    0.12    0.05           0.30     0.33
E22        29.91   25.81    8.18          57.86   20.12   34.76          40.17   59.94           0.40    0.70    0.98    0.55            0.16    0.16    0.14           0.40     0.45
F1          1.51    1.91    1.34          15.01   -8.52    2.79           8.97  161.84           1.92    1.64    1.75    1.74            0.03    0.03    0.03           0.21     0.24
F2          1.17    1.88    1.10          14.84  -18.02    5.80          18.93  162.15           2.18    1.58    1.83    1.77            0.02    0.03    0.02           0.24     0.27
F3          1.12    2.11    1.08          16.08  -24.90    8.18          26.21  161.82           2.31    1.50    1.83    1.73            0.02    0.03    0.02           0.26     0.31
F4          1.22    2.36    1.17          17.26  -26.74    8.96          28.21  161.48           2.29    1.45    1.79    1.69            0.02    0.03    0.02           0.27     0.33
F5          6.66    8.33    5.79          34.66  -13.23    4.86          14.10  159.85           1.24    1.01    1.13    1.10            0.07    0.08    0.10           0.36     0.42
F6          5.43    8.32    4.91          34.63  -26.63    9.23          28.19  160.88           1.45    0.96    1.20    1.12            0.05    0.07    0.09           0.39     0.44
F7          4.32    8.19    4.06          34.38  -39.62   13.59          41.88  161.07           1.74    0.91    1.27    1.15            0.05    0.08    0.06           0.24     0.27
F8          3.50    8.32    3.46          34.63  -52.74   17.80          55.66  161.35           2.13    0.86    1.32    1.16            0.03    0.08    0.08           0.34     0.41
F9         37.20   40.53   31.60          69.84   -6.02    2.78           6.63  155.29           0.43    0.37    0.41    0.40            0.26    0.26    0.33           0.35     0.39
F10        36.01   40.98   30.73          70.16  -11.34    4.67          12.27  157.63           0.46    0.35    0.42    0.40            0.16    0.14    0.26           0.29     0.33
F11        34.15   40.91   29.53          70.11  -17.43    6.49          18.60  159.58           0.50    0.34    0.44    0.40            0.26    0.25    0.34           0.37     0.42
F12        28.95   40.60   25.77          69.89  -35.42   12.41          37.53  160.69           0.66    0.29    0.49    0.42            0.16    0.14    0.23           0.40     0.46
F13        37.89   49.53   58.26          75.78  -29.38  -19.85          35.45  214.04           0.59    0.20    0.15    0.35            0.12    0.11    0.09           0.17     0.19
F14        49.64   38.16   51.56          68.13   38.09  -25.92          46.07  325.76           0.23    0.54    0.22    0.39            0.11    0.15    0.12           0.24     0.27
F15        64.78   67.05   21.92          85.53    0.30   46.49          46.49   89.64           0.12    0.20    0.56    0.16            0.17    0.18    0.17           0.22     0.27
F16        19.17   19.92   16.26          51.75   -0.21    0.43           0.51  125.63           0.70    0.70    0.70    0.70            0.15    0.16    0.19           0.33     0.38
F17        41.34   32.81   17.85          64.00   32.17   17.88          36.81   29.07           0.25    0.63    0.66    0.44            0.12    0.15    0.19           0.35     0.40
