targets/wolf_faust/reflective/R110714WhiteBacking.it8
IT8.7/2
ORIGINATOR "Wolf Faust"
DESCRIPTOR "Kodak Professional Paper, L* a* b* (light D50, viewing angle 2)"
MANUFACTURER "Wolf Faust - http://www.coloraid.de"
CREATED "December 07, 2011"
PROD_DATE "2011:01"
SAMPLE_BACKING "white"
SERIAL "5x7 R110714 Batch Average Data"
MATERIAL "Kodak Professional Ultra Endura"
NUMBER_OF_FIELDS 9
BEGIN_DATA_FORMAT
SAMPLE_ID  XYZ_X   XYZ_Y   XYZ_Z          LAB_L   LAB_A   LAB_B          LAB_C   LAB_H
END_DATA_FORMAT
NUMBER_OF_SETS 288
BEGIN_DATA
A1          3.64    3.05    2.02          20.23   11.60    4.37          12.39   20.64
A2          4.47    3.01    1.63          20.09   24.09    8.21          25.45   18.82 
A3          5.39    3.01    1.36          20.10   35.56   11.32          37.31   17.65
A4          6.20    3.31    1.41          21.24   39.72   12.69          41.70   17.72 
A5         12.79   11.10    7.81          39.74   14.75    4.95          15.56   18.55
A6         15.37   11.33    6.89          40.13   29.16    9.37          30.62   17.82 
A7         18.12   11.56    5.98          40.51   42.80   14.07          45.05   18.19
A8         21.71   11.59    5.11          40.56   60.36   18.42          63.11   16.97 
A9         41.99   41.13   32.10          70.27    7.13    2.74           7.65   21.03
A10        44.59   41.34   30.88          70.42   14.18    4.86          14.99   18.93
A11        47.14   41.61   29.96          70.60   20.63    6.63          21.67   17.81
A12        49.40   41.57   28.39          70.58   26.91    9.14          28.42   18.75 
A13        77.09   80.53   69.00          91.92   -1.12   -2.35           2.60  244.61
A14        78.04   79.99   68.73          91.68    1.82   -2.52           3.11  305.90 
A15        77.80   80.76   63.96          92.02   -0.13    2.53           2.54   92.95
A16        77.61   80.16   64.87          91.76    0.63    1.21           1.36   62.30
A17        75.71   77.33   61.91          90.47    2.34    1.84           2.98   38.24
A18        76.06   79.61   64.43          91.51   -1.43    1.19           1.86  140.17 
A19        76.82   79.45   68.63          91.44    0.42   -2.84           2.87  278.35
A20         1.41    1.12    0.72           9.94   10.54    3.58          11.13   18.75 
A21         5.34    3.36    0.77          21.44   29.24   22.43          36.85   37.49
A22        10.51    5.96    0.85          29.30   43.61   34.52          55.62   38.36
B1          3.41    2.96    1.59          19.88    9.37    8.24          12.48   41.32
B2          4.04    3.00    1.01          20.04   18.24   16.07          24.31   41.38
B3          4.65    2.99    0.61          20.02   26.76   22.93          35.24   40.59
B4          5.40    3.31    0.54          21.26   30.72   26.51          40.57   40.79
B5         13.03   11.23    5.72          39.97   15.33   14.34          20.99   43.08
B6         15.22   11.41    3.93          40.27   27.69   24.51          36.98   41.51
B7         17.72   11.41    2.28          40.27   41.72   36.51          55.45   41.19
B8         20.97   11.48    1.07          40.38   57.67   50.21          76.46   41.05
B9         42.04   41.31   30.01          70.39    6.76    6.20           9.17   42.50
B10        44.48   41.60   26.65          70.60   13.08   12.08          17.81   42.73
B11        46.48   41.46   23.70          70.50   19.23   17.17          25.78   41.76
B12        48.50   41.43   21.29          70.48   24.90   21.78          33.08   41.17
B13        70.31   75.74   67.86          89.74   -5.74   -5.07           7.66  221.43
B14        73.67   72.67   66.39          88.29    7.59   -6.21           9.81  320.71
B15        75.56   78.68   54.66          91.09   -0.62   10.29          10.31   93.44
B16        61.96   64.10   51.82          84.02    0.37    1.17           1.23   72.03
B17        69.99   69.32   52.59          86.66    6.85    4.89           8.42   35.50
B18        66.98   72.76   53.93          88.33   -6.90    6.33           9.36  137.47
B19        65.45   67.25   65.15          85.63    1.36   -9.63           9.72  278.04
B20         2.94    2.09    0.74          15.93   18.62   13.57          23.04   36.09
B21         8.69    5.04    0.81          26.86   39.41   30.99          50.13   38.18
B22        29.97   25.36   11.87          57.42   22.22   21.81          31.13   44.47
C1          4.62    4.42    2.18          25.03    4.77   11.16          12.14   66.85
C2          5.02    4.50    1.37          25.27    8.84   20.17          22.02   66.34
C3          5.30    4.41    0.74          24.99   13.42   29.13          32.08   65.26
C4          5.89    4.83    0.70          26.24   14.89   32.07          35.36   65.10
C5         24.54   23.29   10.82          55.37    9.21   21.47          23.36   66.77
C6         26.25   22.87    5.43          54.94   18.32   41.57          45.43   66.22
C7         28.72   23.12    2.33          55.20   27.04   61.87          67.52   66.39
C8         30.03   23.00    1.18          55.08   32.54   73.96          80.80   66.25
C9         48.94   48.98   32.67          75.44    4.69   10.80          11.77   66.51
C10        50.07   48.67   26.89          75.24    8.61   19.68          21.48   66.38
C11        52.07   49.19   21.91          75.57   12.45   29.34          31.88   67.01
C12        53.28   48.76   17.68          75.30   16.74   37.74          41.28   66.08
C13        61.70   69.35   66.24          86.68  -11.73   -8.84          14.68  217.01
C14        68.02   63.56   63.21          83.74   15.21  -11.03          18.79  324.03
C15        72.78   75.86   44.36          89.79   -0.75   19.79          19.80   92.17
C16        48.04   49.63   39.92          75.84    0.50    1.34           1.44   69.51
C17        61.94   58.35   41.08          80.93   13.61    8.62          16.11   32.34
C18        56.11   64.03   43.10          83.98  -13.50   11.31          17.61  140.06
C19        53.20   54.08   60.61          78.51    2.73  -17.50          17.71  278.87
C20         1.79    1.48    0.70          12.49    9.60    8.41          12.77   41.20
C21        23.76   17.79    4.76          49.25   32.24   35.22          47.75   47.52
C22        35.84   32.41   17.20          63.68   16.04   18.79          24.71   49.50
D1          4.26    4.40    2.27          24.96    0.26   10.28          10.29   88.56
D2          4.23    4.37    1.38          24.86    0.22   19.25          19.25   89.34
D3          4.19    4.36    0.76          24.82   -0.12   28.54          28.54   90.25
D4          4.90    5.10    0.78          27.01   -0.16   31.83          31.83   90.29
D5         27.48   28.48   13.84          60.32    0.06   21.30          21.30   89.84
D6         27.16   28.40    7.62          60.25   -0.93   41.08          41.09   91.30
D7         27.14   28.49    3.64          60.33   -1.36   60.97          60.98   91.27
D8         26.83   28.33    1.57          60.19   -1.95   77.93          77.95   91.43
D9         55.53   57.48   38.43          80.45    0.26   11.27          11.28   88.67
D10        55.45   57.61   30.96          80.52   -0.24   22.17          22.17   90.61
D11        55.23   57.45   24.76          80.43   -0.39   32.36          32.37   90.70
D12        54.87   57.34   11.66          80.37   -1.05   62.00          62.01   90.97
D13        53.46   62.83   64.19          83.35  -17.48  -12.64          21.57  215.88
D14        62.46   55.17   59.79          79.14   22.54  -15.60          27.41  325.32
D15        70.41   73.22   35.90          88.55   -0.41   28.72          28.72   90.82
D16        36.91   38.13   30.59          68.11    0.47    1.35           1.44   70.96
D17        55.04   49.25   32.09          75.61   19.90   11.96          23.22   31.00
D18        46.68   56.05   34.24          79.64  -19.66   15.73          25.18  141.33
D19        42.95   43.06   55.85          71.60    4.30  -24.57          24.94  279.92
D20        14.25   10.70    2.65          39.08   26.94   31.41          41.38   49.39
D21        22.14   21.26   11.63          53.23    7.76   15.29          17.14   63.08
D22        39.60   37.52   20.04          67.67   11.02   19.48          22.39   60.50
E1          3.91    4.37    2.28          24.85   -4.29    9.96          10.84  113.30
E2          3.60    4.41    1.43          24.99   -9.63   18.96          21.26  116.93
E3          3.30    4.43    0.81          25.03  -14.48   27.91          31.44  117.42
E4          3.56    4.81    0.83          26.20  -15.38   29.51          33.28  117.53
E5         12.99   14.66    7.61          45.16   -7.28   15.07          16.74  115.78
E6         11.88   14.72    4.60          45.24  -15.17   29.19          32.90  117.47
E7         10.79   14.69    2.51          45.20  -22.89   43.07          48.78  117.98
E8          9.92   14.69    1.36          45.21  -29.57   54.65          62.14  118.42
E9         38.65   41.38   28.11          70.44   -3.91    9.35          10.13  112.71
E10        37.29   41.41   23.74          70.46   -8.38   17.04          18.99  116.18
E11        36.09   41.51   19.86          70.53  -12.66   24.79          27.83  117.06
E12        32.67   41.31   11.81          70.39  -23.81   44.34          50.33  118.24
E13        45.76   56.44   61.85          79.86  -23.20  -16.39          28.41  215.25
E14        56.85   47.06   56.02          74.23   30.34  -20.20          36.45  326.34
E15        68.38   70.77   28.81          87.37    0.32   37.40          37.40   89.51
E16        27.38   28.30   22.86          60.15    0.39    0.93           1.01   67.11
E17        48.51   40.93   24.50          70.12   26.44   15.07          30.44   29.69
E18        38.08   48.42   26.92          75.09  -25.77   19.37          32.24  143.06
E19        33.65   33.08   50.58          64.23    6.23  -31.57          32.18  281.16
E20        25.23   17.17    1.23          48.47   41.90   61.99          74.83   55.95
E21        17.55   14.41    2.65          44.81   21.25   41.29          46.44   62.77
E22        30.44   26.07    8.12          58.11   21.04   35.43          41.21   59.29
F1          1.56    1.93    1.30          15.10   -7.61    3.51           8.39  155.22
F2          1.19    1.89    1.06          14.89  -17.52    6.37          18.64  160.01
F3          1.15    2.12    1.04          16.08  -24.06    8.70          25.59  160.12
F4          1.26    2.39    1.14          17.39  -26.23    9.55          27.91  160.00
F5          6.90    8.53    5.78          35.06  -12.51    5.58          13.70  155.98
F6          5.62    8.47    4.85          34.94  -25.76   10.05          27.65  158.68
F7          4.54    8.45    4.03          34.90  -38.90   14.66          41.57  159.35
F8          3.59    8.49    3.42          34.97  -52.71   18.68          55.92  160.49
F9         38.12   41.28   32.09          70.37   -5.32    2.93           6.07  151.10
F10        36.65   41.57   30.71          70.57  -10.97    5.40          12.23  153.78
F11        34.82   41.45   29.65          70.49  -16.76    6.93          18.13  157.53
F12        29.91   41.35   25.77          70.42  -34.04   13.32          36.55  158.63
F13        38.94   50.44   59.19          76.34  -28.43  -19.83          34.66  214.90
F14        51.06   39.33   51.74          68.99   38.19  -24.65          45.45  327.16
F15        66.13   67.85   22.04          85.93    1.57   46.94          46.97   88.09
F16        19.57   20.19   16.19          52.05    0.53    1.12           1.24   64.74
F17        42.25   33.37   17.67          64.46   32.98   19.06          38.09   30.02
F18        30.57   41.28   20.20          70.37  -31.35   23.81          39.37  142.78
F19        25.77   24.53   45.12          56.61    9.08  -38.35          39.41  283.32
F20        26.28   25.15   11.60          57.22    8.60   22.25          23.85   68.87
F21        34.46   30.94   10.42          62.46   16.65   34.93          38.69   64.51
F22        39.10   36.28   15.55          66.73   13.50   27.99          31.07   64.24
G1          2.36    2.96    2.55          19.89   -9.54   -0.92           9.58  185.48
G2          1.87    2.89    2.75          19.58  -19.00   -3.00          19.23  188.96
G3          1.76    3.18    3.23          20.74  -26.82   -4.57          27.20  189.66
G4          1.91    3.53    3.56          22.06  -28.79   -4.51          29.14  188.91
G5          9.22   11.20    9.66          39.92  -12.37   -1.41          12.45  186.50
G6          7.84   11.17   10.30          39.87  -24.19   -3.62          24.46  188.52
G7          6.56   11.29   11.04          40.06  -37.55   -5.64          37.97  188.54
G8          5.33   11.23   11.81          39.97  -50.83   -8.11          51.47  189.07
G9         38.11   41.36   34.28          70.43   -5.59   -0.22           5.60  182.21
G10        35.48   40.90   34.68          70.11  -12.86   -1.34          12.93  185.94
G11        33.91   41.22   35.36          70.33  -19.19   -1.93          19.28  185.75
G12        29.13   41.29   37.61          70.38  -36.83   -4.98          37.17  187.69
G13        32.66   44.61   56.13          72.63  -33.51  -23.08          40.69  214.56
G14        45.76   32.70   47.48          63.92   45.53  -28.55          53.74  327.90
G15        64.00   64.93   16.51          84.45    3.17   56.21          56.29   86.77
G16        13.40   13.88   11.12          44.06    0.09    1.01           1.02   85.33
G17        36.87   27.17   12.39          59.13   39.08   23.24          45.47   30.73
G18        24.00   34.69   14.73          65.51  -36.80   27.93          46.20  142.81
G19        19.34   17.70   39.84          49.13   11.95  -44.60          46.17  284.99
G20        36.47   34.97   14.22          65.73    9.32   29.61          31.04   72.53
G21        35.18   33.50    9.33          64.56   10.01   42.20          43.38   76.66
G22        47.13   43.09    2.68          71.61   16.21   87.22          88.72   79.47
H1          2.60    2.99    3.23          19.99   -5.22   -5.87           7.86  228.33
H2          2.25    2.94    4.24          19.81  -11.54  -12.63          17.11  227.58
H3          2.02    2.99    5.67          19.98  -17.25  -19.88          26.33  229.05
H4          2.22    3.34    6.36          21.35  -18.66  -20.73          27.89  228.00
H5          9.91   11.29   11.90          40.06   -7.43   -8.21          11.07  227.87
H6          8.85   11.24   15.19          39.98  -15.74  -17.23          23.34  227.59
H7          7.97   11.29   19.17          40.07  -23.89  -26.27          35.51  227.73
H8          6.99   11.14   24.11          39.81  -32.12  -36.49          48.61  228.64
H9         38.31   41.25   36.72          70.35   -4.63   -3.81           6.00  219.50
H10        37.34   41.51   40.78          70.53   -8.53   -8.94          12.36  226.32
H11        35.79   41.35   44.68          70.42  -13.16  -14.01          19.22  226.79
H12        32.89   41.39   54.93          70.45  -23.26  -25.58          34.58  227.72
H13        27.34   39.34   52.93          69.00  -37.87  -25.94          45.90  214.41
H14        40.43   26.46   42.90          58.47   53.23  -32.41          62.32  328.66
H15        61.90   61.97   11.95          82.90    5.05   65.48          65.67   85.59
H16         8.82    9.07    7.22          36.12    0.62    1.09           1.26   59.67
H17        31.88   21.73    8.21          53.74   45.15   27.56          52.89   31.40
H18        18.71   29.01   10.41          60.79  -41.54   32.11          52.50  142.30
H19        14.13   12.09   34.57          41.36   16.42  -50.76          53.35  287.92
H20        41.63   41.88   15.11          70.79    3.80   36.06          36.26   83.99
H21        31.48   32.56   20.18          63.80    0.32   12.53          12.53   88.53
H22        35.55   38.51   11.09          68.39   -5.24   43.07          43.39   96.93
I1          4.30    4.36    5.64          24.82    1.37  -11.41          11.50  276.81
I2          4.31    4.32    8.40          24.70    2.01  -23.22          23.30  274.96
I3          4.32    4.26   11.69          24.52    2.93  -34.39          34.52  274.87
I4          4.44    4.30   19.02          24.64    4.03  -52.54          52.69  274.38
I5         14.07   14.47   14.92          44.89    0.79   -8.10           8.14  275.54
I6         14.25   14.51   19.27          44.95    1.63  -18.07          18.14  275.15
I7         14.32   14.50   24.04          44.94    2.16  -27.52          27.60  274.48
I8         14.63   14.56   36.75          45.02    3.64  -47.53          47.67  274.38
I9         40.03   41.26   36.64          70.36    0.75   -3.69           3.77  281.59
I10        40.04   41.25   40.48          70.35    0.84   -8.85           8.89  275.42
I11        40.10   41.08   44.38          70.23    1.52  -13.97          14.05  276.21
I12        40.63   41.47   55.12          70.51    1.98  -25.68          25.76  274.40
I13        22.47   34.18   49.35          65.11  -41.90  -28.66          50.76  214.38
I14        35.45   21.10   38.32          53.05   60.55  -35.82          70.36  329.39
I15        59.79   58.90    8.29          81.24    7.24   74.66          75.01   84.46
I16         5.31    5.47    4.35          28.02    0.52    0.90           1.05   59.89
I17        27.38   17.16    5.02          48.46   50.81   32.46          60.30   32.57
I18        14.09   23.69    6.95          55.77  -46.03   36.07          58.47  141.92
I19         9.96    7.73   29.42          33.42   21.60  -56.61          60.59  290.89
I20        42.05   45.77   15.47          73.40   -6.16   39.67          40.15   98.82
I21        10.96   14.59    3.38          45.07  -20.99   36.38          42.00  119.98
I22        28.48   36.71   16.87          67.06  -25.00   25.39          35.63  134.56
J1          2.24    1.96    2.96          15.29    7.73  -12.03          14.30  302.73
J2          2.52    1.95    4.84          15.22   13.86  -23.90          27.63  300.10
J3          2.85    1.93    7.80          15.10   20.54  -37.48          42.74  298.72
J4          3.81    1.91   17.44          15.03   36.52  -65.64          75.12  299.09
J5         11.60   11.16   11.95          39.84    6.12   -8.75          10.68  304.96
J6         12.39   11.24   15.54          39.97   11.03  -18.13          21.22  301.32
J7         13.16   11.25   19.90          40.00   16.05  -27.93          32.22  299.89
J8         15.26   11.29   33.55          40.07   28.78  -51.49          58.98  299.20
J9         40.71   41.08   36.96          70.23    3.41   -4.35           5.53  308.13
J10        41.64   41.26   40.36          70.36    5.69   -8.68          10.38  303.28
J11        42.78   41.40   44.57          70.46    8.70  -13.80          16.32  302.21
J12        44.92   41.52   54.68          70.54   14.61  -25.16          29.10  300.14
J13        18.36   29.44   45.57          61.16  -44.96  -31.04          54.64  214.62
J14        30.72   16.48   33.67          47.60   67.37  -38.69          77.69  330.13
J15        57.55   55.68    5.47          79.43    9.66   83.61          84.17   83.41
J16         2.94    3.01    2.41          20.08    0.66    0.61           0.92   42.70
J17        23.47   13.50    2.80          43.50   55.70   37.82          67.33   34.18
J18        10.31   18.96    4.45          50.64  -49.91   39.33          63.54  141.76
J19         6.98    4.70   24.70          25.87   27.96  -61.60          67.65  294.41
J20        30.15   38.81   21.94          68.61  -25.35   17.28          30.68  145.72
J21         4.31    8.04    1.47          34.07  -38.37   34.13          51.35  138.35
J22         1.35    2.11    0.92          16.06  -17.65   10.65          20.62  148.91
K1          5.28    4.37    5.03          24.87   13.69   -8.25          15.98  328.95
K2          6.52    4.38    7.20          24.90   27.38  -18.19          32.87  326.41
K3          7.92    4.46    9.57          25.15   40.01  -26.59          48.04  326.39
K4          9.51    4.45   12.88          25.09   53.89  -36.84          65.28  325.64
K5         15.85   14.39   14.49          44.78   11.89   -7.20          13.90  328.82
K6         18.23   14.66   18.04          45.17   23.31  -15.01          27.72  327.21
K7         20.45   14.58   21.86          45.05   34.99  -23.18          41.97  326.47
K8         26.78   14.87   33.44          45.45   61.37  -42.05          74.39  325.58
K9         42.46   41.51   36.94          70.53    7.42   -3.81           8.34  332.81
K10        44.88   41.79   40.06          70.72   13.69   -7.66          15.69  330.76
K11        46.81   41.39   43.55          70.44   20.36  -12.58          23.94  328.30
K12        52.33   41.38   52.92          70.44   35.26  -23.44          42.34  326.39
K13        14.59   24.67   41.20          56.75  -47.13  -33.22          57.66  215.18
K14        26.28   12.69   28.89          42.30   72.90  -40.45          83.37  330.98
K15        54.99   52.08    3.41          77.33   12.37   91.77          92.60   82.32
K16         1.42    1.46    1.18          12.36    0.29    0.41           0.52   52.97
K17        19.88   10.51    1.37          38.74   59.47   43.32          73.57   36.07
K18         7.17   14.57    2.68          45.04  -52.85   41.42          67.15  141.91
K19         4.81    2.66   20.08          18.61   34.82  -65.18          73.90  298.11
K20         2.40    3.13    1.89          20.54  -11.43    6.22          13.01  151.44
K21         1.37    1.81    1.47          14.47  -10.33    0.34          10.34  178.14
K22         1.69    2.17    2.82          16.34   -9.41   -9.13          13.11  224.14
L1          3.70    3.00    2.65          20.05   13.33   -1.45          13.41  353.81
L2          4.70    3.10    2.99          20.45   25.58   -3.33          25.80  352.60
L3          5.76    3.15    3.29          20.64   37.56   -5.16          37.92  352.18
L4          6.62    3.46    3.69          21.81   41.81   -5.78          42.21  352.13
L5         13.32   11.42   10.00          40.28   15.88   -1.94          16.00  353.03
L6         15.90   11.33   10.74          40.13   32.24   -4.59          32.56  351.91
L7         19.00   11.50   11.64          40.41   47.81   -6.86          48.30  351.84
L8         22.70   11.57   12.77          40.53   65.07   -9.91          65.82  351.34
L9         42.76   41.35   34.50          70.42    8.79   -0.54           8.80  356.49
L10        45.28   41.40   35.15          70.46   15.99   -1.42          16.05  354.92
L11        47.90   41.58   36.23          70.58   22.79   -2.74          22.96  353.15
L12        50.35   41.48   36.70          70.51   29.75   -3.51          29.96  353.27
L13        10.82   19.24   35.15          50.97  -47.53  -35.02          59.04  216.38
L14        21.80    9.50   23.75          36.92   76.47  -40.80          86.67  331.92
L15        50.55   46.44    1.81          73.83   15.96   98.84         100.12   80.83
L16         0.51    0.52    0.44           4.72    0.05   -0.18           0.21  289.55
L17        15.75    7.64    0.51          33.23   61.11   47.72          77.54   37.98
L18         4.24    9.74    1.32          37.37  -53.49   41.68          67.81  142.07
L19         3.17    1.35   15.06          11.59   41.32  -65.88          77.76  302.09
L20         0.72    0.78    0.79           7.04   -1.22   -2.69           2.96  245.45
L21         0.97    0.91    0.95           8.21    3.57   -3.42           4.95  316.25
L22         2.03    1.60    1.33          13.25   11.96   -0.13          11.97  239.39
GS0        78.10   80.84   68.66          92.06    0.31   -1.80           1.82  279.73
GS1        68.93   71.16   57.40          87.56    0.69    1.35           1.52   63.00
