targets/wolf_faust/reflective/R110903.it8
IT8.7/2
ORIGINATOR "Wolf Faust"
DESCRIPTOR "L* a* b* Batch average data (light D50, viewing angle 2)"
MANUFACTURER "Wolf Faust - http://www.coloraid.de"
CREATED "December 05, 2011"
PROD_DATE "2011:09"
SAMPLE_BACKING "white"
SERIAL "DIN A4  R110903"
MATERIAL "Kodak Professional Ultra Endura - Lustreless"
KEYWORD "MEAN_DE" # Mean Delta E of samples compared to batch average
NUMBER_OF_FIELDS 13
BEGIN_DATA_FORMAT
SAMPLE_ID  XYZ_X   XYZ_Y   XYZ_Z          LAB_L   LAB_A   LAB_B          LAB_C   LAB_H          D_RED  D_GREEN  D_BLUE  D_VIS
END_DATA_FORMAT
NUMBER_OF_SETS 288
BEGIN_DATA
A1          3.60    2.98    2.07          19.98   12.09    3.45          12.58   15.93           1.35    1.64    1.59    1.48
A2          4.43    2.98    1.72          19.98   24.03    7.01          25.04   16.27           1.21    1.81    1.67    1.45
A3          5.36    3.03    1.49          20.18   34.88    9.89          36.25   15.84           1.10    2.03    1.74    1.41
A4          6.07    3.31    1.49          21.23   38.40   11.72          40.15   16.97           1.04    2.06    1.74    1.36
A5         12.63   10.94    7.90          39.47   14.78    4.17          15.36   15.74           0.81    1.05    1.01    0.93
A6         14.89   10.94    6.92          39.48   29.09    8.12          30.20   15.61           0.69    1.16    1.07    0.90
A7         17.30   11.05    6.10          39.66   42.08   12.01          43.76   15.93           0.59    1.29    1.13    0.87
A8         20.57   11.05    5.07          39.67   58.82   17.08          61.25   16.19           0.51    1.54    1.22    0.84
A9         40.42   39.67   31.42          69.24    6.80    2.00           7.09   16.40           0.35    0.42    0.42    0.39
A10        42.65   39.69   30.29          69.25   13.51    3.78          14.03   15.63           0.30    0.45    0.44    0.38
A11        44.76   39.63   28.93          69.20   19.89    5.88          20.74   16.46           0.26    0.48    0.46    0.38
A12        46.85   39.65   28.33          69.22   25.74    6.90          26.65   15.00           0.23    0.50    0.47    0.37
A13        73.21   77.10   66.16          90.37   -2.35   -2.41           3.36  225.68           0.13    0.10    0.10    0.12
A14        74.24   76.52   65.93          90.10    0.95   -2.65           2.81  289.74           0.11    0.11    0.10    0.12
A15        74.32   77.66   62.33          90.63   -1.16    1.70           2.06  124.44           0.11    0.11    0.13    0.11
A16        74.12   77.00   63.44          90.32   -0.25    0.09           0.27  160.24           0.11    0.11    0.12    0.11
A17        72.06   74.01   60.04          88.93    1.48    1.03           1.80   34.73           0.12    0.13    0.14    0.13
A18        73.10   76.91   62.87          90.28   -2.20    0.58           2.28  165.27           0.12    0.11    0.12    0.12
A19        73.13   76.08   65.86          89.89   -0.48   -2.94           2.97  260.80           0.12    0.11    0.10    0.12
A20         1.44    1.15    0.78          10.21   10.02    2.84          10.42   15.82           1.77    2.07    2.00    1.89
A21         5.29    3.36    0.86          21.43   28.69   20.87          35.48   36.04           1.10    1.85    1.96    1.38
A22        10.39    5.96    0.91          29.31   42.61   33.54          54.23   38.21           0.79    1.76    1.93    1.11
B1          3.42    2.97    1.64          19.94    9.41    7.76          12.19   39.50           1.38    1.62    1.68    1.49
B2          4.04    3.01    1.07          20.08   18.14   15.17          23.65   39.90           1.26    1.73    1.86    1.45
B3          4.71    3.06    0.73          20.27   26.42   21.19          33.87   38.73           1.16    1.87    2.02    1.42
B4          5.20    3.30    0.69          21.20   28.62   23.49          37.02   39.39           1.11    1.87    2.04    1.38
B5         12.90   11.12    5.89          39.78   15.31   13.21          20.22   40.79           0.78    1.06    1.13    0.92
B6         14.78   11.07    3.95          39.70   27.49   23.41          36.11   40.42           0.68    1.16    1.30    0.89
B7         17.10   11.09    2.29          39.73   40.72   35.56          54.06   41.13           0.58    1.31    1.53    0.86
B8         19.96   11.05    1.15          39.66   55.88   47.90          73.60   40.61           0.51    1.55    1.83    0.83
B9         40.32   39.76   29.35          69.30    6.22    5.36           8.21   40.76           0.34    0.42    0.45    0.39
B10        41.89   39.44   26.40          69.07   12.03    9.88          15.57   39.38           0.30    0.45    0.49    0.39
B11        44.25   39.81   23.55          69.33   17.86   15.45          23.62   40.87           0.26    0.47    0.54    0.37
B12        45.87   39.49   21.00          69.10   23.51   19.99          30.86   40.38           0.23    0.50    0.59    0.37
B13        67.97   73.39   65.29          88.63   -6.00   -4.58           7.55  217.33           0.17    0.11    0.11    0.14
B14        70.48   70.25   63.94          87.12    5.93   -5.90           8.37  315.11           0.12    0.16    0.12    0.15
B15        72.43   75.92   54.82          89.82   -1.62    7.94           8.11  101.50           0.11    0.12    0.18    0.12
B16        60.67   62.96   52.11          83.42   -0.10   -0.16           0.20  234.92           0.20    0.20    0.20    0.20
B17        67.19   67.12   52.77          85.56    5.50    2.80           6.17   26.95           0.13    0.19    0.20    0.17
B18        65.19   70.86   54.03          87.41   -6.92    4.63           8.33  146.23           0.18    0.13    0.18    0.15
B19        63.56   65.53   62.86          84.76    0.85   -8.94           8.98  275.44           0.19    0.18    0.12    0.19
B20         2.94    2.11    0.82          16.03   18.15   12.28          21.91   34.08           1.40    1.92    1.98    1.60
B21         8.50    4.99    0.87          26.71   38.44   29.77          48.62   37.75           0.88    1.80    1.95    1.19
B22        28.91   24.54   11.80          56.62   21.62   20.61          29.87   43.63           0.42    0.72    0.84    0.57
C1          4.63    4.43    2.31          25.05    4.77   10.01          11.08   64.53           1.27    1.40    1.53    1.33
C2          4.93    4.44    1.43          25.06    8.64   19.04          20.91   65.59           1.21    1.45    1.72    1.31
C3          5.25    4.39    0.86          24.91   13.16   26.89          29.93   63.92           1.15    1.50    1.94    1.30
C4          5.75    4.77    0.86          26.07   14.06   28.91          32.15   64.05           1.11    1.48    1.94    1.27
C5         23.87   22.69   10.84          54.75    8.98   20.31          22.21   66.15           0.54    0.70    0.87    0.62
C6         25.60   22.48    5.55          54.53   17.34   40.29          43.86   66.71           0.47    0.76    1.14    0.61
C7         27.51   22.34    2.40          54.39   25.77   59.87          65.19   66.71           0.41    0.83    1.49    0.59
C8         28.66   22.30    1.37          54.35   30.45   70.21          76.52   66.55           0.38    0.87    1.73    0.58
C9         47.09   47.40   32.47          74.44    3.92    9.38          10.17   67.35           0.28    0.34    0.40    0.32
C10        48.11   47.07   26.74          74.23    7.64   18.21          19.75   67.23           0.25    0.36    0.48    0.31
C11        49.48   47.08   21.78          74.24   11.35   27.30          29.57   67.42           0.22    0.38    0.57    0.30
C12        50.67   46.85   17.62          74.09   15.16   35.78          38.86   67.04           0.19    0.41    0.66    0.30
C13        59.81   67.30   63.75          85.66  -11.75   -8.24          14.36  215.04           0.26    0.13    0.12    0.19
C14        65.38   61.95   61.12          82.89   13.03  -10.46          16.71  321.24           0.15    0.24    0.14    0.20
C15        69.56   73.04   44.95          88.47   -1.87   16.78          16.88   96.34           0.12    0.14    0.26    0.13
C16        47.57   49.35   40.61          75.67   -0.05    0.15           0.21  106.56           0.30    0.30    0.31    0.31
C17        59.66   56.85   41.64          80.09   11.87    6.46          13.51   28.54           0.16    0.28    0.30    0.23
C18        54.87   62.57   43.62          83.22  -13.31    9.36          16.27  144.91           0.27    0.17    0.27    0.21
C19        52.18   53.25   58.85          78.02    2.18  -16.58          16.72  277.50           0.29    0.26    0.16    0.28
C20         1.82    1.54    0.79          12.83    8.86    7.20          11.41   39.09           1.66    1.93    1.99    1.77
C21        22.68   17.01    4.66          48.27   31.59   34.08          46.47   47.17           0.49    0.98    1.23    0.70
C22        34.61   31.51   17.13          62.93   15.11   17.67          23.26   49.46           0.36    0.57    0.68    0.47
D1          4.22    4.33    2.33          24.72    0.66    9.32           9.35   85.98           1.34    1.38    1.52    1.35
D2          4.25    4.40    1.48          24.96    0.11   18.29          18.29   89.65           1.32    1.38    1.71    1.34
D3          4.22    4.37    0.90          24.84    0.12   26.14          26.14   89.75           1.32    1.39    1.91    1.34
D4          4.79    4.91    0.93          26.49    0.72   28.49          28.49   88.54           1.25    1.35    1.90    1.28
D5         26.46   27.58   13.70          59.51   -0.55   20.27          20.27   91.54           0.53    0.57    0.77    0.55
D6         26.46   27.74    7.63          59.65   -1.18   40.00          40.02   91.69           0.51    0.58    1.01    0.54
D7         26.16   27.50    3.60          59.44   -1.46   59.69          59.71   91.40           0.51    0.60    1.32    0.54
D8         26.06   27.54    1.76          59.47   -2.01   74.69          74.71   91.55           0.52    0.61    1.63    0.54
D9         53.26   55.31   37.80          79.22   -0.17    9.99          10.00   90.99           0.24    0.26    0.34    0.25
D10        53.36   55.50   30.64          79.33   -0.40   20.61          20.61   91.10           0.22    0.27    0.42    0.25
D11        53.25   55.57   24.70          79.37   -0.83   30.63          30.64   91.56           0.22    0.27    0.51    0.24
D12        52.53   55.21   12.22          79.16   -1.83   58.26          58.29   91.80           0.21    0.29    0.81    0.24
D13        51.99   61.17   61.95          82.47  -17.48  -12.00          21.20  214.47           0.35    0.15    0.13    0.24
D14        60.03   53.75   57.87          78.31   20.41  -15.08          25.38  323.55           0.17    0.32    0.17    0.26
D15        67.20   70.46   36.62          87.22   -1.62   25.43          25.48   93.65           0.13    0.16    0.35    0.14
D16        36.48   37.86   31.24          67.92   -0.08    0.00           0.17  192.63           0.42    0.42    0.42    0.42
D17        52.77   47.73   32.62          74.65   18.24    9.52          20.57   27.56           0.19    0.39    0.40    0.30
D18        45.61   54.73   34.89          78.88  -19.40   13.49          23.62  145.19           0.37    0.21    0.37    0.27
D19        41.93   42.24   54.21          71.04    3.64  -23.80          24.08  278.69           0.40    0.36    0.19    0.39
D20        14.02   10.65    2.72          38.99   25.90   30.71          40.17   49.86           0.70    1.18    1.45    0.91
D21        21.36   20.63   11.56          52.54    7.13   14.30          15.98   63.50           0.60    0.73    0.84    0.67
D22        37.92   36.06   19.78          66.56   10.45   18.12          20.91   60.03           0.34    0.49    0.61    0.42
E1          3.94    4.41    2.29          24.97   -4.32   10.09          10.98  113.19           1.40    1.34    1.53    1.35
E2          3.61    4.40    1.51          24.94   -9.20   17.90          20.13  117.20           1.46    1.32    1.69    1.36
E3          3.26    4.30    0.95          24.64  -13.52   24.92          28.35  118.49           1.54    1.31    1.88    1.37
E4          3.58    4.75    0.98          26.00  -14.31   26.77          30.35  118.12           1.50    1.26    1.87    1.33
E5         12.61   14.16    7.52          44.46   -6.81   14.26          15.81  115.52           0.88    0.83    1.02    0.85
E6         11.58   14.26    4.63          44.60  -14.54   27.92          31.48  117.51           0.95    0.81    1.22    0.85
E7         10.49   14.23    2.54          44.57  -22.37   41.72          47.33  118.20           1.03    0.79    1.46    0.86
E8          9.70   14.24    1.53          44.57  -28.55   51.53          58.91  118.99           1.12    0.77    1.68    0.86
E9         37.08   39.78   27.65          69.31   -4.13    8.18           9.17  116.80           0.41    0.39    0.47    0.40
E10        35.77   39.92   23.39          69.41   -8.89   15.89          18.20  119.23           0.43    0.38    0.54    0.40
E11        34.65   39.96   19.42          69.44  -12.80   23.84          27.06  118.24           0.45    0.37    0.62    0.40
E12        31.91   40.20   12.02          69.61  -23.16   42.36          48.28  118.67           0.51    0.35    0.81    0.40
E13        44.68   55.12   59.79          79.11  -23.04  -15.65          27.85  214.18           0.46    0.18    0.14    0.29
E14        54.57   45.81   54.22          73.42   28.13  -19.69          34.34  325.01           0.20    0.42    0.20    0.32
E15        65.01   67.83   28.98          85.92   -0.90   34.63          34.64   91.48           0.13    0.19    0.45    0.16
E16        27.13   28.13   23.23          60.01    0.01   -0.02           0.14  181.38           0.55    0.55    0.55    0.55
E17        46.34   39.47   24.60          69.09   24.88   13.10          28.12   27.78           0.23    0.50    0.53    0.37
E18        37.19   47.18   26.93          74.31  -25.29   18.01          31.04  144.54           0.48    0.26    0.48    0.34
E19        33.10   32.62   49.25          63.85    5.89  -30.71          31.27  280.86           0.53    0.47    0.24    0.50
E20        23.95   16.42    1.29          47.52   40.49   59.53          72.00   55.78           0.44    1.10    1.76    0.70
E21        17.02   14.01    2.68          44.25   20.79   40.08          45.15   62.58           0.62    1.01    1.45    0.80
E22        29.03   24.94    8.00          57.02   20.40   34.01          39.66   59.04           0.41    0.72    0.99    0.56
F1          1.54    1.90    1.34          14.93   -7.49    2.66           7.95  160.47           1.90    1.65    1.76    1.74
F2          1.19    1.85    1.11          14.68  -16.60    5.35          17.44  162.15           2.15    1.60    1.83    1.77
F3          1.16    2.09    1.12          15.96  -23.05    7.46          24.23  162.07           2.27    1.51    1.82    1.73
F4          1.27    2.37    1.19          17.30  -25.32    8.75          26.79  160.93           2.25    1.45    1.79    1.68
F5          6.85    8.42    5.94          34.84  -12.02    4.47          12.82  159.60           1.22    1.01    1.13    1.09
F6          5.53    8.29    4.97          34.59  -25.24    8.84          26.74  160.70           1.43    0.96    1.19    1.12
F7          4.44    8.24    4.12          34.47  -38.28   13.38          40.55  160.73           1.71    0.92    1.26    1.14
F8          3.56    8.26    3.51          34.53  -51.31   17.27          54.14  161.39           2.09    0.87    1.32    1.16
F9         36.69   39.83   31.42          69.34   -5.53    2.19           5.95  158.38           0.43    0.38    0.42    0.41
F10        35.22   40.07   30.54          69.52  -11.18    3.85          11.82  161.02           0.47    0.36    0.43    0.41
F11        33.58   39.96   29.29          69.44  -16.53    5.72          17.49  160.91           0.51    0.35    0.44    0.41
F12        29.12   40.18   25.95          69.59  -33.49   11.57          35.43  160.93           0.65    0.30    0.49    0.43
F13        38.07   49.32   57.31          75.65  -28.22  -19.10          34.08  214.09           0.58    0.21    0.16    0.35
F14        48.91   38.13   50.09          68.12   36.20  -24.31          43.61  326.11           0.24    0.53    0.24    0.39
F15        62.74   64.92   22.23          84.44    0.33   44.01          44.01   89.57           0.14    0.22    0.56    0.17
F16        19.47   20.08   16.53          51.93    0.51    0.11           0.54   83.85           0.69    0.70    0.70    0.70
F17        40.23   32.04   17.90          63.37   31.49   16.68          35.64   27.92           0.27    0.64    0.66    0.45
F18        30.01   40.35   20.31          69.72  -30.62   22.46          37.97  143.73           0.60    0.31    0.59    0.42
F19        25.31   24.11   43.95          56.19    8.95  -37.65          38.69  283.38           0.67    0.60    0.29    0.64
F20        25.43   24.35   11.62          56.43    8.43   20.83          22.48   67.96           0.51    0.67    0.84    0.59
F21        33.39   30.25   10.71          61.87   15.48   32.99          36.44   64.87           0.36    0.61    0.87    0.48
F22        37.38   34.96   15.57          65.72   12.36   26.17          28.94   64.71           0.33    0.52    0.71    0.43
G1          2.43    3.02    2.65          20.11   -9.03   -1.34           9.13  188.45           1.72    1.45    1.47    1.54
G2          1.91    2.90    2.84          19.62  -18.36   -3.66          18.73  191.28           2.01    1.40    1.44    1.59
G3          1.76    3.13    3.23          20.54  -25.92   -4.91          26.38  190.72           2.23    1.32    1.38    1.58
G4          1.94    3.50    3.65          21.96  -27.63   -5.28          28.13  190.83           2.21    1.27    1.33    1.53
G5          9.25   11.19    9.83          39.89  -12.00   -2.05          12.17  189.71           1.11    0.89    0.91    0.97
G6          7.82   11.14   10.41          39.81  -24.09   -4.08          24.44  189.61           1.31    0.84    0.89    1.00
G7          6.50   11.07   11.23          39.69  -36.61   -6.85          37.25  190.59           1.61    0.79    0.85    1.02
G8          5.27   10.94   11.74          39.48  -49.38   -8.73          50.15  190.03           2.07    0.74    0.83    1.05
G9         36.72   39.99   33.89          69.46   -5.97   -1.30           6.11  192.32           0.44    0.37    0.39    0.41
G10        34.60   39.86   34.56          69.37  -12.68   -2.45          12.92  190.93           0.50    0.35    0.38    0.42
G11        33.11   40.11   35.16          69.55  -18.61   -3.00          18.86  189.16           0.55    0.33    0.37    0.42
G12        28.24   40.02   37.44          69.48  -36.40   -6.29          36.94  189.81           0.73    0.28    0.34    0.44
G13        32.23   43.90   54.51          72.16  -33.00  -22.18          39.76  213.91           0.71    0.24    0.18    0.41
G14        43.56   31.42   45.81          62.86   43.77  -28.42          52.18  327.01           0.28    0.66    0.28    0.46
G15        60.68   62.12   16.90          82.98    1.86   52.75          52.79   87.98           0.14    0.25    0.67    0.19
G16        13.51   13.92   11.51          44.11    0.57   -0.09           0.58  279.89           0.85    0.86    0.85    0.86
G17        34.99   25.94   12.67          57.98   37.78   20.45          42.96   28.43           0.31    0.78    0.81    0.52
G18        23.93   34.26   15.15          65.17  -35.65   26.28          44.29  143.60           0.73    0.37    0.72    0.49
G19        19.06   17.38   38.79          48.73   12.23  -43.90          45.58  285.57           0.83    0.74    0.35    0.79
G20        35.17   33.75   14.22          64.77    9.13   27.97          29.42   71.92           0.36    0.53    0.75    0.45
G21        33.68   32.26    9.24          63.56    9.19   40.76          41.78   77.29           0.37    0.56    0.93    0.46
G22        45.16   41.49    2.67          70.52   15.36   85.46          86.83   79.81           0.23    0.50    1.45    0.34
H1          2.56    2.96    3.30          19.89   -5.59   -6.50           8.57  229.29           1.70    1.47    1.39    1.55
H2          2.31    2.97    4.39          19.94  -10.79  -13.26          17.10  230.86           1.89    1.41    1.27    1.58
H3          2.05    3.00    5.70          20.04  -16.87  -19.94          26.12  229.76           2.24    1.35    1.16    1.61
H4          2.25    3.31    6.56          21.23  -17.57  -21.80          28.00  231.14           2.24    1.31    1.10    1.57
H5          9.77   11.09   12.05          39.73   -7.11   -9.22          11.64  232.35           1.08    0.90    0.83    0.98
H6          8.87   11.20   15.48          39.91  -15.27  -18.09          23.68  229.84           1.25    0.85    0.73    1.00
H7          7.92   11.05   19.34          39.67  -22.60  -27.32          35.45  230.40           1.52    0.81    0.63    1.03
H8          6.94   10.95   24.03          39.50  -31.21  -36.88          48.31  229.76           2.08    0.76    0.54    1.07
H9         37.50   40.32   36.96          69.70   -4.41   -5.27           6.88  230.06           0.43    0.37    0.35    0.40
H10        36.35   40.51   40.04          69.83   -8.74   -9.18          12.68  226.39           0.48    0.35    0.32    0.41
H11        34.72   40.27   44.13          69.66  -13.50  -14.65          19.93  227.34           0.54    0.34    0.28    0.42
H12        32.07   40.07   53.00          69.52  -22.19  -25.11          33.51  228.54           0.66    0.30    0.20    0.44
H13        27.05   38.85   51.65          68.64  -37.51  -25.14          45.16  213.83           0.86    0.27    0.20    0.47
H14        38.58   25.46   41.58          57.52   51.56  -32.39          60.89  327.86           0.33    0.80    0.32    0.54
H15        58.81   59.34   12.21          81.48    3.87   62.28          62.40   86.44           0.15    0.28    0.81    0.20
H16         8.87    9.11    7.46          36.20    0.69    0.24           0.75   91.70           1.04    1.04    1.04    1.04
H17        30.28   20.75    8.35          52.68   43.83   25.20          50.56   29.89           0.36    0.95    0.99    0.61
H18        18.54   28.51   10.53          60.35  -40.47   30.95          50.95  142.60           0.88    0.43    0.87    0.58
H19        13.94   11.94   33.81          41.12   16.26  -50.06          52.64  287.99           1.02    0.91    0.41    0.96
H20        40.01   40.53   15.06          69.85    2.90   34.56          34.68   85.21           0.32    0.43    0.72    0.37
H21        30.24   31.34   19.89          62.80    0.06   11.39          11.39   89.69           0.48    0.51    0.61    0.50
H22        34.40   37.38   11.18          67.56   -5.58   41.36          41.74   97.68           0.41    0.44    0.85    0.42
I1          4.37    4.41    5.80          24.98    1.69  -11.87          11.99  278.11           1.41    1.34    1.15    1.37
I2          4.45    4.46    8.61          25.12    2.13  -23.25          23.35  275.23           1.49    1.31    0.99    1.38
I3          4.44    4.37   11.96          24.87    3.06  -34.57          34.71  275.05           1.64    1.29    0.85    1.42
I4          4.53    4.36   19.24          24.83    4.47  -52.70          52.89  274.85           2.20    1.23    0.65    1.48
I5         14.01   14.40   15.25          44.79    0.81   -9.11           9.15  275.07           0.86    0.83    0.73    0.85
I6         14.30   14.52   19.67          44.97    1.87  -18.89          18.98  275.66           0.89    0.82    0.63    0.85
I7         14.26   14.44   24.00          44.85    2.15  -27.59          27.68  274.45           0.93    0.81    0.55    0.86
I8         14.51   14.46   36.03          44.88    3.55  -46.77          46.90  274.34           1.07    0.78    0.38    0.89
