targets/wolf_faust/reflective/R111204.it8
IT8.7/2
ORIGINATOR "Wolf Faust"
DESCRIPTOR "FUJICOLOR Crystal Archive Paper, L* a* b* (light D50, viewing angle 2)"
MANUFACTURER "Wolf Faust - http://www.coloraid.de"
CREATED "January 25, 2012"
PROD_DATE "2011:12"
SAMPLE_BACKING "black"
SERIAL "5x7 R111204 Batch Average Data"
MATERIAL "FUJICOLOR Crystal Archive DP II Paper"
KEYWORD "MEAN_DE" # Mean Delta E of samples compared to batch average
NUMBER_OF_FIELDS 18
BEGIN_DATA_FORMAT
SAMPLE_ID  XYZ_X   XYZ_Y   XYZ_Z          LAB_L   LAB_A   LAB_B          LAB_C   LAB_H          D_RED  D_GREEN  D_BLUE  D_VIS          STDEV_X STDEV_Y STDEV_Z        MEAN_DE  STDEV_DE
END_DATA_FORMAT
NUMBER_OF_SETS 288
BEGIN_DATA
A1          3.36    2.83    2.07          19.36   10.93    2.43          11.20   12.53           1.35    1.66    1.57    1.51            0.06    0.05    0.05           0.33     0.40
A2          4.17    2.82    1.66          19.33   23.27    6.47          24.16   15.53           1.20    1.84    1.67    1.47            0.07    0.04    0.03           0.30     0.35 
A3          5.16    2.89    1.40          19.58   35.04    9.93          36.42   15.82           1.08    2.10    1.75    1.43            0.06    0.02    0.02           0.38     0.43
A4          5.84    3.16    1.45          20.68   38.28   11.26          39.91   16.39           1.03    2.13    1.74    1.38            0.05    0.02    0.04           0.37     0.43 
A5         12.23   10.60    7.67          38.89   14.64    4.04          15.19   15.45           0.80    1.07    1.02    0.95            0.14    0.12    0.11           0.37     0.43
A6         14.57   10.77    6.77          39.19   28.42    8.26          29.60   16.20           0.68    1.17    1.07    0.91            0.13    0.12    0.11           0.36     0.43 
A7         17.00   10.84    5.93          39.31   41.93   12.20          43.67   16.23           0.59    1.31    1.13    0.88            0.14    0.09    0.14           0.40     0.46
A8         21.38   11.16    4.89          39.84   61.91   18.32          64.56   16.48           0.49    1.61    1.23    0.83            0.10    0.09    0.11           0.44     0.49 
A9         40.40   39.46   31.37          69.08    7.39    1.83           7.61   13.85           0.34    0.43    0.42    0.39            0.46    0.51    0.57           0.41     0.51
A10        42.69   39.71   30.18          69.26   13.57    3.99          14.15   16.36           0.30    0.45    0.43    0.38            0.43    0.47    0.55           0.43     0.53
A11        44.96   39.45   29.09          69.07   21.01    5.40          21.69   14.40           0.25    0.48    0.45    0.38            0.38    0.41    0.50           0.43     0.50
A12        48.08   39.78   27.72          69.31   28.77    8.06          29.88   15.65           0.21    0.51    0.47    0.36            0.37    0.42    0.49           0.46     0.53 
A13        75.90   79.91   68.91          91.64   -2.33   -2.75           3.60  229.67           0.12    0.09    0.08    0.10            0.13    0.12    0.12           0.12     0.14
A14        77.40   79.59   68.75          91.50    1.31   -2.84           3.13  294.79           0.10    0.10    0.09    0.10            0.14    0.15    0.11           0.11     0.13 
A15        77.64   81.03   64.78          92.15   -0.98    1.96           2.19  116.51           0.09    0.09    0.11    0.09            0.16    0.16    0.17           0.13     0.15
A16        77.70   80.69   66.83          92.00   -0.20   -0.22           0.31  224.04           0.09    0.09    0.10    0.09            0.20    0.20    0.17           0.13     0.15
A17        75.91   78.07   63.89          90.81    1.30    0.51           1.40   21.33           0.10    0.11    0.12    0.11            0.19    0.21    0.21           0.14     0.17
A18        75.68   79.70   64.78          91.55   -2.35    0.93           2.53  158.47           0.11    0.09    0.11    0.10            0.19    0.17    0.26           0.16     0.20 
A19        75.72   78.49   68.63          91.00    0.10   -3.60           3.60  271.52           0.11    0.10    0.09    0.11            0.22    0.23    0.16           0.16     0.18
A20         1.32    1.06    0.73           9.51    9.57    2.55           9.90   14.92           1.75    2.11    2.01    1.93            0.02    0.02    0.02           0.26     0.28 
A21         5.14    3.26    0.79          21.04   28.45   21.43          35.62   36.99           1.08    1.88    1.97    1.39            0.05    0.04    0.02           0.27     0.33
A22        10.12    5.76    0.87          28.79   42.76   33.45          54.29   38.03           0.78    1.81    1.93    1.12            0.12    0.07    0.02           0.28     0.33
B1          3.21    2.83    1.62          19.35    8.51    6.99          11.02   39.41           1.37    1.64    1.66    1.52            0.05    0.04    0.02           0.25     0.29
B2          3.79    2.86    1.02          19.47   17.15   14.98          22.77   41.14           1.25    1.76    1.85    1.48            0.06    0.04    0.02           0.30     0.37
B3          4.39    2.84    0.61          19.40   26.00   21.87          33.97   40.07           1.15    1.92    2.07    1.45            0.05    0.04    0.02           0.27     0.33
B4          5.04    3.11    0.57          20.46   29.78   24.54          38.59   39.49           1.09    1.95    2.10    1.41            0.05    0.03    0.02           0.29     0.34
B5         12.42   10.70    5.75          39.06   15.20   12.64          19.78   39.74           0.78    1.08    1.13    0.93            0.17    0.16    0.14           0.41     0.45
B6         14.41   10.82    3.82          39.28   27.10   23.49          35.86   40.91           0.67    1.17    1.30    0.90            0.17    0.15    0.07           0.40     0.47
B7         16.72   10.84    2.30          39.30   40.46   34.70          53.30   40.62           0.58    1.32    1.51    0.87            0.15    0.12    0.03           0.33     0.38
B8         20.75   11.11    0.96          39.77   59.24   50.78          78.03   40.60           0.48    1.62    1.87    0.82            0.09    0.08    0.02           0.22     0.24
B9         40.13   39.52   29.29          69.13    6.38    5.17           8.22   38.97           0.34    0.43    0.45    0.39            0.38    0.42    0.56           0.49     0.57
B10        42.23   39.76   26.31          69.30   12.05   10.43          15.94   40.89           0.29    0.45    0.49    0.38            0.43    0.46    0.51           0.46     0.53
B11        44.25   39.46   23.30          69.08   18.93   15.49          24.46   39.29           0.25    0.48    0.54    0.37            0.41    0.45    0.48           0.47     0.56
B12        47.09   39.66   19.79          69.22   26.39   22.68          34.80   40.67           0.20    0.52    0.61    0.36            0.41    0.47    0.45           0.50     0.60
B13        70.97   76.45   68.31          90.07   -5.73   -4.92           7.55  220.61           0.16    0.10    0.09    0.12            0.17    0.14    0.11           0.17     0.20
B14        73.34   72.74   66.83          88.32    6.75   -6.56           9.41  315.81           0.11    0.15    0.10    0.14            0.23    0.35    0.22           0.31     0.38
B15        75.81   79.56   56.67          91.49   -1.84    8.88           9.07  101.70           0.10    0.10    0.16    0.10            0.17    0.16    0.46           0.30     0.38
B16        63.03   65.38   54.36          84.68   -0.02   -0.44           0.45  266.14           0.18    0.18    0.18    0.18            0.36    0.39    0.51           0.29     0.33
B17        70.26   69.99   54.97          86.99    5.99    2.90           6.66   25.80           0.11    0.17    0.18    0.15            0.28    0.35    0.45           0.29     0.35
B18        68.03   74.25   56.34          89.04   -7.63    4.99           9.12  146.86           0.16    0.11    0.17    0.13            0.39    0.31    0.53           0.40     0.48
B19        66.05   67.87   65.92          85.94    1.37   -9.81           9.91  277.95           0.18    0.16    0.11    0.17            0.28    0.31    0.19           0.24     0.28
B20         2.75    1.97    0.74          15.35   17.66   12.52          21.65   35.34           1.38    1.96    2.00    1.63            0.03    0.02    0.01           0.25     0.30
B21         8.30    4.86    0.81          26.33   38.29   30.23          48.78   38.29           0.87    1.83    1.95    1.20            0.10    0.06    0.01           0.29     0.35
B22        28.71   24.42   11.89          56.51   21.33   20.15          29.35   43.37           0.41    0.72    0.82    0.57            0.34    0.32    0.30           0.48     0.55
C1          4.38    4.22    2.24          24.37    4.33    9.54          10.48   65.58           1.25    1.42    1.52    1.36            0.08    0.08    0.05           0.28     0.32
C2          4.61    4.22    1.38          24.38    7.42   18.43          19.87   68.07           1.20    1.46    1.71    1.34            0.07    0.08    0.04           0.35     0.40
C3          5.22    4.39    0.76          24.92   12.74   28.64          31.35   66.03           1.12    1.50    1.96    1.31            0.06    0.05    0.01           0.31     0.35
C4          5.53    4.67    0.78          25.77   12.75   29.77          32.39   66.81           1.10    1.47    1.95    1.28            0.09    0.07    0.02           0.37     0.44
C5         23.11   21.99   10.57          54.01    8.80   19.90          21.76   66.15           0.54    0.71    0.87    0.63            0.31    0.30    0.24           0.46     0.52
C6         25.05   21.88    5.30          53.90   17.72   40.41          44.13   66.33           0.46    0.77    1.15    0.62            0.30    0.30    0.13           0.50     0.56
C7         27.38   22.05    2.38          54.08   26.55   59.54          65.19   65.96           0.40    0.83    1.47    0.60            0.24    0.25    0.06           0.42     0.48
C8         28.74   22.18    1.33          54.22   31.33   70.61          77.25   66.07           0.37    0.87    1.71    0.59            0.22    0.22    0.03           0.35     0.43
C9         46.52   46.84   32.28          74.09    3.84    9.06           9.84   67.01           0.28    0.35    0.40    0.32            0.52    0.56    0.65           0.45     0.55
C10        48.48   47.26   26.69          74.36    8.11   18.51          20.21   66.33           0.24    0.36    0.48    0.31            0.43    0.53    0.57           0.52     0.61
C11        49.97   47.15   21.41          74.28   12.46   28.10          30.74   66.08           0.21    0.39    0.57    0.30            0.43    0.49    0.46           0.45     0.54
C12        52.00   47.15   16.01          74.28   17.82   39.89          43.69   65.93           0.17    0.41    0.69    0.29            0.42    0.53    0.39           0.52     0.63
C13        62.33   70.10   67.06          87.05  -11.84   -8.97          14.85  217.14           0.24    0.11    0.10    0.17            0.25    0.21    0.09           0.18     0.22
C14        67.30   62.84   63.59          83.36   15.25  -12.05          19.44  321.70           0.13    0.24    0.12    0.19            0.30    0.41    0.16           0.37     0.44
C15        73.51   77.51   46.17          90.55   -2.52   18.92          19.09   97.60           0.10    0.12    0.25    0.11            0.21    0.22    0.51           0.42     0.49
C16        48.77   50.44   42.10          76.34    0.37   -0.60           0.77  305.30           0.29    0.30    0.29    0.30            0.38    0.44    0.59           0.42     0.48
C17        62.20   58.76   43.05          81.16   13.22    6.52          14.75   26.24           0.14    0.27    0.28    0.21            0.31    0.39    0.59           0.41     0.50
C18        57.23   66.00   45.23          85.00  -15.14   10.46          18.40  145.38           0.25    0.15    0.26    0.19            0.30    0.27    0.55           0.40     0.50
C19        53.74   54.40   61.72          78.69    3.31  -18.28          18.58  280.26           0.28    0.26    0.14    0.27            0.34    0.42    0.17           0.37     0.44
C20         1.67    1.41    0.69          12.00    8.71    7.58          11.55   41.03           1.64    1.98    2.02    1.81            0.02    0.02    0.01           0.22     0.24
C21        22.67   17.04    4.77          48.31   31.38   33.57          45.95   46.94           0.48    0.98    1.20    0.70            0.25    0.21    0.11           0.43     0.47
C22        34.34   31.17   17.17          62.65   15.41   17.09          23.01   47.95           0.36    0.58    0.67    0.48            0.34    0.37    0.30           0.42     0.47
D1          4.03    4.20    2.24          24.33   -0.32    9.43           9.43   91.93           1.32    1.39    1.52    1.37            0.06    0.05    0.03           0.27     0.32
D2          4.00    4.19    1.40          24.28   -0.50   18.02          18.02   91.59           1.30    1.40    1.70    1.36            0.06    0.06    0.03           0.33     0.38
D3          4.12    4.36    0.84          24.82   -1.07   27.06          27.08   92.26           1.29    1.38    1.91    1.34            0.05    0.05    0.01           0.27     0.33
D4          4.38    4.66    0.86          25.74   -1.51   28.31          28.35   93.05           1.26    1.35    1.90    1.31            0.07    0.07    0.01           0.28     0.35
D5         25.93   26.95   13.50          58.93   -0.26   19.81          19.81   90.76           0.52    0.58    0.76    0.56            0.31    0.36    0.39           0.52     0.64
D6         25.84   27.05    7.52          59.02   -1.01   39.35          39.36   91.47           0.50    0.59    1.00    0.55            0.29    0.33    0.14           0.41     0.46
D7         25.59   26.97    3.58          58.94   -1.71   58.94          58.97   91.67           0.50    0.60    1.30    0.55            0.28    0.28    0.04           0.41     0.50
D8         25.69   27.20    1.78          59.16   -2.25   73.93          73.97   91.75           0.51    0.61    1.59    0.54            0.32    0.33    0.03           0.47     0.53
D9         53.97   55.91   37.93          79.56    0.14   10.42          10.43   89.21           0.23    0.26    0.33    0.25            0.58    0.63    0.76           0.53     0.60
D10        53.35   55.66   29.94          79.42   -0.81   21.87          21.89   92.14           0.22    0.27    0.43    0.25            0.48    0.55    0.57           0.42     0.54
D11        53.57   55.79   24.49          79.49   -0.56   31.23          31.24   91.03           0.21    0.27    0.51    0.24            0.46    0.51    0.48           0.43     0.53
D12        53.02   56.03    8.02          79.63   -2.56   72.95          72.99   92.01           0.20    0.29    0.97    0.23            0.21    0.18    0.10           0.27     0.31
D13        54.12   63.59   65.40          83.75  -17.51  -13.09          21.87  216.78           0.34    0.14    0.11    0.22            0.24    0.21    0.10           0.18     0.23
D14        61.61   54.03   60.04          78.48   23.41  -16.99          28.92  324.03           0.16    0.33    0.15    0.25            0.34    0.47    0.23           0.40     0.56
D15        71.49   75.42   37.22          89.59   -2.59   28.68          28.80   95.16           0.10    0.13    0.34    0.11            0.20    0.21    0.47           0.39     0.52
D16        37.05   38.31   31.99          68.25    0.35   -0.57           0.73  259.95           0.40    0.42    0.41    0.42            0.34    0.37    0.47           0.38     0.46
D17        54.86   48.95   33.04          75.42   20.26   10.22          22.69   26.76           0.17    0.38    0.40    0.28            0.32    0.43    0.46           0.42     0.53
D18        47.49   57.94   36.12          80.70  -21.97   14.87          26.53  145.91           0.35    0.18    0.35    0.25            0.46    0.39    0.51           0.50     0.58
D19        43.18   42.96   57.18          71.53    5.26  -26.07          26.60  281.40           0.39    0.36    0.17    0.38            0.31    0.38    0.20           0.39     0.47
D20        13.69   10.38    2.77          38.51   25.86   29.51          39.24   48.78           0.69    1.19    1.43    0.92            0.12    0.12    0.05           0.41     0.48
D21        21.15   20.48   11.58          52.38    6.80   13.95          15.52   64.02           0.59    0.73    0.83    0.67            0.27    0.27    0.26           0.41     0.49
D22        37.79   35.86   19.73          66.41   10.65   17.98          20.90   59.35           0.33    0.50    0.61    0.42            0.39    0.42    0.38           0.37     0.47
E1          3.64    4.15    2.28          24.15   -5.26    8.73          10.20  121.10           1.39    1.36    1.51    1.39            0.05    0.06    0.06           0.37     0.41
E2          3.36    4.19    1.45          24.28  -10.30   17.51          20.32  120.48           1.45    1.33    1.69    1.39            0.05    0.05    0.03           0.25     0.29
E3          3.32    4.48    0.93          25.20  -14.84   26.25          30.15  119.48           1.48    1.28    1.86    1.36            0.04    0.06    0.01           0.24     0.28
E4          3.40    4.63    0.94          25.67  -15.59   26.89          31.09  120.11           1.48    1.26    1.86    1.35            0.04    0.06    0.01           0.29     0.33
E5         12.14   13.72    7.38          43.83   -7.32   13.74          15.57  118.05           0.88    0.84    1.02    0.87            0.16    0.18    0.15           0.34     0.40
E6         11.09   13.77    4.49          43.90  -15.06   27.49          31.34  118.71           0.94    0.82    1.21    0.87            0.14    0.18    0.09           0.33     0.36
E7         10.16   13.88    2.51          44.06  -22.72   41.11          46.97  118.93           1.01    0.79    1.44    0.87            0.10    0.15    0.04           0.28     0.34
E8          9.53   13.97    1.52          44.19  -28.29   50.95          58.28  119.04           1.09    0.77    1.65    0.87            0.10    0.15    0.03           0.33     0.41
E9         36.71   39.35   27.77          69.00   -4.02    7.45           8.47  118.37           0.41    0.40    0.47    0.41            0.45    0.47    0.58           0.47     0.55
E10        35.51   39.62   23.47          69.20   -8.85   15.38          17.75  119.93           0.43    0.38    0.53    0.40            0.50    0.53    0.51           0.52     0.60
E11        34.22   39.40   19.29          69.04  -12.57   23.42          26.58  118.23           0.44    0.38    0.61    0.41            0.41    0.46    0.43           0.44     0.52
E12        30.12   39.65    9.26          69.22  -28.06   50.46          57.74  119.08           0.54    0.35    0.91    0.41            0.27    0.29    0.17           0.33     0.40
E13        46.80   57.39   63.59          80.40  -22.57  -17.16          28.35  217.25           0.44    0.16    0.12    0.27            0.33    0.29    0.15           0.26     0.32
E14        56.22   46.19   56.29          73.67   31.21  -21.46          37.88  325.49           0.19    0.42    0.18    0.31            0.27    0.37    0.18           0.39     0.52
E15        69.45   73.01   29.08          88.45   -2.04   38.82          38.88   93.01           0.10    0.16    0.44    0.12            0.19    0.22    0.54           0.58     0.73
E16        27.50   28.46   23.61          60.30    0.20   -0.22           0.39  231.49           0.53    0.54    0.54    0.55            0.34    0.37    0.44           0.42     0.49
E17        48.37   40.72   24.67          69.98   26.69   14.51          30.38   28.52           0.20    0.50    0.52    0.35            0.35    0.42    0.49           0.55     0.62
E18        38.52   49.85   27.52          75.98  -28.19   19.89          34.50  144.81           0.46    0.23    0.46    0.32            0.30    0.29    0.44           0.42     0.54
E19        34.22   33.31   52.25          64.41    7.39  -33.10          33.92  282.58           0.51    0.47    0.21    0.49            0.34    0.40    0.29           0.39     0.48
E20        24.15   16.56    1.22          47.70   40.58   60.75          73.05   56.26           0.43    1.09    1.75    0.69            0.16    0.14    0.01           0.28     0.34
E21        16.68   13.76    2.65          43.89   20.48   39.66          44.64   62.69           0.62    1.02    1.43    0.81            0.20    0.17    0.04           0.36     0.45
E22        29.12   25.05    8.13          57.12   20.30   33.69          39.33   58.94           0.40    0.72    0.97    0.56            0.33    0.32    0.17           0.34     0.39
F1          1.43    1.80    1.26          14.39   -8.22    2.83           8.70  160.99           1.86    1.67    1.76    1.77            0.02    0.03    0.03           0.26     0.30
F2          1.15    1.82    1.06          14.49  -17.07    5.66          17.99  161.65           2.07    1.61    1.82    1.79            0.01    0.03    0.02           0.31     0.36
F3          1.21    2.20    1.15          16.52  -23.99    7.93          25.26  161.69           2.14    1.49    1.78    1.71            0.02    0.04    0.03           0.27     0.33
F4          1.06    1.83    0.98          14.56  -20.61    7.02          21.78  161.18           2.16    1.58    1.85    1.79            0.02    0.03    0.02           0.24     0.27
F5          6.41    8.02    5.73          34.01  -12.99    4.02          13.60  162.80           1.22    1.03    1.13    1.12            0.11    0.14    0.13           0.38     0.46
F6          5.28    8.00    4.90          33.98  -25.60    8.16          26.87  162.32           1.41    0.98    1.18    1.14            0.07    0.11    0.10           0.34     0.38
F7          4.29    8.04    4.04          34.07  -38.69   13.17          40.87  161.20           1.65    0.93    1.26    1.15            0.05    0.08    0.05           0.23     0.27
F8          3.49    8.08    3.42          34.14  -50.76   17.27          53.62  161.21           1.98    0.88    1.32    1.17            0.04    0.07    0.07           0.31     0.35
F9         36.63   39.71   31.77          69.26   -5.39    1.52           5.61  164.36           0.43    0.38    0.41    0.41            0.40    0.43    0.54           0.47     0.52
F10        35.02   39.81   30.58          69.33  -11.10    3.47          11.63  162.64           0.46    0.37    0.42    0.41            0.44    0.48    0.59           0.45     0.52
F11        33.09   39.62   29.12          69.20  -17.18    5.57          18.07  162.05           0.51    0.35    0.44    0.42            0.31    0.35    0.52           0.44     0.52
F12        27.61   39.80   24.73          69.33  -38.25   13.27          40.49  160.87           0.68    0.29    0.51    0.44            0.31    0.31    0.40           0.45     0.53
F13        39.74   50.98   61.27          76.67  -27.33  -21.33          34.67  217.97           0.56    0.19    0.13    0.33            0.23    0.22    0.15           0.21     0.25
F14        50.98   39.03   52.27          68.77   38.90  -25.60          46.57  326.65           0.22    0.53    0.22    0.38            0.29    0.36    0.20           0.41     0.50
F15        67.49   70.45   22.33          87.22   -0.98   48.61          48.62   91.15           0.10    0.18    0.55    0.14            0.18    0.22    0.40           0.52     0.62
F16        19.60   20.32   16.75          52.20    0.04    0.04           0.33  167.83           0.67    0.69    0.68    0.69            0.23    0.26    0.33           0.43     0.49
F17        42.43   33.45   17.86          64.52   33.23   18.75          38.16   29.43           0.24    0.63    0.66    0.43            0.25    0.28    0.36           0.46     0.58
