targets/wolf_faust/reflective/R111204WhiteBacking.it8
IT8.7/2
ORIGINATOR "Wolf Faust"
DESCRIPTOR "FUJICOLOR Crystal Archive Paper, L* a* b* (light D50, viewing angle 2)"
MANUFACTURER "Wolf Faust - http://www.coloraid.de"
CREATED "January 25, 2012"
PROD_DATE "2011:12"
SAMPLE_BACKING "white"
SERIAL "5x7 R111204 Batch Average Data"
MATERIAL "FUJICOLOR Crystal Archive DP II Paper"
NUMBER_OF_FIELDS 9
BEGIN_DATA_FORMAT
SAMPLE_ID  XYZ_X   XYZ_Y   XYZ_Z          LAB_L   LAB_A   LAB_B          LAB_C   LAB_H
END_DATA_FORMAT
NUMBER_OF_SETS 288
BEGIN_DATA
A1          3.42    2.88    2.08          19.54   11.00    2.60          11.30   13.26
A2          4.24    2.87    1.68          19.50   23.42    6.63          24.35   15.81 
A3          5.25    2.94    1.41          19.78   35.23   10.12          36.66   16.03
A4          5.95    3.21    1.44          20.86   38.75   11.64          40.47   16.72 
A5         12.39   10.71    7.68          39.09   14.87    4.32          15.48   16.22
A6         14.91   11.01    6.87          39.60   28.68    8.54          29.92   16.58 
A7         17.35   11.07    6.04          39.69   42.22   12.38          44.00   16.34
A8         21.73   11.31    4.83          40.09   62.52   19.04          65.36   16.94 
A9         41.11   40.09   31.66          69.53    7.63    2.15           7.93   15.74
A10        43.56   40.46   30.50          69.79   13.85    4.40          14.54   17.59
A11        45.86   40.13   29.36          69.56   21.48    5.80          22.25   15.09
A12        49.18   40.56   27.93          69.87   29.39    8.66          30.64   16.42 
A13        77.71   81.75   69.82          92.46   -2.22   -2.15           3.09  224.11
A14        79.31   81.46   69.68          92.34    1.50   -2.24           2.70  303.80 
A15        79.53   82.91   65.57          92.98   -0.81    2.64           2.76  106.98
A16        79.69   82.67   67.71          92.87   -0.03    0.46           0.47   95.05
A17        77.77   79.85   64.66          91.62    1.55    1.17           1.94   36.85
A18        77.55   81.59   65.48          92.39   -2.22    1.73           2.82  142.32 
A19        77.61   80.36   69.43          91.85    0.25   -2.87           2.88  274.99
A20         1.34    1.08    0.73           9.60    9.77    2.71          10.14   15.51 
A21         5.22    3.30    0.79          21.21   28.74   21.80          36.08   37.18
A22        10.31    5.85    0.86          29.03   43.18   34.02          54.97   38.24
B1          3.27    2.87    1.63          19.51    8.71    7.20          11.30   39.58
B2          3.84    2.89    1.01          19.58   17.36   15.21          23.09   41.23
B3          4.46    2.87    0.60          19.52   26.36   22.26          34.50   40.17
B4          5.13    3.15    0.57          20.65   30.12   24.90          39.08   39.58
B5         12.65   10.87    5.78          39.36   15.46   13.02          20.21   40.11
B6         14.69   11.00    3.84          39.59   27.46   23.87          36.38   41.00
B7         17.05   11.02    2.32          39.62   40.91   35.12          53.92   40.65
B8         21.19   11.33    0.97          40.13   59.83   51.27          78.79   40.60
B9         40.85   40.16   29.49          69.58    6.65    5.64           8.72   40.28
B10        43.11   40.50   26.54          69.82   12.38   10.94          16.52   41.45
B11        45.11   40.11   23.46          69.55   19.41   16.00          25.15   39.48
B12        48.15   40.40   19.91          69.75   27.06   23.34          35.74   40.78
B13        72.61   78.20   69.21          90.87   -5.76   -4.35           7.22  217.06
B14        74.96   74.15   67.51          88.99    7.19   -6.03           9.38  320.03
B15        77.81   81.54   57.39          92.37   -1.61    9.65           9.79   99.47
B16        64.41   66.73   54.88          85.36    0.17    0.20           0.35  130.91
B17        71.97   71.57   55.51          87.76    6.32    3.66           7.30   30.02
B18        69.64   75.94   56.91          89.83   -7.56    5.77           9.51  142.70
B19        67.52   69.30   66.67          86.65    1.54   -9.28           9.41  279.45
B20         2.79    2.00    0.74          15.48   17.89   12.73          21.95   35.43
B21         8.46    4.95    0.81          26.59   38.63   30.55          49.25   38.34
B22        29.28   24.82   11.98          56.90   21.82   20.59          30.00   43.34
C1          4.44    4.27    2.25          24.54    4.41    9.69          10.65   65.55
C2          4.65    4.24    1.38          24.46    7.65   18.62          20.13   67.66
C3          5.31    4.45    0.76          25.12   12.97   28.89          31.68   65.83
C4          5.62    4.74    0.78          25.98   12.93   30.07          32.73   66.73
C5         23.51   22.32   10.61          54.36    9.08   20.37          22.30   65.98
C6         25.65   22.36    5.35          54.40   18.08   41.03          44.84   66.22
C7         27.93   22.42    2.38          54.47   27.07   60.19          65.99   65.78
C8         29.31   22.55    1.33          54.60   31.87   71.17          77.98   65.88
C9         47.38   47.61   32.45          74.58    4.13    9.66          10.50   66.82
C10        49.50   48.14   26.87          74.91    8.51   19.15          20.96   66.04
C11        51.13   48.08   21.58          74.88   12.97   28.80          31.59   65.77
C12        53.17   48.04   16.08          74.85   18.43   40.68          44.67   65.63
C13        63.64   71.60   67.89          87.77  -11.97   -8.48          14.67  215.32
C14        68.90   64.21   64.34          84.08   15.65  -11.53          19.45  323.62
C15        75.45   79.40   46.67          91.42   -2.25   19.80          19.93   96.50
C16        49.81   51.45   42.47          76.95    0.58   -0.02           0.66  130.53
C17        63.64   59.94   43.45          81.81   13.74    7.13          15.49   27.41
C18        58.37   67.30   45.65          85.65  -15.21   11.09          18.82  143.91
C19        54.84   55.46   62.42          79.31    3.46  -17.91          18.24  280.93
C20         1.70    1.43    0.69          12.17    8.80    7.84          11.78   41.72
C21        23.02   17.23    4.72          48.55   31.92   34.23          46.80   46.99
C22        34.98   31.66   17.26          63.06   15.81   17.59          23.65   48.05
D1          4.09    4.25    2.25          24.48   -0.08    9.64           9.64   90.49
D2          4.07    4.25    1.41          24.47   -0.40   18.26          18.26   91.27
D3          4.19    4.42    0.85          25.00   -0.98   27.26          27.28   92.05
D4          4.45    4.73    0.86          25.95   -1.43   28.56          28.60   92.87
D5         26.41   27.41   13.58          59.35   -0.05   20.31          20.31   90.15
D6         26.29   27.45    7.59          59.40   -0.78   39.70          39.71   91.12
D7         26.07   27.41    3.61          59.35   -1.47   59.43          59.45   91.41
D8         26.01   27.49    1.80          59.42   -2.05   74.20          74.23   91.59
D9         55.05   56.93   38.24          80.14    0.39   10.99          11.00   88.00
D10        54.49   56.71   30.22          80.02   -0.49   22.46          22.46   91.25
D11        54.81   56.94   24.72          80.14   -0.23   31.96          31.96   90.41
D12        54.32   57.24    8.09          80.31   -2.21   73.84          73.88   91.71
D13        55.20   64.92   66.26          84.44  -17.77  -12.72          21.85  215.59
D14        63.02   55.16   60.74          79.13   23.86  -16.55          29.04  325.25
D15        73.30   77.16   37.62          90.39   -2.27   29.51          29.59   94.40
D16        37.76   38.99   32.29          68.75    0.53   -0.17           0.63  294.35
D17        56.14   49.91   33.30          76.02   20.90   10.86          23.56   27.44
D18        48.34   58.99   36.24          81.29  -22.15   15.73          27.17  144.64
D19        43.96   43.72   57.79          72.04    5.35  -25.81          26.36  281.70
D20        13.92   10.53    2.77          38.77   26.22   29.92          39.79   48.76
D21        21.53   20.79   11.70          52.72    7.09   14.21          15.89   63.49
D22        38.61   36.56   19.96          66.94   11.02   18.41          21.45   59.10
E1          3.71    4.21    2.28          24.36   -5.19    9.14          10.51  119.62
E2          3.39    4.22    1.44          24.38  -10.25   17.75          20.50  120.00
E3          3.37    4.54    0.93          25.36  -14.75   26.45          30.29  119.15
E4          3.45    4.70    0.94          25.85  -15.59   27.10          31.26  119.90
E5         12.32   13.90    7.39          44.08   -7.16   14.12          15.83  116.89
E6         11.26   13.96    4.51          44.18  -14.98   27.83          31.60  118.29
E7         10.32   14.08    2.52          44.34  -22.68   41.54          47.33  118.63
E8          9.68   14.16    1.53          44.46  -28.23   51.30          58.55  118.83
E9         37.31   39.96   27.91          69.44   -3.91    7.98           8.88  116.17
E10        36.09   40.23   23.66          69.63   -8.79   15.77          18.05  119.13
E11        34.82   40.04   19.42          69.50  -12.46   23.94          26.99  117.49
E12        30.64   40.30    9.33          69.68  -28.12   51.00          58.24  118.87
E13        47.63   58.45   64.35          80.99  -22.81  -16.86          28.37  216.47
E14        57.48   47.13   56.91          74.27   31.71  -21.06          38.06  326.41
E15        71.24   74.70   29.34          89.26   -1.67   39.80          39.83   92.41
E16        28.00   28.95   23.78          60.74    0.33    0.21           0.50  113.59
E17        49.49   41.50   24.87          70.53   27.38   15.08          31.26   28.86
E18        39.26   50.80   27.80          76.56  -28.38   20.42          34.96  144.26
E19        34.79   33.87   52.80          64.86    7.41  -32.93          33.75  282.68
E20        24.66   16.87    1.23          48.10   41.11   61.29          73.80   56.14
E21        16.96   13.97    2.67          44.18   20.73   40.02          45.07   62.61
E22        29.66   25.43    8.16          57.49   20.73   34.22          40.01   58.80
F1          1.45    1.82    1.26          14.48   -8.10    2.89           8.60  160.34
F2          1.16    1.83    1.07          14.54  -17.06    5.71          17.99  161.50
F3          1.21    2.21    1.14          16.56  -24.04    8.18          25.39  161.21
F4          1.06    1.84    0.98          14.61  -20.73    7.17          21.94  160.91
F5          6.50    8.11    5.75          34.21  -12.91    4.30          13.61  161.60
F6          5.34    8.09    4.92          34.16  -25.61    8.33          26.94  161.98
F7          4.33    8.11    4.03          34.21  -38.72   13.46          40.99  160.83
F8          3.52    8.17    3.42          34.34  -51.06   17.56          53.99  161.02
F9         37.23   40.33   32.04          69.70   -5.31    1.87           5.64  160.70
F10        35.45   40.28   30.56          69.67  -11.08    4.08          11.81  159.78
F11        33.67   40.30   29.35          69.68  -17.21    6.03          18.24  160.70
F12        28.03   40.44   24.94          69.78  -38.52   13.68          40.88  160.45
F13        40.43   51.94   61.99          77.24  -27.66  -21.04          34.76  217.25
F14        52.03   39.73   52.76          69.28   39.51  -25.27          46.90  327.39
F15        69.22   72.05   22.54          87.99   -0.56   49.54          49.55   90.64
F16        19.98   20.68   16.91          52.60    0.16    0.36           0.45   80.98
F17        43.34   34.03   17.97          64.99   33.94   19.32          39.05   29.65
F18        31.29   43.14   20.90          71.65  -34.21   24.59          42.13  144.31
F19        26.87   25.34   47.55          57.40   10.18  -39.87          41.15  284.33
F20        25.70   24.67   11.79          56.75    8.18   20.90          22.44   68.64
F21        33.54   30.22   10.66          61.84   16.14   33.10          36.83   64.01
F22        38.39   35.73   15.65          66.31   13.05   27.03          30.01   64.22
G1          2.30    2.89    2.66          19.60   -9.57   -2.22           9.83  193.07
G2          1.89    2.91    2.86          19.67  -19.00   -3.72          19.35  191.08
G3          1.85    3.31    3.39          21.24  -26.71   -4.82          27.14  190.23
G4          1.72    3.02    3.13          20.14  -25.05   -4.91          25.53  191.09
G5          8.88   10.82    9.62          39.28  -12.45   -2.39          12.68  190.88
G6          7.59   10.88   10.31          39.37  -24.36   -4.51          24.77  190.49
G7          6.26   10.84   10.75          39.31  -37.45   -6.00          37.92  189.10
G8          5.35   10.92   11.58          39.45  -48.32   -8.31          49.03  189.76
G9         37.27   40.45   33.70          69.78   -5.56   -0.47           5.58  184.87
G10        35.16   40.43   34.81          69.77  -12.51   -2.11          12.69  189.57
G11        33.21   40.29   35.04          69.67  -18.81   -2.60          18.99  187.88
G12        28.01   40.62   37.76          69.91  -39.17   -6.00          39.63  188.71
G13        34.28   46.01   59.43          73.55  -31.78  -24.88          40.36  218.05
G14        46.56   32.81   48.20          64.01   47.41  -29.24          55.70  328.34
G15        67.30   69.34   16.99          86.67    0.97   58.93          58.94   89.06
G16        13.66   14.11   11.78          44.39    0.36   -0.40           0.56  310.41
G17        37.71   27.46   12.57          59.40   40.64   23.19          46.79   29.70
G18        24.72   36.41   15.44          66.84  -39.44   28.44          48.62  144.20
G19        20.25   18.20   42.13          49.73   13.85  -46.52          48.54  286.58
G20        35.62   34.28   14.26          65.18    8.85   28.57          29.91   72.78
G21        34.78   33.03    9.27          64.18   10.30   41.75          43.00   76.14
G22        47.04   43.26    2.80          71.73   15.46   86.51          87.88   79.87
H1          2.48    2.89    3.23          19.58   -5.85   -6.58           8.81  228.36
H2          2.20    2.87    4.35          19.52  -11.37  -13.74          17.83  230.39
H3          2.05    3.00    5.59          20.03  -16.70  -19.41          25.61  229.29
H4          2.14    3.12    5.86          20.51  -16.90  -19.87          26.09  229.63
H5          9.49   10.91   11.68          39.44   -8.13   -8.64          11.86  226.73
H6          8.62   10.89   15.10          39.39  -15.17  -18.05          23.58  229.95
H7          7.80   10.97   19.32          39.53  -23.14  -27.52          35.96  229.94
H8          6.96   10.81   22.96          39.26  -29.94  -35.30          46.29  229.70
H9         37.30   40.15   36.68          69.57   -4.53   -5.09           6.82  228.31
H10        36.25   40.18   40.75          69.60   -8.09  -10.50          13.26  232.38
H11        35.05   40.38   44.81          69.74  -12.74  -15.34          19.94  230.28
H12        32.03   40.62   56.90          69.91  -24.02  -28.57          37.33  229.94
H13        28.78   40.36   56.56          69.72  -35.36  -28.54          45.44  218.91
H14        41.50   26.88   43.65          58.86   54.85  -32.68          63.85  329.21
H15        65.26   66.30   12.15          85.15    3.01   68.77          68.83   87.49
H16         8.88    9.17    7.59          36.30    0.36   -0.10           0.45  219.04
H17        32.72   22.03    8.18          54.06   46.76   28.26          54.63   31.15
H18        19.05   30.23   10.96          61.85  -44.34   32.19          54.79  144.02
H19        15.00   12.58   37.01          42.13   18.38  -52.87          55.97  289.17
H20        40.64   41.09   15.07          70.24    3.18   35.21          35.36   84.84
H21        30.61   31.57   20.03          62.98    0.66   11.42          11.45   86.74
H22        34.82   37.83   11.10          67.89   -5.57   42.18          42.55   97.52
I1          4.19    4.25    5.63          24.47    1.30  -11.95          12.02  276.22
I2          4.22    4.25    8.39          24.50    1.54  -23.53          23.58  273.75
I3          4.27    4.26   11.71          24.51    2.19  -34.48          34.55  273.62
I4          4.38    4.20   18.10          24.31    4.66  -51.10          51.31  275.22
I5         13.88   14.33   15.08          44.70    0.39   -8.85           8.86  272.47
I6         13.90   14.21   19.16          44.53    1.25  -18.56          18.60  273.85
I7         13.96   14.19   23.77          44.50    1.76  -27.77          27.83  273.62
I8         14.37   14.20   38.75          44.52    4.23  -51.10          51.27  274.73
I9         39.00   40.34   36.60          69.71    0.33   -4.74           4.75  273.98
I10        39.39   40.36   40.45          69.73    1.49   -9.89          10.00  278.60
I11        39.31   40.24   44.59          69.64    1.62  -15.25          15.34  276.05
I12        39.77   40.29   56.17          69.67    2.91  -28.21          28.36  275.88
I13        23.82   34.95   53.26          65.71  -38.46  -31.97          50.01  219.73
I14        36.58   21.56   38.92          53.55   62.18  -35.76          71.73  330.09
I15        63.19   63.10    8.38          83.50    5.44   78.23          78.42   86.02
I16         5.32    5.51    4.59          28.13    0.09   -0.26           0.38  248.86
I17        28.33   17.57    4.97          48.97   52.39   33.63          62.26   32.70
I18        14.25   24.56    7.31          56.65  -48.79   36.10          60.69  143.51
I19        10.80    8.20   32.01          34.39   23.80  -58.97          63.60  291.98
I20        41.16   44.98   15.55          72.88   -6.63   38.57          39.14   99.76
I21        10.65   14.24    3.38          44.57  -21.21   35.48          41.34  120.88
I22        27.67   35.81   17.19          66.37  -25.26   23.47          34.48  137.10
J1          2.09    1.86    2.95          14.74    6.98  -12.90          14.67  298.42
J2          2.36    1.83    4.83          14.54   13.50  -24.97          28.38  298.40
J3          2.74    1.84    7.69          14.62   20.62  -37.87          43.12  298.57
J4          3.84    1.92   18.15          15.06   36.86  -67.18          76.63  298.75
J5         11.15   10.87   11.82          39.36    4.94   -9.19          10.44  298.26
J6         12.17   11.05   15.62          39.66   10.89  -18.88          21.79  299.99
J7         12.76   10.91   19.76          39.42   15.89  -28.64          32.75  299.01
J8         15.14   10.96   34.70          39.51   30.42  -54.11          62.08  299.34
J9         40.01   40.52   36.59          69.84    2.94   -4.51           5.39  303.09
J10        40.95   40.57   40.29          69.87    5.70   -9.43          11.02  301.14
J11        41.70   40.25   44.50          69.65    8.93  -15.12          17.56  300.56
J12        44.03   40.37   55.35          69.73   15.50  -27.26          31.36  299.62
J13        19.62   30.01   49.75          61.66  -40.68  -35.05          53.70  220.75
J14        32.21   17.29   34.48          48.62   68.38  -38.11          78.28  330.87
J15        61.12   59.91    5.75          81.79    8.01   86.28          86.65   84.70
J16         2.92    3.04    2.59          20.19   -0.15   -0.68           0.71  258.03
J17        24.55   14.03    2.86          44.27   57.14   38.72          69.02   34.12
J18        10.45   19.73    4.90          51.53  -52.72   38.41          65.23  143.92
J19         7.66    5.03   27.17          26.82   30.32  -64.28          71.07  295.26
J20        29.65   38.34   21.91          68.27  -25.76   16.75          30.72  146.96
J21         4.14    7.78    1.42          33.52  -38.30   33.81          51.09  138.56
J22         1.32    2.09    0.93          15.95  -18.16   10.24          20.85  150.60
K1          5.09    4.28    5.07          24.57   12.64   -8.98          15.51  324.60
K2          6.30    4.29    7.11          24.59   26.40  -18.34          32.15  325.22
K3          7.62    4.31    9.62          24.67   39.27  -27.57          47.98  324.93
K4          9.45    4.44   13.21          25.06   53.56  -37.79          65.55  324.80
K5         15.54   14.12   14.44          44.41   11.70   -7.71          14.01  326.63
K6         17.73   14.29   17.97          44.65   22.91  -15.75          27.80  325.49
K7         20.17   14.43   21.96          44.85   34.55  -23.74          41.92  325.50
K8         26.21   14.48   33.64          44.91   61.35  -43.28          75.08  324.80
K9         41.16   40.35   36.34          69.72    7.02   -4.36           8.27  328.12
K10        43.67   40.64   39.97          69.92   13.63   -8.93          16.30  326.76
K11        45.94   40.50   43.90          69.83   20.59  -14.08          24.94  325.64
K12        52.31   41.00   53.63          70.17   36.36  -24.66          43.94  325.86
K13        16.08   25.50   45.97          57.56  -41.86  -37.74          56.36  222.03
K14        27.92   13.63   29.78          43.70   73.47  -39.46          83.39  331.76
K15        58.46   55.95    3.70          79.59   11.18   93.76          94.43   83.20
K16         1.43    1.48    1.24          12.49    0.02   -0.21           0.23  284.46
K17        20.98   11.06    1.39          39.68   60.75   44.70          75.43   36.34
K18         7.46   15.40    2.97          46.17  -54.90   41.17          68.62  143.13
K19         5.43    2.90   22.56          19.64   37.98  -68.36          78.20  299.06
K20         2.32    3.03    1.90          20.15  -11.42    5.45          12.66  154.50
K21         1.34    1.80    1.55          14.40  -10.95   -0.72          10.97  183.79
K22         1.65    2.12    2.87          16.10   -9.56   -9.93          13.79  226.08
L1          3.56    2.92    2.69          19.71   12.55   -2.33          12.77  349.50
L2          4.42    2.93    2.99          19.77   24.73   -4.53          25.14  349.64
L3          5.54    3.04    3.36          20.20   36.92   -6.37          37.47  350.22
L4          6.33    3.36    3.72          21.42   40.41   -6.65          40.95  350.65
L5         12.70   10.84    9.73          39.31   15.99   -2.72          16.22  350.36
L6         15.42   11.02   10.66          39.61   31.68   -5.20          32.10  350.69
L7         18.38   11.12   11.66          39.78   47.32   -8.00          47.99  350.40
L8         23.08   11.51   12.92          40.43   67.20  -10.51          68.02  351.11
L9         41.28   39.98   33.83          69.46    8.49   -1.22           8.58  351.79
L10        44.24   40.44   35.17          69.78   15.91   -2.61          16.12  350.68
L11        46.75   40.57   36.02          69.87   22.66   -3.66          22.95  350.82
L12        50.57   40.82   37.30          70.05   32.33   -5.13          32.73  350.98
L13        12.02   19.72   39.86          51.52  -41.23  -40.51          57.80  224.50
L14        23.45   10.44   24.69          38.63   76.63  -39.58          86.25  332.68
L15        53.25   48.99    2.11          75.45   16.06   98.74         100.04   80.76
L16         0.50    0.52    0.45           4.71   -0.15   -0.39           0.42  248.58
L17        16.95    8.29    0.54          34.58   62.08   49.48          79.38   38.55
L18         4.34   10.09    1.51          38.00  -54.86   40.36          68.11  143.66
L19         3.58    1.45   17.03          12.30   44.84  -69.41          82.63  302.86
L20         0.70    0.76    0.80           6.91   -1.24   -3.13           3.37  248.34
L21         0.96    0.90    1.00           8.14    3.38   -4.32           5.49  308.09
L22         1.96    1.57    1.36          13.05   11.38   -0.78          11.41  356.08
GS0        79.72   82.83   69.73          92.94   -0.29   -1.25           1.28  256.63
GS1        69.03   71.37   58.49          87.66    0.47    0.41           0.64   40.39
