targets/wolf_faust/reflective/R120505WhiteBacking.it8
IT8.7/2
ORIGINATOR "Wolf Faust"
DESCRIPTOR "Kodak Professional Paper, L* a* b* (light D50, viewing angle 2)"
MANUFACTURER "Wolf Faust - http://www.coloraid.de"
CREATED "July 05, 2012"
PROD_DATE "2012:05"
SAMPLE_BACKING "white"
SERIAL "5x7 R120505 Batch Average Data"
MATERIAL "Kodak Professional Ultra Endura"
NUMBER_OF_FIELDS 9
BEGIN_DATA_FORMAT
SAMPLE_ID  XYZ_X   XYZ_Y   XYZ_Z          LAB_L   LAB_A   LAB_B          LAB_C   LAB_H
END_DATA_FORMAT
NUMBER_OF_SETS 288
BEGIN_DATA
A1          3.28    2.79    1.94          19.19   10.33    3.37          10.86   18.07
A2          4.22    2.89    1.63          19.61   22.72    7.39          23.89   18.01 
A3          5.22    2.98    1.38          19.98   34.07   10.87          35.76   17.70
A4          5.63    3.16    1.47          20.67   35.86   10.96          37.50   16.99 
A5         12.32   10.78    7.61          39.21   13.88    4.82          14.70   19.16
A6         15.00   11.08    6.77          39.72   28.72    9.18          30.15   17.72 
A7         17.66   11.29    5.88          40.06   42.33   13.73          44.50   17.97
A8         21.51   11.58    4.93          40.54   59.57   19.27          62.61   17.92 
A9         41.97   41.35   32.01          70.42    6.44    3.14           7.17   25.99
A10        44.41   41.38   30.51          70.44   13.54    5.50          14.61   22.10
A11        46.71   41.30   28.89          70.39   20.34    7.98          21.85   21.43
A12        49.10   41.43   28.64          70.47   26.53    8.54          27.87   17.84 
A13        77.23   81.66   67.51          92.43   -3.00   -0.11           3.01  182.10
A14        78.19   80.53   66.89          91.92    1.09   -0.41           1.17  339.59 
A15        78.76   82.43   63.49          92.77   -1.42    4.26           4.49  108.39
A16        78.78   81.96   65.28          92.56   -0.50    2.20           2.26  102.77
A17        76.36   78.62   61.16          91.06    1.11    3.60           3.77   72.84
A18        77.19   81.41   64.03          92.31   -2.59    2.96           3.94  131.21 
A19        76.75   80.07   66.92          91.71   -0.91   -0.79           1.21  220.81
A20         1.32    1.09    0.77           9.72    8.62    2.26           8.91   14.67 
A21         5.27    3.37    0.81          21.46   28.30   21.71          35.67   37.50
A22        10.36    5.92    0.89          29.22   42.75   33.81          54.50   38.34
B1          3.22    2.83    1.57          19.36    8.57    7.61          11.46   41.61
B2          3.73    2.80    1.00          19.24   17.20   14.79          22.68   40.69
B3          4.47    2.93    0.65          19.77   25.49   21.75          33.51   40.48
B4          5.23    3.21    0.55          20.85   30.44   25.59          39.76   40.05
B5         12.43   10.76    5.53          39.17   14.78   13.89          20.29   43.21
B6         14.70   11.07    3.81          39.69   27.05   24.27          36.34   41.90
B7         17.40   11.32    2.32          40.12   40.66   35.96          54.28   41.50
B8         20.82   11.50    1.12          40.41   56.81   49.56          75.39   41.10
B9         41.56   41.18   29.80          70.30    5.71    6.36           8.56   48.06
B10        43.94   41.40   26.56          70.46   12.11   12.00          17.05   44.73
B11        46.31   41.50   23.36          70.53   18.61   17.86          25.80   43.82
B12        48.17   41.44   21.28          70.48   23.99   21.81          32.43   42.27
B13        70.62   76.92   66.72          90.29   -7.43   -3.07           8.04  202.42
B14        73.66   73.03   64.61          88.46    6.82   -4.23           8.03  328.19
B15        75.99   79.72   54.30          91.56   -1.79   11.49          11.63   98.85
B16        61.77   64.17   51.81          84.06   -0.25    1.26           1.29  101.18
B17        69.84   69.38   52.22          86.69    6.40    5.35           8.34   39.91
B18        67.19   73.65   53.91          88.75   -8.25    7.07          10.87  139.39
B19        65.23   67.44   63.81          85.72    0.46   -8.19           8.20  273.17
B20         2.74    1.99    0.75          15.43   17.02   12.48          21.11   36.24
B21         8.56    5.04    0.83          26.85   38.34   30.67          49.10   38.66
B22        29.76   25.28   11.69          57.35   21.76   22.20          31.09   45.57
C1          4.24    4.14    2.16          24.13    3.50    9.85          10.46   70.41
C2          4.62    4.20    1.34          24.31    7.87   18.83          20.41   67.31
C3          4.91    4.19    0.77          24.30   11.67   27.40          29.78   66.93
C4          5.59    4.68    0.72          25.80   13.31   30.96          33.70   66.74
C5         23.30   22.34   10.36          54.38    8.08   21.19          22.68   69.13
C6         25.99   22.85    5.45          54.92   17.29   41.41          44.88   67.34
C7         28.49   23.07    2.34          55.14   26.40   61.68          67.09   66.83
C8         30.11   23.21    1.20          55.28   31.95   74.15          80.74   66.69
C9         48.93   49.41   33.14          75.71    3.52   10.56          11.14   71.55
C10        50.50   49.25   26.98          75.61    8.18   20.16          21.76   67.91
C11        52.02   49.27   21.76          75.62   12.13   29.71          32.09   67.79
C12        53.34   49.35   18.63          75.67   15.32   36.27          39.38   67.10
C13        61.75   70.31   65.73          87.15  -13.62   -7.55          15.57  208.99
C14        68.04   64.02   61.57          83.98   14.20   -9.03          16.83  327.56
C15        73.02   76.65   44.23          90.16   -1.84   20.57          20.65   95.10
C16        47.67   49.62   40.02          75.83   -0.49    1.20           1.30  112.58
C17        61.79   58.53   40.90          81.03   12.84    9.02          15.69   35.10
C18        56.04   64.57   43.56          84.26  -14.88   11.22          18.64  142.98
C19        52.99   54.35   59.98          78.67    1.49  -16.60          16.67  275.13
C20         1.63    1.41    0.72          12.00    7.71    7.01          10.42   42.28
C21        23.66   17.83    4.67          49.29   31.62   35.80          47.77   48.55
C22        35.66   32.42   17.21          63.68   15.42   18.78          24.30   50.60
D1          4.03    4.25    2.20          24.49   -1.02   10.11          10.16   95.77
D2          3.97    4.21    1.40          24.34   -1.22   18.16          18.21   93.84
D3          3.93    4.21    0.79          24.34   -1.83   27.06          27.12   93.87
D4          4.52    4.84    0.80          26.28   -1.90   30.29          30.35   93.59
D5         26.44   27.71   13.57          59.63   -1.13   20.81          20.84   93.12
D6         26.57   27.81    7.34          59.71   -0.99   41.25          41.26   91.37
D7         26.19   27.78    3.62          59.69   -2.43   59.94          59.99   92.33
D8         26.22   27.99    1.59          59.88   -3.16   77.26          77.32   92.34
D9         55.90   58.06   38.78          80.77   -0.20   11.35          11.36   91.01
D10        55.44   57.87   30.71          80.67   -0.89   22.81          22.83   92.23
D11        55.41   57.83   24.65          80.65   -0.89   32.93          32.95   91.54
D12        55.01   57.90   11.87          80.68   -2.05   61.90          61.93   91.89
D13        53.44   63.65   64.50          83.79  -19.39  -12.19          22.90  212.16
D14        61.93   54.77   57.92          78.91   22.31  -14.11          26.40  327.70
D15        70.13   73.43   35.26          88.65   -1.43   29.79          29.83   92.76
D16        36.00   37.44   30.52          67.60   -0.32    0.58           0.68  119.31
D17        54.31   48.66   31.46          75.24   19.64   12.29          23.17   32.03
D18        46.05   55.93   34.47          79.57  -21.13   15.28          26.08  144.12
D19        42.21   42.54   55.58          71.24    3.61  -24.90          25.16  278.24
D20        14.08   10.71    2.73          39.09   25.83   30.75          40.16   49.97
D21        21.81   21.12   11.47          53.08    6.84   15.52          16.96   66.20
D22        39.23   37.36   19.80          67.54   10.38   19.77          22.33   62.29
E1          3.62    4.18    2.22          24.25   -6.10    9.45          11.25  122.83
E2          3.32    4.16    1.43          24.19  -10.62   17.60          20.55  121.11
E3          3.02    4.17    0.84          24.24  -15.89   26.07          30.53  121.36
E4          3.20    4.51    0.86          25.29  -17.35   27.57          32.57  122.19
E5         12.40   14.12    7.32          44.41   -8.02   14.95          16.97  118.22
E6         11.20   14.10    4.59          44.37  -16.28   27.75          32.17  120.40
E7         10.05   13.89    2.50          44.08  -23.69   41.28          47.59  119.85
E8          9.10   13.87    1.37          44.05  -31.16   52.48          61.04  120.70
E9         37.99   40.95   28.13          70.14   -4.75    8.81          10.01  118.34
E10        36.59   40.97   23.56          70.16   -9.39   16.86          19.30  119.12
E11        35.31   40.84   19.46          70.07  -13.25   24.82          28.14  118.10
E12        32.03   40.95   11.41          70.14  -25.02   45.12          51.59  119.01
E13        45.47   56.80   62.88          80.06  -24.89  -17.04          30.17  214.40
E14        56.13   46.51   54.10          73.88   30.08  -18.78          35.46  328.02
E15        67.39   70.17   27.41          87.08   -0.60   39.21          39.22   90.88
E16        26.60   27.74   22.42          59.65   -0.62    0.91           1.11  124.25
E17        47.61   40.29   23.44          69.68   25.89   16.24          30.57   32.10
E18        36.88   47.52   26.24          74.52  -27.23   19.57          33.53  144.30
E19        33.05   32.56   50.88          63.81    5.91  -32.63          33.16  280.27
E20        25.17   17.29    1.27          48.62   41.04   61.73          74.12   56.38
E21        17.39   14.38    2.67          44.77   20.56   41.08          45.93   63.41
E22        30.08   25.84    8.04          57.89   20.62   35.36          40.94   59.75
F1          1.43    1.84    1.27          14.60   -9.02    3.06           9.52  161.26
F2          1.12    1.82    1.06          14.51  -18.44    5.79          19.33  162.58
F3          0.94    1.97    1.01          15.33  -28.15    7.90          29.23  164.33
F4          1.04    2.23    1.08          16.67  -30.40    9.25          31.78  163.07
F5          6.49    8.22    5.62          34.45  -14.10    5.31          15.07  159.35
F6          5.27    8.11    4.76          34.21  -26.69    9.26          28.26  160.86
F7          4.16    8.05    4.00          34.08  -40.47   13.43          42.64  161.65
F8          3.09    7.97    3.11          33.92  -56.31   19.02          59.44  161.33
F9         37.85   41.23   32.04          70.33   -6.03    2.94           6.71  154.01
F10        35.84   41.03   30.58          70.19  -12.03    4.96          13.01  157.61
F11        33.75   40.55   29.24          69.86  -17.71    6.50          18.87  159.84
F12        28.83   40.39   25.56          69.75  -35.24   12.53          37.40  160.43
F13        38.55   50.41   60.98          76.32  -29.59  -21.65          36.66  216.19
F14        50.26   38.66   49.87          68.50   38.15  -23.40          44.75  328.48
F15        65.05   67.14   20.79          85.57    0.71   48.82          48.82   89.16
F16        18.93   19.74   15.92          51.54   -0.52    0.89           1.04  120.84
F17        41.45   32.82   16.78          64.02   32.44   20.35          38.29   32.11
F18        29.33   40.18   19.50          69.60  -32.69   23.95          40.53  143.78
F19        25.41   24.13   45.98          56.21    9.30  -40.07          41.14  283.06
F20        26.10   25.08   11.42          57.15    8.11   22.69          24.10   70.33
F21        34.12   30.98   10.48          62.49   15.36   34.80          38.03   66.18
F22        38.75   36.16   15.24          66.64   12.77   28.59          31.31   65.94
G1          2.25    2.88    2.58          19.55  -10.42   -1.69          10.56  189.23
G2          1.80    2.85    2.75          19.45  -20.23   -3.23          20.49  189.08
G3          1.54    3.02    3.33          20.13  -29.72   -6.33          30.38  192.03
G4          1.65    3.31    3.52          21.26  -31.73   -5.64          32.22  190.08
G5          8.71   10.79    9.41          39.22  -13.72   -1.76          13.84  187.32
G6          7.43   10.78   10.05          39.20  -25.15   -3.95          25.46  188.93
G7          6.09   10.68   10.80          39.03  -38.09   -6.65          38.67  189.90
G8          4.74   10.51   11.38          38.74  -52.76   -8.96          53.52  189.64
G9         37.69   41.23   33.92          70.33   -6.54    0.15           6.54  178.67
G10        35.13   40.68   34.72          69.95  -13.36   -1.68          13.46  187.18
G11        33.37   40.68   35.45          69.95  -19.42   -2.71          19.61  187.94
G12        28.30   40.47   37.48          69.80  -37.53   -5.80          37.98  188.79
G13        32.24   44.18   58.77          72.35  -33.78  -26.28          42.79  217.88
G14        44.81   31.84   45.64          63.21   45.87  -27.59          53.53  328.97
G15        63.01   64.24   15.18          84.09    2.45   58.82          58.87   87.61
G16        12.77   13.38   10.79          43.32   -0.85    0.77           1.17  138.91
G17        35.94   26.45   11.49          58.46   38.89   24.70          46.07   32.42
G18        22.78   33.47   14.13          64.54  -38.06   27.81          47.14  143.85
G19        18.97   17.13   41.01          48.42   13.13  -47.35          49.14  285.49
G20        36.02   34.63   14.13          65.46    8.98   29.39          30.73   73.00
G21        35.15   33.51    9.10          64.57    9.88   43.03          44.15   77.07
G22        47.38   43.54    2.77          71.92   15.61   87.03          88.42   79.83
H1          2.44    2.87    3.20          19.53   -6.43   -6.46           9.12  225.08
H2          2.13    2.88    4.24          19.54  -12.86  -13.09          18.35  225.51
H3          1.84    2.80    5.49          19.22  -18.18  -20.30          27.25  228.15
H4          2.05    3.24    6.57          20.98  -20.77  -22.27          30.45  226.98
H5          9.44   10.97   11.59          39.54   -8.92   -8.20          12.12  222.56
H6          8.42   10.85   14.99          39.33  -16.63  -17.89          24.43  227.09
H7          7.49   10.77   18.73          39.19  -24.56  -26.83          36.38  227.53
H8          6.57   10.65   24.04          38.98  -32.76  -37.79          50.01  229.07
H9         38.12   41.15   37.17          70.28   -4.94   -4.55           6.72  222.58
H10        36.69   41.00   40.35          70.18   -9.13   -8.98          12.81  224.54
H11        35.30   40.98   45.17          70.16  -13.72  -15.05          20.37  227.63
H12        32.07   40.94   56.96          70.13  -24.83  -28.25          37.61  228.68
H13        27.08   38.74   56.38          68.56  -37.07  -30.36          47.92  219.32
H14        39.35   25.49   41.06          57.55   53.82  -31.67          62.45  329.53
H15        61.26   61.61   10.99          82.70    4.38   68.03          68.17   86.32
H16         8.28    8.62    7.01          35.23   -0.27    0.41           0.52  126.54
H17        31.08   21.12    7.59          53.08   45.08   28.82          53.51   32.59
H18        17.56   27.77    9.96          59.68  -42.81   31.65          53.24  143.52
H19        13.94   11.62   36.13          40.61   18.44  -54.26          57.31  288.77
H20        41.52   41.99   15.14          70.87    3.16   36.13          36.27   85.01
H21        30.89   32.01   19.86          63.35    0.07   12.42          12.42   89.68
H22        35.05   38.21   10.96          68.17   -5.99   43.08          43.49   97.91
I1          4.13    4.30    5.59          24.64   -0.22  -11.46          11.46  268.90
I2          4.18    4.28    8.49          24.58    0.70  -23.76          23.77  271.70
I3          4.22    4.29   11.70          24.62    1.07  -34.24          34.25  271.78
I4          4.24    4.08   19.02          23.93    4.35  -53.78          53.96  274.63
I5         13.86   14.41   14.91          44.81   -0.17   -8.22           8.22  268.82
I6         14.00   14.42   19.31          44.83    0.57  -18.37          18.38  271.78
I7         13.84   14.21   23.51          44.53    0.89  -27.23          27.25  271.87
I8         14.31   14.32   39.38          44.69    3.13  -51.66          51.75  273.47
I9         39.44   40.86   36.87          70.08    0.14   -4.48           4.48  271.71
I10        39.52   40.90   40.28          70.11    0.25   -9.01           9.01  271.57
I11        39.75   41.19   44.91          70.31    0.09  -14.48          14.48  270.35
I12        40.11   41.25   55.29          70.35    1.05  -26.13          26.15  272.31
I13        22.37   33.41   53.58          64.49  -39.70  -34.41          52.53  220.92
I14        34.85   20.67   37.02          52.59   60.52  -34.85          69.84  330.07
I15        59.64   59.04    7.70          81.31    6.56   77.07          77.35   85.14
I16         4.97    5.22    4.30          27.36   -0.82    0.06           0.86  177.63
I17        26.99   16.97    4.68          48.22   50.26   33.89          60.62   33.99
I18        13.04   22.51    6.77          54.56  -47.51   34.74          58.86  143.83
I19        10.09    7.57   31.58          33.08   24.05  -60.59          65.19  291.65
I20        41.86   45.89   15.50          73.47   -7.06   39.73          40.35  100.08
I21        10.50   14.19    3.36          44.51  -22.07   35.55          41.85  121.84
I22        27.80   35.97   16.72          66.50  -25.28   24.76          35.39  135.59
J1          2.08    1.89    2.90          14.88    6.00  -12.25          13.64  296.08
J2          2.35    1.84    4.78          14.62   12.88  -24.57          27.74  297.66
J3          2.71    1.84    7.67          14.62   19.97  -37.81          42.76  297.84
J4          4.03    1.94   19.91          15.16   39.20  -70.77          80.90  298.98
J5         11.37   11.12   12.06          39.77    4.77   -9.18          10.34  297.47
J6         12.33   11.28   15.81          40.04   10.33  -18.67          21.33  298.95
J7         12.77   10.98   19.84          39.54   15.45  -28.60          32.50  298.38
J8         15.17   11.13   34.79          39.81   29.35  -53.75          61.24  298.64
J9         40.33   40.93   37.19          70.12    2.71   -4.86           5.56  299.18
J10        41.65   41.45   40.69          70.49    5.17   -8.88          10.28  300.18
J11        42.85   41.73   44.95          70.68    7.94  -13.89          16.00  299.76
J12        44.60   41.48   54.13          70.51   13.78  -24.62          28.22  299.23
J13        18.54   28.72   50.63          60.53  -41.31  -37.99          56.12  222.60
J14        30.36   16.33   32.70          47.41   66.85  -37.58          76.69  330.66
J15        57.90   56.20    4.97          79.73    9.22   86.66          87.14   83.93
J16         2.73    2.88    2.33          19.54   -0.75    0.40           0.87  152.89
J17        23.14   13.38    2.55          43.33   54.96   39.53          67.70   35.73
J18         9.49   17.94    4.22          49.42  -51.12   38.59          64.05  142.95
J19         7.22    4.60   27.05          25.56   31.63  -66.24          73.41  295.52
J20        29.69   38.42   22.00          68.33  -25.87   16.67          30.78  147.20
J21         4.05    7.72    1.46          33.39  -39.14   32.99          51.19  139.88
J22         1.24    2.03    0.92          15.65  -19.19    9.91          21.60  152.68
K1          5.10    4.32    5.11          24.71   12.25   -8.92          15.16  323.93
K2          6.53    4.46    7.20          25.15   26.40  -17.75          31.81  326.08
K3          7.82    4.46    9.67          25.13   39.15  -26.96          47.54  325.45
K4          9.20    4.51   12.37          25.30   50.44  -35.02          61.41  325.23
K5         15.89   14.49   14.68          44.93   11.48   -7.43          13.68  327.08
K6         18.03   14.61   18.15          45.10   22.54  -15.37          27.28  325.71
K7         20.26   14.61   21.90          45.09   33.92  -23.20          41.10  325.63
K8         26.69   15.00   33.10          45.63   60.19  -41.24          72.97  325.58
K9         42.06   41.43   36.73          70.48    6.47   -3.60           7.41  330.90
K10        44.32   41.45   40.10          70.49   13.09   -8.13          15.41  328.17
K11        46.88   41.77   43.94          70.71   19.42  -12.61          23.15  327.00
K12        52.43   42.31   52.11          71.08   32.76  -21.45          39.16  326.79
K13        15.22   24.29   47.15          56.37  -41.74  -41.18          58.63  224.62
K14        26.37   12.89   28.57          42.60   71.94  -39.39          82.01  331.30
K15        56.04   53.27    3.16          78.03   11.94   94.70          95.45   82.81
K16         1.33    1.41    1.15          12.03   -0.88    0.19           0.92  169.22
K17        19.76   10.56    1.27          38.83   58.41   44.78          73.60   37.47
K18         6.67   13.89    2.55          44.08  -53.74   40.80          67.48  142.80
K19         5.26    2.70   22.84          18.82   39.51  -70.31          80.65  299.33
K20         2.29    3.05    1.86          20.23  -12.43    6.02          13.81  154.14
K21         1.28    1.78    1.47          14.28  -12.14    0.03          12.14  179.87
K22         1.60    2.12    2.73          16.08  -10.77   -8.87          13.96  219.46
L1          3.58    2.97    2.68          19.91   11.96   -1.92          12.11  350.87
L2          4.49    2.98    2.92          19.96   24.85   -3.64          25.12  351.67
L3          5.86    3.28    3.43          21.14   36.53   -5.23          36.91  351.86
L4          6.34    3.48    3.66          21.87   38.55   -5.53          38.95  351.84
L5         13.24   11.42    9.90          40.28   15.39   -1.61          15.48  354.05
L6         15.86   11.44   10.79          40.32   31.21   -4.40          31.52  351.97
L7         18.87   11.46   11.75          40.34   47.47   -7.29          48.02  351.27
L8         22.79   11.75   12.84          40.82   64.22   -9.59          64.93  351.51
L9         42.57   41.49   34.68          70.52    7.81   -0.64           7.84  355.32
L10        45.32   41.88   35.50          70.79   14.65   -1.34          14.71  354.77
L11        48.05   42.07   36.63          70.92   21.76   -2.71          21.93  352.89
L12        50.40   41.62   37.36          70.61   29.45   -4.24          29.75  351.81
L13        11.48   18.73   41.58          50.37  -40.07  -44.72          60.04  228.14
L14        22.49   10.03   24.25          37.90   75.43  -40.03          85.39  332.05
L15        53.05   49.11    1.85          75.52   15.24  101.41         102.55   81.45
L16         0.46    0.51    0.47           4.61   -1.49   -0.85           1.72  209.78
L17        16.33    8.09    0.53          34.16   60.42   48.98          77.78   39.03
L18         3.87    9.32    1.34          36.59  -55.41   40.04          68.36  144.15
L19         3.68    1.43   18.11          12.17   46.98  -72.07          86.03  303.10
L20         0.68    0.77    0.79           6.94   -2.31   -2.93           3.74  231.64
L21         0.95    0.92    0.97           8.29    2.49   -3.57           4.36  304.92
L22         1.93    1.57    1.33          13.04   10.61   -0.45          10.62  357.57
GS0        79.95   83.52   67.66          93.24   -1.14    1.16           1.63  134.55
GS1        70.09   72.83   58.63          88.37   -0.29    1.48           1.51  100.91
GS2        62.24   64.61   52.10          84.28   -0.12    1.32           1.33   95.16
