targets/wolf_faust/reflective/R120804.it8
IT8.7/2
ORIGINATOR "Wolf Faust"
DESCRIPTOR "FUJICOLOR Crystal Archive Paper, L* a* b* (light D50, viewing angle 2)"
MANUFACTURER "Wolf Faust - http://www.coloraid.de"
CREATED "February 04, 2013"
PROD_DATE "2012:08"
SAMPLE_BACKING "black"
SERIAL "5x7 R120804 Batch Average Data"
MATERIAL "FUJICOLOR Crystal Archive DP II Paper"
KEYWORD "MEAN_DE" # Mean Delta E of samples compared to batch average
NUMBER_OF_FIELDS 18
BEGIN_DATA_FORMAT
SAMPLE_ID  XYZ_X   XYZ_Y   XYZ_Z          LAB_L   LAB_A   LAB_B          LAB_C   LAB_H          D_RED  D_GREEN  D_BLUE  D_VIS          STDEV_X STDEV_Y STDEV_Z        MEAN_DE  STDEV_DE
END_DATA_FORMAT
NUMBER_OF_SETS 288
BEGIN_DATA
A1          3.42    2.89    1.96          19.60   10.87    3.93          11.56   19.90           1.33    1.65    1.59    1.50            0.04    0.05    0.04           0.31     0.35
A2          4.32    2.91    1.65          19.68   23.80    7.30          24.90   17.04           1.18    1.84    1.67    1.46            0.08    0.06    0.04           0.26     0.30 
A3          5.20    2.92    1.37          19.73   34.90   10.63          36.48   16.94           1.08    2.09    1.76    1.42            0.05    0.03    0.02           0.24     0.29
A4          5.84    3.20    1.41          20.84   37.52   12.04          39.41   17.79           1.02    2.10    1.75    1.38            0.05    0.04    0.03           0.22     0.28 
A5         12.50   10.84    7.79          39.32   14.61    4.32          15.24   16.48           0.79    1.06    1.01    0.94            0.16    0.16    0.13           0.26     0.32
A6         14.63   10.78    6.76          39.21   28.71    8.33          29.90   16.17           0.68    1.17    1.07    0.91            0.18    0.13    0.10           0.33     0.38 
A7         17.21   10.94    6.01          39.47   42.40   12.14          44.11   15.98           0.58    1.31    1.13    0.87            0.19    0.12    0.09           0.30     0.35
A8         21.49   11.39    4.99          40.24   60.75   18.45          63.49   16.89           0.49    1.57    1.22    0.82            0.07    0.05    0.07           0.22     0.29 
A9         39.88   39.13   30.35          68.84    6.82    2.99           7.45   23.67           0.34    0.43    0.43    0.40            0.40    0.47    0.48           0.41     0.47
A10        42.58   39.68   29.92          69.24   13.34    4.35          14.04   18.05           0.30    0.45    0.44    0.38            0.39    0.42    0.52           0.42     0.53
A11        45.09   39.76   28.59          69.30   20.41    6.61          21.46   17.93           0.25    0.48    0.46    0.37            0.36    0.40    0.56           0.42     0.58
A12        48.09   39.99   27.30          69.46   28.14    9.03          29.56   17.79           0.21    0.51    0.48    0.36            0.34    0.41    0.51           0.40     0.56 
A13        74.72   78.85   67.18          91.16   -2.66   -1.98           3.32  216.62           0.12    0.09    0.09    0.11            0.17    0.17    0.11           0.08     0.10
A14        76.25   78.12   66.76          90.84    1.86   -2.15           2.85  310.86           0.10    0.11    0.10    0.11            0.09    0.14    0.12           0.10     0.12 
A15        77.05   80.36   63.39          91.85   -0.88    2.77           2.91  107.60           0.10    0.09    0.12    0.09            0.11    0.11    0.20           0.14     0.18
A16        77.08   80.00   65.41          91.69   -0.12    0.57           0.59  101.66           0.10    0.10    0.11    0.10            0.13    0.12    0.20           0.10     0.13
A17        75.24   77.30   62.41          90.46    1.45    1.33           1.97   42.53           0.10    0.12    0.13    0.11            0.16    0.19    0.29           0.16     0.20
A18        75.24   79.16   63.83          91.31   -2.20    1.42           2.62  147.26           0.11    0.10    0.12    0.10            0.19    0.20    0.22           0.15     0.19 
A19        74.46   77.20   66.71          90.41    0.05   -2.84           2.84  271.04           0.12    0.11    0.10    0.11            0.16    0.17    0.18           0.12     0.14
A20         1.32    1.09    0.71           9.69    9.01    3.24           9.58   19.80           1.74    2.10    2.02    1.92            0.01    0.01    0.01           0.14     0.17 
A21         5.15    3.29    0.75          21.16   28.11   22.35          35.91   38.49           1.08    1.87    1.99    1.39            0.06    0.04    0.01           0.26     0.29
A22        10.14    5.80    0.82          28.90   42.47   34.36          54.63   38.98           0.78    1.80    1.95    1.12            0.07    0.05    0.02           0.24     0.30
B1          3.29    2.91    1.54          19.68    8.35    8.50          11.92   45.49           1.35    1.63    1.68    1.50            0.04    0.05    0.02           0.30     0.34
B2          3.81    2.86    0.95          19.46   17.47   15.99          23.68   42.46           1.24    1.76    1.88    1.48            0.05    0.03    0.01           0.23     0.27
B3          4.52    2.97    0.64          19.93   25.48   22.26          33.83   41.15           1.14    1.89    2.05    1.44            0.05    0.03    0.02           0.37     0.44
B4          4.90    3.17    0.63          20.72   26.86   23.80          35.89   41.54           1.10    1.88    2.06    1.41            0.06    0.03    0.01           0.30     0.37
B5         12.65   10.96    5.69          39.51   14.78   13.69          20.14   42.81           0.77    1.06    1.14    0.92            0.13    0.14    0.07           0.42     0.49
B6         14.55   10.91    3.78          39.43   27.27   23.99          36.33   41.34           0.66    1.17    1.30    0.90            0.14    0.13    0.06           0.36     0.42
B7         17.00   11.02    2.18          39.61   40.68   36.28          54.51   41.73           0.57    1.32    1.53    0.87            0.16    0.14    0.06           0.36     0.41
B8         20.60   11.17    0.97          39.87   58.06   50.91          77.22   41.24           0.49    1.59    1.87    0.82            0.06    0.05    0.01           0.11     0.14
B9         39.82   39.35   28.25          69.00    5.94    6.65           8.92   48.26           0.34    0.43    0.46    0.40            0.30    0.36    0.38           0.35     0.40
B10        42.08   39.57   25.78          69.16   12.18   11.12          16.49   42.40           0.29    0.45    0.50    0.38            0.39    0.42    0.39           0.36     0.41
B11        44.20   39.60   22.75          69.18   18.36   16.70          24.82   42.28           0.25    0.48    0.55    0.37            0.38    0.41    0.41           0.41     0.49
B12        47.03   39.71   19.81          69.26   26.07   22.71          34.58   41.05           0.21    0.51    0.61    0.36            0.32    0.41    0.30           0.45     0.53
B13        70.49   75.86   66.46          89.79   -5.58   -3.68           6.69  213.36           0.16    0.10    0.10    0.13            0.19    0.16    0.20           0.20     0.24
B14        72.73   72.24   64.97          88.09    6.50   -5.21           8.33  321.26           0.11    0.15    0.11    0.14            0.09    0.20    0.18           0.28     0.32
B15        75.34   78.96   56.01          91.21   -1.61    9.09           9.23  100.03           0.10    0.10    0.17    0.10            0.15    0.14    0.43           0.27     0.36
B16        62.87   65.21   53.27          84.59   -0.01    0.58           0.58   90.71           0.18    0.19    0.19    0.19            0.33    0.35    0.42           0.20     0.25
B17        70.07   69.98   54.14          86.99    5.62    3.78           6.77   33.93           0.11    0.17    0.19    0.15            0.28    0.36    0.46           0.25     0.34
B18        67.71   73.75   55.04          88.80   -7.32    5.96           9.43  140.86           0.16    0.12    0.18    0.14            0.27    0.23    0.30           0.23     0.27
B19        65.72   67.64   64.23          85.83    1.12   -8.41           8.49  277.59           0.18    0.17    0.12    0.17            0.34    0.36    0.16           0.22     0.29
B20         2.81    2.04    0.71          15.69   17.33   13.74          22.12   38.41           1.37    1.94    2.02    1.62            0.03    0.02    0.01           0.21     0.26
B21         8.41    4.92    0.77          26.51   38.47   31.23          49.55   39.06           0.86    1.83    1.98    1.20            0.08    0.05    0.02           0.24     0.29
B22        28.87   24.56   11.77          56.65   21.36   20.76          29.78   44.18           0.41    0.72    0.83    0.57            0.24    0.21    0.11           0.21     0.27
C1          4.38    4.24    2.18          24.44    4.13   10.12          10.93   67.80           1.25    1.42    1.53    1.35            0.04    0.03    0.02           0.28     0.32
C2          4.64    4.23    1.32          24.40    7.71   19.24          20.73   68.16           1.20    1.46    1.73    1.34            0.05    0.05    0.03           0.26     0.30
C3          5.25    4.48    0.82          25.20   11.93   28.09          30.52   66.99           1.12    1.49    1.93    1.30            0.06    0.06    0.01           0.40     0.46
C4          5.57    4.75    0.82          26.02   12.20   29.46          31.89   67.50           1.09    1.46    1.93    1.27            0.06    0.05    0.01           0.38     0.43
C5         23.37   22.32   10.22          54.36    8.48   21.62          23.22   68.58           0.53    0.71    0.88    0.63            0.26    0.27    0.18           0.34     0.41
C6         25.11   22.09    5.41          54.12   17.06   40.27          43.74   67.04           0.46    0.77    1.14    0.61            0.29    0.30    0.09           0.38     0.43
C7         27.80   22.60    2.33          54.66   25.73   60.91          66.12   67.10           0.40    0.82    1.48    0.59            0.16    0.16    0.01           0.25     0.34
C8         28.66   22.44    1.40          54.49   29.84   70.09          76.17   66.94           0.38    0.86    1.69    0.58            0.21    0.19    0.02           0.37     0.43
C9         46.72   47.01   31.61          74.19    3.95   10.27          11.00   68.95           0.28    0.35    0.41    0.32            0.39    0.42    0.41           0.32     0.38
C10        48.19   47.06   26.41          74.23    7.86   18.76          20.34   67.27           0.24    0.37    0.49    0.31            0.39    0.47    0.57           0.51     0.62
C11        49.75   47.09   21.37          74.25   12.04   28.12          30.59   66.83           0.21    0.39    0.57    0.30            0.30    0.38    0.41           0.39     0.54
C12        51.45   46.57   15.52          73.92   17.98   40.44          44.25   66.03           0.17    0.42    0.70    0.30            0.27    0.40    0.22           0.46     0.55
C13        61.31   69.12   65.12          86.56  -12.12   -7.99          14.52  213.42           0.25    0.12    0.11    0.18            0.24    0.19    0.18           0.20     0.24
C14        67.03   62.90   62.13          83.39   14.53  -10.58          17.98  323.93           0.13    0.23    0.13    0.19            0.28    0.40    0.28           0.33     0.41
C15        73.15   76.98   45.84          90.31   -2.23   18.88          19.02   96.73           0.10    0.12    0.25    0.11            0.19    0.19    0.53           0.36     0.51
C16        48.40   50.31   41.29          76.26   -0.30    0.29           0.43  138.26           0.29    0.30    0.30    0.30            0.53    0.57    0.53           0.33     0.41
C17        62.17   58.90   42.54          81.24   12.81    7.29          14.74   29.61           0.14    0.27    0.29    0.21            0.45    0.56    0.62           0.44     0.55
C18        56.53   65.17   44.36          84.57  -15.03   10.79          18.50  144.34           0.26    0.15    0.27    0.20            0.34    0.30    0.62           0.36     0.55
C19        52.77   53.66   59.94          78.26    2.67  -17.26          17.46  278.78           0.28    0.26    0.15    0.28            0.30    0.35    0.19           0.26     0.31
C20         1.67    1.42    0.68          12.08    8.37    8.04          11.61   43.86           1.64    1.97    2.03    1.81            0.02    0.01    0.01           0.15     0.18
C21        22.72   17.17    4.52          48.47   30.95   35.19          46.87   48.67           0.47    0.97    1.22    0.70            0.23    0.21    0.05           0.29     0.38
C22        34.25   31.08   17.03          62.57   15.44   17.29          23.18   48.24           0.36    0.58    0.67    0.48            0.28    0.32    0.25           0.40     0.46
D1          4.03    4.22    2.21          24.40   -0.64    9.86           9.88   93.72           1.31    1.38    1.53    1.37            0.05    0.06    0.03           0.17     0.23
D2          4.05    4.28    1.38          24.58   -1.08   18.77          18.81   93.30           1.30    1.38    1.71    1.35            0.05    0.06    0.02           0.36     0.42
D3          4.20    4.43    0.89          25.06   -1.04   26.57          26.59   92.25           1.28    1.38    1.89    1.33            0.03    0.03    0.01           0.20     0.24
D4          4.46    4.72    0.91          25.93   -1.19   27.84          27.87   92.45           1.25    1.35    1.88    1.31            0.04    0.05    0.01           0.28     0.34
D5         26.22   27.34   13.48          59.29   -0.60   20.49          20.50   91.67           0.51    0.58    0.77    0.55            0.18    0.27    0.17           0.43     0.51
D6         26.23   27.55    7.30          59.48   -1.40   41.03          41.06   91.95           0.50    0.58    1.01    0.54            0.14    0.18    0.13           0.28     0.37
D7         25.93   27.39    3.49          59.33   -1.96   60.20          60.23   91.87           0.50    0.60    1.31    0.54            0.15    0.16    0.03           0.30     0.35
D8         26.14   27.80    1.84          59.71   -2.74   74.21          74.26   92.11           0.50    0.60    1.58    0.53            0.11    0.11    0.01           0.22     0.26
D9         53.04   55.16   37.08          79.13   -0.39   10.84          10.85   92.08           0.24    0.26    0.34    0.25            0.41    0.45    0.42           0.34     0.42
D10        52.86   55.04   29.44          79.06   -0.55   22.06          22.07   91.44           0.22    0.27    0.44    0.25            0.39    0.44    0.37           0.30     0.36
D11        53.41   55.77   24.27          79.48   -0.93   31.63          31.64   91.69           0.21    0.27    0.52    0.24            0.31    0.36    0.36           0.34     0.45
D12        52.62   55.71    8.30          79.45   -2.81   71.54          71.60   92.25           0.21    0.29    0.95    0.23            0.19    0.15    0.09           0.27     0.31
D13        53.61   62.98   63.64          83.43  -17.42  -11.98          21.14  214.50           0.34    0.14    0.12    0.22            0.22    0.19    0.13           0.16     0.20
D14        61.56   54.37   58.92          78.67   22.46  -15.53          27.31  325.34           0.16    0.32    0.16    0.25            0.28    0.43    0.23           0.42     0.53
D15        71.00   74.74   36.35          89.27   -2.24   29.34          29.42   94.37           0.10    0.14    0.35    0.12            0.16    0.17    0.57           0.58     0.68
D16        36.82   38.27   31.04          68.22   -0.29    0.84           0.90  108.51           0.40    0.42    0.42    0.42            0.39    0.41    0.38           0.33     0.38
D17        54.92   49.27   32.52          75.62   19.54   11.33          22.59   30.11           0.17    0.38    0.40    0.28            0.33    0.40    0.45           0.38     0.46
D18        46.80   57.04   34.48          80.20  -21.72   16.34          27.18  143.05           0.35    0.19    0.37    0.26            0.34    0.30    0.44           0.39     0.46
D19        42.80   42.80   55.72          71.42    4.61  -24.74          25.16  280.55           0.39    0.36    0.18    0.38            0.40    0.42    0.21           0.33     0.43
D20        13.84   10.57    2.71          38.85   25.39   30.54          39.71   50.26           0.68    1.18    1.44    0.91            0.18    0.16    0.05           0.27     0.35
D21        21.36   20.65   11.54          52.56    7.03   14.39          16.02   63.97           0.58    0.73    0.84    0.67            0.31    0.32    0.22           0.37     0.46
D22        38.00   36.23   19.92          66.69   10.15   18.04          20.70   60.63           0.33    0.49    0.61    0.42            0.31    0.35    0.33           0.36     0.44
E1          3.72    4.26    2.32          24.51   -5.65    9.06          10.67  121.95           1.38    1.34    1.50    1.38            0.01    0.02    0.02           0.18     0.20
E2          3.41    4.23    1.42          24.42  -10.16   18.11          20.77  119.30           1.44    1.32    1.70    1.38            0.03    0.03    0.02           0.22     0.27
E3          3.43    4.61    0.95          25.58  -14.83   26.45          30.33  119.28           1.47    1.27    1.85    1.35            0.03    0.05    0.01           0.25     0.30
E4          3.51    4.76    0.99          26.05  -15.57   26.79          30.99  120.17           1.46    1.25    1.84    1.33            0.02    0.03    0.01           0.20     0.24
E5         12.62   14.36    7.70          44.74   -7.94   14.03          16.12  119.52           0.86    0.82    1.00    0.85            0.08    0.10    0.06           0.30     0.37
E6         11.24   14.08    4.53          44.35  -15.85   28.02          32.19  119.49           0.93    0.80    1.21    0.86            0.06    0.08    0.06           0.25     0.29
E7         10.35   14.19    2.46          44.50  -23.19   42.29          48.23  118.74           1.00    0.78    1.45    0.86            0.06    0.06    0.03           0.22     0.27
E8          9.62   14.18    1.59          44.49  -28.85   50.66          58.30  119.65           1.09    0.76    1.63    0.87            0.07    0.09    0.01           0.17     0.20
E9         36.73   39.51   27.35          69.12   -4.45    8.36           9.47  118.03           0.41    0.39    0.47    0.40            0.26    0.33    0.30           0.32     0.41
E10        35.57   39.69   23.31          69.24   -8.83   15.75          18.06  119.28           0.42    0.38    0.54    0.40            0.39    0.44    0.44           0.38     0.46
E11        33.98   39.44   18.95          69.07  -13.50   24.20          27.71  119.16           0.45    0.38    0.62    0.41            0.30    0.34    0.25           0.36     0.44
E12        30.55   39.95    9.71          69.43  -27.37   49.31          56.40  119.03           0.53    0.35    0.89    0.41            0.18    0.20    0.14           0.22     0.28
E13        46.22   56.71   61.73          80.02  -22.56  -16.00          27.66  215.35           0.44    0.17    0.13    0.28            0.20    0.18    0.16           0.13     0.18
E14        55.96   46.22   55.18          73.69   30.50  -20.26          36.62  326.41           0.19    0.42    0.19    0.31            0.21    0.30    0.18           0.36     0.43
E15        69.34   72.78   29.79          88.34   -1.79   37.50          37.55   92.73           0.10    0.16    0.43    0.13            0.15    0.18    0.49           0.42     0.64
E16        27.66   28.69   23.74          60.51   -0.02   -0.12           0.22  193.09           0.53    0.54    0.54    0.54            0.30    0.30    0.31           0.30     0.36
E17        48.44   40.85   25.15          70.07   26.48   13.81          29.87   27.54           0.20    0.49    0.51    0.35            0.31    0.36    0.41           0.46     0.57
E18        38.44   49.58   27.44          75.81  -27.74   19.73          34.04  144.57           0.46    0.24    0.46    0.32            0.24    0.22    0.36           0.39     0.47
E19        33.71   32.83   50.75          64.03    7.29  -32.11          32.92  282.79           0.51    0.47    0.23    0.50            0.17    0.24    0.18           0.32     0.37
E20        24.26   16.69    1.23          47.87   40.34   60.96          73.10   56.50           0.43    1.09    1.75    0.69            0.13    0.12    0.02           0.20     0.24
E21        16.76   13.90    2.62          44.09   20.04   40.26          44.97   63.53           0.62    1.01    1.44    0.80            0.11    0.10    0.02           0.28     0.35
E22        29.27   25.26    7.97          57.33   19.97   34.66          40.00   60.05           0.40    0.71    0.98    0.56            0.27    0.25    0.10           0.25     0.30
F1          1.44    1.84    1.28          14.63   -8.86    2.96           9.34  161.52           1.86    1.66    1.76    1.76            0.01    0.01    0.02           0.19     0.24
F2          1.18    1.87    1.05          14.81  -17.56    6.40          18.68  159.98           2.06    1.59    1.83    1.77            0.01    0.02    0.02           0.22     0.25
F3          1.26    2.25    1.14          16.74  -23.38    8.47          24.86  160.09           2.11    1.49    1.79    1.70            0.01    0.02    0.01           0.15     0.18
F4          1.09    1.85    1.00          14.66  -19.89    6.85          21.04  161.01           2.13    1.58    1.84    1.78            0.01    0.01    0.01           0.16     0.18
F5          6.43    8.06    5.58          34.11  -13.28    4.92          14.16  159.68           1.21    1.03    1.14    1.12            0.07    0.09    0.08           0.23     0.27
F6          5.28    8.16    4.79          34.31  -26.93    9.32          28.50  160.91           1.41    0.96    1.19    1.13            0.02    0.03    0.04           0.17     0.20
F7          4.35    8.26    4.05          34.51  -39.69   13.88          42.05  160.72           1.66    0.91    1.26    1.14            0.05    0.09    0.07           0.28     0.33
F8          3.57    8.11    3.47          34.21  -49.81   17.04          52.64  161.11           1.95    0.88    1.31    1.16            0.03    0.05    0.03           0.18     0.21
F9         36.67   39.99   31.19          69.46   -6.12    2.75           6.72  155.82           0.42    0.38    0.42    0.40            0.29    0.34    0.48           0.29     0.42
F10        34.72   39.74   30.21          69.28  -11.89    3.97          12.54  161.55           0.47    0.36    0.43    0.41            0.29    0.31    0.41           0.29     0.36
F11        33.18   39.77   28.51          69.30  -17.29    6.73          18.56  158.73           0.50    0.35    0.45    0.42            0.36    0.39    0.40           0.32     0.37
F12        28.08   40.06   24.86          69.51  -37.15   13.36          39.49  160.23           0.66    0.29    0.50    0.43            0.14    0.16    0.38           0.41     0.54
F13        39.52   50.64   59.56          76.46  -27.15  -19.99          33.71  216.36           0.55    0.20    0.15    0.34            0.17    0.17    0.14           0.15     0.17
F14        50.79   39.09   51.41          68.82   38.21  -24.58          45.43  327.24           0.22    0.53    0.23    0.38            0.27    0.35    0.25           0.37     0.49
F15        67.40   70.28   23.01          87.14   -0.82   47.17          47.18   90.99           0.11    0.18    0.54    0.14            0.17    0.21    0.46           0.52     0.73
F16        19.87   20.62   17.02          52.53   -0.09   -0.00           0.16  150.95           0.67    0.68    0.68    0.69            0.18    0.20    0.22           0.22     0.29
F17        42.38   33.50   18.04          64.56   32.92   18.41          37.72   29.22           0.24    0.62    0.65    0.43            0.26    0.32    0.32           0.44     0.51
