targets/wolf_faust/reflective/R120505.it8
IT8.7/2
ORIGINATOR "Wolf Faust"
DESCRIPTOR "Kodak Professional Paper, L* a* b* (light D50, viewing angle 2)"
MANUFACTURER "Wolf Faust - http://www.coloraid.de"
CREATED "July 05, 2012"
PROD_DATE "2012:05"
SAMPLE_BACKING "black"
SERIAL "5x7 R120505 Batch Average Data"
MATERIAL "Kodak Professional Ultra Endura"
KEYWORD "MEAN_DE" # Mean Delta E of samples compared to batch average
NUMBER_OF_FIELDS 18
BEGIN_DATA_FORMAT
SAMPLE_ID  XYZ_X   XYZ_Y   XYZ_Z          LAB_L   LAB_A   LAB_B          LAB_C   LAB_H          D_RED  D_GREEN  D_BLUE  D_VIS          STDEV_X STDEV_Y STDEV_Z        MEAN_DE  STDEV_DE
END_DATA_FORMAT
NUMBER_OF_SETS 288
BEGIN_DATA
A1          3.19    2.72    1.90          18.87   10.30    3.19          10.79   17.22           1.39    1.67    1.62    1.53            0.04    0.03    0.03           0.25     0.28
A2          4.10    2.80    1.59          19.24   22.54    7.13          23.64   17.55           1.22    1.83    1.70    1.48            0.05    0.03    0.02           0.34     0.37 
A3          5.08    2.91    1.35          19.68   33.66   10.71          35.32   17.65           1.10    2.05    1.78    1.43            0.06    0.03    0.02           0.33     0.36
A4          5.47    3.07    1.45          20.31   35.65   10.60          37.19   16.56           1.07    2.06    1.75    1.40            0.07    0.04    0.02           0.31     0.35 
A5         11.99   10.50    7.47          38.72   13.72    4.55          14.45   18.36           0.82    1.06    1.04    0.95            0.12    0.12    0.09           0.37     0.41
A6         14.58   10.78    6.66          39.20   28.45    8.76          29.77   17.11           0.69    1.17    1.09    0.91            0.15    0.12    0.09           0.32     0.37 
A7         17.16   10.97    5.77          39.52   41.94   13.32          44.00   17.62           0.59    1.30    1.15    0.87            0.13    0.08    0.05           0.26     0.28
A8         20.87   11.25    4.84          39.99   58.85   18.81          61.79   17.72           0.50    1.55    1.24    0.83            0.09    0.07    0.04           0.18     0.23 
A9         40.55   39.99   31.32          69.46    6.24    2.54           6.74   22.18           0.34    0.42    0.42    0.39            0.32    0.34    0.31           0.37     0.44
A10        43.14   40.29   29.98          69.68   13.14    5.01          14.06   20.86           0.29    0.44    0.44    0.38            0.26    0.28    0.16           0.34     0.39
A11        45.25   40.09   28.40          69.53   19.89    7.31          21.19   20.18           0.25    0.47    0.46    0.37            0.25    0.29    0.16           0.37     0.43
A12        47.47   40.17   28.14          69.59   25.91    7.84          27.07   16.85           0.22    0.50    0.47    0.36            0.17    0.23    0.17           0.29     0.38 
A13        74.47   78.80   65.97          91.14   -3.08   -0.88           3.21  195.99           0.12    0.09    0.10    0.11            0.11    0.11    0.08           0.09     0.10
A14        75.36   77.68   65.39          90.63    0.95   -1.22           1.55  307.82           0.10    0.11    0.11    0.11            0.12    0.14    0.14           0.11     0.13 
A15        75.89   79.51   62.04          91.46   -1.56    3.42           3.76  114.49           0.10    0.10    0.13    0.10            0.12    0.13    0.14           0.08     0.09
A16        75.82   78.97   63.73          91.22   -0.65    1.37           1.52  115.43           0.10    0.10    0.12    0.10            0.16    0.17    0.13           0.09     0.10
A17        73.68   75.96   59.87          89.84    0.91    2.77           2.91   71.85           0.11    0.12    0.14    0.12            0.16    0.19    0.13           0.13     0.14
A18        74.51   78.64   62.71          91.07   -2.67    2.10           3.39  141.88           0.11    0.10    0.12    0.11            0.13    0.11    0.14           0.10     0.11 
A19        74.01   77.28   65.41          90.45   -1.05   -1.56           1.88  236.00           0.12    0.11    0.11    0.11            0.15    0.16    0.08           0.11     0.13
A20         1.28    1.06    0.76           9.46    8.55    2.01           8.79   13.20           1.80    2.09    2.01    1.94            0.02    0.01    0.01           0.19     0.22 
A21         5.13    3.28    0.80          21.12   27.98   21.36          35.20   37.35           1.10    1.86    1.98    1.39            0.07    0.04    0.01           0.31     0.36
A22        10.07    5.76    0.88          28.79   42.39   33.27          53.88   38.13           0.79    1.80    1.94    1.12            0.07    0.04    0.01           0.25     0.28
B1          3.13    2.76    1.54          19.03    8.45    7.38          11.22   41.13           1.40    1.65    1.70    1.53            0.04    0.04    0.02           0.29     0.32
B2          3.64    2.74    0.98          18.97   17.02   14.58          22.42   40.58           1.28    1.77    1.89    1.50            0.04    0.03    0.01           0.31     0.36
B3          4.37    2.86    0.65          19.49   25.27   21.42          33.13   40.28           1.17    1.90    2.07    1.45            0.05    0.03    0.01           0.25     0.28
B4          5.06    3.10    0.53          20.42   30.18   25.12          39.27   39.78           1.09    1.96    2.15    1.40            0.05    0.03    0.01           0.25     0.29
B5         12.08   10.46    5.43          38.66   14.61   13.52          19.91   42.77           0.80    1.08    1.17    0.94            0.11    0.10    0.05           0.30     0.33
B6         14.31   10.80    3.72          39.24   26.64   24.05          35.89   42.07           0.68    1.17    1.32    0.90            0.16    0.12    0.05           0.31     0.34
B7         16.90   11.01    2.27          39.59   40.19   35.47          53.60   41.44           0.58    1.31    1.53    0.87            0.09    0.07    0.03           0.28     0.33
B8         20.21   11.19    1.10          39.89   56.09   48.99          74.47   41.13           0.50    1.56    1.84    0.83            0.11    0.08    0.01           0.25     0.29
B9         40.30   40.00   29.29          69.47    5.42    5.76           7.91   46.70           0.34    0.42    0.45    0.39            0.21    0.21    0.14           0.30     0.33
B10        42.59   40.19   26.12          69.61   11.78   11.30          16.32   43.81           0.29    0.44    0.50    0.38            0.26    0.27    0.21           0.30     0.32
B11        44.76   40.18   22.89          69.59   18.20   17.14          25.00   43.28           0.25    0.47    0.55    0.37            0.24    0.27    0.18           0.32     0.35
B12        46.63   40.27   20.98          69.66   23.23   21.00          31.32   42.11           0.22    0.50    0.59    0.36            0.18    0.23    0.18           0.34     0.39
B13        68.41   74.48   65.30          89.15   -7.29   -3.69           8.17  206.85           0.17    0.10    0.11    0.14            0.14    0.11    0.11           0.14     0.16
B14        71.11   70.61   63.23          87.29    6.51   -4.92           8.16  322.94           0.12    0.16    0.12    0.15            0.14    0.19    0.10           0.18     0.23
B15        73.27   76.97   53.15          90.31   -1.95   10.57          10.75  100.45           0.11    0.11    0.19    0.11            0.07    0.07    0.26           0.23     0.28
B16        59.70   62.07   50.71          82.95   -0.35    0.57           0.67  121.61           0.20    0.20    0.21    0.21            0.27    0.30    0.26           0.20     0.23
B17        67.49   67.16   51.13          85.58    6.08    4.64           7.65   37.38           0.13    0.19    0.21    0.17            0.21    0.29    0.25           0.23     0.28
B18        64.99   71.24   52.77          87.60   -8.18    6.32          10.34  142.29           0.18    0.13    0.19    0.15            0.25    0.20    0.24           0.20     0.25
B19        63.13   65.31   62.47          84.64    0.36   -8.76           8.77  272.37           0.19    0.18    0.13    0.19            0.32    0.35    0.16           0.27     0.32
B20         2.65    1.93    0.74          15.09   16.88   12.13          20.79   35.70           1.42    1.95    2.02    1.65            0.04    0.03    0.01           0.22     0.28
B21         8.35    4.92    0.82          26.51   37.96   30.30          48.57   38.59           0.87    1.81    1.97    1.20            0.07    0.04    0.01           0.31     0.33
B22        28.93   24.63   11.48          56.72   21.29   21.74          30.43   45.59           0.41    0.72    0.85    0.57            0.21    0.21    0.11           0.35     0.42
C1          4.14    4.05    2.11          23.83    3.35    9.74          10.30   71.02           1.30    1.43    1.56    1.37            0.02    0.02    0.02           0.20     0.22
C2          4.50    4.10    1.32          24.00    7.66   18.60          20.12   67.63           1.23    1.47    1.75    1.35            0.03    0.03    0.01           0.28     0.32
C3          4.76    4.07    0.75          23.90   11.49   27.02          29.36   66.96           1.18    1.52    1.98    1.34            0.06    0.05    0.01           0.27     0.32
C4          5.42    4.54    0.70          25.39   13.08   30.56          33.24   66.83           1.12    1.49    2.01    1.29            0.05    0.04    0.00           0.22     0.27
C5         22.60   21.71   10.15          53.71    7.78   20.75          22.16   69.44           0.55    0.71    0.89    0.64            0.19    0.19    0.12           0.29     0.34
C6         25.21   22.22    5.35          54.26   16.90   40.81          44.17   67.50           0.47    0.77    1.16    0.61            0.24    0.23    0.09           0.31     0.37
C7         27.61   22.39    2.28          54.44   25.93   60.95          66.23   66.95           0.40    0.83    1.51    0.59            0.15    0.13    0.02           0.24     0.27
C8         29.12   22.50    1.17          54.56   31.33   73.26          79.68   66.85           0.37    0.87    1.79    0.58            0.12    0.11    0.01           0.19     0.21
C9         47.37   47.91   32.53          74.77    3.27    9.86          10.39   71.62           0.27    0.34    0.40    0.31            0.25    0.27    0.17           0.25     0.29
C10        48.86   47.75   26.44          74.66    7.82   19.46          20.97   68.11           0.24    0.36    0.49    0.30            0.27    0.28    0.20           0.28     0.31
C11        50.22   47.66   21.26          74.61   11.74   28.97          31.25   67.94           0.21    0.38    0.58    0.30            0.29    0.33    0.24           0.37     0.41
C12        51.58   47.91   18.34          74.77   14.65   35.35          38.26   67.49           0.18    0.39    0.64    0.29            0.14    0.20    0.18           0.36     0.41
C13        59.80   68.05   64.26          86.03  -13.39   -8.09          15.65  211.14           0.26    0.12    0.11    0.18            0.28    0.22    0.09           0.22     0.28
C14        65.71   61.94   60.28          82.88   13.79   -9.63          16.82  325.07           0.14    0.24    0.15    0.20            0.18    0.27    0.13           0.29     0.36
C15        70.28   73.89   43.20          88.87   -2.04   19.62          19.73   95.93           0.11    0.14    0.28    0.13            0.10    0.09    0.23           0.18     0.23
C16        46.26   48.19   39.36          74.95   -0.59    0.54           0.81  138.48           0.31    0.31    0.32    0.32            0.30    0.33    0.19           0.27     0.32
C17        59.76   56.75   40.22          80.04   12.34    8.19          14.81   33.57           0.16    0.29    0.31    0.23            0.17    0.26    0.23           0.27     0.32
C18        54.32   62.57   42.68          83.21  -14.69   10.52          18.07  144.40           0.27    0.17    0.28    0.21            0.22    0.17    0.20           0.20     0.24
C19        51.39   52.73   58.70          77.71    1.46  -16.96          17.03  274.92           0.30    0.27    0.16    0.29            0.26    0.33    0.13           0.31     0.37
C20         1.58    1.37    0.71          11.74    7.53    6.84          10.17   42.25           1.69    1.96    2.03    1.83            0.02    0.01    0.01           0.16     0.19
C21        23.01   17.37    4.59          48.72   31.19   35.22          47.05   48.47           0.47    0.97    1.23    0.70            0.20    0.17    0.07           0.43     0.48
C22        34.56   31.48   16.88          62.91   15.07   18.20          23.63   50.39           0.36    0.58    0.68    0.47            0.22    0.24    0.17           0.28     0.32
D1          3.91    4.14    2.15          24.12   -1.10    9.87           9.93   96.35           1.35    1.38    1.55    1.38            0.03    0.03    0.02           0.28     0.33
D2          3.87    4.11    1.37          24.03   -1.28   18.04          18.08   94.06           1.34    1.40    1.73    1.37            0.03    0.03    0.01           0.23     0.28
D3          3.82    4.10    0.77          23.99   -1.87   26.77          26.84   94.00           1.35    1.40    1.97    1.37            0.04    0.03    0.00           0.24     0.28
D4          4.41    4.73    0.78          25.94   -1.96   30.00          30.06   93.74           1.28    1.34    1.96    1.31            0.04    0.04    0.01           0.26     0.32
D5         25.74   26.98   13.31          58.95   -1.15   20.37          20.40   93.23           0.53    0.58    0.78    0.56            0.23    0.24    0.09           0.35     0.40
D6         25.88   27.11    7.19          59.08   -1.08   40.77          40.79   91.52           0.51    0.59    1.03    0.55            0.23    0.25    0.08           0.34     0.39
D7         25.43   27.01    3.54          58.98   -2.57   59.26          59.31   92.49           0.52    0.60    1.32    0.55            0.15    0.13    0.05           0.37     0.42
D8         25.43   27.20    1.55          59.16   -3.31   76.43          76.50   92.48           0.53    0.61    1.68    0.54            0.14    0.13    0.02           0.24     0.29
D9         54.03   56.18   38.00          79.72   -0.37   10.59          10.60   91.98           0.23    0.25    0.33    0.25            0.26    0.26    0.26           0.29     0.32
D10        53.65   56.09   30.11          79.66   -1.09   22.03          22.06   92.83           0.22    0.26    0.43    0.24            0.23    0.24    0.16           0.24     0.26
D11        53.51   55.93   24.11          79.58   -1.08   32.07          32.09   91.92           0.21    0.27    0.52    0.24            0.24    0.25    0.20           0.26     0.30
D12        53.09   55.99   11.60          79.61   -2.29   60.86          60.90   92.16           0.21    0.29    0.83    0.23            0.15    0.12    0.09           0.24     0.27
D13        51.79   61.63   63.05          82.71  -19.07  -12.65          22.88  213.55           0.36    0.14    0.12    0.24            0.28    0.22    0.08           0.27     0.35
D14        59.82   53.01   56.73          77.88   21.80  -14.65          26.26  326.09           0.17    0.33    0.17    0.26            0.18    0.28    0.12           0.29     0.39
D15        67.59   70.91   34.55          87.44   -1.70   28.72          28.77   93.38           0.12    0.16    0.37    0.14            0.12    0.13    0.25           0.26     0.34
D16        34.94   36.36   29.92          66.79   -0.40    0.13           0.45  164.62           0.43    0.44    0.44    0.44            0.28    0.31    0.21           0.29     0.33
D17        52.45   47.13   30.88          74.27   19.06   11.52          22.27   31.15           0.19    0.40    0.43    0.30            0.19    0.26    0.21           0.29     0.34
D18        44.59   54.17   33.67          78.56  -20.95   14.70          25.59  144.95           0.38    0.21    0.38    0.28            0.27    0.23    0.24           0.24     0.30
D19        40.99   41.29   54.40          70.38    3.61  -25.13          25.39  278.17           0.41    0.37    0.19    0.40            0.24    0.32    0.15           0.40     0.48
D20        13.68   10.42    2.68          38.58   25.48   30.27          39.56   49.90           0.70    1.19    1.46    0.92            0.11    0.09    0.03           0.32     0.37
D21        21.20   20.57   11.26          52.47    6.63   15.09          16.49   66.28           0.59    0.73    0.85    0.67            0.17    0.17    0.09           0.31     0.39
D22        38.02   36.30   19.42          66.75   10.00   19.18          21.63   62.48           0.33    0.49    0.62    0.42            0.30    0.33    0.20           0.33     0.37
E1          3.51    4.06    2.18          23.88   -6.16    9.21          11.08  123.76           1.44    1.35    1.54    1.40            0.03    0.03    0.02           0.24     0.29
E2          3.22    4.04    1.40          23.81  -10.62   17.28          20.29  121.57           1.49    1.34    1.72    1.40            0.03    0.04    0.02           0.24     0.27
E3          2.92    4.05    0.82          23.83  -15.87   25.71          30.22  121.69           1.58    1.31    1.94    1.41            0.03    0.04    0.01           0.25     0.29
E4          3.11    4.40    0.84          24.94  -17.27   27.26          32.27  122.35           1.56    1.27    1.93    1.37            0.04    0.05    0.01           0.24     0.27
E5         12.10   13.79    7.17          43.93   -8.04   14.76          16.81  118.58           0.89    0.83    1.04    0.86            0.10    0.12    0.08           0.36     0.42
E6         10.85   13.70    4.48          43.79  -16.31   27.35          31.84  120.81           0.97    0.81    1.23    0.87            0.12    0.12    0.04           0.39     0.46
E7          9.79   13.55    2.44          43.57  -23.56   40.89          47.19  119.95           1.05    0.80    1.47    0.88            0.06    0.07    0.04           0.29     0.33
E8          8.85   13.51    1.34          43.52  -31.00   51.96          60.50  120.82           1.17    0.78    1.73    0.89            0.05    0.05    0.01           0.15     0.18
E9         36.88   39.79   27.63          69.32   -4.79    8.22           9.51  120.26           0.41    0.39    0.47    0.40            0.29    0.32    0.26           0.22     0.28
E10        35.68   39.99   23.23          69.46   -9.39   16.28          18.79  119.99           0.43    0.38    0.54    0.40            0.22    0.25    0.25           0.30     0.33
E11        34.31   39.71   19.12          69.26  -13.21   24.16          27.53  118.66           0.45    0.37    0.62    0.40            0.31    0.32    0.15           0.26     0.30
E12        31.10   39.78   11.18          69.31  -24.84   44.36          50.84  119.24           0.52    0.35    0.84    0.41            0.20    0.19    0.11           0.27     0.30
E13        44.13   55.04   61.47          79.07  -24.46  -17.40          30.02  215.42           0.47    0.17    0.13    0.30            0.29    0.27    0.13           0.27     0.31
E14        54.27   45.05   53.03          72.93   29.52  -19.26          35.25  326.87           0.20    0.43    0.21    0.32            0.18    0.27    0.14           0.37     0.43
E15        64.94   67.76   26.81          85.89   -0.89   38.18          38.19   91.33           0.13    0.19    0.48    0.16            0.11    0.10    0.16           0.26     0.30
E16        25.83   26.97   22.00          58.95   -0.75    0.51           0.92  146.60           0.56    0.56    0.57    0.57            0.26    0.28    0.17           0.31     0.34
E17        46.03   39.07   23.02          68.80   25.24   15.54          29.64   31.62           0.22    0.51    0.55    0.37            0.11    0.16    0.17           0.33     0.38
E18        35.82   46.16   25.73          73.65  -26.98   18.95          32.97  144.91           0.50    0.27    0.49    0.36            0.15    0.13    0.14           0.19     0.23
E19        32.23   31.73   49.95          63.12    5.96  -32.77          33.30  280.30           0.54    0.48    0.23    0.52            0.27    0.32    0.17           0.37     0.45
E20        24.37   16.77    1.24          47.96   40.43   60.94          73.13   56.43           0.43    1.09    1.77    0.69            0.13    0.11    0.02           0.28     0.32
E21        16.91   14.00    2.62          44.24   20.23   40.54          45.30   63.48           0.62    1.01    1.46    0.80            0.09    0.07    0.03           0.24     0.26
E22        29.22   25.16    7.88          57.23   20.19   34.86          40.29   59.92           0.40    0.72    1.00    0.56            0.18    0.18    0.08           0.35     0.40
F1          1.39    1.79    1.24          14.32   -8.98    2.99           9.47  161.57           1.92    1.67    1.79    1.77            0.01    0.01    0.01           0.16     0.18
F2          1.08    1.77    1.04          14.23  -18.32    5.61          19.16  162.98           2.16    1.60    1.85    1.80            0.01    0.01    0.01           0.23     0.27
F3          0.92    1.93    1.00          15.10  -27.88    7.75          28.94  164.46           2.43    1.51    1.86    1.79            0.01    0.03    0.01           0.27     0.30
F4          1.01    2.18    1.06          16.39  -30.14    9.03          31.46  163.32           2.42    1.46    1.83    1.73            0.02    0.03    0.01           0.25     0.28
F5          6.31    8.01    5.52          34.01  -14.05    5.06          14.93  160.22           1.25    1.02    1.15    1.12            0.06    0.07    0.05           0.37     0.42
F6          5.16    7.94    4.67          33.86  -26.53    9.16          28.07  160.95           1.45    0.97    1.22    1.14            0.04    0.06    0.03           0.28     0.32
F7          4.06    7.85    3.92          33.68  -40.19   13.23          42.31  161.78           1.75    0.93    1.28    1.17            0.03    0.05    0.05           0.26     0.30
F8          3.02    7.79    3.04          33.55  -55.87   18.85          58.97  161.36           2.26    0.87    1.38    1.19            0.02    0.03    0.04           0.27     0.32
F9         36.75   40.04   31.40          69.50   -6.00    2.48           6.50  157.58           0.43    0.38    0.42    0.40            0.23    0.23    0.23           0.31     0.38
F10        34.82   39.88   30.00          69.38  -11.97    4.47          12.78  159.51           0.47    0.36    0.44    0.41            0.23    0.23    0.11           0.28     0.31
F11        32.74   39.34   28.68          68.99  -17.53    5.92          18.50  161.34           0.52    0.35    0.45    0.42            0.29    0.31    0.25           0.30     0.33
F12        28.10   39.32   25.17          68.99  -34.81   11.91          36.79  161.12           0.66    0.30    0.50    0.44            0.20    0.20    0.19           0.29     0.33
F13        37.51   48.96   59.71          75.43  -29.09  -21.92          36.42  216.99           0.60    0.20    0.14    0.36            0.26    0.27    0.17           0.23     0.28
F14        48.71   37.54   49.00          67.68   37.51  -23.82          44.43  327.58           0.23    0.55    0.24    0.39            0.19    0.30    0.17           0.39     0.52
F15        62.67   64.83   20.39          84.40    0.35   47.59          47.59   89.58           0.13    0.22    0.59    0.17            0.09    0.08    0.16           0.29     0.34
F16        18.45   19.25   15.65          50.98   -0.59    0.57           0.84  136.60           0.71    0.71    0.72    0.72            0.20    0.20    0.12           0.30     0.34
F17        40.19   31.93   16.54          63.28   31.76   19.65          37.35   31.74           0.26    0.65    0.69    0.45            0.11    0.15    0.12           0.28     0.32
