targets/wolf_faust/reflective/R120804WhiteBacking.it8
IT8.7/2
ORIGINATOR "Wolf Faust"
DESCRIPTOR "FUJICOLOR Crystal Archive Paper, L* a* b* (light D50, viewing angle 2)"
MANUFACTURER "Wolf Faust - http://www.coloraid.de"
CREATED "February 04, 2013"
PROD_DATE "2012:08"
SAMPLE_BACKING "white"
SERIAL "5x7 R120804 Batch Average Data"
MATERIAL "FUJICOLOR Crystal Archive DP II Paper"
NUMBER_OF_FIELDS 9
BEGIN_DATA_FORMAT
SAMPLE_ID  XYZ_X   XYZ_Y   XYZ_Z          LAB_L   LAB_A   LAB_B          LAB_C   LAB_H
END_DATA_FORMAT
NUMBER_OF_SETS 288
BEGIN_DATA
A1          3.48    2.94    2.00          19.80   10.84    3.88          11.52   19.70
A2          4.37    2.96    1.68          19.87   23.69    7.19          24.75   16.88 
A3          5.27    2.97    1.38          19.91   35.03   10.72          36.63   17.01
A4          5.95    3.26    1.42          21.04   37.89   12.22          39.82   17.87 
A5         12.65   10.96    7.86          39.51   14.79    4.38          15.42   16.49
A6         14.98   11.05    6.90          39.67   28.80    8.55          30.04   16.53 
A7         17.47   11.09    6.01          39.72   42.74   12.53          44.54   16.35
A8         21.93   11.62    5.03          40.60   61.21   18.88          64.06   17.15 
A9         40.83   40.05   30.86          69.51    6.92    3.33           7.68   25.69
A10        43.29   40.23   30.17          69.64   13.73    4.64          14.50   18.65
A11        45.82   40.33   28.80          69.70   20.75    6.96          21.89   18.53
A12        49.02   40.61   27.49          69.90   28.80    9.46          30.32   18.19 
A13        76.16   80.30   67.66          91.82   -2.54   -1.30           2.85  207.08
A14        77.91   79.73   67.39          91.56    2.07   -1.49           2.55  324.26 
A15        78.74   82.01   64.16          92.58   -0.66    3.30           3.37  101.33
A16        78.76   81.63   66.04          92.41    0.10    1.23           1.23   85.04
A17        76.83   78.81   62.93          91.15    1.69    2.01           2.63   49.82
A18        76.77   80.67   64.39          91.99   -2.03    2.06           2.89  134.65 
A19        75.99   78.70   67.30          91.10    0.22   -2.20           2.21  275.53
A20         1.35    1.10    0.72           9.81    9.21    3.33           9.80   19.89 
A21         5.25    3.35    0.76          21.40   28.30   22.62          36.23   38.64
A22        10.34    5.90    0.82          29.17   42.87   34.83          55.23   39.10
B1          3.36    2.98    1.56          19.98    8.28    8.71          12.02   46.45
B2          3.91    2.92    0.96          19.73   17.70   16.30          24.06   42.64
B3          4.61    3.03    0.65          20.16   25.62   22.39          34.02   41.16
B4          4.97    3.21    0.63          20.88   27.17   24.06          36.29   41.54
B5         12.86   11.11    5.75          39.77   15.08   13.87          20.49   42.60
B6         14.80   11.08    3.77          39.71   27.60   24.54          36.93   41.64
B7         17.35   11.20    2.19          39.92   41.25   36.77          55.26   41.71
B8         21.07   11.41    0.98          40.27   58.63   51.38          77.96   41.23
B9         40.89   40.39   28.88          69.75    6.06    6.89           9.18   48.67
B10        43.34   40.68   26.35          69.95   12.52   11.49          16.99   42.56
B11        45.45   40.65   23.25          69.93   18.73   17.05          25.33   42.30
B12        48.39   40.80   20.20          70.04   26.49   23.22          35.23   41.24
B13        72.12   77.55   67.25          90.57   -5.51   -3.07           6.31  209.11
B14        74.59   74.04   65.77          88.94    6.66   -4.50           8.04  325.92
B15        77.27   80.82   56.59          92.05   -1.33    9.93          10.01   97.61
B16        64.52   66.85   54.13          85.43    0.14    1.10           1.12   83.53
B17        71.76   71.53   54.68          87.74    5.96    4.50           7.47   37.01
B18        69.35   75.40   55.85          89.58   -7.11    6.44           9.60  137.85
B19        67.40   69.32   65.03          86.66    1.25   -7.73           7.83  279.14
B20         2.86    2.07    0.70          15.83   17.64   14.00          22.52   38.44
B21         8.61    5.02    0.77          26.80   38.99   31.75          50.28   39.15
B22        29.40   24.94   11.85          57.02   21.80   21.17          30.39   44.15
C1          4.46    4.30    2.19          24.65    4.28   10.41          11.26   67.63
C2          4.70    4.27    1.33          24.54    7.94   19.38          20.94   67.73
C3          5.36    4.56    0.82          25.45   12.10   28.49          30.96   66.98
C4          5.68    4.84    0.83          26.27   12.37   29.76          32.23   67.43
C5         23.83   22.70   10.37          54.76    8.78   21.81          23.51   68.06
C6         25.81   22.64    5.48          54.70   17.52   40.92          44.51   66.83
C7         28.33   22.96    2.35          55.03   26.23   61.42          66.79   66.87
C8         29.23   22.82    1.42          54.88   30.34   70.63          76.88   66.75
C9         47.60   47.82   31.95          74.71    4.18   10.64          11.43   68.55
C10        49.15   47.87   26.65          74.74    8.28   19.24          20.95   66.72
C11        50.83   47.97   21.61          74.80   12.51   28.61          31.22   66.38
C12        52.91   47.83   15.91          74.72   18.32   40.88          44.80   65.86
C13        62.72   70.64   65.95          87.31  -12.08   -7.48          14.21  211.78
C14        68.65   64.29   62.79          84.12   14.93   -9.97          17.96  326.26
C15        75.00   78.76   46.20          91.13   -1.91   19.86          19.95   95.51
C16        49.33   51.24   41.68          76.82   -0.21    0.76           0.79  105.28
C17        63.56   60.05   42.87          81.87   13.30    7.96          15.50   30.88
C18        57.65   66.43   44.80          85.22  -15.06   11.35          18.86  143.00
C19        54.02   54.94   60.72          79.01    2.67  -16.75          16.96  279.06
C20         1.70    1.44    0.68          12.23    8.41    8.17          11.73   44.17
C21        23.17   17.46    4.56          48.83   31.41   35.60          47.48   48.57
C22        35.08   31.83   17.33          63.20   15.59   17.67          23.57   48.59
D1          4.12    4.32    2.26          24.71   -0.67    9.91           9.93   93.87
D2          4.11    4.32    1.38          24.71   -0.84   19.05          19.07   92.54
D3          4.29    4.51    0.90          25.30   -0.92   26.94          26.96   91.96
D4          4.55    4.81    0.92          26.20   -1.15   28.04          28.07   92.35
D5         26.66   27.75   13.58          59.67   -0.40   20.86          20.87   91.11
D6         26.60   27.91    7.33          59.81   -1.25   41.45          41.47   91.73
D7         26.31   27.72    3.53          59.63   -1.72   60.48          60.51   91.63
D8         26.57   28.20    1.86          60.07   -2.49   74.69          74.74   91.91
D9         54.46   56.58   37.64          79.94   -0.22   11.46          11.46   91.13
D10        54.25   56.43   30.05          79.86   -0.39   22.45          22.46   91.00
D11        54.61   56.91   24.48          80.13   -0.65   32.34          32.35   91.16
D12        54.08   57.07    8.46          80.22   -2.40   72.30          72.34   91.90
D13        54.57   64.16   64.28          84.05  -17.68  -11.52          21.10  213.09
D14        62.99   55.53   59.50          79.34   22.89  -14.96          27.34  326.83
D15        72.85   76.50   37.11          90.09   -1.88   29.69          29.75   93.63
D16        37.73   39.20   31.57          68.89   -0.21    1.18           1.20   99.99
D17        56.20   50.26   32.78          76.23   20.13   11.99          23.43   30.78
D18        47.99   58.38   35.16          80.95  -21.64   16.65          27.31  142.43
D19        43.88   43.92   56.45          72.18    4.53  -24.20          24.62  280.61
D20        14.13   10.76    2.72          39.18   25.76   31.04          40.34   50.31
D21        21.80   21.01   11.64          52.96    7.33   14.81          16.53   63.67
D22        38.74   36.83   20.08          67.15   10.54   18.51          21.30   60.33
E1          3.78    4.32    2.33          24.69   -5.58    9.23          10.79  121.17
E2          3.45    4.28    1.43          24.56  -10.09   18.16          20.77  119.05
E3          3.47    4.66    0.97          25.75  -14.85   26.55          30.42  119.22
E4          3.56    4.83    0.99          26.25  -15.58   27.03          31.20  119.95
E5         12.77   14.51    7.74          44.95   -7.86   14.24          16.26  118.91
E6         11.39   14.24    4.56          44.58  -15.78   28.25          32.36  119.19
E7         10.52   14.39    2.46          44.79  -23.13   42.76          48.61  118.41
E8          9.75   14.35    1.60          44.73  -28.81   51.03          58.61  119.45
E9         37.41   40.21   27.53          69.62   -4.39    8.91           9.93  116.22
E10        36.27   40.43   23.52          69.78   -8.78   16.28          18.50  118.35
E11        34.79   40.31   19.31          69.69  -13.42   24.50          27.93  118.71
E12        31.25   40.74    9.80          69.99  -27.22   49.97          56.90  118.58
E13        47.09   57.80   62.39          80.63  -22.75  -15.60          27.59  214.43
E14        57.17   47.10   55.63          74.25   31.03  -19.76          36.78  327.51
E15        71.04   74.37   29.96          89.09   -1.40   38.52          38.55   92.08
E16        28.14   29.14   23.96          60.91    0.15    0.17           0.27   92.09
E17        49.55   41.66   25.35          70.64   27.05   14.44          30.66   28.08
E18        39.33   50.64   27.89          76.46  -27.71   20.10          34.23  144.06
E19        34.52   33.66   51.40          64.69    7.20  -31.67          32.48  282.81
E20        24.77   16.99    1.23          48.25   40.90   61.56          73.91   56.40
E21        17.06   14.11    2.64          44.38   20.39   40.62          45.46   63.34
E22        29.82   25.66    8.03          57.72   20.37   35.09          40.57   59.87
F1          1.45    1.85    1.28          14.69   -8.82    3.06           9.34  160.87
F2          1.19    1.89    1.05          14.91  -17.61    6.58          18.81  159.52
F3          1.28    2.28    1.15          16.89  -23.38    8.54          24.89  159.95
F4          1.11    1.87    1.01          14.77  -19.87    7.00          21.07  160.58
F5          6.56    8.21    5.62          34.42  -13.20    5.24          14.20  158.34
F6          5.35    8.25    4.83          34.51  -26.94    9.42          28.54  160.73
F7          4.42    8.39    4.07          34.78  -39.95   14.20          42.40  160.44
F8          3.62    8.22    3.48          34.43  -50.00   17.32          52.91  160.89
F9         37.36   40.67   31.42          69.94   -5.95    3.23           6.77  151.50
F10        35.37   40.42   30.44          69.77  -11.76    4.43          12.57  159.35
F11        33.84   40.51   28.79          69.83  -17.27    7.19          18.71  157.40
F12        28.52   40.68   25.02          69.95  -37.36   13.83          39.84  159.69
F13        40.18   51.55   60.15          77.01  -27.44  -19.62          33.74  215.56
F14        51.77   39.72   51.76          69.27   38.84  -24.18          45.75  328.09
F15        69.08   71.82   23.19          87.88   -0.36   48.11          48.11   90.44
F16        20.28   21.02   17.18          52.98    0.03    0.38           0.41  100.55
F17        43.43   34.25   18.36          65.16   33.46   18.74          38.35   29.25
F18        31.37   43.01   21.09          71.56  -33.55   24.05          41.28  144.37
F19        26.75   25.34   46.38          57.40    9.69  -38.50          39.70  284.13
F20        25.78   24.76   11.49          56.84    8.14   21.94          23.40   69.66
F21        33.80   30.64   10.59          62.20   15.50   33.94          37.31   65.46
F22        38.49   35.87   15.77          66.42   12.90   26.90          29.83   64.37
G1          2.30    2.92    2.63          19.72   -9.94   -1.80          10.10  190.25
G2          1.87    2.92    2.83          19.72  -19.71   -3.41          20.00  189.81
G3          1.91    3.36    3.37          21.41  -25.97   -4.35          26.33  189.51
G4          1.79    3.12    3.09          20.52  -25.01   -3.94          25.32  188.96
G5          9.04   11.08    9.81          39.72  -12.98   -2.26          13.18  189.90
G6          7.57   10.96   10.37          39.52  -25.26   -4.46          25.65  190.02
G7          6.41   11.06   11.12          39.67  -37.45   -6.54          38.02  189.91
G8          5.40   10.89   11.55          39.39  -47.45   -8.35          48.18  189.98
G9         36.80   40.03   33.35          69.49   -5.82   -0.47           5.85  184.54
G10        34.94   40.41   34.40          69.76  -13.19   -1.54          13.28  186.66
G11        33.21   40.40   35.12          69.76  -19.16   -2.59          19.33  187.69
G12        28.18   40.56   37.53          69.87  -38.30   -5.75          38.73  188.54
G13        33.90   45.51   57.53          73.23  -31.69  -23.50          39.45  216.56
G14        46.63   33.18   47.58          64.31   46.30  -28.00          54.11  328.83
G15        67.13   69.06   17.30          86.54    1.17   57.97          57.98   88.84
G16        14.04   14.59   11.81          45.07   -0.22    0.68           0.73  109.57
G17        38.01   27.97   12.74          59.86   39.61   23.50          46.06   30.69
G18        24.78   36.25   15.35          66.71  -38.63   28.43          47.96  143.65
G19        20.42   18.55   41.43          50.16   12.86  -44.89          46.70  285.99
G20        35.80   34.37   14.34          65.26    9.11   28.49          29.91   72.26
G21        34.77   33.26    9.56          64.37    9.47   41.08          42.16   77.02
G22        46.77   43.22    2.71          71.70   14.84   87.19          88.44   80.34
H1          2.52    2.95    3.30          19.84   -6.02   -6.63           8.96  227.73
H2          2.22    2.91    4.32          19.69  -11.60  -13.30          17.65  228.92
H3          2.13    3.09    5.65          20.40  -16.51  -19.07          25.23  229.12
H4          2.18    3.18    5.77          20.76  -17.11  -19.03          25.60  228.03
H5          9.74   11.16   11.88          39.85   -7.86   -8.54          11.61  227.36
H6          8.71   11.13   15.26          39.79  -16.18  -17.76          24.02  227.67
H7          7.72   11.03   19.02          39.64  -24.30  -26.70          36.10  227.69
H8          7.05   10.98   22.80          39.54  -30.38  -34.50          45.97  228.64
H9         37.29   40.26   36.21          69.66   -4.94   -4.29           6.54  221.01
H10        36.26   40.40   39.85          69.75   -8.71   -9.07          12.57  226.15
H11        35.07   40.57   44.11          69.87  -13.21  -14.26          19.43  227.19
H12        31.87   40.54   55.33          69.85  -24.36  -27.02          36.38  227.97
H13        28.56   40.05   54.81          69.50  -35.25  -27.08          44.45  217.53
H14        41.56   27.20   43.18          59.15   53.75  -31.59          62.34  329.56
H15        65.12   66.14   12.65          85.07    3.04   67.23          67.30   87.41
H16         9.19    9.56    7.78          37.03   -0.16    0.41           0.46  104.33
H17        33.03   22.50    8.54          54.56   45.72   27.76          53.48   31.26
H18        19.27   30.26   11.03          61.88  -43.37   32.02          53.91  143.56
H19        15.17   12.96   36.46          42.70   16.93  -51.13          53.86  288.32
H20        40.60   41.20   15.12          70.32    2.68   35.22          35.32   85.64
H21        30.71   31.79   19.99          63.17    0.21   11.84          11.84   88.97
H22        35.01   38.18   11.15          68.15   -6.02   42.45          42.88   98.07
I1          4.22    4.34    5.69          24.76    0.57  -11.74          11.75  272.76
I2          4.25    4.30    8.47          24.64    1.42  -23.56          23.60  273.46
I3          4.29    4.32   11.78          24.70    1.68  -34.35          34.39  272.80
I4          4.38    4.29   17.69          24.62    3.32  -49.65          49.76  273.82
I5         13.98   14.47   15.10          44.89    0.21   -8.56           8.57  271.44
I6         14.18   14.53   19.46          44.99    1.05  -18.40          18.43  273.28
I7         14.05   14.40   23.55          44.80    1.03  -26.84          26.86  272.20
I8         14.28   14.28   37.83          44.63    3.17  -49.68          49.78  273.65
I9         38.98   40.40   36.01          69.76    0.06   -3.84           3.85  270.97
I10        39.14   40.39   40.07          69.75    0.60   -9.36           9.38  273.69
I11        39.18   40.34   43.91          69.71    0.88  -14.29          14.32  273.53
I12        39.70   40.56   55.09          69.87    1.83  -26.75          26.81  273.91
I13        23.60   34.65   51.64          65.47  -38.39  -30.60          49.10  218.56
I14        36.71   21.91   38.71          53.93   60.94  -34.83          70.19  330.25
I15        63.07   62.99    8.72          83.44    5.41   76.88          77.07   85.98
I16         5.54    5.78    4.71          28.84   -0.29    0.31           0.49  138.84
I17        28.51   17.89    5.17          49.36   51.39   33.25          61.20   32.91
I18        14.39   24.58    7.43          56.66  -47.95   35.62          59.73  143.39
I19        10.89    8.44   31.46          34.89   22.33  -57.28          61.48  291.30
I20        41.27   45.23   15.66          73.04   -7.02   38.60          39.24  100.30
I21        10.97   14.76    3.41          45.30  -21.96   36.51          42.61  121.02
I22        27.94   36.15   17.09          66.64  -25.34   24.16          35.01  136.37
J1          2.08    1.85    2.94          14.70    6.82  -12.85          14.55  297.96
J2          2.38    1.84    4.84          14.60   13.77  -24.96          28.51  298.89
J3          2.79    1.87    7.83          14.78   20.85  -38.13          43.46  298.66
J4          3.80    1.92   17.80          15.03   36.40  -66.45          75.76  298.71
J5         11.45   11.17   12.10          39.87    4.97   -9.12          10.39  298.61
J6         12.11   11.07   15.45          39.70   10.35  -18.39          21.10  299.36
J7         13.00   11.19   19.95          39.91   15.39  -28.20          32.12  298.63
J8         15.07   11.13   34.09          39.80   28.84  -52.75          60.12  298.67
J9         39.67   40.24   36.36          69.64    2.73   -4.53           5.30  301.20
J10        40.74   40.70   40.02          69.97    4.64   -8.91          10.05  297.51
J11        41.44   40.11   43.91          69.55    8.57  -14.56          16.90  300.48
J12        43.66   40.20   53.96          69.61   14.94  -25.99          29.98  299.89
J13        19.40   29.74   48.19          61.43  -40.77  -33.66          52.88  219.54
J14        32.32   17.62   34.29          49.03   67.05  -37.12          76.64  331.03
J15        60.76   59.53    5.84          81.58    8.05   85.51          85.89   84.62
J16         3.05    3.20    2.59          20.82   -0.58    0.41           0.74  145.45
J17        24.60   14.23    2.90          44.56   56.07   38.94          68.27   34.78
J18        10.51   19.60    4.76          51.38  -51.60   38.92          64.63  142.97
J19         7.71    5.24   26.79          27.42   28.26  -62.60          68.68  294.30
J20        29.66   38.46   22.10          68.36  -26.10   16.53          30.90  147.66
J21         4.24    8.04    1.46          34.07  -39.34   34.27          52.18  138.94
J22         1.31    2.09    0.90          15.93  -18.40   10.62          21.24  150.00
K1          5.21    4.38    5.12          24.89   12.78   -8.70          15.46  325.78
K2          6.40    4.33    7.19          24.72   26.94  -18.47          32.66  325.56
K3          7.86    4.46    9.75          25.14   39.52  -27.22          47.98  325.45
K4          9.26    4.44   12.48          25.09   51.83  -35.72          62.95  325.42
K5         15.71   14.32   14.55          44.69   11.48   -7.50          13.72  326.84
K6         17.96   14.44   17.95          44.86   23.22  -15.34          27.83  326.54
K7         20.24   14.54   21.89          45.00   34.22  -23.35          41.43  325.70
K8         26.25   14.49   32.96          44.92   61.44  -42.25          74.56  325.49
K9         41.11   40.34   36.14          69.71    6.86   -4.10           7.99  329.13
K10        43.52   40.59   39.50          69.88   13.34   -8.37          15.75  327.90
K11        45.99   40.68   43.00          69.95   20.18  -12.74          23.87  327.73
K12        51.67   40.67   52.55          69.94   35.69  -23.89          42.95  326.20
K13        15.68   24.99   44.34          57.07  -42.03  -36.61          55.73  221.06
K14        28.27   14.08   30.05          44.35   72.05  -38.77          81.82  331.72
K15        58.11   55.61    3.75          79.39   11.16   93.12          93.78   83.17
K16         1.48    1.57    1.27          13.05   -1.11    0.36           1.18  162.48
K17        21.10   11.29    1.45          40.07   59.59   44.72          74.50   36.89
K18         7.39   15.17    2.98          45.87  -54.27   40.60          67.78  143.20
K19         5.42    3.06   22.29          20.28   35.22  -66.73          75.46  297.82
K20         2.32    3.09    1.87          20.41  -12.52    6.21          13.98  153.60
K21         1.33    1.81    1.45          14.45  -11.46    0.50          11.47  177.50
K22         1.66    2.16    2.82          16.29  -10.14   -9.20          13.70  222.21
L1          3.65    3.00    2.75          20.03   12.57   -2.22          12.77  350.01
L2          4.56    3.00    2.98          20.06   25.35   -3.92          25.65  351.22
L3          5.72    3.16    3.35          20.67   36.99   -5.52          37.40  351.52
L4          6.34    3.42    3.69          21.64   39.60   -6.10          40.07  351.25
L5         12.84   10.95    9.84          39.50   16.15   -2.77          16.39  350.28
L6         15.44   11.03   10.76          39.63   31.74   -5.50          32.21  350.17
L7         18.55   11.29   11.63          40.07   46.96   -7.41          47.54  351.04
L8         22.79   11.44   12.77          40.30   66.44  -10.29          67.24  351.20
L9         41.73   40.62   34.04          69.91    7.89   -0.75           7.93  354.54
L10        43.99   40.53   34.87          69.85   14.87   -2.07          15.01  352.09
L11        46.64   40.56   35.42          69.87   22.38   -2.81          22.55  352.83
L12        50.09   40.45   36.24          69.78   32.18   -4.12          32.45  352.71
L13        12.01   19.73   38.94          51.53  -41.34  -39.29          57.03  223.54
L14        24.04   10.97   25.38          39.53   75.34  -39.26          84.96  332.48
L15        53.07   48.93    2.17          75.41   15.77   98.14          99.40   80.87
L16         0.57    0.60    0.49           5.44   -0.51    0.06           0.52  174.18
L17        17.09    8.50    0.59          34.99   61.07   49.26          78.46   38.89
L18         4.53   10.29    1.57          38.36  -53.82   40.37          67.28  143.13
L19         3.72    1.63   17.40          13.44   42.13  -68.29          80.24  301.67
L20         0.72    0.79    0.78           7.18   -1.70   -2.29           2.85  233.38
L21         0.94    0.91    0.95           8.18    2.60   -3.40           4.28  307.41
L22         1.91    1.54    1.31          12.84   10.99   -0.57          11.01  357.02
GS0        79.12   82.16   67.93          92.65   -0.21   -0.12           0.26  204.76
GS1        68.16   70.73   57.38          87.35   -0.09    1.01           1.02   95.97
