targets/wolf_faust/reflective/R130227.it8
IT8.7/2
ORIGINATOR "Wolf Faust"
DESCRIPTOR "Kodak Professional Paper, L* a* b* (light D50, viewing angle 2)"
MANUFACTURER "Wolf Faust - http://www.coloraid.de"
CREATED "May 04, 2013"
PROD_DATE "2013:02"
SAMPLE_BACKING "black"
SERIAL "5x7 R130227 Batch Average Data"
MATERIAL "Kodak Professional Ultra Endura"
KEYWORD "MEAN_DE" # Mean Delta E of samples compared to batch average
NUMBER_OF_FIELDS 18
BEGIN_DATA_FORMAT
SAMPLE_ID  XYZ_X   XYZ_Y   XYZ_Z          LAB_L   LAB_A   LAB_B          LAB_C   LAB_H          D_RED  D_GREEN  D_BLUE  D_VIS          STDEV_X STDEV_Y STDEV_Z        MEAN_DE  STDEV_DE
END_DATA_FORMAT
NUMBER_OF_SETS 288
BEGIN_DATA
A1          3.41    2.85    2.06          19.44   11.39    2.61          11.68   12.93           1.36    1.65    1.58    1.51            0.05    0.04    0.04           0.29     0.31
A2          4.38    2.95    1.72          19.84   23.88    6.71          24.81   15.68           1.19    1.82    1.67    1.45            0.05    0.04    0.02           0.30     0.35 
A3          5.22    2.93    1.45          19.75   35.04    9.64          36.34   15.38           1.09    2.07    1.75    1.42            0.04    0.02    0.03           0.35     0.38
A4          5.83    3.20    1.56          20.84   37.50   10.22          38.86   15.24           1.04    2.07    1.72    1.38            0.06    0.03    0.02           0.27     0.30 
A5         12.64   11.03    7.98          39.63   14.18    4.10          14.77   16.15           0.80    1.04    1.01    0.93            0.10    0.09    0.09           0.30     0.34
A6         14.88   11.01    6.90          39.60   28.55    8.39          29.76   16.38           0.68    1.16    1.07    0.90            0.14    0.12    0.05           0.25     0.29 
A7         17.49   11.14    6.13          39.81   42.48   12.16          44.18   15.97           0.58    1.30    1.13    0.87            0.15    0.11    0.07           0.26     0.30
A8         20.99   11.23    5.21          39.97   59.52   16.85          61.87   15.81           0.50    1.55    1.21    0.83            0.07    0.06    0.07           0.37     0.41 
A9         41.13   40.48   31.92          69.81    6.51    2.22           6.88   18.85           0.34    0.41    0.41    0.38            0.16    0.18    0.16           0.18     0.20
A10        43.55   40.63   30.90          69.92   13.30    3.98          13.88   16.64           0.29    0.44    0.43    0.37            0.23    0.27    0.23           0.27     0.31
A11        45.90   40.74   29.53          69.99   19.74    6.27          20.71   17.61           0.25    0.46    0.45    0.36            0.15    0.19    0.21           0.23     0.27
A12        47.84   40.58   28.43          69.88   25.65    7.86          26.82   17.04           0.22    0.49    0.46    0.36            0.11    0.15    0.16           0.22     0.26 
A13        75.27   79.73   66.73          91.56   -3.27   -0.87           3.38  194.98           0.11    0.09    0.10    0.10            0.17    0.16    0.16           0.11     0.12
A14        75.85   77.66   65.83          90.63    1.96   -1.65           2.57  319.95           0.10    0.11    0.10    0.11            0.22    0.26    0.23           0.15     0.17 
A15        77.74   81.29   65.05          92.26   -1.26    1.91           2.29  123.57           0.09    0.09    0.11    0.09            0.12    0.11    0.16           0.08     0.09
A16        77.65   80.78   66.39          92.03   -0.48    0.26           0.54  152.23           0.09    0.09    0.10    0.09            0.12    0.13    0.14           0.10     0.11
A17        75.87   78.45   62.83          90.98    0.46    1.83           1.89   75.96           0.10    0.11    0.12    0.10            0.11    0.11    0.08           0.10     0.12
A18        76.71   80.58   64.99          91.94   -1.97    1.42           2.43  144.29           0.10    0.09    0.11    0.10            0.09    0.08    0.11           0.08     0.09 
A19        73.08   76.09   65.75          89.90   -0.61   -2.83           2.89  257.88           0.12    0.11    0.10    0.12            0.15    0.16    0.15           0.11     0.13
A20         1.31    1.07    0.73           9.55    9.13    2.66           9.51   16.27           1.78    2.09    2.03    1.93            0.02    0.02    0.01           0.23     0.27 
A21         5.19    3.30    0.82          21.20   28.46   21.20          35.48   36.68           1.09    1.87    1.97    1.39            0.03    0.02    0.01           0.18     0.22
A22        10.32    5.90    0.88          29.16   42.73   33.85          54.51   38.38           0.78    1.78    1.94    1.11            0.04    0.03    0.01           0.17     0.20
B1          3.30    2.88    1.64          19.57    9.06    7.16          11.55   38.29           1.37    1.63    1.68    1.51            0.03    0.04    0.03           0.31     0.36
B2          3.79    2.83    1.02          19.34   17.65   14.76          23.01   39.90           1.26    1.76    1.88    1.48            0.04    0.03    0.02           0.23     0.25
B3          4.38    2.85    0.64          19.42   25.76   21.35          33.46   39.65           1.17    1.91    2.07    1.45            0.04    0.03    0.01           0.27     0.30
B4          5.25    3.21    0.56          20.88   30.57   25.48          39.80   39.80           1.08    1.94    2.13    1.39            0.05    0.04    0.01           0.25     0.29
B5         12.59   10.86    5.92          39.34   15.11   12.31          19.49   39.17           0.78    1.07    1.13    0.93            0.10    0.09    0.06           0.28     0.30
B6         14.84   11.17    3.97          39.86   27.16   23.59          35.98   40.98           0.67    1.16    1.30    0.89            0.08    0.07    0.05           0.20     0.23
B7         17.17   11.12    2.33          39.79   40.84   35.25          53.95   40.80           0.57    1.31    1.52    0.86            0.11    0.08    0.03           0.31     0.34
B8         20.30   11.18    1.10          39.89   56.56   48.89          74.76   40.84           0.49    1.56    1.84    0.83            0.03    0.03    0.01           0.18     0.20
B9         40.86   40.44   29.88          69.78    5.82    5.36           7.91   42.65           0.34    0.42    0.44    0.38            0.29    0.31    0.28           0.23     0.26
B10        43.27   40.84   26.66          70.06   11.84   11.16          16.27   43.30           0.29    0.44    0.49    0.37            0.21    0.23    0.21           0.22     0.25
B11        45.23   40.83   23.93          70.06   17.57   15.99          23.76   42.30           0.25    0.46    0.53    0.36            0.15    0.19    0.19           0.25     0.28
B12        46.86   40.47   21.33          69.80   23.25   20.55          31.03   41.47           0.22    0.49    0.58    0.36            0.13    0.16    0.14           0.23     0.27
B13        70.91   76.59   66.15          90.13   -6.16   -2.80           6.76  204.45           0.15    0.10    0.10    0.12            0.17    0.14    0.13           0.11     0.13
B14        73.15   73.31   64.48          88.60    5.17   -3.87           6.46  323.15           0.11    0.14    0.11    0.13            0.18    0.22    0.18           0.14     0.16
B15        75.15   78.81   56.52          91.15   -1.71    8.45           8.62  101.43           0.10    0.10    0.17    0.10            0.06    0.07    0.11           0.09     0.12
B16        63.66   66.18   54.28          85.09   -0.34    0.35           0.50  134.77           0.18    0.18    0.18    0.18            0.24    0.24    0.15           0.15     0.18
B17        70.11   70.36   54.70          87.17    4.89    3.51           6.02   35.66           0.12    0.17    0.18    0.15            0.07    0.09    0.14           0.12     0.14
B18        68.11   73.92   56.07          88.88   -6.79    5.01           8.43  143.56           0.16    0.11    0.17    0.14            0.21    0.21    0.18           0.13     0.15
B19        66.50   68.92   63.90          86.46    0.10   -7.00           7.00  270.80           0.17    0.16    0.12    0.17            0.11    0.14    0.11           0.13     0.15
B20         2.77    2.00    0.75          15.48   17.48   12.52          21.50   35.60           1.40    1.94    2.01    1.63            0.02    0.02    0.01           0.23     0.26
B21         8.36    4.88    0.83          26.39   38.59   29.93          48.84   37.80           0.87    1.83    1.97    1.20            0.05    0.03    0.01           0.22     0.26
B22        29.34   25.03   12.09          57.10   21.23   20.59          29.58   44.13           0.41    0.71    0.82    0.56            0.17    0.18    0.08           0.27     0.30
C1          4.39    4.26    2.28          24.50    3.96    9.38          10.18   67.13           1.28    1.41    1.53    1.35            0.03    0.03    0.02           0.19     0.22
C2          4.77    4.31    1.39          24.66    8.27   18.81          20.55   66.25           1.20    1.45    1.73    1.33            0.04    0.04    0.02           0.23     0.27
C3          4.98    4.19    0.74          24.30   12.52   27.86          30.54   65.80           1.16    1.52    1.99    1.33            0.04    0.04    0.01           0.26     0.30
C4          5.67    4.71    0.72          25.91   13.82   31.15          34.07   66.08           1.10    1.48    2.01    1.27            0.06    0.05    0.01           0.23     0.27
C5         23.56   22.55   10.91          54.61    8.23   19.86          21.50   67.49           0.54    0.70    0.86    0.62            0.19    0.17    0.10           0.24     0.29
C6         25.68   22.51    5.56          54.57   17.52   40.28          43.93   66.50           0.46    0.76    1.14    0.61            0.13    0.13    0.06           0.23     0.25
C7         28.09   22.84    2.44          54.91   25.82   60.38          65.67   66.85           0.40    0.82    1.48    0.58            0.12    0.10    0.02           0.17     0.19
C8         29.32   22.67    1.17          54.73   31.33   73.59          79.98   66.94           0.37    0.87    1.80    0.58            0.11    0.12    0.01           0.19     0.23
C9         47.42   47.84   32.74          74.73    3.61    9.46          10.13   69.09           0.27    0.34    0.40    0.31            0.30    0.32    0.25           0.21     0.25
C10        48.95   47.77   27.11          74.68    8.02   18.35          20.02   66.40           0.24    0.36    0.48    0.30            0.18    0.20    0.20           0.22     0.25
C11        50.39   47.93   22.10          74.78   11.45   27.60          29.88   67.46           0.21    0.38    0.56    0.30            0.12    0.15    0.15           0.22     0.25
C12        51.69   47.96   18.46          74.80   14.79   35.13          38.12   67.16           0.18    0.39    0.64    0.29            0.13    0.17    0.13           0.23     0.26
C13        62.36   70.29   65.26          87.14  -12.17   -7.12          14.10  210.34           0.24    0.11    0.11    0.17            0.17    0.15    0.13           0.12     0.14
C14        67.69   64.54   61.66          84.25   12.28   -8.65          15.02  324.85           0.13    0.22    0.13    0.18            0.16    0.23    0.19           0.19     0.22
C15        72.01   75.64   46.61          89.69   -1.93   16.90          17.01   96.52           0.11    0.13    0.25    0.12            0.09    0.09    0.21           0.20     0.23
C16        49.40   51.34   42.57          76.88   -0.27   -0.26           0.38  225.43           0.29    0.29    0.29    0.29            0.21    0.23    0.22           0.18     0.21
C17        61.99   59.37   43.47          81.49   11.30    6.57          13.07   30.15           0.15    0.26    0.28    0.21            0.13    0.15    0.23           0.26     0.28
C18        57.00   65.01   45.62          84.49  -13.50    9.12          16.29  145.98           0.25    0.15    0.26    0.20            0.10    0.10    0.11           0.16     0.18
C19        54.40   55.94   60.29          79.58    1.17  -15.34          15.39  274.35           0.27    0.24    0.14    0.26            0.22    0.23    0.16           0.18     0.22
C20         1.63    1.38    0.70          11.80    8.45    7.12          11.05   40.10           1.68    1.97    2.04    1.82            0.02    0.02    0.01           0.27     0.32
C21        23.04   17.37    4.75          48.73   31.30   34.37          46.48   47.68           0.47    0.97    1.22    0.70            0.13    0.11    0.04           0.23     0.26
C22        35.09   31.96   17.63          63.31   15.10   17.19          22.88   48.69           0.36    0.57    0.66    0.47            0.16    0.15    0.12           0.16     0.19
D1          4.01    4.20    2.32          24.32   -0.62    8.72           8.75   94.09           1.35    1.38    1.52    1.37            0.02    0.03    0.02           0.17     0.19
D2          4.00    4.18    1.41          24.25   -0.33   17.83          17.84   91.07           1.32    1.40    1.72    1.36            0.03    0.03    0.02           0.21     0.24
D3          4.03    4.29    0.77          24.62   -1.61   27.97          28.02   93.29           1.32    1.39    1.97    1.35            0.04    0.04    0.01           0.25     0.31
D4          4.62    4.91    0.80          26.46   -1.41   30.60          30.63   92.64           1.26    1.33    1.95    1.29            0.04    0.04    0.01           0.19     0.22
D5         26.51   27.76   13.82          59.67   -1.04   20.21          20.24   92.93           0.52    0.57    0.76    0.55            0.14    0.14    0.08           0.20     0.23
D6         26.29   27.63    7.70          59.55   -1.43   39.55          39.58   92.07           0.51    0.58    1.00    0.54            0.11    0.11    0.03           0.18     0.20
D7         26.33   27.82    3.59          59.72   -2.03   60.24          60.27   91.93           0.50    0.59    1.32    0.53            0.14    0.14    0.03           0.20     0.23
D8         26.05   27.68    1.54          59.59   -2.60   77.27          77.32   91.93           0.52    0.61    1.69    0.53            0.10    0.09    0.01           0.23     0.25
D9         53.97   56.20   38.46          79.73   -0.56    9.98          10.00   93.23           0.23    0.25    0.33    0.25            0.31    0.32    0.28           0.19     0.22
D10        53.95   56.33   30.57          79.80   -0.94   21.53          21.55   92.50           0.22    0.26    0.42    0.24            0.23    0.24    0.23           0.19     0.22
D11        53.85   56.34   25.05          79.81   -1.20   30.77          30.80   92.24           0.21    0.27    0.51    0.24            0.24    0.25    0.24           0.24     0.27
D12        53.27   56.05   11.49          79.64   -1.97   61.23          61.26   91.84           0.20    0.29    0.83    0.23            0.16    0.15    0.09           0.17     0.19
D13        54.41   64.01   64.03          83.97  -17.72  -11.42          21.08  212.79           0.33    0.13    0.11    0.22            0.23    0.19    0.12           0.19     0.21
D14        62.22   56.15   58.47          79.70   19.56  -13.30          23.66  325.79           0.15    0.30    0.16    0.24            0.17    0.27    0.16           0.27     0.33
D15        69.00   72.39   37.37          88.16   -1.74   25.99          26.05   93.83           0.11    0.15    0.34    0.13            0.11    0.12    0.14           0.13     0.16
D16        38.01   39.48   32.57          69.10   -0.20    0.01           0.24  181.24           0.40    0.40    0.40    0.40            0.21    0.23    0.15           0.22     0.25
D17        54.47   49.60   33.43          75.83   17.52   10.34          20.34   30.54           0.18    0.37    0.39    0.28            0.16    0.21    0.17           0.23     0.26
D18        47.39   56.76   36.19          80.04  -19.38   13.64          23.70  144.86           0.35    0.20    0.35    0.26            0.15    0.14    0.15           0.16     0.19
D19        44.13   44.73   56.25          72.72    2.93  -23.05          23.24  277.23           0.38    0.34    0.18    0.36            0.15    0.19    0.11           0.19     0.23
D20        13.96   10.62    2.76          38.93   25.81   30.26          39.77   49.54           0.69    1.18    1.44    0.91            0.06    0.05    0.02           0.22     0.25
D21        21.47   20.86   11.69          52.79    6.51   14.35          15.76   65.59           0.59    0.72    0.84    0.66            0.13    0.14    0.05           0.24     0.28
D22        38.38   36.56   20.01          66.95   10.26   18.29          20.97   60.70           0.33    0.49    0.61    0.42            0.19    0.20    0.17           0.23     0.26
E1          3.75    4.30    2.28          24.63   -5.77    9.60          11.20  121.01           1.41    1.33    1.53    1.37            0.03    0.04    0.01           0.27     0.31
E2          3.39    4.23    1.47          24.42  -10.40   17.47          20.33  120.76           1.47    1.32    1.70    1.38            0.05    0.06    0.01           0.26     0.31
E3          3.14    4.29    0.82          24.61  -15.42   26.94          31.04  119.78           1.54    1.29    1.94    1.38            0.03    0.04    0.01           0.19     0.24
E4          3.34    4.64    0.85          25.69  -16.78   28.34          32.93  120.63           1.53    1.25    1.92    1.35            0.03    0.04    0.01           0.21     0.24
E5         12.52   14.24    7.66          44.58   -7.90   13.91          15.99  119.59           0.88    0.82    1.01    0.85            0.07    0.08    0.04           0.18     0.20
E6         11.24   14.06    4.58          44.32  -15.70   27.68          31.83  119.56           0.95    0.80    1.22    0.86            0.05    0.05    0.02           0.15     0.18
E7         10.22   14.06    2.56          44.32  -23.39   41.13          47.31  119.63           1.03    0.78    1.45    0.86            0.04    0.05    0.02           0.16     0.19
E8          9.39   14.12    1.35          44.41  -30.35   53.36          61.38  119.63           1.13    0.76    1.73    0.87            0.05    0.06    0.01           0.18     0.21
E9         37.51   40.29   28.00          69.68   -4.29    8.21           9.27  117.59           0.40    0.39    0.47    0.40            0.22    0.24    0.22           0.24     0.27
E10        35.85   40.01   23.66          69.48   -8.90   15.50          17.87  119.87           0.43    0.38    0.53    0.40            0.19    0.18    0.12           0.21     0.24
E11        34.84   40.31   19.76          69.69  -13.22   23.54          26.99  119.32           0.45    0.37    0.61    0.40            0.25    0.26    0.19           0.27     0.30
E12        31.25   39.98   11.38          69.46  -24.90   44.02          50.57  119.49           0.52    0.35    0.83    0.41            0.17    0.15    0.10           0.26     0.30
E13        46.80   57.62   62.65          80.53  -23.14  -16.02          28.14  214.70           0.44    0.16    0.12    0.27            0.15    0.14    0.11           0.13     0.16
E14        56.62   48.06   54.91          74.86   27.04  -17.95          32.45  326.43           0.18    0.39    0.19    0.30            0.15    0.22    0.13           0.29     0.34
E15        66.06   69.04   29.11          86.52   -1.11   35.45          35.47   91.80           0.12    0.18    0.44    0.15            0.14    0.14    0.11           0.13     0.15
E16        28.12   29.27   24.08          61.02   -0.39    0.14           0.46  164.29           0.53    0.53    0.53    0.53            0.09    0.10    0.10           0.23     0.25
E17        47.69   41.03   25.00          70.20   23.89   14.29          27.84   30.89           0.21    0.48    0.52    0.35            0.12    0.14    0.15           0.22     0.24
E18        38.16   48.41   27.81          75.08  -25.50   17.85          31.13  145.00           0.46    0.25    0.46    0.33            0.13    0.13    0.16           0.18     0.20
E19        34.80   34.62   51.83          65.45    4.91  -30.85          31.24  279.05           0.50    0.44    0.22    0.48            0.14    0.16    0.10           0.18     0.21
E20        24.34   16.74    1.23          47.93   40.44   61.03          73.21   56.47           0.43    1.09    1.77    0.69            0.11    0.09    0.01           0.19     0.21
E21        16.96   13.97    2.69          44.18   20.72   39.91          44.97   62.57           0.62    1.01    1.45    0.80            0.08    0.08    0.02           0.15     0.18
E22        29.64   25.58    8.28          57.64   20.03   34.04          39.49   59.52           0.40    0.71    0.98    0.55            0.10    0.10    0.06           0.19     0.23
F1          1.42    1.81    1.31          14.46   -8.86    2.22           9.13  165.91           1.92    1.66    1.76    1.77            0.01    0.02    0.01           0.21     0.25
F2          1.11    1.79    1.08          14.33  -17.90    5.14          18.63  163.98           2.15    1.60    1.84    1.80            0.02    0.03    0.02           0.28     0.31
F3          0.91    1.95    0.92          15.20  -28.73    9.12          30.14  162.38           2.45    1.51    1.89    1.78            0.01    0.02    0.01           0.24     0.29
F4          1.03    2.26    1.05          16.79  -31.38    9.83          32.89  162.61           2.44    1.44    1.84    1.72            0.01    0.02    0.01           0.26     0.30
F5          6.52    8.19    5.84          34.38  -13.44    4.15          14.07  162.85           1.24    1.01    1.13    1.11            0.03    0.04    0.05           0.27     0.31
F6          5.23    8.05    4.95          34.10  -26.66    8.06          27.85  163.17           1.45    0.97    1.19    1.14            0.03    0.04    0.05           0.20     0.23
F7          4.21    8.03    4.07          34.05  -39.61   12.96          41.68  161.88           1.72    0.92    1.27    1.16            0.02    0.04    0.03           0.18     0.20
F8          3.04    7.93    3.19          33.84  -56.80   18.31          59.68  162.13           2.29    0.86    1.36    1.18            0.02    0.03    0.02           0.15     0.17
F9         37.11   40.39   31.86          69.75   -5.89    2.20           6.29  159.52           0.42    0.37    0.41    0.40            0.24    0.25    0.26           0.23     0.26
F10        35.52   40.49   30.95          69.82  -11.48    3.73          12.07  161.99           0.46    0.36    0.42    0.40            0.21    0.25    0.25           0.22     0.24
F11        33.53   40.06   29.23          69.51  -16.97    5.93          17.97  160.74           0.51    0.35    0.45    0.41            0.18    0.20    0.18           0.20     0.22
F12        28.74   40.03   25.77          69.49  -34.52   11.72          36.46  161.25           0.65    0.30    0.49    0.43            0.21    0.21    0.21           0.24     0.28
F13        39.58   51.09   60.71          76.73  -28.11  -20.67          34.89  216.33           0.56    0.19    0.14    0.33            0.16    0.15    0.09           0.17     0.21
F14        51.00   40.40   51.01          69.75   34.73  -22.52          41.39  327.04           0.22    0.50    0.23    0.37            0.19    0.26    0.17           0.35     0.41
F15        63.57   65.96   22.37          84.98   -0.08   44.66          44.66   90.10           0.13    0.21    0.55    0.16            0.11    0.11    0.12           0.23     0.28
F16        20.06   20.90   17.26          52.84   -0.46   -0.01           0.50  182.08           0.67    0.67    0.68    0.68            0.11    0.11    0.10           0.21     0.25
F17        41.63   33.57   18.25          64.62   30.39   18.05          35.35   30.71           0.25    0.61    0.65    0.43            0.12    0.14    0.10           0.21     0.25
