targets/wolf_faust/reflective/R130227WhiteBacking.it8
IT8.7/2
ORIGINATOR "Wolf Faust"
DESCRIPTOR "Kodak Professional Paper, L* a* b* (light D50, viewing angle 2)"
MANUFACTURER "Wolf Faust - http://www.coloraid.de"
CREATED "May 04, 2013"
PROD_DATE "2013:02"
SAMPLE_BACKING "white"
SERIAL "5x7 R130227 Batch Average Data"
MATERIAL "Kodak Professional Ultra Endura"
NUMBER_OF_FIELDS 9
BEGIN_DATA_FORMAT
SAMPLE_ID  XYZ_X   XYZ_Y   XYZ_Z          LAB_L   LAB_A   LAB_B          LAB_C   LAB_H
END_DATA_FORMAT
NUMBER_OF_SETS 288
BEGIN_DATA
A1          3.51    2.93    2.10          19.78   11.56    2.89          11.92   14.04
A2          4.49    3.02    1.74          20.14   24.09    7.01          25.09   16.23 
A3          5.35    3.00    1.46          20.03   35.44   10.00          36.83   15.76
A4          6.02    3.30    1.58          21.20   38.00   10.63          39.46   15.63 
A5         12.99   11.32    8.08          40.12   14.43    4.57          15.14   17.58
A6         15.32   11.33    7.04          40.12   28.88    8.73          30.17   16.82 
A7         17.97   11.44    6.18          40.31   42.88   12.76          44.74   16.57
A8         21.65   11.58    5.27          40.54   60.18   17.55          62.69   16.26 
A9         42.47   41.73   32.52          70.69    6.77    2.84           7.34   22.75
A10        44.80   41.71   31.34          70.67   13.68    4.60          14.43   18.57
A11        47.39   41.99   30.01          70.86   20.18    7.00          21.36   19.14
A12        49.43   41.80   28.87          70.73   26.33    8.61          27.70   18.11 
A13        77.87   82.40   67.92          92.75   -3.12    0.07           3.13  178.77
A14        78.49   80.25   67.01          91.80    2.22   -0.74           2.34  341.64 
A15        80.44   83.99   66.16          93.44   -1.06    2.90           3.08  110.10
A16        80.34   83.46   67.52          93.22   -0.27    1.24           1.27  102.30
A17        78.48   81.00   63.91          92.13    0.75    2.76           2.86   74.71
A18        79.44   83.33   66.20          93.16   -1.79    2.37           2.97  127.08 
A19        75.52   78.54   66.88          91.02   -0.42   -1.94           1.99  257.67
A20         1.34    1.09    0.74           9.74    9.20    2.78           9.61   16.80 
A21         5.32    3.38    0.83          21.50   28.75   21.51          35.90   36.81
A22        10.59    6.05    0.89          29.54   43.20   34.31          55.17   38.46
B1          3.42    2.98    1.67          19.95    9.29    7.45          11.91   38.72
B2          3.90    2.91    1.03          19.69   17.84   15.07          23.35   40.18
B3          4.55    2.96    0.65          19.88   26.05   21.93          34.06   40.09
B4          5.41    3.30    0.57          21.21   31.02   25.88          40.39   39.84
B5         12.96   11.16    6.04          39.84   15.44   12.61          19.94   39.24
B6         15.23   11.45    4.01          40.33   27.48   24.11          36.56   41.27
B7         17.67   11.44    2.37          40.32   41.28   35.85          54.68   40.97
B8         20.94   11.51    1.12          40.43   57.30   49.58          75.77   40.87
B9         41.95   41.45   30.25          70.49    6.08    5.99           8.54   44.58
B10        44.67   42.07   27.07          70.92   12.23   11.93          17.09   44.31
B11        46.67   42.00   24.32          70.87   18.13   16.69          24.64   42.64
B12        48.41   41.66   21.63          70.64   23.94   21.38          32.10   41.76
B13        73.40   79.23   67.39          91.34   -6.12   -1.88           6.40  197.07
B14        75.78   75.84   65.61          89.79    5.45   -2.89           6.17  332.05
B15        77.89   81.53   57.53          92.37   -1.45    9.50           9.61   98.66
B16        65.68   68.17   55.15          86.09   -0.12    1.17           1.18   95.79
B17        72.54   72.67   55.60          88.29    5.24    4.47           6.89   40.50
B18        70.43   76.36   56.94          90.03   -6.71    6.07           9.05  137.84
B19        68.66   71.09   64.97          87.53    0.25   -6.17           6.18  272.26
B20         2.84    2.04    0.76          15.71   17.81   12.67          21.86   35.43
B21         8.58    5.00    0.84          26.74   39.00   30.27          49.37   37.82
B22        30.19   25.66   12.28          57.71   21.79   21.11          30.34   44.10
C1          4.46    4.32    2.31          24.70    4.09    9.42          10.27   66.54
C2          4.90    4.41    1.42          24.97    8.54   18.96          20.80   65.75
C3          5.10    4.29    0.75          24.60   12.67   28.22          30.93   65.83
C4          5.81    4.83    0.73          26.24   13.96   31.43          34.39   66.05
C5         24.27   23.18   11.06          55.26    8.55   20.51          22.22   67.37
C6         26.47   23.15    5.63          55.22   17.95   41.07          44.82   66.39
C7         29.00   23.52    2.49          55.60   26.37   61.19          66.63   66.69
C8         30.27   23.35    1.20          55.43   31.93   74.37          80.94   66.77
C9         48.91   49.26   33.24          75.61    3.90   10.24          10.96   69.18
C10        50.47   49.15   27.49          75.54    8.38   19.19          20.94   66.40
C11        52.02   49.31   22.37          75.64   12.02   28.58          31.00   67.20
C12        53.43   49.44   18.85          75.72   15.33   35.88          39.02   66.86
C13        64.33   72.53   66.44          88.22  -12.34   -6.36          13.88  207.26
C14        70.00   66.54   62.67          85.27   12.87   -7.87          15.09  328.56
C15        74.70   78.30   47.38          90.92   -1.64   18.11          18.18   95.16
C16        50.94   52.87   43.31          77.80   -0.10    0.40           0.43  103.86
C17        64.05   61.18   44.11          82.47   11.81    7.47          13.98   32.30
C18        58.78   67.00   46.36          85.51  -13.57    9.99          16.85  143.64
C19        55.98   57.52   61.28          80.47    1.29  -14.78          14.84  275.00
C20         1.67    1.41    0.72          12.04    8.62    7.23          11.25   40.01
C21        23.73   17.85    4.83          49.32   31.82   34.97          47.28   47.70
C22        36.08   32.78   17.85          63.98   15.56   17.85          23.69   48.92
D1          4.11    4.30    2.36          24.64   -0.51    8.93           8.95   93.24
D2          4.13    4.31    1.44          24.66   -0.28   18.18          18.19   90.88
D3          4.14    4.41    0.79          24.98   -1.57   28.21          28.25   93.18
D4          4.75    5.04    0.81          26.84   -1.35   30.96          30.99   92.50
D5         27.26   28.49   14.02          60.33   -0.86   20.83          20.85   92.37
D6         27.04   28.36    7.84          60.22   -1.26   40.15          40.17   91.79
D7         26.97   28.46    3.64          60.30   -1.90   60.86          60.89   91.78
D8         26.76   28.40    1.58          60.24   -2.48   77.96          78.00   91.83
D9         55.67   57.87   39.00          80.66   -0.31   10.87          10.88   91.63
D10        55.69   58.01   31.10          80.75   -0.61   22.34          22.35   91.58
D11        55.52   57.98   25.39          80.72   -0.94   31.75          31.76   91.69
D12        55.20   57.92   11.71          80.70   -1.62   62.38          62.40   91.49
D13        56.11   66.03   65.19          85.01  -17.94  -10.73          20.91  210.88
D14        64.32   57.93   59.42          80.70   20.07  -12.54          23.66  327.99
D15        71.43   74.77   37.87          89.29   -1.40   27.26          27.30   92.95
D16        39.13   40.60   33.04          69.90   -0.08    0.70           0.72   96.76
D17        56.38   51.20   34.00          76.80   18.09   11.18          21.27   31.73
D18        48.70   58.33   36.73          80.92  -19.58   14.40          24.31  143.67
D19        45.34   45.95   57.16          73.52    2.96  -22.63          22.82  277.44
D20        14.35   10.90    2.81          39.41   26.17   30.71          40.34   49.56
D21        22.07   21.39   11.83          53.38    6.80   14.94          16.41   65.53
D22        39.54   37.59   20.28          67.72   10.62   19.07          21.82   60.88
E1          3.85    4.40    2.31          24.96   -5.59    9.93          11.40  119.40
E2          3.48    4.33    1.49          24.73  -10.36   17.75          20.56  120.28
E3          3.22    4.39    0.84          24.94  -15.49   27.16          31.27  119.69
E4          3.42    4.75    0.87          26.02  -16.79   28.62          33.18  120.39
E5         12.82   14.57    7.76          45.04   -7.88   14.28          16.31  118.89
E6         11.52   14.38    4.66          44.77  -15.72   28.03          32.14  119.29
E7         10.46   14.38    2.62          44.77  -23.51   41.44          47.64  119.57
E8          9.63   14.46    1.38          44.88  -30.41   53.85          61.84  119.45
E9         38.50   41.31   28.41          70.39   -4.19    8.78           9.73  115.52
E10        36.89   41.13   24.05          70.26   -8.84   16.13          18.39  118.73
E11        35.79   41.34   20.02          70.41  -13.13   24.26          27.59  118.42
E12        32.10   41.02   11.59          70.19  -24.98   44.66          51.17  119.22
E13        47.94   59.12   63.60          81.36  -23.54  -15.51          28.19  213.38
E14        58.48   49.58   55.76          75.81   27.51  -17.21          32.45  327.97
E15        68.42   71.31   29.57          87.64   -0.73   36.63          36.64   91.15
E16        28.86   30.01   24.44          61.66   -0.28    0.58           0.65  117.52
E17        49.23   42.19   25.32          71.00   24.62   15.11          28.89   31.54
E18        39.22   49.75   28.29          75.91  -25.71   18.51          31.67  144.25
E19        35.64   35.45   52.56          66.10    4.95  -30.53          30.93  279.22
E20        25.11   17.25    1.26          48.57   40.98   61.75          74.11   56.43
E21        17.43   14.32    2.72          44.69   21.12   40.49          45.67   62.46
E22        30.55   26.30    8.39          58.32   20.50   34.81          40.39   59.50
F1          1.46    1.86    1.34          14.74   -8.85    2.36           9.16  165.05
F2          1.13    1.82    1.10          14.50  -18.01    5.18          18.74  163.95
F3          0.93    1.98    0.94          15.38  -28.94    9.16          30.35  162.44
F4          1.05    2.32    1.07          17.06  -31.56   10.05          33.12  162.34
F5          6.69    8.39    5.91          34.78  -13.42    4.52          14.16  161.39
F6          5.36    8.24    5.04          34.48  -26.77    8.27          28.02  162.83
F7          4.31    8.21    4.13          34.41  -39.78   13.24          41.92  161.59
F8          3.10    8.09    3.23          34.17  -57.23   18.58          60.18  162.01
F9         38.05   41.37   32.17          70.43   -5.81    2.92           6.50  153.35
F10        36.49   41.59   31.44          70.59  -11.56    4.30          12.33  159.60
F11        34.49   41.18   29.73          70.30  -17.06    6.49          18.26  159.18
F12        29.45   41.04   26.14          70.20  -34.82   12.29          36.93  160.56
F13        40.65   52.52   61.74          77.59  -28.51  -20.20          34.94  215.32
F14        52.61   41.58   51.74          70.58   35.38  -21.90          41.61  328.24
F15        65.88   68.17   22.76          86.09    0.33   45.84          45.84   89.58
F16        20.59   21.43   17.54          53.42   -0.36    0.34           0.50  139.73
F17        42.97   34.54   18.49          65.39   31.09   18.86          36.36   31.24
F18        31.15   42.04   21.25          70.90  -31.46   22.59          38.73  144.33
F19        27.37   26.39   47.67          58.40    7.89  -38.28          39.09  281.64
F20        26.41   25.35   11.88          57.41    8.30   21.76          23.29   69.12
F21        34.64   31.37   11.01          62.82   15.68   33.70          37.17   65.05
F22        39.18   36.63   15.96          67.00   12.60   27.43          30.18   65.33
G1          2.32    2.94    2.67          19.80   -9.94   -1.97          10.14  191.22
G2          1.84    2.92    2.86          19.71  -20.44   -3.60          20.75  189.98
G3          1.58    3.17    3.40          20.71  -31.22   -5.83          31.76  190.57
G4          1.70    3.44    3.69          21.74  -32.51   -5.92          33.04  190.33
G5          9.22   11.26    9.97          40.02  -12.86   -2.29          13.07  190.11
G6          7.76   11.18   10.66          39.87  -25.01   -4.77          25.46  190.80
G7          6.28   10.94   11.01          39.48  -37.92   -6.56          38.48  189.81
G8          4.87   10.81   11.86          39.26  -53.44   -9.49          54.28  190.07
G9         38.23   41.67   34.71          70.64   -6.16   -0.47           6.18  184.35
G10        35.86   41.36   35.49          70.43  -12.98   -1.96          13.12  188.58
G11        34.28   41.59   36.06          70.58  -19.01   -2.48          19.17  187.45
G12        28.88   41.13   38.54          70.26  -37.29   -6.45          37.84  189.81
G13        34.39   46.47   59.65          73.85  -32.70  -24.58          40.91  216.94
G14        46.91   34.34   47.49          65.24   43.09  -26.30          50.48  328.61
G15        63.55   65.04   16.70          84.50    1.92   55.86          55.89   88.03
G16        14.18   14.73   11.93          45.26   -0.11    0.64           0.67   98.41
G17        37.32   27.94   12.75          59.84   37.50   23.43          44.22   31.99
G18        24.47   35.26   15.50          65.95  -36.69   26.75          45.40  143.91
G19        20.70   19.02   42.71          50.71   11.88  -45.57          47.09  284.61
G20        36.49   35.09   14.45          65.82    8.99   29.18          30.53   72.88
G21        35.31   33.70    9.40          64.72    9.78   42.23          43.35   76.96
G22        47.32   43.48    2.78          71.88   15.62   86.93          88.32   79.82
H1          2.52    2.97    3.32          19.91   -6.41   -6.63           9.22  225.99
H2          2.20    2.92    4.43          19.73  -12.15  -13.83          18.41  228.70
H3          1.94    2.91    5.64          19.66  -17.65  -20.29          26.90  228.98
H4          2.10    3.26    6.92          21.04  -20.10  -23.68          31.06  229.68
H5          9.71   11.16   12.17          39.84   -8.06   -9.39          12.38  229.35
H6          8.87   11.29   15.62          40.06  -15.89  -18.18          24.14  228.84
H7          7.76   11.09   19.38          39.73  -24.36  -27.30          36.59  228.25
H8          6.64   10.80   24.47          39.24  -33.11  -38.14          50.50  229.04
H9         38.22   41.24   37.51          70.34   -4.87   -4.91           6.92  225.20
H10        37.05   41.25   40.88          70.35   -8.72   -9.37          12.80  227.07
H11        35.79   41.57   45.34          70.57  -13.82  -14.55          20.07  226.46
H12        32.31   41.38   57.22          70.44  -25.28  -27.98          37.71  227.91
H13        28.58   40.47   57.08          69.81  -36.46  -28.93          46.54  218.43
H14        41.62   28.07   43.19          59.95   50.51  -30.23          58.86  329.10
H15        61.59   62.27   12.29          83.06    3.64   64.78          64.88   86.79
H16         9.27    9.66    7.97          37.22   -0.34    0.02           0.37  179.54
H17        32.44   22.51    8.62          54.56   43.62   27.46          51.54   32.19
H18        18.78   29.19   11.07          60.95  -41.85   30.28          51.66  144.11
H19        15.23   13.10   37.83          42.91   16.38  -52.64          55.14  287.29
H20        41.60   42.07   15.54          70.92    3.17   35.23          35.37   84.85
H21        31.42   32.52   20.71          63.77    0.23   11.38          11.39   88.84
H22        35.71   38.75   11.39          68.57   -5.44   42.44          42.79   97.30
I1          4.31    4.44    5.84          25.06    0.39  -11.92          11.93  271.87
I2          4.26    4.32    8.71          24.72    1.32  -24.30          24.34  273.10
I3          4.32    4.32   11.99          24.70    2.10  -34.98          35.05  273.43
I4          4.38    4.24   19.69          24.45    4.04  -54.30          54.45  274.26
I5         14.11   14.57   15.44          45.04    0.41   -9.14           9.15  272.54
I6         14.22   14.61   19.59          45.09    0.86  -18.52          18.54  272.65
I7         14.37   14.67   24.41          45.17    1.40  -27.79          27.82  272.88
I8         14.57   14.65   39.80          45.15    2.75  -51.41          51.49  273.06
I9         40.17   41.67   37.45          70.64   -0.02   -4.31           4.31  269.69
I10        40.22   41.51   41.37          70.53    0.61   -9.70           9.72  273.62
I11        40.46   41.77   45.21          70.71    0.57  -14.15          14.16  272.31
I12        40.69   41.67   55.59          70.64    1.57  -25.94          25.99  273.47
I13        23.79   35.17   54.45          65.88  -39.31  -32.95          51.29  219.97
I14        36.26   22.12   38.57          54.16   58.50  -34.25          67.79  329.65
I15        59.80   59.52    8.51          81.58    5.81   74.43          74.66   85.54
I16         5.60    5.81    4.86          28.92   -0.05   -0.38           0.42  257.32
I17        27.99   17.85    5.34          49.31   49.53   32.30          59.13   33.11
I18        14.17   23.90    7.54          55.99  -46.45   34.03          57.59  143.77
I19        10.94    8.40   32.93          34.80   23.08  -59.65          63.96  291.15
I20        42.07   46.09   15.84          73.60   -7.00   39.12          39.74  100.14
I21        10.91   14.61    3.49          45.09  -21.52   35.65          41.64  121.11
I22        28.12   36.27   17.18          66.73  -25.01   24.10          34.73  136.07
J1          2.09    1.87    2.92          14.81    6.59  -12.57          14.19  297.64
J2          2.41    1.86    4.93          14.76   13.53  -25.13          28.54  298.30
J3          2.81    1.89    7.84          14.88   20.78  -38.01          43.32  298.67
J4          3.95    1.91   19.75          14.99   38.80  -70.76          80.70  298.74
J5         11.62   11.28   12.39          40.04    5.37   -9.66          11.06  299.06
J6         12.33   11.29   15.84          40.07   10.23  -18.69          21.31  298.70
J7         13.04   11.10   20.21          39.75   16.38  -29.02          33.33  299.45
J8         15.39   11.31   35.23          40.09   29.48  -53.89          61.43  298.68
J9         41.25   41.87   37.81          70.78    2.71   -4.56           5.31  300.71
J10        42.17   42.03   41.25          70.89    5.01   -8.92          10.23  299.33
J11        43.17   42.18   45.34          70.99    7.54  -13.82          15.74  298.60
J12        45.04   41.92   54.51          70.81   13.75  -24.51          28.10  299.30
J13        19.35   29.86   51.17          61.53  -41.43  -36.88          55.47  221.67
J14        31.56   17.41   34.18          48.78   65.38  -37.40          75.32  330.23
J15        57.83   56.47    5.50          79.88    8.38   84.22          84.63   84.32
J16         3.04    3.19    2.64          20.79   -0.69   -0.01           0.71  180.63
J17        24.08   14.13    2.93          44.41   54.46   38.41          66.64   35.20
J18        10.16   18.87    4.67          50.54  -50.67   37.92          63.28  143.19
J19         7.73    5.08   28.24          26.96   30.48  -65.83          72.55  294.84
J20        30.24   38.95   22.54          68.71  -25.43   16.30          30.20  147.34
J21         4.10    7.85    1.47          33.67  -39.55   33.40          51.77  139.82
J22         1.28    2.07    0.93          15.86  -18.90   10.16          21.46  151.75
K1          5.23    4.40    5.18          24.96   12.64   -8.87          15.44  324.95
K2          6.57    4.46    7.36          25.13   26.99  -18.47          32.71  325.62
K3          7.93    4.49    9.88          25.22   39.74  -27.50          48.32  325.32
K4          9.36    4.48   12.77          25.21   52.15  -36.32          63.55  325.14
K5         16.12   14.70   15.10          45.21   11.61   -8.00          14.10  325.43
K6         18.33   14.78   18.60          45.33   23.13  -15.96          28.10  325.40
K7         20.49   14.64   22.40          45.13   34.87  -24.10          42.39  325.35
K8         26.85   14.96   33.30          45.58   61.07  -41.63          73.91  325.72
K9         42.46   41.84   37.10          70.76    6.43   -3.64           7.39  330.51
K10        45.11   42.31   41.01          71.08   12.80   -8.27          15.24  327.12
K11        47.36   42.10   44.62          70.94   19.74  -13.04          23.66  326.55
K12        52.30   42.38   52.43          71.13   32.20  -21.72          38.84  326.00
K13        15.83   25.25   47.72          57.31  -42.24  -40.22          58.32  223.60
K14        27.10   13.45   29.67          43.44   71.33  -39.74          81.65  330.88
K15        55.86   53.37    3.40          78.09   11.26   93.12          93.79   83.11
K16         1.47    1.55    1.29          12.94   -0.75   -0.15           0.84  193.15
K17        20.51   11.08    1.45          39.71   58.34   44.07          73.11   37.07
K18         7.09   14.57    2.76          45.05  -53.64   40.81          67.40  142.74
K19         5.53    2.90   23.71          19.64   39.15  -70.53          80.67  299.04
K20         2.33    3.11    1.90          20.47  -12.71    5.99          14.05  154.76
K21         1.29    1.76    1.46          14.19  -11.42   -0.01          11.42  180.05
K22         1.61    2.12    2.84          16.11  -10.50   -9.65          14.27  222.58
L1          3.60    2.96    2.70          19.87   12.57   -2.09          12.74  350.56
L2          4.56    3.01    3.00          20.07   25.32   -4.06          25.64  350.89
L3          5.70    3.14    3.43          20.60   37.06   -6.18          37.57  350.54
L4          6.46    3.46    3.80          21.79   40.17   -6.54          40.70  350.75
L5         13.11   11.22   10.22          39.95   15.96   -3.23          16.28  348.55
L6         15.75   11.27   10.96          40.04   31.78   -5.42          32.24  350.33
L7         18.87   11.45   11.96          40.32   47.50   -7.95          48.16  350.49
L8         22.67   11.61   12.97          40.58   64.72  -10.37          65.55  350.90
L9         42.74   41.63   34.51          70.62    7.89   -0.22           7.90  358.37
L10        45.57   42.13   36.04          70.96   14.64   -1.81          14.75  352.95
L11        48.14   42.22   36.96          71.02   21.55   -2.98          21.76  352.13
L12        51.19   42.59   37.79          71.27   28.70   -3.68          28.93  352.69
L13        12.23   20.01   42.71          51.85  -41.25  -43.59          60.01  226.58
L14        22.54   10.07   24.71          37.97   75.36  -40.74          85.67  331.60
L15        52.51   48.63    1.83          75.22   15.13  101.09         102.21   81.49
L16         0.53    0.57    0.50           5.12   -0.76   -0.52           0.94  214.32
L17        16.60    8.23    0.55          34.47   60.65   49.01          77.98   38.95
L18         4.34   10.04    1.36          37.92  -54.59   42.06          68.92  142.39
L19         3.85    1.50   18.71          12.58   47.75  -72.69          86.97  303.30
L20         0.69    0.76    0.78           6.86   -1.86   -2.83           3.39  236.65
L21         0.91    0.88    0.94           7.96    2.38   -3.74           4.43  302.44
L22         1.95    1.57    1.38          13.04   11.10   -1.12          11.16  354.26
GS0        80.34   83.83   67.74          93.38   -0.96    1.31           1.62  126.15
GS1        70.03   72.80   58.81          88.35   -0.35    1.28           1.33  105.55
GS2        62.03   64.51   52.22          84.23   -0.41    1.11           1.18  110.14
