targets/wolf_faust/reflective/R130730.it8
IT8.7/2
ORIGINATOR "Wolf Faust"
DESCRIPTOR "Kodak Professional Paper, L* a* b* (light D50, viewing angle 2)"
MANUFACTURER "Wolf Faust - http://www.coloraid.de"
CREATED "July 31, 2013"
PROD_DATE "2013:07"
SAMPLE_BACKING "black"
SERIAL "5x7 R130730 Batch Average Data"
MATERIAL "Kodak Professional Endura Premier"
KEYWORD "MEAN_DE" # Mean Delta E of samples compared to batch average
NUMBER_OF_FIELDS 18
BEGIN_DATA_FORMAT
SAMPLE_ID  XYZ_X   XYZ_Y   XYZ_Z          LAB_L   LAB_A   LAB_B          LAB_C   LAB_H          D_RED  D_GREEN  D_BLUE  D_VIS          STDEV_X STDEV_Y STDEV_Z        MEAN_DE  STDEV_DE
END_DATA_FORMAT
NUMBER_OF_SETS 288
BEGIN_DATA
A1          3.42    2.89    2.10          19.60   10.75    2.57          11.05   13.44           1.36    1.64    1.58    1.50            0.04    0.04    0.03           0.30     0.33
A2          4.33    2.94    1.75          19.82   23.28    6.40          24.15   15.37           1.20    1.81    1.66    1.46            0.05    0.04    0.02           0.29     0.33 
A3          5.17    2.93    1.43          19.77   34.31    9.92          35.71   16.13           1.10    2.05    1.76    1.42            0.06    0.04    0.01           0.26     0.30
A4          5.83    3.24    1.53          20.98   36.91   10.81          38.46   16.32           1.04    2.05    1.73    1.37            0.06    0.04    0.02           0.26     0.29 
A5         12.35   10.79    7.87          39.22   14.02    3.84          14.54   15.31           0.81    1.05    1.01    0.94            0.10    0.09    0.10           0.25     0.28
A6         14.77   10.92    6.86          39.45   28.52    8.31          29.71   16.24           0.68    1.16    1.08    0.90            0.09    0.08    0.09           0.28     0.32 
A7         17.41   11.19    6.11          39.89   41.67   12.40          43.47   16.57           0.59    1.28    1.13    0.87            0.12    0.09    0.10           0.38     0.41
A8         20.95   11.26    5.17          40.02   59.13   17.18          61.57   16.20           0.50    1.54    1.21    0.83            0.10    0.07    0.06           0.28     0.32 
A9         41.24   40.52   32.02          69.84    6.75    2.12           7.08   17.43           0.34    0.42    0.41    0.38            0.22    0.24    0.26           0.23     0.26
A10        43.25   40.23   30.43          69.64   13.61    4.23          14.25   17.26           0.29    0.45    0.43    0.38            0.21    0.22    0.27           0.29     0.32
A11        45.50   40.13   29.43          69.56   20.47    5.69          21.25   15.52           0.25    0.47    0.45    0.37            0.15    0.17    0.21           0.24     0.27
A12        47.49   40.32   28.44          69.70   25.46    7.54          26.55   16.49           0.22    0.49    0.46    0.36            0.16    0.19    0.21           0.23     0.27 
A13        75.52   80.15   67.11          91.75   -3.56   -0.90           3.67  194.20           0.11    0.08    0.09    0.10            0.10    0.11    0.11           0.08     0.09
A14        76.59   78.65   66.32          91.07    1.54   -1.34           2.04  319.10           0.09    0.11    0.10    0.10            0.09    0.08    0.13           0.09     0.10 
A15        78.10   81.76   64.60          92.47   -1.47    2.69           3.07  118.60           0.09    0.08    0.11    0.09            0.10    0.10    0.09           0.07     0.09
A16        78.06   81.19   66.64          92.22   -0.45    0.33           0.56  144.13           0.09    0.09    0.10    0.09            0.13    0.13    0.10           0.07     0.08
A17        76.18   78.81   62.86          91.15    0.39    2.09           2.12   79.48           0.10    0.10    0.12    0.10            0.14    0.15    0.13           0.09     0.11
A18        76.11   80.30   63.76          91.82   -2.65    2.38           3.56  138.09           0.10    0.09    0.11    0.10            0.20    0.19    0.18           0.09     0.11 
A19        73.79   76.84   66.11          90.25   -0.63   -2.56           2.64  256.27           0.12    0.11    0.10    0.12            0.13    0.12    0.09           0.10     0.11
A20         1.34    1.10    0.79           9.82    8.87    2.04           9.10   12.92           1.78    2.07    2.00    1.92            0.02    0.02    0.01           0.24     0.27 
A21         5.21    3.33    0.85          21.32   28.09   20.87          34.99   36.61           1.09    1.85    1.96    1.38            0.05    0.04    0.01           0.28     0.35
A22        10.15    5.82    0.91          28.96   42.32   32.94          53.63   37.89           0.79    1.78    1.93    1.12            0.08    0.04    0.01           0.30     0.33
B1          3.26    2.89    1.64          19.61    8.11    7.19          10.84   41.56           1.38    1.62    1.67    1.51            0.04    0.03    0.02           0.29     0.32
B2          3.85    2.90    1.09          19.66   17.25   14.24          22.37   39.55           1.26    1.74    1.85    1.47            0.04    0.03    0.01           0.27     0.30
B3          4.56    2.99    0.68          20.02   25.57   21.69          33.53   40.31           1.15    1.87    2.05    1.43            0.04    0.02    0.01           0.25     0.28
B4          5.13    3.20    0.62          20.85   29.29   24.15          37.96   39.51           1.09    1.91    2.09    1.39            0.07    0.05    0.01           0.33     0.36
B5         12.64   10.92    5.78          39.45   15.02   13.15          19.96   41.20           0.78    1.06    1.14    0.93            0.09    0.09    0.04           0.25     0.27
B6         14.65   11.05    3.94          39.67   26.85   23.44          35.64   41.11           0.67    1.16    1.30    0.89            0.11    0.10    0.05           0.24     0.28
B7         17.15   11.13    2.35          39.80   40.70   35.16          53.78   40.83           0.58    1.31    1.52    0.86            0.09    0.08    0.03           0.18     0.20
B8         20.35   11.27    1.19          40.04   56.16   48.00          73.88   40.52           0.49    1.55    1.81    0.82            0.08    0.07    0.01           0.17     0.20
B9         40.54   40.10   29.58          69.54    5.84    5.42           7.97   42.88           0.34    0.42    0.44    0.39            0.27    0.28    0.27           0.23     0.25
B10        42.70   40.14   26.43          69.57   12.28   10.70          16.29   41.07           0.29    0.45    0.49    0.38            0.23    0.25    0.21           0.25     0.27
B11        44.98   40.24   23.44          69.64   18.64   16.19          24.69   40.97           0.25    0.47    0.54    0.37            0.15    0.17    0.21           0.27     0.32
B12        46.66   40.35   21.29          69.72   23.07   20.46          30.84   41.58           0.22    0.49    0.58    0.36            0.18    0.24    0.23           0.31     0.37
B13        71.03   76.89   66.52          90.27   -6.49   -2.91           7.11  204.12           0.15    0.09    0.10    0.12            0.13    0.13    0.10           0.08     0.09
B14        73.37   73.46   64.67          88.67    5.33   -3.94           6.62  323.52           0.11    0.14    0.11    0.13            0.22    0.23    0.16           0.14     0.16
B15        75.43   79.18   56.54          91.32   -1.85    8.71           8.90  102.01           0.10    0.10    0.17    0.10            0.13    0.12    0.18           0.17     0.20
B16        63.09   65.53   53.86          84.75   -0.20    0.23           0.33  133.40           0.18    0.18    0.19    0.18            0.25    0.28    0.28           0.19     0.21
B17        69.82   69.97   54.38          86.98    5.11    3.51           6.20   34.52           0.12    0.17    0.18    0.15            0.18    0.22    0.26           0.22     0.25
B18        67.92   73.90   55.90          88.87   -7.16    5.16           8.83  144.20           0.16    0.11    0.17    0.14            0.19    0.19    0.22           0.18     0.20
B19        66.19   68.56   63.91          86.29    0.19   -7.31           7.32  271.45           0.17    0.16    0.12    0.17            0.21    0.23    0.16           0.18     0.20
B20         2.83    2.05    0.79          15.77   17.31   12.37          21.28   35.55           1.39    1.92    1.99    1.62            0.03    0.02    0.00           0.26     0.29
B21         8.37    4.92    0.88          26.49   38.26   29.23          48.15   37.38           0.87    1.81    1.94    1.20            0.06    0.03    0.01           0.23     0.25
B22        29.06   24.63   11.90          56.71   21.79   20.48          29.91   43.22           0.41    0.72    0.83    0.57            0.18    0.16    0.10           0.24     0.26
C1          4.43    4.26    2.28          24.52    4.37    9.36          10.33   64.98           1.27    1.41    1.53    1.35            0.06    0.05    0.02           0.21     0.25
C2          4.77    4.31    1.45          24.67    8.23   18.10          19.89   65.54           1.20    1.45    1.72    1.33            0.04    0.03    0.01           0.20     0.22
C3          5.14    4.36    0.80          24.83   12.11   27.80          30.33   66.46           1.15    1.50    1.96    1.31            0.06    0.05    0.01           0.28     0.32
C4          5.59    4.67    0.78          25.76   13.45   29.74          32.64   65.66           1.11    1.48    1.97    1.28            0.05    0.05    0.01           0.21     0.24
C5         23.44   22.30   10.71          54.34    8.83   20.02          21.88   66.20           0.54    0.71    0.87    0.63            0.12    0.12    0.06           0.19     0.21
C6         25.37   22.23    5.50          54.27   17.53   40.05          43.72   66.36           0.46    0.77    1.15    0.61            0.15    0.16    0.07           0.24     0.29
C7         27.63   22.40    2.47          54.44   26.02   59.36          64.81   66.33           0.40    0.83    1.48    0.59            0.14    0.14    0.02           0.21     0.23
C8         29.22   22.54    1.25          54.60   31.52   72.23          78.81   66.42           0.37    0.87    1.77    0.58            0.15    0.16    0.01           0.25     0.30
C9         47.26   47.62   32.80          74.59    3.76    9.13           9.87   67.61           0.28    0.34    0.40    0.31            0.23    0.26    0.24           0.23     0.25
C10        48.79   47.73   26.81          74.65    7.70   18.80          20.32   67.74           0.24    0.36    0.48    0.30            0.21    0.23    0.21           0.24     0.27
C11        50.63   48.10   21.85          74.89   11.62   28.28          30.58   67.66           0.21    0.38    0.57    0.29            0.20    0.22    0.25           0.30     0.36
C12        51.67   48.07   18.82          74.87   14.43   34.49          37.39   67.30           0.19    0.39    0.63    0.29            0.15    0.20    0.18           0.28     0.33
C13        62.48   70.46   65.47          87.22  -12.27   -7.18          14.21  210.33           0.24    0.11    0.10    0.17            0.16    0.16    0.13           0.11     0.12
C14        67.62   64.47   61.54          84.21   12.29   -8.60          15.00  325.01           0.13    0.22    0.14    0.18            0.15    0.23    0.10           0.21     0.25
C15        71.81   75.51   45.83          89.63   -2.08   17.73          17.85   96.70           0.11    0.13    0.25    0.12            0.10    0.10    0.17           0.17     0.21
C16        49.00   50.79   41.67          76.55    0.06    0.31           0.35   82.95           0.29    0.29    0.30    0.29            0.20    0.24    0.20           0.21     0.24
C17        61.28   58.65   42.47          81.10   11.35    7.14          13.41   32.17           0.15    0.27    0.29    0.22            0.25    0.31    0.33           0.26     0.29
C18        56.85   64.81   45.04          84.39  -13.43    9.64          16.53  144.33           0.25    0.16    0.26    0.20            0.16    0.16    0.24           0.21     0.24
C19        54.19   55.66   60.05          79.42    1.32  -15.38          15.43  274.89           0.27    0.24    0.15    0.26            0.17    0.22    0.12           0.23     0.25
C20         1.70    1.45    0.75          12.31    8.12    7.15          10.82   41.35           1.66    1.94    2.01    1.80            0.03    0.03    0.01           0.27     0.32
C21        22.95   17.29    4.72          48.63   31.31   34.37          46.49   47.67           0.48    0.97    1.22    0.70            0.15    0.14    0.06           0.24     0.28
C22        34.58   31.31   17.07          62.77   15.70   17.54          23.54   48.17           0.36    0.58    0.68    0.48            0.13    0.13    0.11           0.20     0.22
D1          3.98    4.16    2.29          24.18   -0.40    8.72           8.73   92.64           1.35    1.39    1.53    1.37            0.05    0.05    0.03           0.24     0.27
D2          3.98    4.17    1.46          24.23   -0.69   17.28          17.30   92.29           1.33    1.39    1.71    1.37            0.06    0.06    0.01           0.29     0.33
D3          3.99    4.20    0.83          24.32   -0.81   26.33          26.35   91.77           1.32    1.40    1.94    1.36            0.04    0.04    0.01           0.25     0.29
D4          4.58    4.87    0.87          26.35   -1.43   29.18          29.22   92.81           1.26    1.33    1.92    1.29            0.06    0.06    0.01           0.28     0.34
D5         26.38   27.50   13.69          59.43   -0.56   20.15          20.16   91.59           0.52    0.57    0.77    0.55            0.13    0.13    0.07           0.17     0.18
D6         26.32   27.61    7.70          59.53   -1.25   39.50          39.52   91.81           0.51    0.58    1.00    0.54            0.13    0.13    0.04           0.19     0.20
D7         26.01   27.55    3.70          59.48   -2.28   59.07          59.11   92.21           0.51    0.60    1.30    0.54            0.16    0.16    0.03           0.23     0.26
D8         26.23   27.89    1.65          59.79   -2.69   76.38          76.43   92.02           0.51    0.60    1.65    0.53            0.12    0.11    0.01           0.20     0.24
D9         54.34   56.53   38.44          79.91   -0.42   10.33          10.34   92.31           0.23    0.25    0.33    0.24            0.24    0.25    0.25           0.19     0.23
D10        54.18   56.53   30.92          79.91   -0.82   21.18          21.20   92.23           0.22    0.26    0.42    0.24            0.15    0.16    0.15           0.19     0.22
D11        53.92   56.38   24.65          79.83   -1.14   31.53          31.55   92.06           0.21    0.27    0.51    0.24            0.20    0.21    0.14           0.16     0.18
D12        53.74   56.56   11.76          79.93   -2.02   60.92          60.96   91.90           0.20    0.28    0.82    0.23            0.20    0.18    0.12           0.24     0.27
D13        53.76   63.45   63.97          83.68  -18.12  -11.86          21.66  213.21           0.34    0.14    0.11    0.22            0.19    0.18    0.12           0.14     0.17
D14        62.08   56.13   58.24          79.69   19.31  -13.09          23.33  325.86           0.16    0.30    0.16    0.24            0.13    0.17    0.09           0.17     0.20
D15        68.65   72.11   36.83          88.02   -1.89   26.50          26.56   94.09           0.12    0.15    0.34    0.13            0.10    0.09    0.24           0.25     0.32
D16        36.94   38.42   31.69          68.33   -0.34    0.02           0.37  173.90           0.41    0.41    0.42    0.42            0.17    0.19    0.22           0.20     0.23
D17        53.80   48.95   32.75          75.42   17.59   10.64          20.56   31.17           0.18    0.38    0.40    0.29            0.13    0.16    0.21           0.23     0.26
D18        46.39   55.79   35.55          79.50  -19.82   13.60          24.04  145.55           0.36    0.20    0.36    0.27            0.22    0.19    0.20           0.23     0.25
D19        43.36   44.10   55.72          72.29    2.48  -23.24          23.37  276.10           0.39    0.34    0.18    0.37            0.18    0.22    0.13           0.23     0.27
D20        13.81   10.50    2.82          38.73   25.69   29.45          39.08   48.90           0.70    1.19    1.44    0.91            0.13    0.10    0.03           0.28     0.31
D21        21.24   20.42   11.65          52.31    7.52   13.65          15.58   61.13           0.59    0.73    0.84    0.67            0.14    0.15    0.11           0.25     0.28
D22        38.02   36.12   19.77          66.61   10.59   18.21          21.06   59.83           0.34    0.49    0.61    0.42            0.14    0.14    0.08           0.18     0.20
E1          3.71    4.25    2.36          24.48   -5.70    8.65          10.36  123.38           1.41    1.34    1.51    1.38            0.04    0.03    0.03           0.24     0.27
E2          3.43    4.25    1.52          24.49  -10.11   17.03          19.80  120.69           1.46    1.32    1.69    1.38            0.03    0.04    0.02           0.23     0.26
E3          3.08    4.21    0.90          24.35  -15.24   25.28          29.52  121.09           1.55    1.30    1.90    1.39            0.06    0.07    0.01           0.35     0.39
E4          3.31    4.57    0.92          25.48  -16.25   26.83          31.37  121.21           1.52    1.26    1.89    1.35            0.03    0.05    0.00           0.28     0.33
E5         12.32   13.90    7.58          44.09   -7.16   13.36          15.16  118.18           0.89    0.83    1.02    0.86            0.09    0.10    0.08           0.20     0.23
E6         11.25   14.02    4.81          44.26  -15.43   26.35          30.54  120.34           0.95    0.81    1.20    0.86            0.11    0.12    0.07           0.28     0.31
E7         10.10   13.92    2.61          44.12  -23.45   40.39          46.70  120.14           1.04    0.79    1.45    0.87            0.08    0.10    0.03           0.20     0.22
E8          9.29   14.03    1.45          44.27  -30.57   51.98          60.30  120.46           1.14    0.76    1.70    0.87            0.08    0.09    0.01           0.30     0.34
E9         37.35   40.22   28.18          69.63   -4.62    7.84           9.10  120.52           0.41    0.38    0.46    0.40            0.22    0.22    0.20           0.21     0.24
E10        35.97   40.25   23.50          69.65   -9.23   16.08          18.54  119.85           0.43    0.38    0.54    0.40            0.20    0.21    0.17           0.23     0.25
E11        34.68   40.04   19.48          69.50  -12.95   23.81          27.10  118.54           0.45    0.37    0.61    0.40            0.16    0.16    0.13           0.20     0.23
E12        31.50   40.14   11.45          69.57  -24.48   43.99          50.34  119.09           0.52    0.35    0.83    0.40            0.19    0.18    0.09           0.24     0.27
E13        46.25   57.02   62.37          80.19  -23.21  -16.34          28.38  215.14           0.44    0.16    0.13    0.28            0.20    0.19    0.15           0.18     0.20
E14        56.13   47.69   54.39          74.63   26.82  -17.79          32.19  326.45           0.19    0.40    0.20    0.30            0.17    0.21    0.13           0.22     0.25
E15        65.78   68.81   28.71          86.41   -1.26   35.91          35.93   92.01           0.13    0.18    0.45    0.15            0.08    0.08    0.17           0.24     0.28
E16        27.40   28.42   23.39          60.27   -0.01    0.13           0.21  108.40           0.54    0.54    0.55    0.55            0.17    0.18    0.10           0.25     0.29
E17        47.02   40.37   24.35          69.73   24.00   14.66          28.12   31.42           0.22    0.49    0.53    0.36            0.12    0.17    0.15           0.27     0.30
E18        37.54   47.70   27.21          74.63  -25.56   18.09          31.32  144.71           0.47    0.26    0.47    0.34            0.15    0.15    0.10           0.19     0.21
E19        34.17   33.96   51.03          64.93    4.98  -30.86          31.26  279.17           0.51    0.45    0.22    0.49            0.11    0.13    0.09           0.24     0.27
E20        24.26   16.64    1.27          47.80   40.63   60.31          72.72   56.03           0.43    1.10    1.76    0.69            0.12    0.11    0.01           0.23     0.26
E21        16.83   13.86    2.73          44.03   20.71   39.32          44.44   62.23           0.62    1.02    1.44    0.80            0.15    0.13    0.03           0.28     0.32
E22        29.30   25.10    8.12          57.18   20.74   33.84          39.69   58.49           0.40    0.72    0.99    0.56            0.19    0.19    0.12           0.25     0.28
F1          1.46    1.85    1.35          14.68   -8.47    2.13           8.74  165.90           1.90    1.65    1.75    1.76            0.03    0.03    0.01           0.28     0.33
F2          1.15    1.82    1.12          14.53  -17.36    4.96          18.05  164.07           2.12    1.60    1.82    1.78            0.01    0.02    0.01           0.14     0.17
F3          1.02    1.99    1.04          15.44  -25.80    7.66          26.91  163.46           2.32    1.51    1.85    1.76            0.02    0.03    0.01           0.30     0.33
F4          1.10    2.31    1.14          17.05  -29.80    9.07          31.15  163.08           2.35    1.43    1.81    1.71            0.02    0.04    0.01           0.28     0.33
F5          6.50    8.06    5.89          34.10  -12.48    3.40          12.93  164.76           1.23    1.03    1.13    1.11            0.08    0.09    0.06           0.29     0.31
F6          5.22    7.98    4.95          33.93  -26.08    7.79          27.22  163.37           1.44    0.97    1.19    1.14            0.07    0.09    0.03           0.31     0.35
F7          4.22    8.05    4.05          34.08  -39.60   13.12          41.72  161.66           1.71    0.92    1.27    1.15            0.05    0.07    0.04           0.24     0.27
F8          3.17    8.05    3.35          34.09  -55.75   17.61          58.46  162.47           2.22    0.86    1.34    1.18            0.03    0.06    0.03           0.27     0.31
F9         37.11   40.37   31.94          69.73   -5.84    2.06           6.19  160.58           0.43    0.37    0.41    0.40            0.19    0.21    0.21           0.22     0.25
F10        35.21   40.00   30.68          69.47  -11.01    3.54          11.57  162.16           0.47    0.36    0.43    0.41            0.22    0.25    0.23           0.30     0.32
F11        33.52   40.10   29.34          69.54  -17.13    5.80          18.09  161.31           0.51    0.34    0.44    0.41            0.13    0.14    0.14           0.15     0.17
F12        28.76   39.91   25.93          69.40  -34.07   11.28          35.89  161.68           0.65    0.30    0.49    0.43            0.18    0.17    0.16           0.21     0.24
F13        39.13   50.49   60.36          76.37  -27.97  -20.94          34.94  216.83           0.57    0.19    0.14    0.34            0.13    0.15    0.08           0.16     0.17
F14        50.06   39.56   50.07          69.15   34.82  -22.50          41.45  327.13           0.23    0.51    0.23    0.37            0.14    0.15    0.10           0.25     0.28
F15        63.50   65.97   22.17          84.98   -0.25   45.05          45.06   90.32           0.13    0.21    0.56    0.16            0.05    0.05    0.11           0.15     0.20
F16        19.51   20.12   16.84          51.97    0.56   -0.56           0.80  315.04           0.68    0.69    0.69    0.70            0.07    0.09    0.11           0.20     0.24
F17        40.84   32.69   17.83          63.91   31.05   17.77          35.77   29.78           0.26    0.63    0.66    0.44            0.10    0.11    0.08           0.18     0.21
