targets/wolf_faust/reflective/R130113WhiteBacking.it8
IT8.7/2
ORIGINATOR "Wolf Faust"
DESCRIPTOR "FUJICOLOR Crystal Archive Paper, L* a* b* (light D50, viewing angle 2)"
MANUFACTURER "Wolf Faust - http://www.coloraid.de"
CREATED "January 15, 2013"
PROD_DATE "2013:01"
SAMPLE_BACKING "white"
SERIAL "5x7 R130113 Batch Average Data"
MATERIAL "FUJICOLOR Crystal Archive DP II Paper"
NUMBER_OF_FIELDS 9
BEGIN_DATA_FORMAT
SAMPLE_ID  XYZ_X   XYZ_Y   XYZ_Z          LAB_L   LAB_A   LAB_B          LAB_C   LAB_H
END_DATA_FORMAT
NUMBER_OF_SETS 288
BEGIN_DATA
A1          3.49    2.96    2.04          19.90   10.65    3.59          11.24   18.61
A2          4.37    2.96    1.69          19.87   23.66    7.19          24.73   16.89 
A3          5.38    3.03    1.36          20.18   35.17   11.51          37.01   18.12
A4          5.97    3.29    1.50          21.16   37.69   11.42          39.38   16.86 
A5         12.54   10.95    7.74          39.50   14.13    4.83          14.94   18.85
A6         15.03   11.08    6.90          39.72   28.90    8.63          30.16   16.62 
A7         17.47   11.14    5.95          39.81   42.37   13.00          44.31   17.05
A8         21.80   11.48    4.95          40.38   61.57   18.94          64.42   17.10 
A9         40.34   39.59   31.00          69.18    6.82    2.55           7.29   20.48
A10        42.64   39.51   29.19          69.12   14.03    5.31          15.01   20.74
A11        45.28   39.65   27.91          69.22   21.33    7.57          22.63   19.55
A12        48.80   40.26   27.13          69.66   29.24    9.64          30.79   18.25 
A13        76.14   80.42   67.74          91.87   -2.81   -1.28           3.09  204.44
A14        78.03   79.77   67.31          91.58    2.22   -1.39           2.62  328.03 
A15        78.81   82.09   63.93          92.61   -0.68    3.58           3.65  100.72
A16        78.99   81.84   66.16          92.50    0.15    1.28           1.29   83.32
A17        76.72   78.59   62.32          91.05    1.91    2.44           3.10   51.93
A18        76.81   80.78   63.90          92.04   -2.16    2.61           3.39  129.67 
A19        75.71   78.34   67.14          90.94    0.36   -2.34           2.37  278.69
A20         1.33    1.09    0.72           9.75    9.01    3.25           9.58   19.85 
A21         5.27    3.34    0.74          21.36   28.68   22.84          36.66   38.53
A22        10.38    5.93    0.82          29.23   42.87   34.97          55.32   39.20
B1          3.33    2.94    1.62          19.78    8.56    7.72          11.52   42.04
B2          3.97    2.98    1.00          19.97   17.63   16.02          23.82   42.28
B3          4.58    2.98    0.63          19.98   26.04   22.47          34.39   40.79
B4          4.99    3.22    0.64          20.91   27.25   24.06          36.35   41.43
B5         12.81   11.04    5.59          39.65   15.23   14.42          20.98   43.44
B6         14.63   10.98    3.78          39.55   27.24   24.21          36.44   41.63
B7         17.22   11.08    2.22          39.71   41.43   36.10          54.95   41.07
B8         21.11   11.44    0.98          40.31   58.67   51.52          78.08   41.29
B9         40.32   39.63   28.59          69.21    6.64    6.43           9.25   44.10
B10        42.30   39.60   25.45          69.18   12.77   11.73          17.34   42.58
B11        44.69   39.72   22.67          69.27   19.40   17.00          25.80   41.23
B12        47.93   40.29   19.57          69.68   26.77   23.92          35.90   41.78
B13        71.69   77.27   67.05          90.45   -5.86   -3.10           6.63  207.88
B14        74.45   73.80   65.62          88.83    6.85   -4.55           8.22  326.41
B15        77.08   80.67   55.85          91.99   -1.41   10.59          10.68   97.58
B16        63.84   66.30   53.39          85.15   -0.20    1.41           1.43   98.03
B17        71.52   71.21   54.24          87.59    6.12    4.71           7.72   37.61
B18        68.61   74.87   55.12          89.33   -7.65    6.78          10.22  138.43
B19        66.45   68.43   64.61          86.22    1.02   -8.09           8.16  277.21
B20         2.72    1.98    0.71          15.37   16.98   13.04          21.41   37.52
B21         8.46    4.96    0.79          26.63   38.45   31.07          49.44   38.94
B22        28.96   24.52   11.52          56.61   21.88   21.44          30.64   44.41
C1          4.47    4.35    2.24          24.81    3.69   10.23          10.87   70.16
C2          4.70    4.31    1.36          24.68    7.31   19.31          20.65   69.26
C3          5.29    4.53    0.83          25.34   11.80   28.05          30.43   67.18
C4          5.69    4.85    0.84          26.30   12.30   29.57          32.03   67.43
C5         23.43   22.25   10.40          54.29    9.03   20.92          22.78   66.65
C6         25.91   22.60    5.39          54.66   18.11   41.29          45.09   66.32
C7         27.91   22.53    2.34          54.59   26.48   60.68          66.20   66.42
C8         29.07   22.62    1.42          54.68   30.58   70.28          76.64   66.48
C9         46.95   47.14   31.61          74.28    4.23   10.41          11.24   67.87
C10        48.83   47.46   26.14          74.48    8.53   19.67          21.44   66.55
C11        50.30   47.29   20.92          74.38   12.95   29.24          31.97   66.12
C12        52.73   47.63   15.33          74.59   18.41   42.07          45.92   66.37
C13        62.79   70.74   65.82          87.36  -12.13   -7.28          14.14  210.97
C14        68.31   63.72   62.54          83.82   15.48  -10.24          18.56  326.50
C15        74.84   78.62   45.70          91.06   -1.95   20.35          20.44   95.49
C16        49.04   50.74   41.22          76.52    0.31    0.84           0.90   69.27
C17        63.22   59.56   42.35          81.60   13.69    8.15          15.94   30.75
C18        57.66   66.45   44.44          85.23  -15.07   11.81          19.15  141.93
C19        53.99   54.76   60.50          78.90    3.05  -16.72          16.99  280.32
C20         1.68    1.43    0.67          12.15    8.33    8.28          11.75   44.82
C21        22.81   17.14    4.59          48.43   31.53   34.73          46.91   47.76
C22        34.21   31.09   16.67          62.59   15.25   18.14          23.70   49.96
D1          4.13    4.38    2.25          24.87   -1.21   10.32          10.39   96.68
D2          4.06    4.29    1.39          24.62   -1.17   18.76          18.80   93.58
D3          4.29    4.55    0.89          25.40   -1.33   27.13          27.16   92.81
D4          4.53    4.81    0.92          26.17   -1.40   28.06          28.10   92.85
D5         26.37   27.31   13.41          59.26    0.15   20.62          20.62   89.58
D6         26.30   27.49    7.41          59.42   -0.84   40.49          40.50   91.19
D7         26.27   27.75    3.54          59.66   -1.98   60.47          60.51   91.88
D8         26.13   27.86    1.87          59.76   -3.01   74.02          74.08   92.33
D9         54.01   56.08   36.71          79.66   -0.18   12.26          12.27   90.84
D10        53.78   55.90   29.51          79.56   -0.31   22.79          22.80   90.77
D11        53.86   56.17   23.75          79.71   -0.78   32.98          32.99   91.35
D12        54.04   57.16    8.59          80.27   -2.70   71.91          71.97   92.15
D13        54.14   63.85   63.95          83.89  -18.05  -11.49          21.39  212.47
D14        62.37   54.63   59.04          78.83   23.69  -15.39          28.25  327.00
D15        72.76   76.42   36.68          90.05   -1.91   30.22          30.28   93.61
D16        37.05   38.40   31.32          68.31    0.08    0.57           0.61   80.16
D17        55.69   49.53   32.52          75.78   20.79   11.61          23.82   29.18
D18        47.33   57.83   34.97          80.64  -22.15   16.41          27.57  143.47
D19        42.84   42.79   55.73          71.41    4.77  -24.77          25.22  280.90
D20        13.95   10.60    2.68          38.90   25.87   30.83          40.25   50.00
D21        21.28   20.57   11.51          52.47    7.02   14.34          15.96   63.92
D22        38.04   36.08   19.20          66.58   10.76   19.37          22.16   60.96
E1          3.88    4.42    2.24          25.01   -5.51   10.62          11.96  117.42
E2          3.44    4.30    1.46          24.64  -10.51   17.91          20.77  120.41
E3          3.45    4.64    0.99          25.69  -14.93   26.16          30.12  119.71
E4          3.56    4.81    1.00          26.19  -15.30   26.84          30.90  119.69
E5         12.49   14.19    7.48          44.50   -7.81   14.49          16.46  118.34
E6         11.37   14.18    4.55          44.49  -15.54   28.15          32.16  118.91
E7         10.44   14.40    2.46          44.80  -23.74   42.83          48.97  118.99
E8          9.87   14.38    1.60          44.78  -28.04   51.03          58.22  118.79
E9         37.24   40.02   27.01          69.48   -4.32    9.54          10.48  114.37
E10        35.85   39.90   22.81          69.40   -8.55   16.95          18.99  116.77
E11        34.25   39.61   18.84          69.19  -13.09   24.65          27.91  117.97
E12        31.05   40.51    9.59          69.83  -27.27   50.40          57.31  118.42
E13        46.61   57.42   62.10          80.42  -23.17  -15.68          27.97  214.09
E14        56.66   46.37   55.25          73.79   31.78  -20.16          37.63  327.61
E15        70.66   73.91   28.72          88.88   -1.28   40.15          40.17   91.82
E16        27.40   28.39   23.21          60.24    0.12    0.41           0.46   72.87
E17        48.94   40.93   24.33          70.13   27.58   15.38          31.58   29.15
E18        38.54   49.88   27.12          76.00  -28.24   20.59          34.95  143.91
E19        33.60   32.78   50.73          63.99    7.07  -32.15          32.92  282.40
E20        24.71   16.91    1.22          48.15   41.08   61.46          73.93   56.24
E21        16.88   13.89    2.64          44.08   20.74   40.06          45.12   62.63
E22        29.34   25.16    7.81          57.23   20.67   35.12          40.75   59.52
F1          1.51    1.94    1.35          15.18   -9.40    2.94           9.85  162.61
F2          1.20    1.92    1.10          15.07  -17.91    6.18          18.95  160.97
F3          1.31    2.32    1.21          17.10  -23.40    8.17          24.78  160.75
F4          1.13    1.91    1.00          15.02  -20.20    7.54          21.57  159.53
F5          6.62    8.32    5.76          34.65  -13.54    4.99          14.43  159.77
F6          5.45    8.38    5.03          34.76  -26.91    8.82          28.32  161.85
F7          4.40    8.32    4.07          34.64  -39.64   13.94          42.02  160.62
F8          3.60    8.20    3.50          34.39  -50.07   17.16          52.93  161.08
F9         36.68   39.78   30.94          69.31   -5.45    2.87           6.17  152.19
F10        34.84   39.70   29.79          69.25  -11.34    4.58          12.23  158.00
F11        33.36   39.84   28.48          69.35  -16.91    6.88          18.25  157.85
F12        28.36   40.52   24.87          69.84  -37.50   13.91          40.00  159.65
F13        39.48   50.93   59.72          76.63  -28.00  -19.85          34.33  215.34
F14        51.23   39.05   51.21          68.79   39.52  -24.42          46.45  328.29
F15        68.82   71.47   22.28          87.71   -0.20   49.55          49.55   90.23
F16        19.72   20.53   16.73          52.43   -0.36    0.48           0.61  124.93
F17        42.98   33.72   17.73          64.74   33.91   19.43          39.08   29.82
F18        30.59   42.23   20.33          71.03  -34.11   24.68          42.10  144.11
F19        26.09   24.73   45.84          56.81    9.53  -38.87          40.02  283.78
F20        25.73   24.65   11.52          56.73    8.41   21.65          23.22   68.77
F21        33.19   30.06   10.46          61.70   15.49   33.51          36.91   65.19
F22        37.68   35.01   15.09          65.76   13.15   27.43          30.42   64.39
G1          2.34    2.99    2.62          19.99  -10.39   -1.26          10.47  186.92
G2          1.88    2.94    2.76          19.82  -19.73   -2.70          19.92  187.78
G3          1.94    3.40    3.39          21.59  -26.14   -4.17          26.47  189.06
G4          1.80    3.12    3.16          20.52  -24.70   -4.44          25.10  190.19
G5          8.90   10.91    9.65          39.43  -13.00   -2.23          13.19  189.75
G6          7.63   10.99   10.25          39.56  -24.83   -3.98          25.15  189.10
G7          6.35   11.02   11.12          39.62  -37.88   -6.64          38.46  189.94
G8          5.39   10.91   11.48          39.43  -47.77   -8.05          48.45  189.56
G9         36.35   39.77   32.95          69.31   -6.49   -0.19           6.49  181.71
G10        34.45   39.85   33.83          69.36  -13.13   -1.40          13.21  186.09
G11        32.95   40.09   34.81          69.53  -19.11   -2.52          19.28  187.51
G12        27.96   40.35   37.20          69.72  -38.51   -5.56          38.90  188.22
G13        33.78   45.41   57.31          73.16  -31.83  -23.39          39.50  216.31
G14        46.01   32.45   47.00          63.72   47.10  -28.34          54.97  328.96
G15        66.84   68.70   16.77          86.36    1.31   58.90          58.92   88.73
G16        13.73   14.22   11.61          44.55    0.08    0.40           0.43   81.85
G17        37.53   27.42   12.42          59.36   40.22   23.55          46.61   30.35
G18        24.45   35.90   15.06          66.44  -38.89   28.69          48.33  143.58
G19        19.89   17.97   40.78          49.46   13.29  -45.27          47.18  286.36
G20        35.34   34.01   14.05          64.97    8.82   28.75          30.07   72.94
G21        33.94   32.44    9.02          63.71    9.47   41.80          42.86   77.24
G22        46.53   42.80    2.67          71.42   15.36   86.96          88.31   79.98
H1          2.53    3.00    3.35          20.02   -6.77   -6.61           9.46  224.30
H2          2.19    2.90    4.34          19.65  -12.15  -13.45          18.12  227.90
H3          2.11    3.06    5.55          20.30  -16.54  -18.77          25.02  228.62
H4          2.18    3.15    5.87          20.63  -16.53  -19.73          25.74  230.03
H5          9.57   11.01   11.72          39.59   -8.10   -8.48          11.73  226.33
H6          8.52   10.89   14.87          39.40  -16.08  -17.45          23.73  227.33
H7          7.72   10.99   19.04          39.57  -24.00  -26.87          36.03  228.23
H8          7.00   10.94   22.63          39.48  -30.50  -34.29          45.89  228.35
H9         37.06   39.95   36.45          69.44   -4.72   -5.00           6.88  226.64
H10        35.84   39.88   39.63          69.38   -8.53   -9.41          12.70  227.79
H11        34.44   39.89   43.68          69.39  -13.30  -14.55          19.71  227.58
H12        31.92   40.37   55.09          69.74  -23.67  -26.98          35.89  228.74
H13        28.40   39.90   54.56          69.40  -35.43  -27.00          44.55  217.31
H14        41.06   26.65   42.69          58.65   54.40  -31.85          63.04  329.65
H15        64.96   65.93   12.33          84.96    3.16   67.93          68.00   87.34
H16         9.09    9.45    7.67          36.83   -0.15    0.48           0.58  104.65
H17        32.76   22.23    8.33          54.27   46.02   28.04          53.89   31.36
H18        18.93   29.89   10.81          61.56  -43.70   32.15          54.26  143.66
H19        14.86   12.65   36.00          42.23   17.03  -51.27          54.03  288.38
H20        40.44   40.85   14.60          70.07    3.29   36.13          36.28   84.80
H21        30.08   31.13   19.51          62.62    0.25   11.87          11.88   88.80
H22        34.44   37.59   10.93          67.72   -6.09   42.39          42.82   98.17
I1          4.28    4.44    5.72          25.09   -0.06  -11.32          11.33  269.71
I2          4.27    4.36    8.54          24.83    0.88  -23.50          23.52  272.14
I3          4.33    4.34   11.86          24.78    1.95  -34.44          34.50  273.25
I4          4.42    4.34   17.84          24.77    3.23  -49.74          49.84  273.71
I5         13.67   14.13   14.68          44.42    0.29   -8.30           8.31  271.96
I6         13.88   14.25   19.01          44.59    0.84  -18.13          18.15  272.66
I7         13.88   14.08   23.60          44.34    1.91  -27.73          27.80  273.93
I8         14.15   14.14   37.51          44.43    3.23  -49.59          49.70  273.73
I9         38.67   40.04   36.02          69.50    0.19   -4.30           4.31  272.57
I10        38.44   39.64   39.11          69.21    0.71   -9.02           9.04  274.47
I11        38.35   39.47   43.17          69.09    0.92  -14.44          14.47  273.63
I12        38.69   39.41   54.35          69.05    2.21  -27.37          27.46  274.62
I13        23.52   34.59   51.39          65.42  -38.57  -30.41          49.11  218.25
I14        36.35   21.58   38.30          53.57   61.33  -34.90          70.56  330.36
I15        62.92   62.82    8.58          83.35    5.47   77.25          77.44   85.95
I16         5.51    5.75    4.80          28.76   -0.40   -0.30           0.52  213.08
I17        28.37   17.75    5.23          49.19   51.55   32.66          61.02   32.36
I18        14.35   24.54    7.47          56.62  -48.07   35.41          59.70  143.63
I19        10.76    8.35   31.22          34.71   22.19  -57.22          61.37  291.19
I20        40.49   44.49   15.28          72.55   -7.28   38.69          39.37  100.66
I21        10.68   14.33    3.38          44.70  -21.53   35.69          41.68  121.11
I22        27.45   35.60   16.68          66.22  -25.45   24.38          35.25  136.23
J1          2.15    1.93    2.98          15.12    6.71  -12.47          14.16  298.26
J2          2.42    1.90    4.91          14.95   13.01  -24.70          27.92  297.77
J3          2.78    1.87    7.82          14.78   20.64  -38.10          43.33  298.44
J4          3.79    1.91   17.77          15.03   36.31  -66.39          75.67  298.68
J5         11.35   10.99   12.05          39.56    5.55   -9.52          11.02  300.23
J6         11.96   10.95   15.45          39.49   10.17  -18.74          21.32  298.49
J7         12.98   11.14   19.88          39.82   15.65  -28.20          32.25  299.03
J8         15.14   11.18   33.96          39.88   28.89  -52.42          59.86  298.86
J9         39.67   40.14   36.12          69.57    3.03   -4.32           5.29  305.09
J10        40.57   40.15   39.18          69.58    5.79   -8.47          10.26  304.34
J11        41.15   39.93   43.20          69.42    8.26  -13.92          16.18  300.68
J12        43.34   39.91   53.84          69.40   14.88  -26.21          30.15  299.59
J13        19.35   29.72   47.89          61.41  -40.91  -33.36          52.78  219.20
J14        32.14   17.46   34.06          48.83   67.22  -37.13          76.80  331.09
J15        60.79   59.60    5.86          81.62    7.95   85.48          85.85   84.69
J16         3.07    3.20    2.67          20.82   -0.32   -0.23           0.43  213.62
J17        24.62   14.25    3.01          44.58   56.09   38.15          67.83   34.22
J18        10.58   19.72    4.92          51.52  -51.70   38.29          64.34  143.48
J19         7.67    5.21   26.63          27.31   28.30  -62.51          68.61  294.36
J20        29.07   37.68   21.38          67.79  -25.89   16.97          30.96  146.76
J21         4.21    8.00    1.45          33.98  -39.39   34.11          52.10  139.10
J22         1.31    2.11    0.91          16.07  -18.93   10.83          21.81  150.22
K1          5.18    4.37    5.20          24.86   12.58   -9.11          15.54  324.10
K2          6.41    4.39    7.27          24.92   26.19  -18.43          32.02  324.86
K3          7.82    4.45    9.83          25.12   39.21  -27.52          47.90  324.94
K4          9.29    4.48   12.61          25.20   51.60  -35.90          62.86  325.17
K5         15.65   14.24   14.38          44.57   11.65   -7.28          13.74  327.99
K6         17.69   14.27   17.69          44.62   22.86  -15.18          27.44  326.40
K7         20.00   14.31   21.50          44.67   34.46  -23.12          41.50  326.14
K8         26.20   14.55   32.97          45.01   60.86  -42.11          74.01  325.32
K9         40.62   39.81   35.28          69.33    7.00   -3.54           7.85  333.24
K10        43.20   40.23   39.11          69.63   13.47   -8.29          15.82  328.41
K11        45.51   40.29   42.83          69.67   20.01  -13.01          23.86  326.96
K12        51.29   40.23   52.18          69.64   36.01  -24.02          43.28  326.29
K13        15.82   25.20   44.32          57.27  -42.12  -36.23          55.56  220.70
K14        27.94   13.84   29.63          44.00   72.24  -38.70          81.95  331.82
K15        57.93   55.42    3.68          79.28   11.21   93.36          94.03   83.15
K16         1.48    1.56    1.23          12.96   -0.57    0.75           0.96  127.18
K17        20.91   11.15    1.41          39.84   59.69   44.73          74.60   36.85
K18         7.43   15.16    2.88          45.86  -53.88   41.30          67.89  142.53
K19         5.39    3.01   22.09          20.09   35.63  -66.66          75.58  298.13
K20         2.31    3.09    1.88          20.38  -12.59    6.02          13.96  154.45
K21         1.33    1.82    1.52          14.49  -11.61   -0.26          11.61  181.28
K22         1.64    2.16    2.86          16.29  -10.59   -9.57          14.27  222.10
L1          3.57    2.96    2.66          19.87   12.05   -1.80          12.18  351.50
L2          4.49    2.99    2.92          20.02   24.68   -3.54          24.93  351.84
L3          5.72    3.18    3.38          20.77   36.53   -5.56          36.95  351.35
L4          6.38    3.45    3.72          21.75   39.49   -6.07          39.95  351.25
L5         12.88   11.07    9.73          39.69   15.56   -2.04          15.69  352.54
L6         15.42   11.03   10.63          39.63   31.59   -5.08          32.00  350.87
L7         18.48   11.15   11.56          39.82   47.67   -7.63          48.27  350.90
L8         23.06   11.66   12.76          40.66   66.12   -9.66          66.82  351.69
L9         41.08   39.78   33.02          69.31    8.52   -0.29           8.52  358.05
L10        43.88   40.22   34.09          69.63   15.50   -1.33          15.56  355.11
L11        46.40   40.32   35.14          69.69   22.44   -2.72          22.61  353.10
L12        49.90   40.18   36.24          69.59   32.48   -4.45          32.79  352.20
L13        12.08   19.87   38.96          51.69  -41.59  -39.02          57.03  223.18
L14        24.06   11.00   25.40          39.58   75.22  -39.21          84.83  332.47
L15        53.12   49.03    2.18          75.47   15.62   98.18          99.42   80.96
L16         0.58    0.62    0.51           5.61   -0.66    0.13           0.68  168.38
L17        17.16    8.54    0.60          35.09   61.00   49.09          78.30   38.83
L18         4.54   10.31    1.56          38.39  -53.90   40.53          67.44  143.06
L19         3.71    1.63   17.34          13.43   41.90  -68.15          80.00  301.58
L20         0.70    0.78    0.76           7.02   -1.95   -2.28           3.00  229.47
L21         0.92    0.89    0.94           8.07    2.48   -3.49           4.28  305.39
L22         1.96    1.58    1.30          13.13   10.87    0.07          10.87   72.39
GS0        79.09   82.15   67.80          92.64   -0.23   -0.01           0.24  184.05
GS1        67.56   70.01   56.55          87.00    0.14    1.26           1.27   83.60
