targets/wolf_faust/reflective/R130103WhiteBacking.it8
IT8.7/2
ORIGINATOR "Wolf Faust"
DESCRIPTOR "L* a* b* Batch average data (light D50, viewing angle 2)"
MANUFACTURER "Wolf Faust - http://www.coloraid.de"
CREATED "January 14, 2013"
PROD_DATE "2013:01"
SAMPLE_BACKING "white"
SERIAL "R130103"
MATERIAL "Kodak Professional Ultra Endura - Lustreless"
KEYWORD "MEAN_DE" # Mean Delta E of samples compared to batch average
NUMBER_OF_FIELDS 13
BEGIN_DATA_FORMAT
SAMPLE_ID  XYZ_X   XYZ_Y   XYZ_Z          LAB_L   LAB_A   LAB_B          LAB_C   LAB_H          D_RED  D_GREEN  D_BLUE  D_VIS
END_DATA_FORMAT
NUMBER_OF_SETS 288
BEGIN_DATA
A1          3.56    2.96    2.05          19.88   11.91    3.47          12.41   16.23           1.36    1.64    1.59    1.49
A2          4.36    2.95    1.70          19.83   23.71    6.96          24.71   16.36           1.22    1.81    1.68    1.45
A3          5.26    2.98    1.47          19.97   34.55    9.73          35.89   15.73           1.11    2.03    1.75    1.41
A4          6.00    3.28    1.47          21.14   38.01   11.77          39.79   17.21           1.04    2.06    1.75    1.36
A5         12.40   10.75    7.71          39.16   14.63    4.36          15.26   16.59           0.81    1.06    1.02    0.94
A6         14.62   10.75    6.75          39.16   28.86    8.30          30.03   16.04           0.69    1.17    1.08    0.91
A7         17.08   10.91    6.02          39.42   41.92   12.01          43.60   15.98           0.60    1.30    1.14    0.88
A8         20.33   10.90    4.97          39.42   58.70   17.15          61.15   16.29           0.51    1.55    1.23    0.84
A9         39.87   39.10   30.84          68.82    6.87    2.18           7.21   17.61           0.35    0.43    0.43    0.40
A10        42.19   39.25   29.87          68.93   13.50    3.91          14.06   16.13           0.31    0.45    0.44    0.39
A11        44.12   39.05   28.52          68.78   19.85    5.83          20.69   16.37           0.27    0.48    0.46    0.38
A12        46.20   39.06   27.82          68.80   25.77    7.00          26.70   15.20           0.23    0.51    0.47    0.37
A13        72.03   75.61   64.66          89.68   -1.83   -2.18           2.84  230.01           0.13    0.11    0.11    0.12
A14        72.92   74.94   64.36          89.36    1.37   -2.44           2.80  299.36           0.12    0.12    0.11    0.13
A15        73.15   76.19   60.96          89.95   -0.66    1.87           1.98  109.30           0.11    0.11    0.13    0.12
A16        72.94   75.55   62.05          89.65    0.19    0.28           0.35   54.56           0.12    0.12    0.13    0.12
A17        70.84   72.53   58.69          88.23    1.92    1.18           2.25   31.45           0.12    0.14    0.15    0.14
A18        71.89   75.40   61.48          89.58   -1.71    0.73           1.86  157.04           0.13    0.12    0.13    0.12
A19        72.05   74.74   64.41          89.27   -0.04   -2.64           2.64  269.18           0.13    0.12    0.11    0.13
A20         1.43    1.16    0.78          10.24    9.74    2.93          10.17   16.77           1.78    2.06    2.00    1.89
A21         5.20    3.31    0.85          21.23   28.42   20.62          35.11   35.96           1.11    1.86    1.96    1.38
A22        10.29    5.91    0.91          29.19   42.37   33.44          53.97   38.28           0.79    1.76    1.93    1.11
B1          3.36    2.93    1.62          19.76    9.19    7.70          11.99   39.97           1.39    1.63    1.68    1.50
B2          3.96    2.95    1.05          19.85   18.02   15.08          23.50   39.92           1.26    1.74    1.87    1.46
B3          4.58    2.98    0.72          19.95   26.12   20.79          33.39   38.52           1.17    1.88    2.03    1.43
B4          5.07    3.22    0.69          20.91   28.27   23.11          36.52   39.27           1.12    1.88    2.05    1.39
B5         12.59   10.86    5.74          39.35   15.08   13.19          20.03   41.17           0.79    1.07    1.14    0.93
B6         14.44   10.81    3.86          39.26   27.32   23.21          35.85   40.36           0.69    1.17    1.31    0.90
B7         16.79   10.89    2.25          39.39   40.47   35.29          53.70   41.09           0.59    1.32    1.54    0.87
B8         19.74   10.91    1.13          39.43   55.77   47.71          73.39   40.54           0.51    1.56    1.83    0.84
B9         39.70   39.15   28.84          68.86    6.19    5.42           8.23   41.23           0.35    0.43    0.46    0.40
B10        41.41   39.01   26.16          68.75   11.92    9.76          15.41   39.32           0.31    0.46    0.50    0.39
B11        43.57   39.15   23.12          68.86   17.93   15.43          23.65   40.72           0.26    0.48    0.55    0.38
B12        45.21   38.87   20.60          68.66   23.52   20.03          30.90   40.41           0.23    0.51    0.60    0.37
B13        66.72   71.84   63.72          87.89   -5.57   -4.36           7.07  218.04           0.18    0.12    0.12    0.15
B14        69.37   68.99   62.48          86.50    6.22   -5.57           8.35  318.15           0.13    0.17    0.13    0.16
B15        71.07   74.24   53.72          89.04   -1.08    7.76           7.83   97.94           0.12    0.13    0.19    0.13
B16        59.71   61.87   51.10          82.85    0.13   -0.05           0.22  117.21           0.20    0.21    0.21    0.21
B17        66.12   65.90   51.76          84.95    5.81    2.85           6.47   26.10           0.14    0.20    0.21    0.17
B18        64.09   69.44   52.95          86.72   -6.40    4.60           7.88  144.28           0.19    0.14    0.19    0.16
B19        62.50   64.35   61.42          84.15    1.06   -8.58           8.65  277.03           0.20    0.19    0.13    0.19
B20         2.90    2.08    0.80          15.90   18.07   12.31          21.86   34.26           1.40    1.92    1.99    1.61
B21         8.39    4.93    0.87          26.55   38.15   29.45          48.20   37.66           0.88    1.80    1.95    1.19
B22        28.41   24.11   11.63          56.20   21.51   20.41          29.65   43.49           0.43    0.73    0.84    0.58
C1          4.54    4.34    2.28          24.78    4.77    9.88          10.97   64.22           1.28    1.41    1.53    1.34
C2          4.84    4.35    1.41          24.78    8.63   18.80          20.69   65.35           1.21    1.46    1.73    1.32
C3          5.14    4.30    0.86          24.65   12.97   26.46          29.46   63.89           1.16    1.51    1.94    1.31
C4          5.61    4.65    0.84          25.71   14.01   28.51          31.77   63.84           1.12    1.49    1.94    1.28
C5         23.32   22.17   10.58          54.21    8.89   20.21          22.08   66.25           0.55    0.71    0.88    0.63
C6         25.03   21.94    5.37          53.96   17.39   40.16          43.76   66.58           0.47    0.77    1.16    0.62
C7         26.97   21.85    2.33          53.87   25.83   59.52          64.89   66.54           0.42    0.84    1.50    0.60
C8         28.13   21.84    1.36          53.86   30.50   69.55          75.94   66.32           0.39    0.88    1.73    0.59
C9         46.25   46.52   31.77          73.88    3.98    9.47          10.28   67.19           0.29    0.35    0.41    0.32
C10        47.42   46.35   26.30          73.77    7.71   18.18          19.75   67.01           0.25    0.37    0.49    0.32
C11        48.57   46.17   21.41          73.66   11.38   27.03          29.33   67.17           0.22    0.39    0.58    0.31
C12        49.81   45.99   17.39          73.54   15.26   35.37          38.52   66.66           0.20    0.41    0.66    0.31
C13        58.73   65.97   62.27          84.98  -11.43   -7.98          13.94  214.93           0.26    0.14    0.13    0.20
C14        64.25   60.81   59.65          82.28   13.11  -10.05          16.52  322.53           0.15    0.24    0.15    0.21
C15        68.32   71.50   44.29          87.73   -1.34   16.31          16.36   94.69           0.13    0.15    0.27    0.14
C16        46.78   48.50   39.85          75.14    0.04    0.23           0.29   80.24           0.31    0.31    0.32    0.31
C17        58.75   55.90   40.92          79.56   12.00    6.45          13.63   28.27           0.17    0.29    0.31    0.24
C18        54.05   61.42   42.84          82.60  -12.76    9.26          15.76  144.03           0.27    0.18    0.28    0.22
C19        51.30   52.37   57.43          77.50    2.12  -16.03          16.17  277.55           0.30    0.27    0.17    0.29
C20         1.79    1.51    0.78          12.64    8.90    7.09          11.38   38.56           1.67    1.94    2.00    1.78
C21        22.33   16.72    4.56          47.91   31.58   34.04          46.43   47.15           0.49    0.99    1.24    0.71
C22        34.02   30.95   16.80          62.46   15.12   17.63          23.23   49.39           0.37    0.58    0.68    0.48
D1          4.12    4.23    2.28          24.41    0.63    9.21           9.23   86.05           1.35    1.39    1.53    1.36
D2          4.17    4.31    1.46          24.66    0.20   18.05          18.05   89.38           1.33    1.39    1.71    1.35
D3          4.11    4.26    0.89          24.51    0.08   25.68          25.68   89.83           1.33    1.40    1.92    1.35
D4          4.70    4.80    0.91          26.16    0.84   28.14          28.15   88.28           1.26    1.36    1.90    1.29
D5         26.00   27.10   13.41          59.06   -0.54   20.27          20.28   91.54           0.53    0.58    0.78    0.56
D6         25.97   27.24    7.52          59.19   -1.19   39.66          39.68   91.72           0.52    0.59    1.01    0.55
D7         25.65   26.96    3.53          58.94   -1.45   59.25          59.27   91.40           0.52    0.61    1.33    0.55
D8         25.52   26.99    1.74          58.97   -2.10   74.01          74.04   91.63           0.53    0.62    1.63    0.54
D9         52.31   54.23   37.02          78.60    0.05   10.00          10.00   89.72           0.24    0.27    0.35    0.26
D10        52.53   54.53   30.18          78.77   -0.12   20.38          20.38   90.34           0.23    0.28    0.43    0.25
D11        52.31   54.45   24.20          78.72   -0.51   30.44          30.44   90.95           0.22    0.28    0.52    0.25
D12        51.48   53.99   11.93          78.45   -1.52   57.89          57.91   91.50           0.22    0.30    0.82    0.25
D13        51.09   60.03   60.45          81.85  -17.18  -11.57          20.71  213.97           0.36    0.16    0.14    0.25
D14        59.09   52.88   56.55          77.80   20.37  -14.59          25.06  324.37           0.18    0.33    0.18    0.26
D15        66.01   68.98   36.01          86.50   -1.12   25.02          25.04   92.57           0.13    0.17    0.35    0.15
D16        35.92   37.26   30.65          67.47   -0.02    0.16           0.23  141.14           0.42    0.43    0.43    0.43
D17        51.97   46.97   32.01          74.17   18.24    9.62          20.62   27.79           0.20    0.39    0.41    0.30
D18        44.85   53.71   34.25          78.29  -19.03   13.39          23.27  144.88           0.37    0.22    0.38    0.28
D19        41.37   41.71   52.92          70.67    3.55  -23.04          23.31  278.75           0.41    0.37    0.20    0.39
D20        13.84   10.51    2.68          38.74   25.84   30.54          40.00   49.77           0.70    1.19    1.46    0.91
D21        21.10   20.38   11.36          52.27    7.05   14.44          16.08   63.97           0.60    0.73    0.85    0.67
D22        37.45   35.58   19.55          66.20   10.51   17.97          20.81   59.68           0.34    0.50    0.62    0.43
E1          3.87    4.32    2.25          24.70   -4.23    9.98          10.84  112.99           1.41    1.35    1.54    1.36
E2          3.55    4.31    1.47          24.69   -9.07   17.90          20.07  116.89           1.47    1.32    1.70    1.37
E3          3.21    4.23    0.94          24.41  -13.30   24.68          28.04  118.31           1.54    1.31    1.89    1.38
E4          3.51    4.64    0.97          25.69  -14.05   26.42          29.93  118.01           1.51    1.27    1.87    1.34
E5         12.41   13.94    7.41          44.14   -6.76   14.14          15.67  115.54           0.89    0.84    1.03    0.86
E6         11.39   14.02    4.54          44.26  -14.38   27.85          31.34  117.31           0.95    0.81    1.23    0.86
E7         10.31   13.98    2.49          44.20  -22.14   41.55          47.08  118.05           1.04    0.79    1.47    0.86
E8          9.51   13.96    1.51          44.17  -28.37   51.09          58.44  119.04           1.13    0.78    1.69    0.87
E9         36.36   39.00   27.01          68.75   -4.06    8.29           9.23  116.07           0.42    0.40    0.48    0.41
E10        35.20   39.24   22.93          68.92   -8.71   15.91          18.14  118.68           0.44    0.39    0.55    0.41
E11        34.01   39.18   19.04          68.88  -12.59   23.69          26.82  117.98           0.46    0.38    0.62    0.41
E12        31.25   39.35   11.66          69.00  -22.94   42.39          48.20  118.42           0.52    0.36    0.83    0.41
E13        43.90   54.09   58.31          78.51  -22.73  -15.18          27.33  213.74           0.47    0.19    0.15    0.30
E14        53.64   45.05   52.93          72.92   27.93  -19.16          33.87  325.54           0.21    0.42    0.21    0.33
E15        63.66   66.24   28.56          85.12   -0.46   33.92          33.93   90.78           0.14    0.20    0.45    0.17
E16        26.67   27.61   22.72          59.54    0.17    0.12           0.25   75.57           0.55    0.56    0.56    0.56
E17        45.57   38.79   24.20          68.60   24.80   12.98          28.00   27.62           0.23    0.51    0.53    0.38
E18        36.63   46.36   26.47          73.78  -24.86   17.89          30.63  144.26           0.48    0.27    0.48    0.35
E19        32.53   32.10   48.12          63.42    5.73  -30.15          30.69  280.75           0.53    0.48    0.25    0.51
E20        23.55   16.12    1.28          47.13   40.45   58.94          71.49   55.54           0.45    1.11    1.76    0.71
E21        16.68   13.72    2.62          43.83   20.68   39.82          44.87   62.56           0.63    1.02    1.46    0.81
E22        28.60   24.54    7.85          56.62   20.41   33.91          39.58   58.96           0.42    0.73    1.00    0.57
F1          1.52    1.86    1.32          14.75   -7.20    2.69           7.69  159.55           1.90    1.66    1.77    1.75
F2          1.19    1.83    1.09          14.58  -16.25    5.47          17.15  161.40           2.14    1.61    1.84    1.78
F3          1.15    2.05    1.09          15.74  -22.41    7.41          23.61  161.70           2.26    1.52    1.83    1.74
F4          1.26    2.31    1.17          17.03  -24.71    8.57          26.16  160.87           2.24    1.47    1.80    1.69
F5          6.73    8.25    5.83          34.49  -11.79    4.36          12.57  159.69           1.23    1.02    1.13    1.10
F6          5.43    8.14    4.88          34.27  -24.97    8.76          26.46  160.67           1.44    0.97    1.20    1.13
F7          4.39    8.12    4.03          34.22  -37.98   13.49          40.30  160.44           1.71    0.93    1.27    1.15
F8          3.54    8.14    3.42          34.28  -50.61   17.45          53.53  160.98           2.08    0.88    1.33    1.16
F9         36.02   39.10   30.76          68.82   -5.50    2.30           5.97  157.29           0.44    0.39    0.43    0.41
F10        34.69   39.43   30.03          69.06  -11.06    3.88          11.72  160.68           0.48    0.37    0.44    0.41
F11        33.00   39.24   28.64          68.92  -16.32    5.88          17.35  160.20           0.52    0.36    0.45    0.42
F12        28.66   39.47   25.38          69.09  -33.06   11.70          35.08  160.51           0.65    0.31    0.50    0.43
F13        37.50   48.52   55.94          75.15  -27.92  -18.53          33.51  213.57           0.58    0.21    0.17    0.36
F14        48.07   37.50   48.90          67.65   35.90  -23.76          43.05  326.50           0.25    0.54    0.25    0.40
F15        61.51   63.48   21.97          83.69    0.71   43.22          43.22   89.06           0.14    0.23    0.56    0.18
F16        19.12   19.71   16.21          51.51    0.58    0.14           0.60   13.90           0.70    0.70    0.70    0.70
F17        39.62   31.53   17.57          62.95   31.39   16.71          35.56   28.03           0.27    0.65    0.67    0.45
F18        29.58   39.70   20.05          69.26  -30.27   22.19          37.53  143.76           0.60    0.32    0.60    0.42
F19        24.92   23.79   42.95          55.87    8.71  -36.97          37.98  283.26           0.68    0.61    0.30    0.64
F20        25.05   23.98   11.50          56.07    8.38   20.58          22.22   67.83           0.52    0.67    0.84    0.60
F21        32.97   29.85   10.51          61.52   15.48   33.03          36.47   64.89           0.37    0.61    0.88    0.49
F22        36.85   34.44   15.31          65.31   12.35   26.13          28.90   64.70           0.34    0.53    0.72    0.44
G1          2.37    2.94    2.60          19.82   -8.95   -1.40           9.06  188.88           1.73    1.46    1.48    1.56
G2          1.87    2.84    2.79          19.38  -18.18   -3.67          18.54  191.40           2.01    1.41    1.45    1.60
G3          1.72    3.05    3.15          20.23  -25.40   -4.88          25.86  190.87           2.23    1.34    1.39    1.59
G4          1.90    3.41    3.56          21.60  -27.14   -5.32          27.65  191.09           2.21    1.28    1.34    1.54
G5          9.02   10.93    9.63          39.45  -12.02   -2.12          12.21  189.99           1.12    0.90    0.92    0.98
G6          7.67   10.91   10.17          39.42  -23.81   -3.98          24.14  189.48           1.31    0.85    0.90    1.01
G7          6.41   10.90   10.98          39.41  -36.32   -6.57          36.91  190.26           1.61    0.80    0.86    1.03
G8          5.21   10.79   11.51          39.22  -49.02   -8.51          49.75  189.84           2.06    0.75    0.84    1.06
G9         36.24   39.47   33.33          69.09   -5.91   -1.14           6.02  190.94           0.45    0.38    0.39    0.41
G10        34.17   39.33   33.95          68.99  -12.49   -2.22          12.68  190.09           0.50    0.36    0.38    0.42
G11        32.55   39.40   34.34          69.04  -18.38   -2.70          18.58  188.35           0.55    0.34    0.38    0.43
G12        27.85   39.40   36.68          69.04  -36.03   -6.02          36.53  189.49           0.74    0.29    0.35    0.45
G13        31.81   43.28   53.24          71.75  -32.74  -21.53          39.19  213.33           0.71    0.25    0.19    0.41
G14        42.91   31.01   44.83          62.52   43.29  -27.82          51.46  327.28           0.29    0.66    0.29    0.47
G15        59.60   60.85   16.67          82.30    2.21   52.13          52.17   87.57           0.15    0.26    0.68    0.20
G16        13.31   13.70   11.32          43.80    0.63   -0.03           0.65  141.50           0.86    0.86    0.86    0.86
G17        34.41   25.51   12.49          57.57   37.52   20.26          42.64   28.37           0.32    0.79    0.82    0.53
G18        23.54   33.69   14.81          64.72  -35.43   26.36          44.16  143.35           0.74    0.38    0.73    0.50
G19        18.78   17.16   38.02          48.47   11.98  -43.33          44.95  285.45           0.84    0.75    0.36    0.79
G20        34.71   33.28   14.06          64.39    9.19   27.74          29.22   71.67           0.37    0.53    0.76    0.45
G21        33.26   31.88    9.14          63.24    9.12   40.58          41.59   77.34           0.38    0.56    0.93    0.47
G22        44.40   40.72    2.63          69.98   15.49   84.81          86.21   79.65           0.24    0.51    1.46    0.35
H1          2.52    2.91    3.25          19.68   -5.44   -6.52           8.49  230.18           1.70    1.48    1.39    1.56
H2          2.26    2.91    4.28          19.67  -10.58  -13.11          16.85  231.07           1.90    1.43    1.28    1.59
H3          2.01    2.93    5.56          19.74  -16.54  -19.73          25.75  230.03           2.24    1.37    1.17    1.62
H4          2.23    3.26    6.39          21.05  -17.27  -21.38          27.49  231.06           2.23    1.32    1.11    1.58
H5          9.60   10.90   11.82          39.41   -7.11   -9.12          11.56  232.06           1.09    0.91    0.84    0.98
H6          8.68   10.94   15.06          39.49  -15.05  -17.78          23.29  229.76           1.26    0.86    0.74    1.01
H7          7.78   10.86   18.91          39.34  -22.47  -26.96          35.10  230.20           1.53    0.82    0.64    1.04
H8          6.84   10.78   23.50          39.21  -30.94  -36.40          47.77  229.63           2.07    0.77    0.55    1.08
H9         36.93   39.71   36.36          69.26   -4.41   -5.19           6.80  229.64           0.44    0.38    0.36    0.41
H10        35.83   39.94   39.31          69.43   -8.73   -8.92          12.48  225.59           0.48    0.36    0.32    0.41
H11        34.22   39.68   43.32          69.24  -13.40  -14.38          19.66  227.02           0.54    0.34    0.28    0.43
H12        31.62   39.50   51.73          69.11  -22.05  -24.42          32.90  227.92           0.67    0.31    0.21    0.45
H13        26.64   38.27   50.43          68.22  -37.36  -24.52          44.69  213.28           0.86    0.28    0.21    0.48
H14        38.05   25.15   40.77          57.22   51.14  -31.87          60.26  328.07           0.33    0.81    0.33    0.55
H15        57.81   58.16   11.93          80.83    4.26   61.97          62.12   86.07           0.15    0.29    0.82    0.21
H16         8.68    8.91    7.30          35.80    0.75    0.21           0.79   14.57           1.04    1.05    1.04    1.05
H17        29.85   20.46    8.25          52.35   43.63   25.02          50.30   29.83           0.36    0.96    0.99    0.61
H18        18.30   28.10   10.36          59.98  -40.15   30.86          50.64  142.46           0.89    0.44    0.87    0.58
H19        13.72   11.77   33.10          40.84   16.00  -49.49          52.01  287.92           1.03    0.92    0.42    0.96
H20        39.38   39.87   14.87          69.38    2.96   34.25          34.38   85.06           0.33    0.43    0.73    0.38
H21        29.92   30.98   19.60          62.49    0.16   11.47          11.47   89.20           0.48    0.52    0.62    0.50
H22        34.02   36.93   11.02          67.22   -5.41   41.25          41.61   97.47           0.42    0.44    0.85    0.42
I1          4.29    4.33    5.67          24.72    1.67  -11.69          11.81  278.11           1.41    1.35    1.16    1.37
I2          4.38    4.37    8.46          24.87    2.18  -23.12          23.23  275.39           1.50    1.32    1.00    1.39
I3          4.37    4.31   11.73          24.65    3.00  -34.29          34.42  275.01           1.64    1.30    0.86    1.42
I4          4.40    4.21   18.78          24.37    4.62  -52.51          52.71  275.03           2.23    1.24    0.66    1.50
I5         13.79   14.17   14.92          44.47    0.81   -8.83           8.87  275.27           0.87    0.84    0.74    0.85
I6         14.03   14.25   19.21          44.59    1.81  -18.56          18.65  275.57           0.90    0.83    0.64    0.86
I7         13.94   14.12   23.42          44.41    2.03  -27.28          27.36  274.25           0.94    0.82    0.56    0.87
I8         14.25   14.24   35.28          44.57    3.29  -46.23          46.34  274.07           1.08    0.78    0.39    0.90
