targets/wolf_faust/reflective/R130113.it8
IT8.7/2
ORIGINATOR "Wolf Faust"
DESCRIPTOR "FUJICOLOR Crystal Archive Paper, L* a* b* (light D50, viewing angle 2)"
MANUFACTURER "Wolf Faust - http://www.coloraid.de"
CREATED "January 15, 2013"
PROD_DATE "2013:01"
SAMPLE_BACKING "black"
SERIAL "5x7 R130113 Batch Average Data"
MATERIAL "FUJICOLOR Crystal Archive DP II Paper"
KEYWORD "MEAN_DE" # Mean Delta E of samples compared to batch average
NUMBER_OF_FIELDS 18
BEGIN_DATA_FORMAT
SAMPLE_ID  XYZ_X   XYZ_Y   XYZ_Z          LAB_L   LAB_A   LAB_B          LAB_C   LAB_H          D_RED  D_GREEN  D_BLUE  D_VIS          STDEV_X STDEV_Y STDEV_Z        MEAN_DE  STDEV_DE
END_DATA_FORMAT
NUMBER_OF_SETS 288
BEGIN_DATA
A1          3.43    2.91    2.03          19.67   10.62    3.32          11.12   17.36           1.34    1.64    1.58    1.50            0.04    0.04    0.03           0.26     0.30
A2          4.32    2.93    1.68          19.76   23.40    7.02          24.43   16.69           1.18    1.83    1.66    1.46            0.06    0.04    0.02           0.25     0.30 
A3          5.31    3.00    1.36          20.03   34.89   11.26          36.66   17.88           1.07    2.08    1.77    1.41            0.04    0.02    0.02           0.20     0.24
A4          5.90    3.25    1.50          21.03   37.44   11.31          39.11   16.80           1.02    2.08    1.73    1.37            0.05    0.03    0.02           0.25     0.29 
A5         12.36   10.81    7.70          39.25   13.97    4.57          14.70   18.10           0.79    1.05    1.01    0.94            0.13    0.11    0.08           0.24     0.29
A6         14.79   10.93    6.86          39.47   28.59    8.33          29.77   16.25           0.67    1.16    1.07    0.90            0.17    0.14    0.11           0.20     0.25 
A7         17.23   11.02    5.97          39.62   41.89   12.56          43.73   16.69           0.58    1.30    1.13    0.87            0.16    0.11    0.09           0.28     0.32
A8         21.36   11.28    4.92          40.04   60.96   18.48          63.70   16.87           0.49    1.58    1.22    0.82            0.09    0.08    0.09           0.30     0.34 
A9         39.64   38.95   30.76          68.72    6.63    2.12           6.96   17.76           0.35    0.43    0.43    0.40            0.20    0.23    0.27           0.24     0.29
A10        41.85   38.87   28.96          68.65   13.66    4.89          14.51   19.70           0.30    0.46    0.45    0.39            0.27    0.31    0.25           0.29     0.33
A11        44.36   38.93   27.69          68.70   20.89    7.05          22.05   18.65           0.26    0.49    0.47    0.38            0.18    0.19    0.19           0.22     0.25
A12        47.70   39.49   26.94          69.10   28.62    9.01          30.01   17.48           0.21    0.52    0.49    0.37            0.24    0.28    0.24           0.25     0.31 
A13        74.34   78.62   66.97          91.06   -2.98   -1.96           3.57  213.33           0.12    0.09    0.10    0.11            0.10    0.08    0.05           0.10     0.12
A14        76.11   77.95   66.53          90.76    1.93   -2.08           2.84  312.85           0.10    0.11    0.10    0.11            0.16    0.17    0.09           0.11     0.13 
A15        76.90   80.22   63.19          91.78   -0.91    2.86           3.00  107.62           0.10    0.09    0.12    0.10            0.03    0.03    0.10           0.10     0.12
A16        77.09   79.99   65.38          91.68   -0.08    0.59           0.60   97.54           0.10    0.10    0.11    0.10            0.14    0.16    0.18           0.10     0.12
A17        74.90   76.85   61.63          90.25    1.63    1.74           2.39   46.68           0.10    0.12    0.13    0.11            0.16    0.19    0.18           0.13     0.15
A18        74.99   78.98   63.04          91.23   -2.37    2.04           3.13  139.31           0.11    0.10    0.12    0.10            0.18    0.16    0.08           0.11     0.13 
A19        73.91   76.55   66.26          90.12    0.20   -2.94           2.94  273.81           0.12    0.11    0.10    0.12            0.16    0.19    0.14           0.13     0.16
A20         1.31    1.08    0.71           9.61    8.95    3.18           9.50   19.53           1.75    2.10    2.02    1.93            0.02    0.01    0.01           0.23     0.27 
A21         5.14    3.28    0.75          21.13   28.19   22.32          35.96   38.38           1.08    1.88    1.99    1.39            0.07    0.04    0.01           0.33     0.40
A22        10.19    5.84    0.82          28.99   42.45   34.55          54.73   39.15           0.78    1.79    1.95    1.12            0.08    0.06    0.01           0.29     0.32
B1          3.28    2.90    1.62          19.64    8.40    7.47          11.24   41.63           1.35    1.63    1.66    1.51            0.04    0.04    0.03           0.18     0.21
B2          3.92    2.95    1.01          19.86   17.42   15.79          23.51   42.20           1.23    1.74    1.86    1.47            0.04    0.03    0.01           0.24     0.28
B3          4.52    2.95    0.64          19.84   25.82   22.23          34.07   40.72           1.14    1.90    2.06    1.44            0.04    0.03    0.01           0.26     0.36
B4          4.90    3.17    0.63          20.73   26.93   23.82          35.95   41.49           1.10    1.88    2.06    1.41            0.04    0.04    0.01           0.25     0.29
B5         12.61   10.89    5.57          39.40   14.98   14.09          20.57   43.23           0.77    1.07    1.14    0.93            0.10    0.11    0.07           0.26     0.31
B6         14.39   10.82    3.76          39.28   26.94   23.85          35.98   41.53           0.67    1.17    1.31    0.90            0.12    0.09    0.02           0.24     0.29
B7         16.90   10.90    2.22          39.42   40.92   35.62          54.25   41.04           0.57    1.32    1.52    0.87            0.16    0.13    0.04           0.23     0.26
B8         20.65   11.21    0.97          39.94   58.02   50.95          77.21   41.29           0.49    1.59    1.87    0.82            0.10    0.08    0.02           0.28     0.34
B9         39.61   39.00   28.41          68.75    6.37    5.96           8.72   43.10           0.34    0.43    0.46    0.40            0.25    0.22    0.14           0.26     0.29
B10        41.46   38.90   25.27          68.68   12.38   11.20          16.69   42.12           0.30    0.46    0.51    0.39            0.40    0.38    0.27           0.21     0.28
B11        43.82   39.08   22.54          68.81   18.88   16.46          25.05   41.09           0.25    0.49    0.56    0.38            0.30    0.31    0.18           0.28     0.33
B12        46.85   39.55   19.43          69.14   26.09   23.29          34.97   41.76           0.21    0.52    0.62    0.36            0.19    0.25    0.20           0.30     0.37
B13        69.95   75.48   66.19          89.62   -5.97   -3.73           7.04  211.97           0.16    0.10    0.10    0.13            0.20    0.13    0.25           0.21     0.26
B14        72.74   72.26   64.96          88.09    6.50   -5.20           8.32  321.32           0.11    0.15    0.11    0.14            0.10    0.15    0.16           0.15     0.18
B15        75.22   78.86   55.48          91.17   -1.66    9.57           9.72   99.86           0.10    0.10    0.17    0.10            0.16    0.14    0.36           0.23     0.29
B16        62.56   65.04   52.98          84.50   -0.34    0.75           0.83  114.84           0.18    0.19    0.20    0.19            0.31    0.31    0.33           0.21     0.24
B17        69.84   69.69   53.72          86.84    5.75    3.98           7.00   34.68           0.12    0.17    0.19    0.15            0.19    0.26    0.28           0.20     0.24
B18        67.12   73.32   54.60          88.60   -7.73    6.07           9.83  141.86           0.17    0.12    0.18    0.14            0.15    0.11    0.13           0.14     0.16
B19        65.09   67.10   63.99          85.56    0.87   -8.65           8.69  275.73           0.18    0.17    0.12    0.18            0.35    0.38    0.18           0.28     0.33
B20         2.69    1.96    0.71          15.26   16.92   12.89          21.27   37.31           1.39    1.95    2.01    1.64            0.04    0.03    0.01           0.26     0.30
B21         8.33    4.90    0.79          26.44   38.12   30.75          48.98   38.90           0.86    1.82    1.97    1.20            0.10    0.08    0.02           0.34     0.39
B22        28.37   24.09   11.44          56.18   21.41   20.95          29.96   44.38           0.42    0.73    0.84    0.58            0.22    0.23    0.10           0.32     0.37
C1          4.42    4.30    2.22          24.62    3.81   10.07          10.77   69.29           1.25    1.41    1.53    1.35            0.05    0.05    0.03           0.35     0.41
C2          4.66    4.28    1.36          24.58    7.18   19.08          20.38   69.39           1.20    1.45    1.72    1.34            0.04    0.04    0.02           0.24     0.28
C3          5.21    4.47    0.83          25.17   11.60   27.78          30.11   67.34           1.12    1.48    1.92    1.30            0.04    0.05    0.01           0.33     0.37
C4          5.60    4.79    0.84          26.12   12.11   29.33          31.73   67.57           1.09    1.46    1.92    1.27            0.04    0.05    0.02           0.25     0.30
C5         23.14   22.05   10.38          54.08    8.69   20.62          22.38   67.15           0.53    0.71    0.88    0.63            0.11    0.13    0.09           0.25     0.29
C6         25.42   22.23    5.36          54.27   17.71   40.77          44.45   66.53           0.45    0.77    1.14    0.61            0.16    0.15    0.08           0.34     0.39
C7         27.36   22.17    2.34          54.21   25.94   60.03          65.39   66.63           0.40    0.83    1.48    0.60            0.18    0.17    0.02           0.28     0.33
C8         28.52   22.28    1.41          54.32   30.05   69.75          75.94   66.69           0.38    0.86    1.69    0.59            0.16    0.17    0.03           0.27     0.31
C9         46.27   46.56   31.47          73.91    3.92    9.98          10.73   68.56           0.28    0.35    0.41    0.32            0.31    0.37    0.34           0.40     0.46
C10        47.84   46.62   25.95          73.95    8.14   19.08          20.74   66.90           0.24    0.37    0.49    0.31            0.24    0.26    0.30           0.27     0.36
C11        49.24   46.45   20.79          73.84   12.41   28.58          31.16   66.53           0.21    0.39    0.58    0.31            0.22    0.25    0.21           0.28     0.33
C12        51.67   46.88   15.39          74.11   17.71   41.11          44.76   66.69           0.17    0.42    0.71    0.29            0.23    0.28    0.23           0.33     0.40
C13        61.50   69.28   65.15          86.64  -12.03   -7.87          14.38  213.19           0.25    0.12    0.11    0.17            0.13    0.09    0.05           0.11     0.14
C14        66.71   62.36   61.84          83.10   15.04  -10.79          18.51  324.35           0.13    0.24    0.14    0.20            0.11    0.14    0.04           0.15     0.20
C15        72.98   76.83   45.27          90.25   -2.28   19.46          19.59   96.69           0.10    0.12    0.26    0.11            0.07    0.05    0.23           0.21     0.25
C16        48.09   49.84   40.86          75.97    0.09    0.35           0.38   75.90           0.29    0.30    0.31    0.30            0.23    0.28    0.22           0.19     0.22
C17        61.81   58.39   42.02          80.95   13.23    7.46          15.19   29.41           0.14    0.28    0.29    0.22            0.14    0.18    0.25           0.22     0.25
C18        56.42   65.09   44.05          84.53  -15.12   11.09          18.75  143.75           0.26    0.15    0.27    0.20            0.26    0.23    0.29           0.26     0.30
C19        52.91   53.71   59.84          78.29    2.92  -17.11          17.35  279.68           0.28    0.26    0.15    0.28            0.24    0.23    0.14           0.17     0.21
C20         1.66    1.41    0.67          12.04    8.17    8.07          11.49   44.65           1.64    1.97    2.04    1.81            0.03    0.03    0.02           0.22     0.26
C21        22.44   16.89    4.56          48.12   31.16   34.39          46.40   47.82           0.48    0.98    1.22    0.71            0.19    0.13    0.03           0.39     0.46
C22        33.65   30.68   16.58          62.23   14.81   17.74          23.11   50.14           0.37    0.59    0.68    0.49            0.25    0.27    0.15           0.31     0.35
D1          4.09    4.33    2.24          24.73   -1.23   10.10          10.18   96.94           1.31    1.37    1.52    1.36            0.06    0.07    0.03           0.33     0.39
D2          4.02    4.26    1.39          24.52   -1.32   18.54          18.59   94.08           1.30    1.38    1.71    1.36            0.04    0.04    0.03           0.32     0.37
D3          4.23    4.49    0.89          25.23   -1.40   26.88          26.92   92.97           1.28    1.37    1.89    1.33            0.06    0.07    0.02           0.24     0.29
D4          4.49    4.78    0.92          26.09   -1.60   27.90          27.95   93.28           1.25    1.34    1.87    1.30            0.05    0.05    0.01           0.27     0.32
D5         25.94   26.91   13.35          58.89   -0.01   20.15          20.15   90.03           0.52    0.59    0.77    0.56            0.20    0.22    0.15           0.28     0.32
D6         25.85   27.08    7.39          59.04   -1.07   39.93          39.94   91.54           0.50    0.59    1.01    0.55            0.27    0.25    0.11           0.37     0.42
D7         25.85   27.34    3.51          59.29   -2.15   59.99          60.03   92.05           0.50    0.60    1.30    0.54            0.21    0.22    0.06           0.38     0.45
D8         25.70   27.46    1.86          59.39   -3.20   73.53          73.60   92.50           0.51    0.60    1.58    0.54            0.23    0.22    0.03           0.38     0.46
D9         52.77   54.88   36.34          78.97   -0.40   11.59          11.60   91.97           0.24    0.27    0.35    0.26            0.39    0.37    0.27           0.27     0.32
D10        52.67   54.87   29.26          78.97   -0.60   22.19          22.19   91.55           0.22    0.27    0.44    0.25            0.29    0.32    0.25           0.24     0.30
D11        52.68   55.06   23.61          79.08   -1.07   32.14          32.16   91.90           0.22    0.28    0.53    0.25            0.27    0.25    0.17           0.21     0.24
D12        52.78   55.98    8.59          79.60   -3.08   70.76          70.83   92.49           0.21    0.29    0.94    0.23            0.17    0.17    0.11           0.25     0.31
D13        53.08   62.56   63.27          83.21  -17.86  -12.00          21.52  213.90           0.34    0.14    0.12    0.23            0.17    0.16    0.12           0.14     0.17
D14        61.04   53.58   58.45          78.22   23.20  -15.83          28.08  325.69           0.16    0.33    0.16    0.25            0.18    0.22    0.15           0.20     0.25
D15        71.02   74.77   36.37          89.29   -2.28   29.33          29.41   94.44           0.10    0.14    0.35    0.12            0.12    0.12    0.30           0.28     0.33
D16        36.68   38.03   31.35          68.04    0.05    0.05           0.12  130.86           0.41    0.42    0.42    0.42            0.31    0.34    0.26           0.23     0.27
D17        54.38   48.53   32.19          75.16   20.20   11.03          23.02   28.63           0.17    0.39    0.41    0.29            0.19    0.23    0.29           0.28     0.32
D18        46.55   56.84   34.92          80.09  -21.95   15.53          26.89  144.72           0.36    0.19    0.36    0.26            0.30    0.25    0.31           0.25     0.34
D19        42.13   42.10   55.17          70.94    4.68  -24.98          25.42  280.62           0.40    0.37    0.19    0.39            0.30    0.31    0.18           0.25     0.33
D20        13.74   10.46    2.68          38.65   25.55   30.42          39.73   49.97           0.69    1.19    1.44    0.92            0.12    0.12    0.03           0.31     0.37
D21        20.90   20.24   11.45          52.11    6.77   13.88          15.44   63.99           0.59    0.74    0.84    0.68            0.20    0.22    0.12           0.36     0.43
D22        37.30   35.46   19.05          66.11   10.41   18.87          21.55   61.12           0.34    0.50    0.62    0.43            0.23    0.18    0.10           0.23     0.26
E1          3.83    4.37    2.24          24.86   -5.54   10.37          11.75  118.14           1.37    1.33    1.52    1.36            0.05    0.06    0.04           0.19     0.23
E2          3.41    4.26    1.46          24.51  -10.50   17.75          20.62  120.62           1.44    1.32    1.68    1.38            0.05    0.06    0.04           0.33     0.38
E3          3.41    4.59    0.98          25.53  -14.93   25.92          29.92  119.94           1.47    1.27    1.84    1.35            0.03    0.05    0.01           0.31     0.38
E4          3.51    4.75    0.99          26.00  -15.28   26.63          30.70  119.85           1.46    1.25    1.84    1.34            0.04    0.05    0.01           0.24     0.28
E5         12.38   14.08    7.45          44.35   -7.86   14.32          16.33  118.75           0.87    0.83    1.01    0.85            0.11    0.15    0.07           0.34     0.39
E6         11.21   14.00    4.54          44.23  -15.55   27.78          31.84  119.25           0.93    0.81    1.21    0.86            0.13    0.15    0.06           0.31     0.36
E7         10.31   14.22    2.46          44.55  -23.67   42.39          48.55  119.18           1.01    0.78    1.45    0.86            0.09    0.11    0.03           0.28     0.36
E8          9.74   14.20    1.59          44.51  -27.99   50.66          57.87  118.92           1.07    0.77    1.63    0.86            0.08    0.11    0.02           0.24     0.27
E9         36.52   39.26   26.76          68.94   -4.35    9.05          10.04  115.67           0.41    0.40    0.48    0.41            0.19    0.20    0.13           0.19     0.23
E10        35.34   39.40   22.86          69.04   -8.72   16.24          18.44  118.23           0.43    0.39    0.54    0.41            0.27    0.30    0.18           0.29     0.36
E11        33.64   38.96   18.70          68.72  -13.19   24.15          27.52  118.65           0.45    0.38    0.62    0.41            0.24    0.25    0.16           0.20     0.23
E12        30.54   39.87    9.53          69.38  -27.21   49.81          56.75  118.65           0.53    0.35    0.90    0.41            0.21    0.19    0.05           0.30     0.36
E13        45.86   56.42   61.49          79.85  -22.86  -16.06          27.94  215.08           0.45    0.17    0.13    0.28            0.17    0.17    0.18           0.15     0.17
E14        55.46   45.51   54.71          73.23   31.23  -20.56          37.39  326.64           0.19    0.43    0.20    0.32            0.14    0.15    0.15           0.14     0.16
E15        68.93   72.30   28.46          88.11   -1.68   39.25          39.29   92.45           0.10    0.16    0.45    0.13            0.08    0.08    0.18           0.21     0.26
E16        27.07   28.07   23.08          59.96    0.02    0.17           0.27  145.49           0.53    0.55    0.55    0.55            0.15    0.17    0.18           0.24     0.28
E17        47.84   40.15   24.16          69.58   26.95   14.75          30.72   28.68           0.21    0.51    0.53    0.36            0.17    0.20    0.21           0.26     0.30
E18        37.86   49.01   26.95          75.46  -28.09   19.96          34.46  144.61           0.47    0.24    0.47    0.33            0.16    0.13    0.14           0.21     0.26
E19        33.04   32.24   50.25          63.54    7.05  -32.39          33.15  282.28           0.52    0.48    0.23    0.51            0.11    0.11    0.12           0.19     0.23
E20        24.20   16.63    1.23          47.79   40.45   60.76          72.99   56.35           0.43    1.09    1.75    0.69            0.07    0.06    0.02           0.31     0.36
E21        16.60   13.70    2.63          43.80   20.42   39.67          44.61   62.77           0.62    1.02    1.44    0.81            0.09    0.08    0.03           0.32     0.40
E22        28.82   24.82    7.81          56.90   20.09   34.55          39.97   59.82           0.40    0.72    0.99    0.56            0.10    0.10    0.09           0.30     0.35
F1          1.48    1.91    1.35          15.01   -9.28    2.68           9.66  163.90           1.86    1.64    1.73    1.74            0.02    0.03    0.03           0.22     0.27
F2          1.19    1.90    1.10          14.98  -17.83    5.98          18.81  161.46           2.06    1.58    1.81    1.77            0.02    0.02    0.03           0.26     0.29
F3          1.29    2.30    1.20          16.97  -23.34    8.00          24.67  161.08           2.09    1.48    1.77    1.69            0.02    0.03    0.02           0.21     0.24
F4          1.12    1.90    1.00          14.93  -20.08    7.40          21.40  159.77           2.12    1.57    1.85    1.77            0.02    0.03    0.02           0.24     0.29
F5          6.55    8.24    5.75          34.47  -13.48    4.72          14.28  160.70           1.21    1.02    1.13    1.11            0.08    0.11    0.11           0.25     0.29
F6          5.38    8.28    5.00          34.55  -26.85    8.59          28.19  162.26           1.40    0.96    1.18    1.12            0.03    0.04    0.05           0.21     0.24
F7          4.35    8.22    4.06          34.43  -39.45   13.64          41.74  160.93           1.65    0.91    1.25    1.14            0.02    0.04    0.04           0.20     0.24
F8          3.55    8.08    3.48          34.15  -49.82   16.87          52.60  161.29           1.95    0.88    1.31    1.17            0.04    0.07    0.04           0.23     0.27
F9         36.04   39.12   30.71          68.84   -5.53    2.42           6.04  156.32           0.43    0.39    0.42    0.41            0.21    0.22    0.22           0.29     0.34
F10        34.24   39.06   29.56          68.79  -11.41    4.15          12.14  160.03           0.47    0.37    0.44    0.42            0.10    0.11    0.07           0.14     0.16
F11        32.79   39.18   28.27          68.88  -16.89    6.41          18.07  159.21           0.51    0.36    0.46    0.42            0.26    0.27    0.22           0.26     0.30
F12        27.91   39.86   24.67          69.37  -37.25   13.46          39.61  160.14           0.67    0.30    0.51    0.43            0.18    0.19    0.11           0.15     0.21
F13        38.82   50.01   59.14          76.08  -27.67  -20.22          34.27  216.16           0.57    0.20    0.15    0.34            0.19    0.18    0.23           0.14     0.18
F14        50.27   38.45   50.84          68.35   38.87  -24.75          46.08  327.51           0.22    0.54    0.23    0.38            0.25    0.26    0.23           0.20     0.28
F15        67.11   69.90   22.10          86.95   -0.65   48.58          48.58   90.77           0.11    0.18    0.55    0.14            0.09    0.10    0.14           0.16     0.20
F16        19.42   20.23   16.60          52.10   -0.45    0.23           0.53  150.86           0.68    0.69    0.69    0.69            0.14    0.15    0.10           0.24     0.28
F17        42.10   33.16   17.61          64.29   33.23   18.91          38.24   29.65           0.24    0.63    0.66    0.43            0.13    0.18    0.10           0.21     0.28
