targets/wolf_faust/reflective/R130730WhiteBacking.it8
IT8.7/2
ORIGINATOR "Wolf Faust"
DESCRIPTOR "Kodak Professional Paper, L* a* b* (light D50, viewing angle 2)"
MANUFACTURER "Wolf Faust - http://www.coloraid.de"
CREATED "July 31, 2013"
PROD_DATE "2013:07"
SAMPLE_BACKING "white"
SERIAL "5x7 R130730 Batch Average Data"
MATERIAL "Kodak Professional Endura Premier"
NUMBER_OF_FIELDS 9
BEGIN_DATA_FORMAT
SAMPLE_ID  XYZ_X   XYZ_Y   XYZ_Z          LAB_L   LAB_A   LAB_B          LAB_C   LAB_H
END_DATA_FORMAT
NUMBER_OF_SETS 288
BEGIN_DATA
A1          3.48    2.94    2.12          19.81   10.97    2.71          11.30   13.87
A2          4.42    3.00    1.77          20.04   23.54    6.61          24.45   15.68 
A3          5.32    3.01    1.44          20.10   34.71   10.35          36.22   16.61
A4          5.96    3.30    1.54          21.21   37.32   11.08          38.93   16.54 
A5         12.67   11.05    7.95          39.66   14.33    4.27          14.95   16.59
A6         15.16   11.19    6.95          39.90   28.93    8.69          30.21   16.72 
A7         17.89   11.47    6.15          40.37   42.23   13.04          44.20   17.16
A8         21.63   11.62    5.23          40.60   59.87   17.82          62.46   16.58 
A9         42.44   41.63   32.48          70.61    7.01    2.76           7.54   21.50
A10        44.56   41.36   30.91          70.43   14.03    4.84          14.84   19.04
A11        46.90   41.26   29.83          70.35   21.00    6.41          21.96   16.97
A12        49.12   41.56   28.90          70.57   26.20    8.29          27.48   17.55 
A13        78.37   83.09   68.53          93.05   -3.45    0.04           3.46  179.35
A14        79.43   81.44   67.66          92.33    1.79   -0.42           1.84  346.83 
A15        80.96   84.65   65.90          93.73   -1.27    3.63           3.85  109.26
A16        80.94   84.07   68.02          93.48   -0.24    1.24           1.26  101.15
A17        79.04   81.64   64.12          92.42    0.63    3.05           3.12   78.29
A18        78.92   83.17   64.99          93.09   -2.51    3.39           4.22  126.54 
A19        76.52   79.59   67.52          91.50   -0.44   -1.71           1.77  255.47
A20         1.37    1.12    0.80           9.98    8.98    2.23           9.26   13.93 
A21         5.31    3.38    0.85          21.51   28.55   21.11          35.51   36.49
A22        10.44    5.97    0.93          29.33   42.95   33.39          54.40   37.86
B1          3.34    2.96    1.67          19.87    8.34    7.34          11.12   41.35
B2          3.97    2.99    1.11          20.00   17.52   14.53          22.76   39.66
B3          4.66    3.04    0.68          20.21   25.98   22.08          34.10   40.37
B4          5.24    3.26    0.62          21.05   29.67   24.52          38.49   39.57
B5         12.97   11.19    5.84          39.90   15.21   13.65          20.44   41.90
B6         15.06   11.35    3.99          40.16   27.22   23.94          36.25   41.32
B7         17.65   11.41    2.37          40.27   41.34   35.78          54.67   40.88
B8         21.03   11.62    1.19          40.60   57.02   48.88          75.10   40.60
B9         41.77   41.25   30.05          70.35    6.13    6.07           8.63   44.68
B10        44.04   41.27   26.79          70.37   12.78   11.46          17.16   41.87
B11        46.42   41.37   23.74          70.44   19.31   17.00          25.72   41.35
B12        48.32   41.65   21.64          70.63   23.74   21.34          31.92   41.95
B13        73.79   79.83   68.02          91.61   -6.49   -1.98           6.78  197.01
B14        76.12   76.06   65.96          89.89    5.70   -3.05           6.47  331.86
B15        78.38   82.13   57.67          92.63   -1.60    9.82           9.95   99.27
B16        65.29   67.71   54.79          85.86    0.00    1.14           1.15   89.94
B17        72.45   72.44   55.41          88.18    5.51    4.49           7.11   39.14
B18        70.38   76.51   57.00          90.09   -7.11    6.13           9.39  139.22
B19        68.56   70.95   65.23          87.46    0.31   -6.54           6.55  272.69
B20         2.90    2.10    0.79          16.02   17.47   12.66          21.58   35.93
B21         8.60    5.03    0.89          26.83   38.73   29.69          48.80   37.47
B22        29.91   25.28   12.02          57.34   22.34   21.21          30.81   43.51
C1          4.52    4.35    2.29          24.78    4.47    9.74          10.72   65.32
C2          4.87    4.40    1.47          24.94    8.38   18.37          20.19   65.49
C3          5.25    4.44    0.80          25.09   12.38   28.21          30.81   66.31
C4          5.75    4.80    0.79          26.14   13.72   30.18          33.15   65.56
C5         24.07   22.85   10.82          54.92    9.16   20.65          22.59   66.08
C6         26.08   22.77    5.56          54.83   18.04   40.74          44.55   66.11
C7         28.49   23.00    2.50          55.07   26.67   60.23          65.87   66.12
C8         30.12   23.15    1.27          55.22   32.26   73.07          79.87   66.18
C9         48.76   49.02   33.31          75.47    4.11    9.90          10.72   67.47
C10        50.42   49.17   27.18          75.55    8.17   19.74          21.36   67.50
C11        52.43   49.66   22.23          75.86   12.16   29.21          31.64   67.39
C12        53.44   49.50   19.00          75.76   15.19   35.63          38.73   66.91
C13        64.72   73.01   66.87          88.45  -12.44   -6.37          13.98  207.11
C14        70.12   66.73   62.79          85.37   12.71   -7.82          14.92  328.40
C15        74.63   78.30   46.61          90.92   -1.77   19.02          19.10   95.32
C16        50.55   52.33   42.37          77.48    0.24    1.02           1.06   76.58
C17        63.46   60.56   43.16          82.14   11.90    8.08          14.38   34.17
C18        58.64   66.84   45.73          85.42  -13.54   10.59          17.19  141.97
C19        55.94   57.42   61.24          80.41    1.45  -14.84          14.91  275.58
C20         1.75    1.49    0.76          12.56    8.26    7.35          11.06   41.67
C21        23.66   17.76    4.77          49.20   31.98   35.07          47.46   47.64
C22        35.60   32.15   17.26          63.47   16.14   18.31          24.41   48.59
D1          4.07    4.24    2.30          24.45   -0.29    9.08           9.09   91.85
D2          4.07    4.26    1.47          24.51   -0.60   17.56          17.57   91.95
D3          4.08    4.29    0.84          24.60   -0.75   26.71          26.72   91.61
D4          4.72    5.00    0.88          26.73   -1.28   29.59          29.62   92.48
D5         27.09   28.18   13.86          60.05   -0.33   20.78          20.78   90.92
D6         27.04   28.30    7.76          60.16   -0.99   40.36          40.37   91.41
D7         26.77   28.28    3.75          60.14   -2.01   59.93          59.96   91.92
D8         26.93   28.56    1.67          60.39   -2.45   77.20          77.24   91.82
D9         56.13   58.27   39.01          80.89   -0.15   11.25          11.25   90.77
D10        55.96   58.28   31.35          80.89   -0.56   22.20          22.21   91.46
D11        55.84   58.24   25.02          80.87   -0.80   32.67          32.68   91.40
D12        55.70   58.45   11.95          80.99   -1.61   62.20          62.22   91.48
D13        55.48   65.56   65.29          84.77  -18.50  -11.24          21.64  211.28
D14        64.14   57.80   59.24          80.63   19.97  -12.48          23.55  327.99
D15        71.18   74.57   37.35          89.19   -1.53   27.81          27.85   93.14
D16        38.00   39.48   32.16          69.10   -0.20    0.62           0.67  108.82
D17        55.74   50.55   33.32          76.40   18.23   11.50          21.55   32.24
D18        47.84   57.53   36.15          80.47  -20.01   14.44          24.67  144.17
D19        44.55   45.28   56.76          73.07    2.61  -22.97          23.12  276.49
D20        14.16   10.74    2.85          39.13   26.12   29.95          39.74   48.90
D21        21.76   20.89   11.75          52.82    7.75   14.24          16.21   61.45
D22        39.22   37.15   20.08          67.39   11.02   18.92          21.90   59.79
E1          3.77    4.33    2.38          24.72   -5.75    8.84          10.55  123.02
E2          3.50    4.33    1.53          24.74  -10.11   17.32          20.05  120.26
E3          3.16    4.31    0.91          24.66  -15.26   25.64          29.84  120.77
E4          3.38    4.66    0.93          25.74  -16.26   27.21          31.70  120.86
E5         12.64   14.24    7.67          44.58   -7.11   13.85          15.57  117.18
E6         11.47   14.29    4.86          44.64  -15.49   26.72          30.89  120.11
E7         10.34   14.23    2.64          44.56  -23.53   40.93          47.21  119.89
E8          9.52   14.34    1.46          44.72  -30.68   52.59          60.89  120.26
E9         38.33   41.26   28.52          70.35   -4.57    8.53           9.68  118.17
E10        36.98   41.33   23.81          70.40   -9.16   16.81          19.15  118.57
E11        35.67   41.14   19.74          70.27  -12.94   24.59          27.79  117.76
E12        32.39   41.23   11.56          70.34  -24.56   44.99          51.26  118.63
E13        47.57   58.75   63.60          81.16  -23.71  -15.86          28.52  213.77
E14        58.00   49.15   55.34          75.54   27.49  -17.22          32.44  327.93
E15        68.26   71.18   29.03          87.57   -0.82   37.39          37.40   91.25
E16        28.18   29.19   23.71          60.95    0.13    0.69           0.72   78.22
E17        48.56   41.51   24.62          70.53   24.83   15.55          29.30   32.07
E18        38.68   49.13   27.68          75.53  -25.78   18.85          31.94  143.82
E19        35.09   34.89   51.92          65.66    4.99  -30.58          30.99  279.27
E20        25.00   17.08    1.28          48.36   41.40   61.07          73.77   55.87
E21        17.28   14.17    2.75          44.48   21.20   39.91          45.20   62.02
E22        30.21   25.80    8.26          57.85   21.29   34.44          40.49   58.28
F1          1.49    1.89    1.36          14.89   -8.58    2.35           8.89  164.69
F2          1.17    1.85    1.13          14.70  -17.43    5.09          18.15  163.73
F3          1.04    2.04    1.05          15.69  -26.00    7.89          27.17  163.11
F4          1.12    2.34    1.15          17.19  -29.97    9.15          31.33  163.03
F5          6.64    8.22    5.96          34.45  -12.55    3.70          13.08  163.55
F6          5.33    8.14    4.99          34.28  -26.22    8.17          27.47  162.69
F7          4.31    8.21    4.10          34.42  -39.92   13.40          42.11  161.44
F8          3.24    8.23    3.39          34.46  -56.15   18.01          58.97  162.22
F9         38.10   41.42   32.38          70.47   -5.81    2.67           6.40  155.30
F10        36.14   41.03   31.08          70.20  -11.04    4.19          11.81  159.19
F11        34.42   41.17   29.80          70.29  -17.28    6.37          18.41  159.77
F12        29.49   40.97   26.30          70.16  -34.47   11.94          36.48  160.90
F13        40.24   52.04   61.47          77.30  -28.50  -20.44          35.07  215.64
F14        51.67   40.70   50.91          69.97   35.56  -22.03          41.84  328.22
F15        65.92   68.26   22.51          86.13    0.23   46.39          46.39   89.72
F16        20.02   20.62   17.06          52.53    0.70   -0.10           0.73  231.21
F17        42.16   33.63   18.03          64.67   31.78   18.63          36.84   30.38
F18        30.78   41.59   20.96          70.58  -31.49   22.62          38.77  144.31
F19        26.59   25.44   46.61          57.50    8.64  -38.59          39.55  282.62
F20        26.18   25.02   11.72          57.09    8.72   21.69          23.37   68.09
F21        34.47   31.11   10.84          62.60   16.08   33.85          37.48   64.59
F22        39.04   36.45   15.68          66.86   12.74   27.88          30.65   65.44
G1          2.29    2.89    2.64          19.60   -9.78   -2.09          10.00  192.04
G2          1.88    2.92    2.91          19.73  -19.38   -4.01          19.79  191.69
G3          1.64    3.12    3.32          20.54  -28.94   -5.51          29.46  190.79
G4          1.75    3.41    3.70          21.63  -30.90   -6.16          31.51  191.27
G5          8.99   10.98    9.79          39.55  -12.70   -2.50          12.95  191.14
G6          7.60   10.93   10.36          39.46  -24.72   -4.53          25.13  190.38
G7          6.36   11.07   11.11          39.70  -38.05   -6.46          38.59  189.64
G8          4.98   10.89   12.05          39.39  -52.53   -9.82          53.44  190.59
G9         38.13   41.62   34.33          70.61   -6.32    0.03           6.32  179.70
G10        35.79   41.31   35.32          70.39  -13.06   -1.78          13.18  187.75
G11        34.01   41.28   36.12          70.37  -19.04   -2.93          19.27  188.76
G12        29.00   41.06   38.40          70.22  -36.64   -6.33          37.19  189.80
G13        33.81   45.74   59.20          73.38  -32.68  -24.94          41.11  217.35
G14        46.16   33.79   46.76          64.80   42.88  -26.20          50.25  328.58
G15        63.66   65.27   16.89          84.62    1.66   55.61          55.64   88.29
G16        13.79   14.24   11.84          44.58    0.38   -0.27           0.48  325.09
G17        36.82   27.42   12.69          59.36   37.93   22.77          44.24   30.98
G18        24.08   34.81   15.49          65.60  -36.88   26.19          45.24  144.63
G19        20.06   18.37   41.73          49.94   12.06  -45.65          47.22  284.80
G20        36.27   34.74   14.42          65.55    9.45   28.79          30.31   71.84
G21        35.08   33.30    9.38          64.40   10.40   41.74          43.01   76.00
G22        47.97   44.08    2.85          72.28   15.65   87.07          88.47   79.81
H1          2.50    2.93    3.30          19.76   -6.09   -6.71           9.06  227.79
H2          2.25    2.97    4.38          19.92  -12.04  -13.24          17.90  227.72
H3          2.01    2.99    5.75          20.00  -17.48  -20.24          26.75  229.18
H4          2.14    3.28    6.84          21.13  -19.54  -23.17          30.31  229.86
H5          9.59   10.99   12.04          39.57   -7.84   -9.50          12.31  230.45
H6          8.67   11.01   15.46          39.60  -15.66  -18.57          24.29  229.85
H7          7.75   11.04   19.18          39.64  -24.03  -27.02          36.16  228.36
H8          6.79   10.92   24.71          39.44  -32.50  -38.21          50.16  229.62
H9         38.41   41.37   37.47          70.44   -4.69   -4.69           6.63  224.99
H10        37.25   41.44   41.14          70.48   -8.62   -9.48          12.81  227.71
H11        35.87   41.56   45.38          70.57  -13.53  -14.60          19.90  227.19
H12        32.29   41.12   56.82          70.26  -24.61  -27.88          37.19  228.57
H13        27.96   39.62   56.38          69.20  -36.28  -29.26          46.61  218.89
H14        40.56   27.22   42.18          59.18   50.61  -30.30          58.99  329.09
H15        61.66   62.43   12.23          83.14    3.44   65.08          65.17   86.97
H16         8.99    9.28    7.76          36.51    0.38   -0.42           0.59  315.85
H17        31.96   22.03    8.42          54.05   44.07   27.31          51.85   31.79
H18        18.49   28.81   10.97          60.61  -41.90   30.01          51.54  144.39
H19        14.62   12.42   36.70          41.87   17.18  -52.88          55.60  287.99
H20        41.58   41.89   15.26          70.80    3.63   35.71          35.90   84.19
H21        31.00   32.03   20.07          63.37    0.40   12.00          12.01   88.09
H22        35.57   38.56   11.32          68.43   -5.35   42.44          42.78   97.19
I1          4.29    4.37    5.82          24.85    1.05  -12.21          12.26  274.90
I2          4.31    4.36    8.60          24.84    1.36  -23.71          23.74  273.29
I3          4.39    4.35   12.09          24.80    2.60  -35.09          35.19  274.24
I4          4.44    4.28   19.69          24.58    4.28  -54.08          54.25  274.53
I5         14.05   14.41   15.10          44.81    0.97   -8.70           8.75  276.40
I6         14.04   14.35   19.41          44.73    1.28  -18.75          18.80  273.91
I7         14.10   14.31   23.90          44.68    1.84  -27.71          27.77  273.80
I8         14.37   14.35   39.03          44.73    3.31  -51.13          51.23  273.71
I9         40.07   41.49   37.12          70.51    0.20   -4.08           4.09  272.73
I10        39.94   41.27   40.93          70.36    0.48   -9.42           9.43  272.89
I11        40.20   41.37   45.16          70.44    0.95  -14.56          14.59  273.74
I12        40.45   41.51   55.26          70.53    1.29  -25.78          25.81  272.87
I13        23.28   34.39   53.57          65.27  -38.98  -33.05          51.10  220.29
I14        35.57   21.76   37.82          53.77   57.88  -33.92          67.08  329.63
I15        59.82   59.60    8.39          81.62    5.65   74.96          75.18   85.69
I16         5.54    5.73    4.73          28.72    0.17    0.01           0.25  250.81
I17        27.79   17.72    5.21          49.15   49.46   32.72          59.30   33.49
I18        13.95   23.56    7.35          55.64  -46.28   34.19          57.54  143.55
I19        10.63    8.10   32.11          34.20   23.36  -59.45          63.88  291.45
I20        42.18   46.15   15.88          73.64   -6.82   39.09          39.69   99.89
I21        10.74   14.42    3.52          44.83  -21.59   34.97          41.10  121.70
I22        28.05   36.28   16.95          66.74  -25.34   24.66          35.36  135.79
J1          2.13    1.92    3.08          15.04    6.61  -13.30          14.85  296.43
J2          2.46    1.92    5.03          15.08   13.24  -25.11          28.38  297.80
J3          2.85    1.96    7.83          15.29   19.78  -37.26          42.19  297.97
J4          4.05    1.99   19.88          15.43   38.29  -70.25          80.01  298.59
J5         11.51   11.10   12.07          39.75    5.88   -9.25          10.96  302.47
J6         12.22   11.10   15.73          39.75   10.83  -18.97          21.85  299.71
J7         13.12   11.25   20.37          40.00   15.81  -28.90          32.94  298.68
J8         15.43   11.38   34.79          40.22   29.14  -53.03          60.51  298.79
J9         40.98   41.47   38.04          70.51    3.07   -5.35           6.17  299.85
J10        42.03   41.73   41.13          70.68    5.48   -9.12          10.64  300.97
J11        42.76   41.44   44.89          70.48    8.54  -14.16          16.54  301.10
J12        45.12   41.93   54.13          70.82   13.95  -24.08          27.83  300.09
J13        19.35   29.69   50.59          61.38  -40.79  -36.49          54.72  221.81
J14        30.80   16.98   33.37          48.23   64.94  -37.15          74.82  330.23
J15        58.02   56.84    5.66          80.09    7.95   83.81          84.19   84.58
J16         3.13    3.22    2.68          20.89    0.49   -0.22           0.56  297.91
J17        23.92   14.01    3.01          44.25   54.49   37.54          66.17   34.57
J18        10.37   19.06    4.77          50.76  -50.01   37.76          62.67  142.94
J19         7.69    5.00   27.68          26.73   31.03  -65.30          72.30  295.42
J20        30.01   38.81   22.21          68.61  -25.86   16.76          30.82  147.05
J21         4.19    7.93    1.53          33.83  -39.05   33.03          51.14  139.78
J22         1.31    2.08    0.96          15.88  -18.23    9.59          20.60  152.25
K1          5.31    4.51    5.32          25.29   12.21   -9.01          15.17  323.59
K2          6.58    4.49    7.44          25.22   26.66  -18.61          32.51  325.09
K3          8.06    4.56    9.94          25.46   39.94  -27.30          48.38  325.65
K4          9.44    4.57   12.91          25.46   51.74  -36.27          63.19  324.97
K5         15.91   14.46   14.74          44.89   11.77   -7.64          14.03  327.00
K6         18.26   14.74   18.49          45.27   23.04  -15.84          27.96  325.50
K7         20.61   14.87   22.33          45.45   34.09  -23.41          41.35  325.53
K8         26.66   15.06   33.05          45.71   59.73  -41.03          72.46  325.51
K9         42.60   41.84   36.93          70.76    6.84   -3.38           7.63  333.67
K10        44.70   41.64   40.44          70.62   13.61   -8.33          15.95  328.54
K11        47.14   41.79   44.33          70.73   20.07  -13.06          23.95  326.96
K12        52.27   42.40   52.04          71.14   32.08  -21.26          38.48  326.47
K13        15.56   24.74   46.93          56.83  -41.66  -40.14          57.85  223.93
K14        26.66   13.28   29.16          43.18   70.67  -39.36          80.89  330.88
K15        56.14   53.86    3.56          78.38   10.71   92.60          93.22   83.40
K16         1.52    1.61    1.36          13.26   -0.64   -0.40           0.77  211.68
K17        20.58   11.16    1.52          39.85   58.06   43.43          72.51   36.79
K18         7.09   14.54    2.86          44.99  -53.44   39.92          66.71  143.24
K19         5.47    2.88   23.29          19.57   38.82  -69.87          79.93  299.06
K20         2.35    3.09    1.95          20.40  -12.02    5.38          13.17  155.88
K21         1.34    1.81    1.52          14.45  -11.11   -0.36          11.12  181.87
K22         1.67    2.18    2.89          16.40  -10.38   -9.59          14.13  222.72
L1          3.71    3.05    2.73          20.25   12.59   -1.68          12.70  352.39
L2          4.64    3.06    3.06          20.30   25.48   -4.14          25.81  350.76
L3          5.84    3.23    3.47          20.94   37.12   -5.84          37.58  351.06
L4          6.56    3.54    3.85          22.10   39.95   -6.33          40.45  351.00
L5         13.34   11.40   10.02          40.25   16.16   -2.07          16.29  352.72
L6         16.07   11.50   10.97          40.42   31.96   -4.79          32.32  351.47
L7         19.09   11.56   11.95          40.51   47.85   -7.59          48.45  350.99
L8         22.73   11.73   12.89          40.78   64.15   -9.81          64.89  351.31
L9         42.91   41.70   34.99          70.66    8.19   -0.83           8.24  354.18
L10        45.32   41.76   35.68          70.71   15.01   -1.74          15.11  353.41
L11        48.17   41.99   36.66          70.87   22.31   -2.84          22.49  352.74
L12        50.33   41.73   37.24          70.69   28.93   -3.95          29.19  352.23
L13        12.20   19.87   42.32          51.69  -40.76  -43.37          59.52  226.78
L14        22.26    9.98   24.34          37.81   74.78  -40.36          84.98  331.64
L15        52.76   49.11    1.93          75.52   14.47  100.56         101.60   81.81
L16         0.59    0.62    0.55           5.64   -0.51   -0.65           0.83  231.76
L17        16.57    8.25    0.61          34.50   60.30   47.99          77.07   38.52
L18         4.43   10.16    1.44          38.13  -54.22   41.43          68.24  142.62
L19         3.86    1.53   18.47          12.77   46.98  -71.83          85.83  303.19
L20         0.73    0.81    0.83           7.32   -1.90   -3.02           3.57  237.89
L21         0.98    0.94    1.01           8.49    2.55   -3.84           4.61  303.59
L22         1.97    1.59    1.36          13.20   10.79   -0.53          10.80  357.22
GS0        81.03   84.65   68.28          93.73   -1.15    1.43           1.84  128.75
GS1        70.80   73.53   59.35          88.70   -0.21    1.33           1.35   98.81
