targets/wolf_faust/reflective/R131030.it8
IT8.7/2
ORIGINATOR "Wolf Faust"
DESCRIPTOR "Kodak Professional Paper, L* a* b* (light D50, viewing angle 2)"
MANUFACTURER "Wolf Faust - http://www.coloraid.de"
CREATED "April 03, 2014"
PROD_DATE "2013:10"
SAMPLE_BACKING "black"
SERIAL "5x7 R131030 Batch Average Data"
MATERIAL "Kodak Professional Endura Premier"
KEYWORD "MEAN_DE" # Mean Delta E of samples compared to batch average
NUMBER_OF_FIELDS 18
BEGIN_DATA_FORMAT
SAMPLE_ID  XYZ_X   XYZ_Y   XYZ_Z          LAB_L   LAB_A   LAB_B          LAB_C   LAB_H          D_RED  D_GREEN  D_BLUE  D_VIS          STDEV_X STDEV_Y STDEV_Z        MEAN_DE  STDEV_DE
END_DATA_FORMAT
NUMBER_OF_SETS 288
BEGIN_DATA
A1          3.47    2.93    1.96          19.77   10.89    4.15          11.65   20.87           1.35    1.64    1.60    1.50            0.05    0.05    0.03           0.29     0.33
A2          4.31    2.90    1.64          19.64   23.82    7.28          24.90   16.99           1.20    1.83    1.69    1.46            0.05    0.03    0.02           0.22     0.25 
A3          5.27    2.98    1.38          19.95   34.78   10.85          36.43   17.33           1.09    2.05    1.77    1.41            0.06    0.04    0.02           0.33     0.36
A4          5.83    3.26    1.46          21.04   36.59   11.77          38.44   17.82           1.04    2.04    1.75    1.37            0.06    0.04    0.02           0.23     0.27 
A5         12.48   10.83    7.79          39.29   14.60    4.28          15.22   16.34           0.80    1.05    1.02    0.94            0.14    0.14    0.13           0.33     0.38
A6         14.88   10.93    6.66          39.47   29.08    9.22          30.51   17.60           0.68    1.17    1.09    0.90            0.13    0.12    0.09           0.25     0.29 
A7         17.36   11.02    5.88          39.61   42.66   12.96          44.58   16.89           0.58    1.31    1.15    0.87            0.10    0.08    0.08           0.24     0.28
A8         20.76   11.22    5.06          39.96   58.47   17.60          61.06   16.75           0.50    1.54    1.22    0.83            0.08    0.07    0.08           0.33     0.37 
A9         41.47   40.87   32.00          70.09    6.36    2.59           6.86   22.14           0.33    0.41    0.41    0.38            0.30    0.31    0.29           0.23     0.28
A10        43.67   40.70   30.77          69.97   13.43    4.27          14.09   17.62           0.29    0.44    0.43    0.37            0.36    0.37    0.39           0.31     0.35
A11        46.21   40.97   29.81          70.15   19.93    6.11          20.85   17.03           0.25    0.46    0.44    0.36            0.21    0.25    0.29           0.27     0.33
A12        47.81   40.78   28.89          70.02   24.95    7.36          26.02   16.44           0.22    0.49    0.46    0.36            0.26    0.32    0.31           0.36     0.43 
A13        74.49   78.85   65.42          91.16   -3.14   -0.33           3.16  186.04           0.12    0.09    0.10    0.11            0.19    0.20    0.18           0.10     0.11
A14        75.47   77.47   64.83          90.54    1.58   -0.87           1.81  331.27           0.10    0.11    0.11    0.11            0.11    0.13    0.15           0.12     0.13 
A15        77.09   80.56   64.27          91.94   -1.17    2.09           2.40  119.27           0.09    0.09    0.11    0.09            0.19    0.23    0.19           0.12     0.14
A16        76.53   79.60   65.36          91.51   -0.44    0.31           0.54  145.89           0.10    0.10    0.10    0.10            0.12    0.12    0.18           0.10     0.11
A17        75.95   78.85   62.86          91.17   -0.16    2.12           2.12   94.26           0.10    0.10    0.12    0.10            0.16    0.18    0.12           0.10     0.12
A18        75.97   79.78   63.69          91.59   -1.93    2.03           2.81  133.59           0.10    0.09    0.12    0.10            0.08    0.10    0.13           0.10     0.11 
A19        72.28   75.39   64.59          89.58   -0.88   -2.29           2.45  249.06           0.13    0.12    0.11    0.12            0.14    0.16    0.19           0.13     0.15
A20         1.31    1.07    0.73           9.60    8.93    2.71           9.34   16.86           1.78    2.09    2.03    1.93            0.01    0.01    0.01           0.19     0.22 
A21         5.24    3.33    0.80          21.31   28.54   21.64          35.82   37.17           1.09    1.86    1.98    1.38            0.04    0.03    0.01           0.24     0.28
A22        10.18    5.79    0.86          28.87   42.89   33.72          54.56   38.17           0.79    1.80    1.95    1.12            0.06    0.04    0.01           0.18     0.20
B1          3.22    2.83    1.55          19.33    8.73    7.75          11.68   41.59           1.38    1.64    1.70    1.51            0.05    0.05    0.03           0.30     0.35
B2          3.94    2.93    1.01          19.74   18.08   15.57          23.86   40.72           1.24    1.75    1.88    1.47            0.04    0.03    0.02           0.19     0.22
B3          4.51    2.93    0.64          19.75   26.09   21.90          34.06   40.01           1.16    1.90    2.07    1.44            0.05    0.03    0.01           0.22     0.24
B4          5.14    3.19    0.59          20.78   29.70   24.71          38.64   39.77           1.09    1.92    2.11    1.39            0.03    0.02    0.01           0.19     0.22
B5         12.72   10.99    5.75          39.56   15.07   13.51          20.24   41.87           0.78    1.06    1.14    0.92            0.11    0.11    0.07           0.22     0.25
B6         14.63   10.94    3.79          39.47   27.58   24.02          36.57   41.06           0.67    1.17    1.32    0.90            0.10    0.09    0.08           0.32     0.37
B7         17.08   11.03    2.26          39.63   40.98   35.67          54.33   41.04           0.58    1.32    1.53    0.86            0.10    0.08    0.04           0.23     0.26
B8         20.16   11.22    1.12          39.94   55.62   48.76          73.97   41.24           0.50    1.54    1.83    0.83            0.10    0.08    0.01           0.17     0.21
B9         41.18   40.65   29.57          69.93    6.14    6.09           8.66   44.77           0.33    0.42    0.44    0.38            0.27    0.28    0.31           0.30     0.33
B10        43.05   40.54   26.67          69.85   12.09   10.77          16.20   41.68           0.29    0.44    0.49    0.37            0.26    0.27    0.22           0.24     0.27
B11        45.29   40.75   23.76          70.00   17.97   16.22          24.21   42.07           0.25    0.47    0.54    0.36            0.25    0.26    0.20           0.23     0.26
B12        46.78   40.65   21.50          69.93   22.51   20.42          30.39   42.21           0.22    0.49    0.58    0.36            0.14    0.18    0.16           0.24     0.29
B13        69.24   75.14   64.92          89.46   -6.82   -2.80           7.37  202.34           0.17    0.10    0.11    0.13            0.22    0.22    0.17           0.13     0.15
B14        72.27   72.21   63.23          88.07    5.59   -3.58           6.64  327.38           0.11    0.15    0.12    0.14            0.16    0.19    0.17           0.14     0.15
B15        74.34   77.92   55.23          90.74   -1.61    9.10           9.24  100.05           0.10    0.11    0.18    0.11            0.19    0.21    0.12           0.14     0.17
B16        61.70   64.26   52.81          84.10   -0.59    0.24           0.65  158.88           0.19    0.19    0.20    0.19            0.14    0.14    0.11           0.15     0.16
B17        68.92   68.93   53.26          86.47    5.37    3.83           6.60   35.55           0.12    0.18    0.19    0.15            0.20    0.24    0.16           0.14     0.18
B18        66.32   72.37   54.63          88.15   -7.55    5.25           9.20  145.16           0.17    0.12    0.18    0.15            0.17    0.15    0.17           0.17     0.19
B19        64.50   66.98   62.45          85.49   -0.20   -7.27           7.27  268.44           0.18    0.17    0.13    0.18            0.19    0.18    0.16           0.15     0.17
B20         2.78    2.00    0.74          15.46   17.62   12.65          21.69   35.66           1.40    1.94    2.02    1.63            0.04    0.03    0.00           0.28     0.35
B21         8.48    4.96    0.83          26.61   38.73   30.36          49.21   38.10           0.87    1.82    1.97    1.19            0.07    0.04    0.01           0.19     0.23
B22        29.00   24.59   11.58          56.67   21.78   21.37          30.51   44.45           0.41    0.73    0.84    0.57            0.16    0.16    0.10           0.26     0.29
C1          4.40    4.25    2.14          24.48    4.21   10.57          11.38   68.30           1.27    1.41    1.56    1.35            0.04    0.04    0.03           0.21     0.24
C2          4.68    4.21    1.36          24.37    8.36   18.77          20.55   65.99           1.21    1.47    1.74    1.34            0.04    0.05    0.02           0.19     0.22
C3          5.03    4.22    0.74          24.38   12.78   28.03          30.80   65.49           1.15    1.52    2.00    1.32            0.06    0.05    0.01           0.25     0.30
C4          5.59    4.66    0.74          25.73   13.65   30.41          33.33   65.83           1.10    1.49    2.00    1.28            0.05    0.04    0.01           0.23     0.27
C5         23.47   22.28   10.51          54.32    9.06   20.63          22.53   66.30           0.54    0.71    0.88    0.63            0.18    0.17    0.11           0.21     0.26
C6         25.43   22.27    5.27          54.31   17.58   41.30          44.89   66.94           0.46    0.77    1.16    0.61            0.18    0.18    0.07           0.28     0.32
C7         27.79   22.38    2.30          54.43   26.69   60.76          66.36   66.28           0.40    0.83    1.51    0.59            0.18    0.18    0.03           0.21     0.24
C8         29.17   22.42    1.18          54.47   31.90   72.99          79.66   66.39           0.37    0.88    1.79    0.58            0.19    0.18    0.01           0.27     0.31
C9         47.97   48.30   33.05          75.02    3.89    9.50          10.27   67.75           0.27    0.33    0.40    0.31            0.31    0.31    0.30           0.22     0.27
C10        49.34   48.30   27.17          75.01    7.62   18.81          20.29   67.95           0.24    0.35    0.48    0.30            0.33    0.35    0.28           0.27     0.30
C11        50.25   47.62   21.77          74.59   11.91   27.92          30.35   66.89           0.21    0.38    0.57    0.30            0.19    0.21    0.16           0.22     0.25
C12        51.30   47.69   18.58          74.63   14.52   34.59          37.51   67.23           0.19    0.40    0.64    0.29            0.17    0.21    0.20           0.28     0.34
C13        61.00   69.01   63.95          86.51  -12.62   -6.96          14.41  208.89           0.25    0.12    0.11    0.18            0.24    0.19    0.11           0.20     0.24
C14        66.98   63.81   60.49          83.87   12.34   -8.15          14.79  326.57           0.13    0.22    0.14    0.19            0.16    0.19    0.16           0.16     0.19
C15        71.07   74.59   44.84          89.20   -1.80   18.18          18.27   95.65           0.11    0.13    0.26    0.12            0.13    0.16    0.16           0.19     0.21
C16        47.95   50.01   40.85          76.08   -0.76    0.54           0.93  144.44           0.30    0.30    0.31    0.30            0.18    0.18    0.11           0.14     0.17
C17        60.86   58.21   41.67          80.86   11.41    7.73          13.79   34.12           0.15    0.27    0.30    0.22            0.18    0.22    0.16           0.19     0.22
C18        55.51   63.50   43.95          83.70  -13.81    9.79          16.92  144.67           0.26    0.16    0.27    0.21            0.16    0.16    0.16           0.18     0.20
C19        53.04   54.74   58.97          78.89    0.67  -15.21          15.22  272.52           0.28    0.25    0.15    0.27            0.15    0.17    0.13           0.17     0.19
C20         1.70    1.42    0.71          12.07    9.10    7.50          11.79   39.52           1.66    1.97    2.04    1.80            0.01    0.01    0.01           0.20     0.22
C21        23.01   17.23    4.59          48.55   31.91   34.92          47.31   47.57           0.47    0.98    1.23    0.70            0.17    0.16    0.06           0.26     0.29
C22        35.02   31.86   17.23          63.23   15.26   17.94          23.55   49.62           0.36    0.57    0.67    0.47            0.21    0.20    0.15           0.27     0.30
D1          4.00    4.19    2.17          24.28   -0.54   10.01          10.02   93.09           1.34    1.38    1.55    1.37            0.04    0.05    0.04           0.27     0.32
D2          4.02    4.16    1.37          24.20    0.10   18.29          18.29   89.69           1.32    1.40    1.74    1.36            0.06    0.07    0.03           0.33     0.36
D3          3.95    4.14    0.78          24.13   -0.57   26.89          26.89   91.22           1.33    1.41    1.97    1.36            0.07    0.08    0.01           0.36     0.44
D4          4.56    4.79    0.81          26.12   -0.71   29.80          29.81   91.36           1.26    1.35    1.95    1.30            0.03    0.04    0.00           0.21     0.27
D5         26.63   27.76   13.82          59.67   -0.57   20.23          20.24   91.62           0.52    0.57    0.76    0.55            0.14    0.14    0.11           0.17     0.19
D6         26.29   27.49    7.47          59.42   -0.89   40.25          40.26   91.27           0.50    0.59    1.01    0.54            0.19    0.19    0.08           0.25     0.28
D7         26.02   27.36    3.49          59.31   -1.50   60.14          60.16   91.43           0.51    0.60    1.33    0.54            0.14    0.15    0.04           0.20     0.24
D8         25.93   27.45    1.55          59.39   -2.21   76.85          76.88   91.65           0.52    0.62    1.69    0.54            0.14    0.15    0.01           0.17     0.22
D9         54.24   56.47   38.54          79.88   -0.52   10.14          10.15   92.92           0.23    0.25    0.33    0.24            0.34    0.32    0.28           0.25     0.28
D10        54.10   56.42   31.12          79.85   -0.77   20.77          20.79   92.13           0.22    0.26    0.42    0.24            0.36    0.38    0.33           0.27     0.30
D11        54.00   56.28   24.61          79.77   -0.67   31.51          31.51   91.21           0.21    0.27    0.51    0.24            0.16    0.19    0.18           0.21     0.25
D12        53.03   55.59   11.41          79.38   -1.46   61.01          61.03   91.37           0.21    0.29    0.83    0.24            0.26    0.25    0.12           0.29     0.36
D13        53.53   63.06   62.75          83.47  -17.82  -11.05          20.97  211.81           0.34    0.14    0.12    0.22            0.23    0.22    0.19           0.17     0.20
D14        61.30   55.26   57.18          79.19   19.64  -12.86          23.47  326.79           0.16    0.31    0.17    0.24            0.19    0.25    0.18           0.22     0.26
D15        67.93   71.17   35.78          87.57   -1.52   27.20          27.24   93.20           0.12    0.16    0.36    0.14            0.20    0.22    0.23           0.19     0.22
D16        36.87   38.31   31.04          68.25   -0.20    0.88           0.91  102.97           0.41    0.41    0.42    0.42            0.26    0.26    0.21           0.23     0.25
D17        53.28   48.39   31.99          75.07   17.75   11.19          20.98   32.24           0.19    0.38    0.41    0.29            0.18    0.21    0.18           0.25     0.28
D18        46.21   55.45   34.63          79.30  -19.48   14.57          24.33  143.20           0.36    0.21    0.37    0.27            0.24    0.25    0.18           0.19     0.23
D19        43.16   43.80   54.98          72.10    2.76  -22.79          22.95  276.90           0.39    0.34    0.19    0.37            0.11    0.13    0.10           0.14     0.17
D20        13.82   10.43    2.65          38.61   26.25   30.58          40.30   49.35           0.69    1.20    1.46    0.92            0.12    0.09    0.05           0.24     0.27
D21        21.54   20.75   11.35          52.68    7.35   15.18          16.87   64.16           0.58    0.73    0.85    0.66            0.15    0.15    0.15           0.26     0.29
D22        38.14   36.34   19.77          66.78   10.23   18.51          21.15   61.07           0.33    0.49    0.61    0.42            0.14    0.14    0.12           0.27     0.32
E1          3.63    4.13    2.21          24.08   -5.19    9.24          10.60  119.33           1.42    1.35    1.54    1.39            0.05    0.06    0.03           0.28     0.31
E2          3.43    4.26    1.40          24.51  -10.11   18.48          21.06  118.67           1.46    1.32    1.72    1.38            0.03    0.04    0.02           0.19     0.22
E3          3.07    4.16    0.84          24.20  -14.77   25.92          29.83  119.67           1.55    1.31    1.93    1.39            0.04    0.05    0.01           0.29     0.34
E4          3.37    4.61    0.87          25.60  -15.81   27.89          32.06  119.54           1.51    1.26    1.92    1.35            0.04    0.06    0.01           0.26     0.33
E5         12.47   14.08    7.49          44.35   -7.30   14.18          15.95  117.25           0.88    0.83    1.02    0.85            0.11    0.13    0.10           0.29     0.33
E6         11.35   14.09    4.45          44.37  -15.18   28.50          32.30  118.05           0.94    0.81    1.23    0.86            0.11    0.13    0.05           0.24     0.27
E7         10.18   13.94    2.46          44.14  -22.92   41.68          47.57  118.80           1.03    0.79    1.47    0.87            0.07    0.09    0.03           0.19     0.23
E8          9.39   13.96    1.35          44.18  -29.39   52.99          60.59  119.02           1.13    0.77    1.73    0.87            0.07    0.09    0.01           0.22     0.27
E9         37.63   40.39   28.02          69.75   -4.24    8.31           9.33  117.01           0.40    0.38    0.46    0.39            0.23    0.23    0.19           0.18     0.21
E10        36.16   40.30   23.33          69.69   -8.76   16.47          18.65  118.02           0.42    0.38    0.54    0.40            0.22    0.24    0.21           0.28     0.31
E11        35.03   40.32   19.46          69.69  -12.59   24.18          27.26  117.50           0.44    0.37    0.61    0.40            0.17    0.19    0.17           0.22     0.25
E12        31.52   39.95   11.27          69.43  -23.80   44.31          50.30  118.24           0.52    0.35    0.84    0.41            0.21    0.21    0.10           0.25     0.30
E13        46.11   56.80   61.41          80.07  -23.08  -15.60          27.86  214.06           0.44    0.17    0.13    0.28            0.18    0.18    0.16           0.16     0.18
E14        55.83   47.41   53.73          74.45   26.87  -17.39          32.00  327.08           0.19    0.40    0.20    0.30            0.12    0.18    0.14           0.19     0.25
E15        65.23   68.07   28.39          86.04   -0.90   35.80          35.81   91.45           0.13    0.19    0.45    0.15            0.15    0.17    0.17           0.22     0.24
E16        27.52   28.58   23.27          60.41   -0.13    0.58           0.60  102.65           0.53    0.54    0.55    0.54            0.14    0.14    0.15           0.17     0.20
E17        46.80   40.18   24.20          69.60   23.99   14.70          28.14   31.50           0.22    0.50    0.53    0.36            0.20    0.21    0.20           0.25     0.28
E18        37.64   47.68   27.08          74.62  -25.18   18.29          31.12  144.00           0.47    0.26    0.47    0.34            0.22    0.23    0.17           0.20     0.22
E19        34.16   33.99   50.61          64.95    4.85  -30.35          30.74  279.09           0.51    0.45    0.23    0.48            0.13    0.13    0.13           0.17     0.19
E20        24.31   16.60    1.19          47.76   41.05   61.28          73.76   56.18           0.43    1.10    1.79    0.69            0.17    0.14    0.02           0.20     0.24
E21        17.05   14.00    2.58          44.24   21.01   40.87          45.95   62.79           0.61    1.01    1.46    0.80            0.15    0.13    0.04           0.28     0.32
E22        29.49   25.39    7.92          57.45   20.30   35.05          40.50   59.92           0.40    0.72    1.00    0.55            0.11    0.13    0.09           0.24     0.27
F1          1.42    1.81    1.28          14.46   -8.64    2.70           9.06  162.63           1.91    1.66    1.78    1.76            0.03    0.03    0.02           0.27     0.30
F2          1.16    1.86    1.05          14.74  -17.81    6.28          18.89  160.58           2.12    1.59    1.85    1.77            0.02    0.03    0.02           0.23     0.25
F3          1.00    1.94    0.96          15.15  -25.24    8.41          26.61  161.57           2.32    1.53    1.88    1.78            0.01    0.02    0.01           0.25     0.30
F4          1.07    2.25    1.02          16.77  -29.74   10.19          31.44  161.08           2.36    1.45    1.85    1.72            0.01    0.03    0.01           0.32     0.35
F5          6.54    8.16    5.62          34.32  -12.98    5.09          13.95  158.59           1.23    1.02    1.15    1.11            0.08    0.09    0.07           0.23     0.26
F6          5.25    8.08    4.78          34.15  -26.65    9.11          28.17  161.13           1.44    0.97    1.21    1.13            0.06    0.09    0.07           0.25     0.28
F7          4.17    7.97    3.84          33.92  -39.63   14.11          42.07  160.40           1.72    0.92    1.29    1.16            0.04    0.08    0.05           0.22     0.25
F8          3.13    8.04    3.05          34.07  -56.34   19.74          59.70  160.69           2.23    0.86    1.38    1.18            0.02    0.04    0.04           0.23     0.28
F9         37.44   40.65   31.89          69.93   -5.62    2.47           6.14  156.28           0.42    0.37    0.41    0.40            0.15    0.17    0.17           0.18     0.20
F10        35.50   40.53   30.58          69.84  -11.65    4.34          12.44  159.57           0.46    0.36    0.43    0.40            0.31    0.30    0.26           0.30     0.33
F11        33.80   40.34   29.25          69.71  -16.90    6.25          18.01  159.72           0.50    0.34    0.44    0.41            0.21    0.24    0.25           0.22     0.25
F12        29.12   40.17   25.71          69.59  -33.48   11.98          35.56  160.31           0.64    0.30    0.50    0.43            0.25    0.27    0.20           0.24     0.29
F13        39.18   50.55   59.61          76.41  -27.95  -20.14          34.45  215.77           0.56    0.20    0.14    0.34            0.20    0.20    0.16           0.18     0.20
F14        50.21   39.79   49.83          69.32   34.50  -21.94          40.89  327.55           0.22    0.51    0.24    0.37            0.15    0.19    0.14           0.25     0.31
F15        62.75   64.98   21.61          84.48    0.20   45.28          45.28   89.75           0.14    0.22    0.57    0.17            0.12    0.14    0.14           0.17     0.20
F16        19.62   20.38   16.58          52.26   -0.15    0.56           0.60  105.45           0.68    0.69    0.69    0.69            0.16    0.18    0.14           0.28     0.31
F17        40.86   32.91   17.56          64.09   30.33   18.69          35.63   31.64           0.26    0.62    0.67    0.44            0.18    0.18    0.16           0.22     0.24
