targets/wolf_faust/reflective/R131007WhiteBacking.it8
IT8.7/2
ORIGINATOR "Wolf Faust"
DESCRIPTOR "L* a* b* Batch average data (light D50, viewing angle 2)"
MANUFACTURER "Wolf Faust - http://www.coloraid.de"
CREATED "October 10, 2013"
PROD_DATE "2013:10"
SAMPLE_BACKING "white"
SERIAL "R131007"
MATERIAL "Kodak Professional Endura Premier"
KEYWORD "MEAN_DE" # Mean Delta E of samples compared to batch average
NUMBER_OF_FIELDS 13
BEGIN_DATA_FORMAT
SAMPLE_ID  XYZ_X   XYZ_Y   XYZ_Z          LAB_L   LAB_A   LAB_B          LAB_C   LAB_H          D_RED  D_GREEN  D_BLUE  D_VIS
END_DATA_FORMAT
NUMBER_OF_SETS 288
BEGIN_DATA
A1          3.40    2.83    2.00          19.37   11.54    3.06          11.95   14.83           1.36    1.66    1.60    1.51
A2          4.25    2.87    1.65          19.50   23.57    6.95          24.57   16.42           1.21    1.83    1.69    1.47
A3          5.11    2.94    1.43          19.78   33.53    9.95          34.98   16.53           1.10    2.02    1.76    1.42
A4          5.61    3.19    1.55          20.77   35.27   10.28          36.74   16.25           1.06    2.01    1.72    1.39
A5         12.31   10.64    7.81          38.96   14.83    3.62          15.26   13.72           0.81    1.06    1.02    0.94
A6         14.63   10.74    6.78          39.13   29.02    8.10          30.14   15.59           0.69    1.17    1.08    0.91
A7         17.08   10.84    6.00          39.31   42.39   11.87          44.02   15.65           0.59    1.31    1.14    0.88
A8         20.21   10.87    4.98          39.36   58.41   17.01          60.83   16.24           0.51    1.56    1.23    0.84
A9         40.22   39.36   31.46          69.01    7.18    1.55           7.34   12.21           0.35    0.43    0.42    0.40
A10        42.32   39.43   30.52          69.06   13.33    3.09          13.69   13.05           0.30    0.45    0.43    0.39
A11        45.02   39.83   29.59          69.35   20.01    5.07          20.65   14.22           0.26    0.48    0.45    0.37
A12        47.11   39.86   28.65          69.37   25.82    6.63          26.66   14.39           0.22    0.50    0.46    0.37
A13        73.87   78.45   64.17          90.98   -3.63    0.53           3.67  171.66           0.12    0.09    0.11    0.11
A14        74.75   76.87   63.47          90.26    1.29   -0.03           1.30  286.59           0.10    0.12    0.12    0.11
A15        76.70   80.35   63.62          91.84   -1.56    2.55           2.99  121.56           0.10    0.09    0.12    0.10
A16        74.96   78.15   63.87          90.85   -0.81    0.59           1.01  144.62           0.11    0.10    0.11    0.11
A17        76.04   79.34   62.69          91.39   -0.94    2.66           2.82  109.38           0.10    0.10    0.12    0.10
A18        75.81   79.75   63.16          91.57   -2.19    2.52           3.34  131.04           0.10    0.09    0.12    0.10
A19        70.91   74.23   63.15          89.03   -1.41   -1.84           2.32  232.59           0.14    0.12    0.12    0.13
A20         1.35    1.10    0.78           9.83    9.14    2.26           9.42   13.94           1.77    2.07    2.00    1.92
A21         5.23    3.31    0.83          21.24   28.74   21.02          35.60   36.18           1.09    1.87    1.97    1.38
A22        10.26    5.85    0.88          29.03   42.86   33.64          54.49   38.13           0.78    1.79    1.94    1.12
B1          3.32    2.89    1.61          19.59    9.20    7.51          11.88   39.22           1.37    1.63    1.69    1.50
B2          3.90    2.90    1.06          19.63   18.12   14.60          23.27   38.86           1.25    1.75    1.86    1.47
B3          4.45    2.90    0.69          19.65   25.68   20.86          33.09   39.09           1.16    1.89    2.05    1.45
B4          5.10    3.22    0.66          20.92   28.60   23.55          37.05   39.47           1.10    1.89    2.06    1.39
B5         12.43   10.68    5.76          39.03   15.36   12.52          19.82   39.18           0.79    1.08    1.14    0.93
B6         14.49   10.84    3.93          39.31   27.45   22.90          35.75   39.83           0.68    1.18    1.30    0.90
B7         16.79   10.82    2.26          39.27   40.96   34.98          53.86   40.50           0.58    1.33    1.54    0.87
B8         19.85   11.07    1.15          39.70   55.16   47.85          73.02   40.94           0.50    1.54    1.82    0.83
B9         39.67   39.14   29.42          68.85    6.14    4.48           7.60   36.13           0.35    0.43    0.45    0.40
B10        41.89   39.27   26.24          68.95   12.54    9.95          16.01   38.45           0.30    0.46    0.50    0.39
B11        44.48   39.98   23.66          69.46   17.97   15.46          23.71   40.71           0.25    0.47    0.54    0.37
B12        46.12   39.80   21.15          69.32   23.26   20.06          30.72   40.77           0.22    0.50    0.59    0.36
B13        67.29   73.78   63.60          88.82   -8.30   -2.65           8.72  197.71           0.18    0.11    0.12    0.14
B14        70.74   70.22   61.59          87.10    6.55   -3.66           7.51  330.83           0.12    0.17    0.13    0.15
B15        74.08   77.83   54.40          90.70   -1.99    9.91          10.11  101.36           0.10    0.11    0.18    0.11
B16        59.17   61.64   51.35          82.72   -0.62   -0.54           0.84  220.16           0.21    0.21    0.21    0.21
B17        67.58   67.10   51.88          85.56    6.40    3.76           7.43   30.43           0.13    0.19    0.20    0.17
B18        64.58   71.15   53.64          87.56   -8.92    5.30          10.38  149.30           0.19    0.13    0.19    0.15
B19        61.98   64.32   60.78          84.13   -0.07   -7.98           7.98  269.48           0.20    0.18    0.14    0.20
B20         2.85    2.03    0.78          15.65   18.08   12.26          21.85   34.15           1.38    1.94    2.00    1.62
B21         8.38    4.89    0.85          26.43   38.55   29.68          48.65   37.59           0.87    1.82    1.96    1.20
B22        28.93   24.63   12.02          56.71   21.31   20.12          29.30   43.35           0.42    0.72    0.83    0.57
C1          4.41    4.24    2.19          24.45    4.43   10.04          10.98   66.18           1.27    1.42    1.55    1.35
C2          4.70    4.22    1.39          24.38    8.53   18.35          20.23   65.08           1.21    1.47    1.74    1.34
C3          5.01    4.21    0.79          24.35   12.62   27.14          29.93   65.06           1.16    1.52    1.97    1.32
C4          5.55    4.61    0.79          25.60   13.70   29.21          32.27   64.87           1.11    1.49    1.97    1.28
C5         23.04   22.01   10.59          54.04    8.37   19.89          21.58   67.17           0.55    0.71    0.88    0.63
C6         25.29   22.23    5.44          54.27   17.18   40.35          43.86   66.94           0.47    0.77    1.15    0.61
C7         27.34   22.15    2.34          54.19   25.94   60.01          65.38   66.63           0.41    0.84    1.50    0.60
C8         28.63   22.10    1.24          54.14   31.24   71.60          78.12   66.43           0.38    0.88    1.78    0.59
C9         46.52   46.79   32.51          74.06    3.97    8.65           9.52   65.33           0.28    0.35    0.40    0.32
C10        48.03   46.91   26.88          74.13    7.85   17.80          19.45   66.19           0.25    0.37    0.48    0.31
C11        49.40   46.74   21.87          74.02   12.05   26.74          29.33   65.75           0.22    0.39    0.57    0.31
C12        50.66   46.84   18.01          74.09   15.15   34.91          38.06   66.55           0.19    0.41    0.65    0.30
C13        59.59   67.97   62.63          85.99  -13.72   -6.59          15.22  205.65           0.26    0.12    0.12    0.18
C14        65.20   61.45   58.68          82.62   13.77   -8.48          16.17  328.38           0.14    0.24    0.16    0.20
C15        70.78   74.43   44.06          89.12   -2.08   18.99          19.11   96.25           0.11    0.13    0.27    0.12
C16        46.29   47.93   39.55          74.78    0.22    0.01           0.28  225.66           0.31    0.32    0.32    0.32
C17        59.29   56.05   40.22          79.64   12.91    7.51          14.93   30.17           0.16    0.30    0.31    0.23
C18        54.63   62.87   42.92          83.37  -14.60   10.49          17.98  144.31           0.27    0.17    0.28    0.21
C19        51.04   52.24   57.15          77.43    1.76  -15.87          15.97  276.32           0.30    0.27    0.17    0.29
C20         1.69    1.43    0.75          12.14    8.59    6.86          10.99   38.60           1.66    1.96    2.02    1.80
C21        22.79   17.08    4.73          48.35   31.76   33.87          46.43   46.84           0.48    0.98    1.22    0.70
C22        34.58   31.47   17.45          62.90   15.16   16.89          22.70   48.09           0.36    0.58    0.67    0.47
D1          4.01    4.17    2.22          24.22   -0.09    9.42           9.42   90.55           1.34    1.39    1.54    1.37
D2          4.02    4.19    1.41          24.30   -0.30   17.95          17.96   90.97           1.32    1.40    1.73    1.36
D3          4.07    4.24    0.85          24.44   -0.29   26.26          26.26   90.63           1.31    1.40    1.94    1.35
D4          4.61    4.80    0.87          26.15   -0.18   28.77          28.78   90.36           1.26    1.35    1.92    1.30
D5         26.05   27.16   13.68          59.12   -0.59   19.64          19.65   91.72           0.53    0.58    0.77    0.56
D6         25.81   27.00    7.47          58.97   -0.93   39.45          39.46   91.35           0.51    0.60    1.02    0.55
D7         25.54   26.92    3.48          58.90   -1.71   59.53          59.55   91.65           0.52    0.61    1.33    0.55
D8         25.53   27.10    1.60          59.07   -2.51   75.72          75.76   91.90           0.53    0.62    1.68    0.54
D9         52.67   54.98   37.81          79.03   -0.88    9.66           9.70   95.24           0.24    0.26    0.34    0.26
D10        52.62   54.93   30.41          79.00   -0.89   20.42          20.44   92.50           0.23    0.27    0.43    0.25
D11        52.78   55.13   24.80          79.12   -0.97   30.03          30.04   91.85           0.22    0.28    0.51    0.25
D12        52.08   54.90   11.87          78.98   -2.22   58.97          59.01   92.15           0.22    0.30    0.82    0.24
D13        52.23   62.09   61.52          82.96  -18.97  -10.73          21.79  209.49           0.35    0.14    0.13    0.23
D14        59.68   53.22   55.44          78.00   20.92  -13.09          24.68  327.96           0.17    0.33    0.18    0.26
D15        67.89   71.23   35.62          87.60   -1.73   27.46          27.52   93.60           0.12    0.16    0.36    0.14
D16        35.67   36.86   30.65          67.17    0.44   -0.37           0.60  320.51           0.42    0.43    0.43    0.43
D17        52.27   46.94   31.35          74.15   19.10   10.57          21.84   28.96           0.19    0.40    0.42    0.30
D18        45.12   54.60   34.18          78.81  -20.47   14.38          25.02  144.91           0.37    0.21    0.38    0.28
D19        41.34   41.62   53.08          70.61    3.71  -23.31          23.61  279.04           0.40    0.37    0.20    0.39
D20        13.58   10.26    2.67          38.31   26.09   29.92          39.70   48.91           0.70    1.20    1.46    0.92
D21        21.23   20.52   11.56          52.42    7.02   14.10          15.76   63.52           0.59    0.73    0.84    0.67
D22        38.11   36.32   20.12          66.76   10.20   17.75          20.47   60.12           0.34    0.49    0.61    0.42
E1          3.63    4.13    2.24          24.10   -5.22    9.01          10.42  120.08           1.42    1.35    1.54    1.39
E2          3.43    4.21    1.47          24.36   -9.59   17.37          19.84  118.91           1.46    1.33    1.71    1.38
E3          3.12    4.14    0.90          24.13  -13.71   24.91          28.43  118.83           1.54    1.32    1.91    1.39
E4          3.39    4.60    0.93          25.55  -15.31   26.86          30.92  119.68           1.51    1.27    1.89    1.35
E5         12.23   13.89    7.42          44.07   -7.69   13.96          15.94  118.86           0.89    0.83    1.03    0.86
E6         11.14   13.82    4.53          43.98  -15.03   27.41          31.26  118.74           0.95    0.81    1.23    0.87
E7         10.03   13.72    2.49          43.82  -22.71   40.86          46.75  119.07           1.04    0.80    1.47    0.87
E8          9.37   13.92    1.41          44.12  -29.29   52.12          59.79  119.34           1.13    0.77    1.72    0.87
E9         36.55   39.28   27.76          68.96   -4.32    7.38           8.55  120.38           0.42    0.40    0.47    0.41
E10        35.37   39.36   23.54          69.01   -8.53   14.92          17.18  119.76           0.43    0.39    0.54    0.41
E11        33.96   39.34   19.23          69.00  -13.26   23.46          26.95  119.47           0.46    0.38    0.62    0.41
E12        31.02   39.36   11.38          69.01  -23.82   43.26          49.38  118.84           0.52    0.36    0.84    0.41
E13        45.24   56.14   60.23          79.69  -23.94  -15.08          28.30  212.21           0.45    0.17    0.14    0.28
E14        54.59   46.00   52.15          73.55   27.66  -17.23          32.59  328.08           0.20    0.42    0.21    0.32
E15        65.21   68.10   28.42          86.05   -1.00   35.76          35.78   91.61           0.13    0.19    0.45    0.15
E16        26.77   27.71   23.02          59.63    0.19   -0.28           0.39  240.31           0.55    0.56    0.55    0.56
E17        46.09   39.28   23.83          68.95   24.79   14.28          28.61   29.94           0.23    0.51    0.54    0.37
E18        36.99   47.13   26.84          74.28  -25.80   18.10          31.51  144.94           0.48    0.26    0.48    0.35
E19        33.01   32.63   49.15          63.86    5.59  -30.59          31.09  280.35           0.52    0.47    0.24    0.50
E20        23.99   16.35    1.22          47.43   41.07   60.22          72.89   55.71           0.43    1.11    1.78    0.70
E21        16.93   13.89    2.59          44.07   21.09   40.50          45.66   62.50           0.62    1.02    1.47    0.80
E22        29.30   25.29    8.09          57.36   19.97   34.24          39.64   59.75           0.40    0.72    0.99    0.55
F1          1.44    1.81    1.28          14.44   -8.10    2.60           8.52  162.21           1.90    1.67    1.78    1.76
F2          1.14    1.81    1.09          14.43  -17.31    5.23          18.08  163.18           2.13    1.60    1.84    1.79
F3          1.01    1.96    0.98          15.26  -25.26    8.28          26.58  161.86           2.32    1.52    1.88    1.77
F4          1.12    2.27    1.10          16.83  -28.40    9.24          29.86  161.97           2.33    1.45    1.83    1.71
F5          6.48    8.09    5.81          34.17  -13.03    3.91          13.60  163.28           1.24    1.02    1.13    1.11
F6          5.28    8.03    4.79          34.05  -25.91    8.88          27.39  161.07           1.44    0.97    1.21    1.14
F7          4.18    7.95    4.05          33.89  -39.44   12.81          41.47  162.01           1.73    0.92    1.27    1.16
F8          3.22    8.05    3.18          34.09  -54.94   18.82          58.08  161.09           2.19    0.86    1.36    1.17
F9         36.18   39.36   31.46          69.01   -5.80    1.56           6.01  164.94           0.44    0.38    0.42    0.41
F10        34.74   39.59   30.28          69.17  -11.36    3.67          11.94  162.08           0.47    0.37    0.43    0.41
F11        33.04   39.42   29.09          69.05  -16.74    5.36          17.58  162.26           0.51    0.35    0.45    0.42
F12        28.34   39.45   25.80          69.08  -34.28   10.95          35.98  162.29           0.66    0.30    0.49    0.44
F13        38.56   50.07   58.56          76.11  -28.66  -19.58          34.71  214.35           0.57    0.20    0.15    0.34
F14        49.13   38.62   48.41          68.47   35.23  -21.78          41.42  328.28           0.23    0.52    0.25    0.38
F15        62.71   64.96   21.89          84.46    0.17   44.71          44.71   89.79           0.14    0.22    0.56    0.17
F16        19.28   19.96   16.64          51.79    0.18   -0.39           0.51  296.49           0.69    0.70    0.69    0.70
F17        40.11   32.02   17.28          63.36   31.17   18.06          36.03   30.09           0.27    0.64    0.68    0.45
F18        29.48   39.85   20.19          69.36  -31.09   22.08          38.14  144.61           0.60    0.32    0.60    0.42
F19        25.46   24.36   44.60          56.45    8.51  -38.00          38.94  282.62           0.67    0.60    0.28    0.63
F20        25.19   24.14   11.48          56.23    8.29   20.90          22.48   68.36           0.51    0.67    0.84    0.59
F21        33.11   30.08   10.68          61.72   15.15   32.84          36.17   65.24           0.37    0.61    0.87    0.49
F22        37.38   34.86   15.48          65.64   12.70   26.26          29.17   64.20           0.33    0.53    0.72    0.43
G1          2.22    2.80    2.59          19.24   -9.60   -2.32           9.88  193.61           1.74    1.47    1.48    1.58
G2          1.84    2.83    2.82          19.37  -18.83   -3.89          19.22  191.68           1.99    1.40    1.44    1.60
G3          1.63    3.09    3.19          20.39  -28.66   -4.90          29.07  189.70           2.29    1.31    1.39    1.59
G4          1.74    3.38    3.52          21.50  -30.53   -5.23          30.97  189.73           2.30    1.26    1.34    1.56
G5          8.70   10.68    9.50          39.04  -12.94   -2.41          13.16  190.54           1.13    0.90    0.93    1.00
G6          7.41   10.69   10.19          39.05  -24.66   -4.68          25.10  190.75           1.32    0.85    0.90    1.02
G7          6.13   10.68   10.99          39.03  -37.62   -7.25          38.31  190.91           1.64    0.79    0.86    1.04
G8          4.95   10.77   11.72          39.18  -52.01   -9.20          52.82  190.03           2.16    0.73    0.83    1.07
G9         36.29   39.59   33.68          69.18   -6.14   -1.49           6.32  193.65           0.44    0.38    0.39    0.41
G10        34.03   39.32   34.24          68.98  -12.96   -2.65          13.22  191.57           0.50    0.36    0.38    0.42
G11        32.37   39.32   35.36          68.99  -18.81   -4.26          19.29  192.76           0.56    0.34    0.37    0.43
G12        27.69   39.44   37.06          69.07  -36.79   -6.49          37.36  190.01           0.74    0.28    0.34    0.45
G13        32.50   44.17   56.51          72.34  -32.82  -23.97          40.64  216.14           0.71    0.23    0.17    0.41
G14        43.77   31.89   44.40          63.25   42.68  -26.04          49.99  328.61           0.27    0.65    0.29    0.46
G15        60.48   61.94   16.29          82.88    1.78   54.04          54.07   88.11           0.14    0.25    0.69    0.19
G16        13.27   13.76   11.60          43.89    0.03   -0.75           0.78  269.93           0.85    0.86    0.85    0.86
G17        34.87   25.98   12.19          58.02   37.21   21.88          43.16   30.46           0.31    0.78    0.82    0.52
G18        22.99   33.22   14.75          64.34  -36.25   25.86          44.53  144.49           0.74    0.38    0.73    0.51
G19        19.11   17.45   39.96          48.82   12.16  -45.30          46.91  285.03           0.83    0.74    0.34    0.79
G20        34.79   33.44   14.20          64.52    8.92   27.59          29.00   72.08           0.37    0.53    0.75    0.45
G21        33.71   32.21    9.26          63.51    9.50   40.63          41.73   76.83           0.37    0.56    0.93    0.46
G22        45.12   41.57    2.64          70.57   15.02   85.74          87.05   80.07           0.23    0.50    1.46    0.34
H1          2.43    2.85    3.21          19.43   -6.04   -6.65           8.99  227.73           1.69    1.48    1.40    1.57
H2          2.19    2.86    4.35          19.49  -11.48  -13.79          17.95  230.21           1.90    1.42    1.27    1.60
H3          1.93    2.85    5.53          19.42  -16.96  -20.16          26.34  229.93           2.25    1.37    1.17    1.64
H4          2.11    3.21    6.57          20.86  -19.02  -22.48          29.45  229.77           2.31    1.30    1.10    1.59
H5          9.37   10.75   11.68          39.16   -7.87   -9.12          12.04  229.20           1.09    0.91    0.85    0.99
H6          8.39   10.75   15.22          39.15  -16.13  -18.77          24.75  229.32           1.28    0.86    0.73    1.02
H7          7.66   10.88   19.14          39.37  -23.70  -27.40          36.23  229.15           1.54    0.81    0.64    1.04
H8          6.68   10.75   24.07          39.15  -32.41  -37.55          49.60  229.20           2.17    0.75    0.54    1.09
H9         36.77   39.55   36.70          69.15   -4.44   -5.85           7.35  232.79           0.44    0.38    0.35    0.41
H10        35.73   39.78   40.13          69.31   -8.59  -10.19          13.33  229.85           0.48    0.36    0.32    0.42
H11        34.15   39.55   44.03          69.14  -13.23  -15.41          20.31  229.36           0.54    0.34    0.28    0.43
H12        31.44   39.61   54.12          69.19  -23.05  -26.89          35.42  229.39           0.68    0.30    0.19    0.45
H13        27.30   38.79   54.35          68.60  -36.34  -28.15          45.97  217.76           0.86    0.27    0.18    0.47
H14        38.97   26.17   40.54          58.20   49.83  -29.88          58.10  329.06           0.32    0.79    0.33    0.53
H15        58.53   59.08   11.66          81.33    3.82   63.64          63.76   86.57           0.15    0.29    0.83    0.20
H16         8.78    9.12    7.58          36.22   -0.11   -0.20           0.35  194.73           1.03    1.03    1.03    1.04
H17        30.47   21.12    8.06          53.08   42.78   26.99          50.58   32.24           0.35    0.94    1.00    0.60
H18        17.82   27.60   10.44          59.53  -40.73   29.81          50.47  143.80           0.89    0.44    0.87    0.59
H19        14.35   12.26   35.69          41.63   16.53  -51.88          54.45  287.67           1.01    0.89    0.39    0.95
H20        39.65   40.15   15.00          69.58    2.94   34.26          34.39   85.10           0.33    0.43    0.72    0.38
H21        30.08   31.15   20.16          62.63    0.17   10.55          10.55   89.10           0.48    0.51    0.61    0.50
H22        34.00   36.92   11.07          67.22   -5.47   41.09          41.46   97.58           0.41    0.44    0.85    0.42
I1          4.11    4.20    5.64          24.32    0.88  -12.25          12.29  274.10           1.42    1.35    1.16    1.39
I2          4.20    4.23    8.64          24.42    1.66  -24.57          24.63  273.86           1.51    1.32    0.99    1.41
I3          4.27    4.26   11.84          24.50    2.40  -34.88          34.97  273.94           1.65    1.29    0.86    1.43
I4          4.40    4.23   19.39          24.41    4.50  -53.74          53.93  274.79           2.29    1.22    0.65    1.51
I5         13.61   13.98   14.96          44.20    0.83   -9.40           9.43  275.04           0.86    0.84    0.74    0.86
I6         13.69   13.98   19.29          44.20    1.35  -19.40          19.45  273.98           0.90    0.83    0.64    0.87
I7         13.89   14.08   24.02          44.35    1.95  -28.49          28.55  273.91           0.94    0.81    0.55    0.88
I8         14.09   13.98   37.84          44.21    3.85  -50.42          50.57  274.36           1.12    0.78    0.36    0.91
