targets/wolf_faust/reflective/R131030WhiteBacking.it8
IT8.7/2
ORIGINATOR "Wolf Faust"
DESCRIPTOR "Kodak Professional Paper, L* a* b* (light D50, viewing angle 2)"
MANUFACTURER "Wolf Faust - http://www.coloraid.de"
CREATED "April 03, 2014"
PROD_DATE "2013:10"
SAMPLE_BACKING "white"
SERIAL "5x7 R131030 Batch Average Data"
MATERIAL "Kodak Professional Endura Premier"
NUMBER_OF_FIELDS 9
BEGIN_DATA_FORMAT
SAMPLE_ID  XYZ_X   XYZ_Y   XYZ_Z          LAB_L   LAB_A   LAB_B          LAB_C   LAB_H
END_DATA_FORMAT
NUMBER_OF_SETS 288
BEGIN_DATA
A1          3.55    3.00    1.98          20.05   10.99    4.44          11.85   22.02
A2          4.42    2.98    1.67          19.95   24.01    7.47          25.15   17.29 
A3          5.42    3.06    1.40          20.28   35.14   11.10          36.85   17.54
A4          5.97    3.33    1.48          21.30   37.05   11.99          38.94   17.94 
A5         12.79   11.08    7.90          39.72   14.82    4.60          15.52   17.23
A6         15.30   11.23    6.75          39.96   29.46    9.66          31.01   18.15 
A7         17.86   11.32    5.99          40.11   43.17   13.31          45.18   17.14
A8         21.43   11.58    5.11          40.54   59.17   18.36          61.95   17.24 
A9         42.66   41.98   32.42          70.85    6.61    3.27           7.37   26.31
A10        44.97   41.83   31.20          70.75   13.80    4.96          14.67   19.75
A11        47.55   42.01   30.05          70.88   20.55    6.98          21.70   18.76
A12        49.49   42.08   29.33          70.92   25.65    8.20          26.93   17.73 
A13        77.25   81.67   66.69          92.43   -2.97    0.65           3.05  167.71
A14        78.15   80.06   66.01          91.71    1.89    0.05           1.89   81.63 
A15        79.91   83.38   65.50          93.18   -0.95    3.07           3.21  107.20
A16        79.41   82.46   66.68          92.78   -0.21    1.27           1.29   99.23
A17        78.67   81.52   63.96          92.36    0.13    3.12           3.12   87.67
A18        78.64   82.46   64.83          92.78   -1.70    3.00           3.45  119.61 
A19        74.89   78.00   65.79          90.78   -0.66   -1.34           1.50  243.96
A20         1.34    1.10    0.74           9.77    9.13    2.84           9.56   17.28 
A21         5.36    3.40    0.81          21.57   28.90   22.01          36.33   37.29
A22        10.48    5.95    0.86          29.29   43.40   34.31          55.33   38.33
B1          3.30    2.89    1.57          19.61    8.86    7.95          11.91   41.91
B2          4.03    2.99    1.02          20.01   18.32   15.87          24.24   40.90
B3          4.63    3.00    0.65          20.04   26.44   22.34          34.61   40.19
B4          5.30    3.28    0.60          21.14   30.04   25.13          39.17   39.91
B5         13.09   11.29    5.86          40.06   15.32   13.86          20.66   42.13
B6         15.07   11.23    3.85          39.97   28.06   24.52          37.26   41.15
B7         17.62   11.37    2.31          40.19   41.53   36.18          55.09   41.06
B8         20.82   11.55    1.14          40.49   56.44   49.43          75.03   41.21
B9         42.48   41.85   29.99          70.77    6.46    6.87           9.43   46.77
B10        44.50   41.79   27.09          70.72   12.58   11.55          17.08   42.56
B11        46.82   41.99   24.09          70.86   18.58   17.09          25.24   42.62
B12        48.45   41.92   21.77          70.82   23.28   21.41          31.63   42.61
B13        71.82   77.89   66.27          90.73   -6.82   -1.88           7.07  195.40
B14        74.92   74.71   64.37          89.26    5.97   -2.63           6.52  336.20
B15        77.26   80.82   56.23          92.05   -1.34   10.30          10.39   97.40
B16        63.89   66.44   53.77          85.22   -0.38    1.12           1.19  108.71
B17        71.58   71.44   54.24          87.70    5.76    4.89           7.55   40.35
B18        68.67   74.87   55.64          89.33   -7.49    6.23           9.74  140.24
B19        66.86   69.35   63.69          86.68   -0.02   -6.42           6.42  269.83
B20         2.86    2.05    0.75          15.74   17.98   13.02          22.20   35.92
B21         8.73    5.09    0.84          27.00   39.17   30.81          49.84   38.19
B22        29.97   25.34   11.79          57.40   22.27   22.02          31.32   44.67
C1          4.54    4.38    2.19          24.88    4.33   10.84          11.67   68.21
C2          4.79    4.31    1.37          24.66    8.59   19.11          20.95   65.80
C3          5.16    4.32    0.75          24.70   13.05   28.50          31.34   65.39
C4          5.75    4.78    0.75          26.10   13.85   30.85          33.82   65.82
C5         24.18   22.91   10.67          54.98    9.38   21.24          23.22   66.17
C6         26.23   22.92    5.35          54.99   18.01   42.04          45.74   66.81
C7         28.71   23.05    2.34          55.12   27.33   61.65          67.44   66.09
C8         30.12   23.07    1.20          55.15   32.59   73.88          80.75   66.20
C9         49.52   49.77   33.56          75.93    4.17   10.31          11.12   67.98
C10        50.94   49.72   27.51          75.90    8.09   19.77          21.36   67.74
C11        52.04   49.15   22.10          75.54   12.50   28.92          31.51   66.62
C12        53.23   49.34   18.95          75.66   15.08   35.57          38.63   67.03
C13        63.07   71.37   65.23          87.66  -12.81   -6.19          14.23  205.79
C14        69.41   65.95   61.60          84.97   12.89   -7.33          14.83  330.36
C15        73.82   77.29   45.68          90.46   -1.45   19.33          19.39   94.30
C16        49.62   51.67   41.63          77.08   -0.54    1.27           1.38  113.08
C17        63.09   60.17   42.42          81.93   11.96    8.63          14.75   35.83
C18        57.44   65.65   44.78          84.82  -13.85   10.69          17.50  142.33
C19        54.73   56.44   60.10          79.86    0.77  -14.66          14.68  273.01
C20         1.75    1.46    0.72          12.33    9.26    7.67          12.02   39.62
C21        23.75   17.74    4.69          49.18   32.47   35.51          48.12   47.56
C22        36.10   32.73   17.47          63.94   15.80   18.62          24.42   49.70
D1          4.08    4.27    2.19          24.53   -0.43   10.24          10.25   92.42
D2          4.13    4.27    1.39          24.53    0.20   18.61          18.62   89.37
D3          4.09    4.28    0.79          24.57   -0.44   27.45          27.45   90.92
D4          4.71    4.94    0.83          26.56   -0.61   30.27          30.28   91.16
D5         27.41   28.51   14.03          60.35   -0.35   20.83          20.84   90.96
D6         27.07   28.25    7.58          60.11   -0.66   40.99          41.00   90.93
D7         26.71   28.03    3.55          59.91   -1.29   60.83          60.85   91.21
D8         26.69   28.19    1.58          60.06   -2.00   77.64          77.66   91.47
D9         56.08   58.28   39.19          80.89   -0.28   11.01          11.02   91.47
D10        55.96   58.21   31.55          80.85   -0.40   21.83          21.83   91.06
D11        55.83   58.03   24.88          80.76   -0.32   32.72          32.72   90.56
D12        55.02   57.50   11.62          80.46   -1.05   62.26          62.27   90.97
D13        55.26   65.15   64.03          84.56  -18.13  -10.40          20.91  209.83
D14        63.49   57.08   58.19          80.22   20.23  -12.11          23.58  329.08
D15        70.46   73.63   36.33          88.75   -1.13   28.45          28.47   92.28
D16        37.95   39.37   31.52          69.02   -0.04    1.47           1.47   91.38
D17        55.26   50.01   32.47          76.07   18.45   12.20          22.12   33.48
D18        47.64   57.15   35.18          80.27  -19.66   15.45          25.01  141.83
D19        44.42   45.06   55.97          72.93    2.83  -22.39          22.57  277.19
D20        14.23   10.72    2.69          39.11   26.70   31.09          40.98   49.35
D21        22.22   21.36   11.55          53.34    7.65   15.70          17.47   64.01
D22        39.36   37.41   20.09          67.58   10.64   19.24          21.98   61.05
E1          3.73    4.23    2.25          24.43   -5.13    9.51          10.81  118.36
E2          3.51    4.35    1.41          24.78  -10.04   18.77          21.28  118.15
E3          3.15    4.26    0.86          24.50  -14.78   26.22          30.10  119.42
E4          3.47    4.73    0.88          25.95  -15.81   28.29          32.41  119.19
E5         12.78   14.42    7.57          44.83   -7.24   14.67          16.36  116.27
E6         11.65   14.44    4.52          44.86  -15.12   28.97          32.67  117.56
E7         10.44   14.27    2.50          44.62  -22.96   42.21          48.05  118.54
E8          9.62   14.29    1.38          44.65  -29.53   53.48          61.09  118.91
E9         38.73   41.53   28.45          70.54   -4.13    8.97           9.88  114.73
E10        37.25   41.47   23.72          70.50   -8.70   17.16          19.24  116.87
E11        35.97   41.35   19.64          70.42  -12.56   25.05          28.02  116.62
E12        32.47   41.10   11.44          70.24  -23.87   45.19          51.10  117.85
E13        47.41   58.50   62.55          81.02  -23.52  -15.08          27.94  212.67
E14        57.76   48.91   54.64          75.40   27.54  -16.74          32.23  328.71
E15        67.76   70.51   28.90          87.25   -0.49   37.04          37.05   90.76
E16        28.35   29.39   23.64          61.12    0.05    1.12           1.13   87.52
E17        48.46   41.46   24.55          70.49   24.72   15.62          29.24   32.29
E18        38.75   49.08   27.45          75.50  -25.43   19.17          31.85  142.98
E19        35.10   34.91   51.46          65.68    4.92  -30.05          30.45  279.30
E20        25.17   17.14    1.21          48.43   41.83   62.16          74.92   56.07
E21        17.56   14.38    2.62          44.77   21.44   41.47          46.68   62.66
E22        30.45   26.13    8.05          58.16   20.85   35.80          41.43   59.79
F1          1.47    1.86    1.29          14.73   -8.61    2.93           9.10  161.20
F2          1.18    1.89    1.07          14.90  -17.93    6.35          19.02  160.49
F3          1.02    1.97    0.97          15.32  -25.44    8.55          26.84  161.42
F4          1.09    2.30    1.04          17.01  -29.93   10.34          31.67  160.94
F5          6.70    8.35    5.70          34.71  -13.01    5.35          14.07  157.65
F6          5.38    8.27    4.85          34.53  -26.77    9.39          28.37  160.67
F7          4.27    8.14    3.90          34.28  -39.90   14.37          42.41  160.19
F8          3.20    8.22    3.11          34.44  -56.81   19.93          60.20  160.67
F9         38.54   41.80   32.40          70.73   -5.55    3.09           6.35  150.85
F10        36.51   41.66   31.04          70.63  -11.69    5.00          12.72  156.84
F11        34.82   41.54   29.78          70.55  -17.00    6.84          18.33  158.08
F12        29.92   41.30   26.10          70.38  -33.83   12.67          36.12  159.47
F13        40.25   52.02   60.71          77.29  -28.44  -19.70          34.59  214.71
F14        51.90   41.03   50.64          70.19   35.20  -21.35          41.17  328.76
F15        65.13   67.24   21.97          85.63    0.66   46.55          46.56   89.19
F16        20.22   20.98   16.88          52.93   -0.06    1.00           1.01   92.84
F17        42.22   33.88   17.77          64.87   31.11   19.56          36.74   32.16
F18        30.79   41.46   20.65          70.50  -31.07   23.10          38.72  143.37
F19        27.01   26.06   46.70          58.09    7.79  -37.68          38.47  281.67
F20        26.30   25.10   11.58          57.17    8.86   22.22          23.93   68.26
F21        34.81   31.44   10.78          62.88   16.03   34.52          38.06   65.10
F22        39.37   36.70   15.67          67.05   12.97   28.24          31.08   65.32
G1          2.28    2.90    2.51          19.64  -10.03   -0.99          10.08  185.65
G2          1.85    2.89    2.82          19.61  -19.74   -3.50          20.05  190.05
G3          1.62    3.10    3.16          20.42  -28.93   -4.58          29.29  189.01
G4          1.73    3.43    3.55          21.69  -31.59   -5.13          32.00  189.22
G5          9.05   11.13    9.55          39.80  -13.27   -1.26          13.33  185.43
G6          7.60   10.99   10.21          39.56  -25.08   -3.87          25.37  188.76
G7          6.32   10.99   10.90          39.57  -37.91   -6.04          38.39  189.05
G8          5.00   11.09   11.79          39.73  -53.80   -8.47          54.46  188.95
G9         38.42   41.83   34.37          70.75   -6.01    0.22           6.01  177.89
G10        35.99   41.57   35.23          70.57  -13.18   -1.34          13.24  185.79
G11        34.52   41.75   36.29          70.69  -18.66   -2.61          18.84  187.96
G12        29.43   41.50   38.45          70.53  -36.33   -5.87          36.80  189.17
G13        33.82   45.76   58.49          73.39  -32.71  -24.20          40.69  216.50
G14        46.12   33.74   46.34          64.75   42.94  -25.77          50.07  329.03
G15        62.71   64.04   16.13          83.99    2.23   56.32          56.36   87.73
G16        13.77   14.26   11.46          44.60    0.11    0.92           0.94   82.94
G17        36.50   27.22   12.21          59.18   37.66   23.84          44.57   32.33
G18        24.06   34.64   14.96          65.47  -36.36   27.28          45.46  143.12
G19        20.23   18.56   41.68          50.17   11.87  -45.19          46.72  284.71
G20        36.58   35.09   14.17          65.82    9.29   29.90          31.31   72.73
G21        35.39   33.65    9.24          64.68   10.22   42.72          43.93   76.54
G22        47.32   43.34    2.64          71.78   16.01   87.88          89.33   79.67
H1          2.50    2.93    3.25          19.75   -6.03   -6.37           8.78  226.55
H2          2.23    2.93    4.32          19.78  -11.81  -13.15          17.67  228.07
H3          1.97    2.93    5.60          19.76  -17.40  -19.91          26.44  228.84
H4          2.11    3.30    6.61          21.19  -20.44  -22.11          30.11  227.24
H5          9.81   11.25   11.85          40.00   -7.95   -8.19          11.41  225.82
H6          8.66   11.06   15.20          39.69  -16.13  -17.80          24.02  227.81
H7          7.79   11.14   19.03          39.82  -24.41  -26.42          35.97  227.26
H8          6.78   11.04   24.65          39.64  -33.47  -37.75          50.45  228.44
H9         38.65   41.62   37.73          70.61   -4.66   -4.76           6.66  225.56
H10        37.45   41.62   40.78          70.61   -8.52   -8.79          12.24  225.91
H11        36.11   41.88   45.23          70.79  -13.69  -14.04          19.61  225.72
H12        32.98   42.05   56.68          70.90  -24.90  -26.64          36.46  226.93
H13        28.20   39.96   56.14          69.44  -36.38  -28.58          46.27  218.15
H14        40.86   27.55   42.12          59.48   50.21  -29.70          58.33  329.40
H15        60.64   61.11   11.59          82.44    4.09   65.75          65.87   86.44
H16         8.99    9.36    7.42          36.67   -0.33    1.19           1.25  105.88
H17        31.78   22.02    8.04          54.05   43.45   28.73          52.09   33.47
H18        18.41   28.56   10.45          60.39  -41.38   31.29          51.88  142.91
H19        14.82   12.75   36.86          42.38   16.23  -52.24          54.70  287.26
H20        41.75   42.07   15.04          70.92    3.63   36.47          36.65   84.31
H21        31.54   32.63   20.29          63.86    0.26   12.40          12.40   88.82
H22        35.63   38.55   11.21          68.42   -5.08   42.76          43.06   96.78
I1          4.28    4.39    5.68          24.93    0.60  -11.38          11.40  273.01
I2          4.27    4.32    8.46          24.70    1.47  -23.44          23.48  273.58
I3          4.28    4.27   11.77          24.53    2.32  -34.61          34.69  273.83
I4          4.42    4.28   19.62          24.59    4.01  -53.93          54.08  274.25
I5         14.17   14.62   15.08          45.11    0.43   -8.13           8.14  273.03
I6         14.25   14.64   19.62          45.13    0.84  -18.49          18.51  272.61
I7         14.31   14.62   24.12          45.10    1.33  -27.38          27.41  272.78
I8         14.45   14.51   39.07          44.96    2.85  -50.78          50.86  273.21
I9         40.37   41.75   37.18          70.70    0.34   -3.85           3.86  275.01
I10        40.53   41.88   41.48          70.79    0.43   -9.39           9.40  272.63
I11        40.41   41.68   45.36          70.65    0.68  -14.44          14.45  272.68
I12        41.13   42.27   55.01          71.06    1.14  -24.61          24.64  272.66
I13        23.56   34.83   53.63          65.62  -39.21  -32.52          50.94  219.67
I14        35.59   21.77   37.61          53.79   57.87  -33.59          66.91  329.87
I15        58.96   58.53    8.21          81.03    6.15   74.63          74.88   85.29
I16         5.49    5.68    4.65          28.58    0.21    0.17           0.33  110.67
I17        27.39   17.44    5.11          48.81   49.33   32.63          59.15   33.48
I18        13.92   23.43    7.19          55.51  -45.92   34.61          57.51  143.00
I19        10.70    8.22   32.17          34.43   22.93  -59.15          63.44  291.19
I20        42.01   45.89   15.54          73.47   -6.62   39.64          40.19   99.49
I21        10.89   14.51    3.31          44.96  -21.09   36.66          42.30  119.91
I22        28.24   36.38   16.98          66.81  -24.89   24.71          35.07  135.22
J1          2.15    1.93    2.95          15.11    6.72  -12.26          13.98  298.73
J2          2.47    1.92    4.91          15.07   13.56  -24.52          28.02  298.96
J3          2.86    1.93    7.86          15.09   20.71  -37.72          43.03  298.77
J4          4.00    1.96   19.63          15.25   38.42  -70.04          79.89  298.75
J5         11.58   11.25   12.13          40.00    5.28   -8.99          10.43  300.46
J6         12.43   11.28   15.88          40.04   11.04  -18.83          21.83  300.38
J7         13.22   11.32   20.05          40.12   15.93  -28.04          32.25  299.60
J8         15.51   11.46   34.73          40.34   29.06  -52.74          60.21  298.86
J9         41.47   41.95   37.44          70.84    3.11   -3.96           5.04  308.11
J10        42.32   42.12   41.27          70.95    5.17   -8.83          10.23  300.36
J11        43.36   42.21   45.34          71.02    7.99  -13.78          15.92  300.10
J12        44.75   41.85   53.66          70.77   13.13  -23.67          27.07  299.01
J13        19.60   30.11   50.84          61.74  -41.14  -36.13          54.76  221.29
J14        30.86   17.03   33.26          48.29   64.88  -36.88          74.63  330.38
J15        57.11   55.58    5.25          79.37    8.81   84.57          85.03   84.05
J16         3.09    3.20    2.52          20.81    0.19    0.99           1.02   78.98
J17        23.58   13.83    2.80          43.99   54.10   38.68          66.51   35.56
J18        10.30   18.85    4.49          50.52  -49.45   38.92          62.93  141.79
J19         7.72    5.07   27.72          26.93   30.42  -65.01          71.78  295.07
J20        30.47   39.12   21.97          68.84  -25.13   17.61          30.69  144.98
J21         4.11    7.82    1.42          33.60  -39.14   33.82          51.73  139.17
J22         1.28    2.06    0.91          15.78  -18.57   10.34          21.25  150.89
K1          5.22    4.41    5.07          24.97   12.54   -8.26          15.01  326.62
K2          6.55    4.45    7.32          25.11   26.86  -18.33          32.52  325.69
K3          7.94    4.50    9.81          25.25   39.71  -27.21          48.14  325.58
K4          9.30    4.54   12.55          25.37   51.00  -35.43          62.10  325.21
K5         16.16   14.73   14.90          45.26   11.62   -7.41          13.78  327.45
K6         18.37   14.86   18.35          45.44   22.88  -15.22          27.48  326.36
K7         20.67   14.86   22.22          45.45   34.40  -23.20          41.50  326.01
K8         26.36   14.83   32.70          45.40   59.84  -41.03          72.55  325.56
K9         42.57   41.81   37.16          70.74    6.85   -3.75           7.81  331.30
K10        45.09   42.12   40.64          70.95   13.30   -8.03          15.53  328.89
K11        47.42   42.21   44.35          71.01   19.61  -12.58          23.30  327.32
K12        52.04   42.55   51.78          71.25   31.03  -20.80          37.36  326.17
K13        15.75   25.10   47.21          57.18  -42.10  -39.86          57.97  223.44
K14        26.42   13.12   28.81          42.95   70.67  -39.20          80.81  330.98
K15        55.18   52.54    3.28          77.60   11.66   93.16          93.88   82.86
K16         1.49    1.56    1.26          12.96   -0.37    0.29           0.48  143.56
K17        20.04   10.83    1.39          39.29   57.85   44.03          72.70   37.27
K18         7.09   14.42    2.66          44.82  -52.65   41.25          66.89  141.92
K19         5.46    2.89   23.21          19.59   38.64  -69.68          79.67  299.01
K20         2.35    3.11    1.86          20.48  -12.23    6.43          13.82  152.27
K21         1.29    1.77    1.46          14.24  -11.58    0.01          11.58  179.94
K22         1.64    2.15    2.81          16.27  -10.54   -9.21          13.99  221.15
L1          3.62    2.97    2.71          19.93   12.61   -2.09          12.79  350.60
L2          4.66    3.08    3.02          20.35   25.49   -3.74          25.76  351.65
L3          5.84    3.22    3.42          20.90   37.29   -5.56          37.71  351.53
L4          6.48    3.52    3.76          22.01   39.42   -5.90          39.86  351.49
L5         13.41   11.40   10.03          40.24   16.63   -2.11          16.76  352.78
L6         16.03   11.49   10.87          40.40   31.80   -4.53          32.12  351.90
L7         19.10   11.52   12.00          40.45   48.18   -7.84          48.81  350.75
L8         22.47   11.60   12.91          40.58   63.84  -10.23          64.66  350.89
L9         43.52   42.32   35.16          71.09    8.15   -0.33           8.16  357.67
L10        45.61   41.93   35.64          70.82   15.32   -1.48          15.40  354.48
L11        48.40   42.43   37.02          71.16   21.65   -2.82          21.83  352.58
L12        50.93   42.42   37.76          71.16   28.50   -3.84          28.76  352.32
L13        12.17   19.91   42.26          51.74  -41.13  -43.22          59.67  226.42
L14        21.96    9.84   24.00          37.56   74.52  -40.17          84.66  331.67
L15        51.75   47.84    1.82          74.72   15.28  100.31         101.46   81.34
L16         0.58    0.61    0.53           5.53   -0.59   -0.38           0.70  212.57
L17        16.22    8.07    0.58          34.14   59.89   47.98          76.74   38.70
L18         4.33    9.93    1.36          37.72  -53.75   41.71          68.03  142.19
L19         3.82    1.51   18.30          12.70   46.69  -71.58          85.47  303.12
L20         0.72    0.79    0.81           7.15   -1.55   -3.00           3.38  242.53
L21         0.95    0.92    0.95           8.29    2.66   -3.23           4.19  309.53
L22         2.01    1.60    1.32          13.22   11.69   -0.02          11.69  159.91
GS0        79.40   82.81   66.39          92.93   -0.88    1.80           2.01  116.01
GS1        70.31   72.97   58.80          88.43   -0.11    1.42           1.43   94.30
