targets/wolf_faust/reflective/R140603.it8
IT8.7/2
ORIGINATOR "Wolf Faust"
DESCRIPTOR "Kodak Professional Paper, L* a* b* (light D50, viewing angle 2)"
MANUFACTURER "Wolf Faust - http://www.coloraid.de"
CREATED "August 15, 2014"
PROD_DATE "2014:06"
SAMPLE_BACKING "black"
SERIAL "5x7 R140603 Batch Average Data"
MATERIAL "Kodak Professional Endura Premier"
KEYWORD "MEAN_DE" # Mean Delta E of samples compared to batch average
NUMBER_OF_FIELDS 18
BEGIN_DATA_FORMAT
SAMPLE_ID  XYZ_X   XYZ_Y   XYZ_Z          LAB_L   LAB_A   LAB_B          LAB_C   LAB_H          D_RED  D_GREEN  D_BLUE  D_VIS          STDEV_X STDEV_Y STDEV_Z        MEAN_DE  STDEV_DE
END_DATA_FORMAT
NUMBER_OF_SETS 288
BEGIN_DATA
A1          3.47    2.92    2.02          19.71   11.21    3.46          11.73   17.15           1.35    1.64    1.59    1.50            0.05    0.05    0.04           0.26     0.29
A2          4.31    2.92    1.71          19.73   23.49    6.67          24.42   15.85           1.20    1.82    1.67    1.46            0.07    0.05    0.03           0.27     0.31 
A3          5.29    3.01    1.44          20.09   34.44   10.30          35.94   16.65           1.08    2.04    1.75    1.41            0.07    0.04    0.04           0.34     0.40
A4          5.69    3.20    1.54          20.84   35.83   10.53          37.35   16.38           1.05    2.03    1.72    1.38            0.07    0.04    0.03           0.39     0.43 
A5         12.38   10.71    7.82          39.08   14.80    3.78          15.27   14.31           0.80    1.06    1.02    0.94            0.12    0.12    0.11           0.26     0.29
A6         14.84   10.93    6.84          39.45   28.91    8.43          30.12   16.25           0.68    1.17    1.08    0.90            0.17    0.15    0.12           0.27     0.30 
A7         17.33   11.09    5.99          39.72   42.00   12.63          43.86   16.74           0.58    1.30    1.14    0.87            0.14    0.10    0.09           0.26     0.29
A8         20.90   11.27    4.99          40.03   58.87   18.12          61.60   17.11           0.50    1.54    1.22    0.83            0.06    0.04    0.08           0.31     0.38 
A9         41.01   40.25   31.72          69.65    6.85    2.25           7.22   18.20           0.34    0.42    0.42    0.39            0.18    0.19    0.22           0.22     0.25
A10        43.16   40.30   30.79          69.68   13.15    3.74          13.68   15.89           0.29    0.44    0.43    0.38            0.18    0.18    0.17           0.22     0.26
A11        45.90   40.73   29.47          69.99   19.78    6.35          20.78   17.80           0.25    0.47    0.45    0.36            0.17    0.20    0.16           0.21     0.25
A12        47.78   40.48   28.55          69.81   25.80    7.54          26.88   16.28           0.22    0.49    0.46    0.36            0.09    0.08    0.19           0.22     0.25 
A13        75.03   79.67   65.56          91.54   -3.63    0.18           3.63  177.17           0.12    0.09    0.10    0.10            0.19    0.19    0.21           0.13     0.15
A14        75.48   77.09   64.59          90.36    2.35   -0.93           2.53  338.47           0.10    0.12    0.11    0.11            0.12    0.11    0.18           0.11     0.12 
A15        78.21   81.80   65.40          92.49   -1.32    1.96           2.36  123.88           0.09    0.08    0.10    0.09            0.18    0.19    0.21           0.10     0.11
A16        75.98   79.04   65.20          91.25   -0.47    0.02           0.48  177.72           0.10    0.10    0.11    0.10            0.18    0.19    0.17           0.12     0.14
A17        77.75   81.10   64.64          92.18   -0.89    2.15           2.33  112.47           0.09    0.09    0.11    0.09            0.13    0.13    0.18           0.09     0.10
A18        77.69   81.43   65.00          92.32   -1.66    2.06           2.65  128.95           0.09    0.09    0.11    0.09            0.14    0.14    0.16           0.11     0.13 
A19        71.03   74.06   64.18          88.95   -0.81   -2.97           3.08  254.72           0.14    0.12    0.11    0.13            0.19    0.19    0.17           0.17     0.20
A20         1.35    1.10    0.77           9.78    9.33    2.40           9.64   14.43           1.77    2.08    2.01    1.92            0.02    0.01    0.01           0.21     0.23 
A21         5.19    3.30    0.82          21.21   28.38   21.14          35.39   36.68           1.09    1.87    1.97    1.39            0.06    0.04    0.01           0.19     0.22
A22        10.41    5.94    0.88          29.27   42.91   34.04          54.77   38.43           0.77    1.78    1.94    1.11            0.10    0.07    0.02           0.26     0.31
B1          3.37    2.93    1.65          19.78    9.25    7.44          11.87   38.79           1.36    1.63    1.67    1.50            0.04    0.04    0.03           0.23     0.27
B2          3.90    2.92    1.02          19.74   17.66   15.38          23.42   41.05           1.25    1.75    1.87    1.47            0.05    0.04    0.02           0.20     0.25
B3          4.71    3.12    0.74          20.53   25.33   21.50          33.22   40.33           1.14    1.84    2.01    1.42            0.05    0.03    0.01           0.21     0.24
B4          5.31    3.22    0.53          20.89   31.25   25.94          40.62   39.70           1.07    1.96    2.15    1.39            0.05    0.03    0.01           0.23     0.26
B5         12.71   10.97    5.75          39.52   15.15   13.45          20.26   41.60           0.77    1.06    1.14    0.92            0.16    0.15    0.09           0.27     0.30
B6         14.65   11.00    3.91          39.58   27.24   23.48          35.96   40.76           0.67    1.17    1.30    0.90            0.15    0.12    0.07           0.24     0.28
B7         17.10   11.06    2.30          39.67   40.92   35.37          54.09   40.84           0.57    1.32    1.52    0.86            0.11    0.09    0.05           0.22     0.25
B8         20.40   11.32    1.14          40.11   56.07   48.81          74.34   41.04           0.49    1.55    1.82    0.82            0.08    0.07    0.02           0.18     0.20
B9         40.73   40.22   29.59          69.63    6.06    5.55           8.22   42.46           0.34    0.42    0.44    0.39            0.16    0.15    0.13           0.17     0.20
B10        43.21   40.64   26.77          69.92   12.25   10.73          16.29   41.19           0.29    0.44    0.49    0.37            0.22    0.22    0.23           0.27     0.32
B11        45.20   40.70   23.90          69.97   17.86   15.90          23.91   41.67           0.25    0.47    0.53    0.36            0.11    0.14    0.12           0.20     0.24
B12        47.14   40.83   21.61          70.06   22.94   20.42          30.71   41.68           0.21    0.49    0.58    0.35            0.16    0.20    0.15           0.22     0.27
B13        69.38   75.64   65.02          89.69   -7.53   -2.50           7.94  198.34           0.17    0.10    0.11    0.13            0.16    0.15    0.17           0.16     0.17
B14        71.97   71.34   62.86          87.65    6.80   -3.95           7.86  329.83           0.11    0.16    0.12    0.14            0.12    0.12    0.16           0.11     0.13
B15        74.94   78.67   54.72          91.08   -1.86   10.22          10.39  100.29           0.10    0.11    0.18    0.10            0.13    0.13    0.17           0.12     0.14
B16        60.73   63.01   51.98          83.45   -0.04    0.01           0.10  197.87           0.20    0.20    0.20    0.20            0.18    0.19    0.15           0.13     0.15
B17        68.59   68.10   52.42          86.06    6.44    4.04           7.61   32.06           0.12    0.19    0.20    0.16            0.16    0.22    0.20           0.18     0.22
B18        66.26   72.66   54.22          88.29   -8.28    5.94          10.19  144.37           0.17    0.12    0.18    0.14            0.17    0.15    0.20           0.17     0.19
B19        63.65   65.80   62.07          84.89    0.49   -7.94           7.95  273.50           0.19    0.18    0.13    0.19            0.18    0.18    0.15           0.21     0.27
B20         2.85    2.04    0.78          15.70   17.96   12.39          21.82   34.60           1.38    1.94    1.99    1.62            0.05    0.04    0.01           0.32     0.35
B21         8.48    4.98    0.87          26.67   38.44   29.73          48.60   37.72           0.87    1.81    1.94    1.19            0.10    0.06    0.01           0.23     0.28
B22        29.05   24.80   11.88          56.88   21.06   20.83          29.62   44.69           0.41    0.72    0.83    0.57            0.13    0.14    0.12           0.25     0.28
C1          4.48    4.29    2.28          24.62    4.64    9.53          10.60   64.03           1.26    1.41    1.53    1.35            0.07    0.07    0.04           0.30     0.33
C2          4.72    4.27    1.41          24.55    8.11   18.35          20.07   66.15           1.21    1.46    1.72    1.33            0.07    0.07    0.03           0.29     0.31
C3          5.14    4.35    0.80          24.80   12.35   27.75          30.38   66.00           1.14    1.50    1.96    1.31            0.08    0.07    0.01           0.29     0.34
C4          5.51    4.60    0.68          25.57   13.37   31.24          33.98   66.82           1.11    1.49    2.03    1.28            0.06    0.06    0.01           0.23     0.29
C5         23.59   22.38   10.64          54.43    9.15   20.40          22.36   65.83           0.53    0.71    0.87    0.63            0.21    0.22    0.13           0.26     0.29
C6         25.74   22.53    5.57          54.59   17.70   40.27          43.99   66.27           0.46    0.76    1.14    0.60            0.19    0.19    0.08           0.27     0.32
C7         27.70   22.43    2.40          54.48   26.11   60.05          65.49   66.50           0.40    0.83    1.49    0.59            0.14    0.14    0.03           0.21     0.23
C8         29.52   22.66    1.12          54.72   32.18   74.28          80.96   66.58           0.36    0.88    1.81    0.58            0.19    0.20    0.01           0.32     0.38
C9         47.68   48.02   33.00          74.84    3.85    9.28          10.04   67.48           0.27    0.34    0.40    0.31            0.18    0.20    0.17           0.19     0.21
C10        49.50   48.45   27.45          75.11    7.66   18.50          20.02   67.52           0.23    0.35    0.47    0.30            0.16    0.19    0.19           0.21     0.25
C11        50.78   48.25   22.32          74.99   11.59   27.54          29.88   67.18           0.20    0.37    0.56    0.29            0.09    0.13    0.09           0.16     0.19
C12        51.77   48.02   18.84          74.84   14.84   34.40          37.46   66.67           0.18    0.39    0.63    0.29            0.11    0.12    0.13           0.19     0.23
C13        60.92   69.32   64.02          86.66  -13.46   -6.77          15.07  206.69           0.25    0.12    0.11    0.18            0.17    0.17    0.20           0.16     0.18
C14        66.48   62.68   60.01          83.27   13.82   -8.69          16.33  327.84           0.13    0.24    0.15    0.19            0.08    0.10    0.15           0.14     0.16
C15        71.68   75.36   44.70          89.56   -2.05   18.96          19.07   96.17           0.11    0.13    0.26    0.12            0.13    0.15    0.12           0.16     0.18
C16        47.15   48.95   40.54          75.42   -0.15   -0.19           0.27  233.90           0.30    0.31    0.31    0.31            0.23    0.25    0.25           0.21     0.24
C17        60.67   57.54   41.36          80.48   12.58    7.48          14.64   30.73           0.15    0.28    0.30    0.22            0.19    0.23    0.19           0.22     0.23
C18        55.39   63.82   43.89          83.87  -14.82   10.15          17.96  145.59           0.27    0.16    0.27    0.20            0.16    0.14    0.21           0.16     0.19
C19        52.13   53.50   58.55          78.17    1.43  -16.02          16.08  275.10           0.29    0.26    0.16    0.28            0.18    0.22    0.08           0.26     0.30
C20         1.71    1.45    0.73          12.32    8.42    7.42          11.23   41.39           1.65    1.95    2.02    1.80            0.03    0.02    0.01           0.23     0.25
C21        23.03   17.37    4.75          48.73   31.21   34.38          46.43   47.76           0.47    0.97    1.21    0.70            0.11    0.11    0.05           0.24     0.26
C22        35.16   31.93   17.41          63.29   15.46   17.65          23.46   48.78           0.35    0.57    0.67    0.47            0.15    0.15    0.15           0.24     0.28
D1          4.16    4.33    2.27          24.73   -0.23    9.85           9.85   91.34           1.32    1.37    1.53    1.35            0.05    0.07    0.03           0.33     0.37
D2          4.07    4.28    1.43          24.57   -0.74   18.16          18.17   92.34           1.32    1.38    1.71    1.35            0.06    0.06    0.02           0.29     0.34
D3          4.24    4.48    0.86          25.19   -1.03   27.31          27.33   92.17           1.29    1.37    1.92    1.33            0.06    0.07    0.01           0.28     0.34
D4          4.55    4.78    0.76          26.09   -0.80   30.68          30.69   91.48           1.26    1.35    1.97    1.30            0.03    0.04    0.01           0.25     0.30
D5         26.80   27.90   14.19          59.80   -0.42   19.45          19.46   91.23           0.51    0.57    0.75    0.54            0.23    0.24    0.13           0.25     0.28
D6         26.25   27.56    7.66          59.49   -1.31   39.60          39.62   91.90           0.51    0.59    1.00    0.54            0.16    0.17    0.06           0.19     0.22
D7         26.02   27.52    3.61          59.45   -2.13   59.64          59.68   92.04           0.51    0.60    1.31    0.54            0.15    0.15    0.02           0.20     0.23
D8         26.10   27.74    1.49          59.65   -2.65   77.96          78.00   91.95           0.52    0.61    1.70    0.53            0.15    0.14    0.01           0.22     0.26
D9         54.73   56.94   38.77          80.15   -0.44   10.29          10.30   92.43           0.23    0.25    0.33    0.24            0.23    0.23    0.17           0.17     0.19
D10        54.16   56.56   30.84          79.93   -0.95   21.34          21.36   92.56           0.22    0.26    0.42    0.24            0.11    0.12    0.13           0.17     0.19
D11        53.87   56.30   24.89          79.78   -1.04   31.02          31.04   91.93           0.21    0.27    0.51    0.24            0.15    0.15    0.12           0.17     0.19
D12        53.57   56.39   11.27          79.83   -2.03   62.23          62.27   91.87           0.20    0.29    0.84    0.23            0.11    0.11    0.08           0.15     0.18
D13        53.06   63.04   62.82          83.46  -18.99  -11.13          22.01  210.38           0.35    0.14    0.12    0.23            0.14    0.11    0.16           0.16     0.19
D14        60.87   54.30   56.75          78.63   21.02  -13.37          24.91  327.54           0.16    0.32    0.17    0.25            0.07    0.11    0.14           0.19     0.21
D15        68.75   72.17   35.72          88.05   -1.80   28.11          28.17   93.67           0.11    0.15    0.36    0.13            0.08    0.08    0.19           0.19     0.27
D16        35.99   37.29   30.82          67.49    0.11   -0.08           0.17  275.53           0.42    0.43    0.43    0.43            0.15    0.15    0.13           0.16     0.18
D17        53.17   47.85   31.73          74.73   18.94   10.99          21.90   30.13           0.18    0.39    0.41    0.29            0.15    0.19    0.24           0.28     0.32
D18        45.82   55.52   34.67          79.34  -20.76   14.58          25.37  144.92           0.37    0.20    0.37    0.27            0.17    0.16    0.17           0.21     0.22
D19        42.20   42.61   54.57          71.29    3.36  -23.75          23.99  278.05           0.40    0.36    0.19    0.38            0.22    0.26    0.10           0.28     0.32
D20        13.98   10.60    2.77          38.90   26.07   30.13          39.84   49.13           0.69    1.19    1.44    0.91            0.12    0.11    0.05           0.22     0.25
D21        21.58   20.85   11.79          52.78    7.10   14.04          15.73   63.17           0.58    0.72    0.83    0.66            0.17    0.18    0.13           0.29     0.33
D22        38.30   36.46   20.10          66.87   10.36   17.96          20.73   60.03           0.33    0.49    0.61    0.42            0.11    0.12    0.08           0.21     0.24
E1          3.76    4.28    2.29          24.59   -5.43    9.44          10.89  119.90           1.40    1.34    1.52    1.37            0.05    0.06    0.03           0.31     0.35
E2          3.46    4.26    1.44          24.51   -9.68   18.01          20.45  118.25           1.45    1.32    1.71    1.38            0.03    0.03    0.02           0.22     0.27
E3          3.45    4.66    0.95          25.73  -15.14   26.79          30.78  119.47           1.49    1.26    1.87    1.34            0.02    0.04    0.01           0.23     0.27
E4          3.45    4.78    0.83          26.09  -16.66   29.32          33.72  119.60           1.51    1.25    1.93    1.33            0.04    0.06    0.00           0.34     0.40
E5         12.60   14.27    7.72          44.62   -7.58   13.74          15.69  118.87           0.87    0.82    1.01    0.85            0.12    0.14    0.09           0.30     0.34
E6         11.43   14.19    4.68          44.51  -15.20   27.49          31.42  118.94           0.94    0.80    1.21    0.85            0.10    0.12    0.03           0.26     0.30
E7         10.22   14.02    2.62          44.26  -23.12   40.56          46.69  119.68           1.03    0.78    1.44    0.87            0.09    0.10    0.03           0.25     0.28
E8          9.31   14.10    1.31          44.38  -30.86   53.81          62.03  119.84           1.14    0.76    1.74    0.87            0.08    0.09    0.00           0.22     0.28
E9         37.77   40.48   28.27          69.81   -4.04    8.01           8.97  116.79           0.40    0.38    0.46    0.39            0.25    0.25    0.19           0.18     0.22
E10        36.57   40.61   23.97          69.90   -8.34   15.66          17.75  118.05           0.42    0.37    0.53    0.39            0.26    0.28    0.24           0.21     0.25
E11        35.05   40.37   19.81          69.73  -12.67   23.51          26.71  118.32           0.44    0.37    0.61    0.40            0.13    0.14    0.14           0.21     0.24
E12        31.60   40.38   11.16          69.74  -24.86   45.17          51.56  118.83           0.52    0.35    0.84    0.40            0.16    0.14    0.09           0.24     0.26
E13        45.77   56.85   61.52          80.09  -24.17  -15.67          28.80  212.95           0.45    0.16    0.13    0.28            0.21    0.21    0.20           0.23     0.26
E14        55.35   46.41   53.26          73.81   28.44  -18.00          33.65  327.67           0.19    0.41    0.20    0.31            0.09    0.13    0.10           0.19     0.22
E15        66.02   69.01   27.96          86.51   -1.15   37.30          37.32   91.76           0.12    0.18    0.46    0.15            0.07    0.06    0.16           0.24     0.28
E16        26.62   27.58   22.77          59.51    0.11   -0.02           0.20  208.68           0.55    0.56    0.56    0.56            0.13    0.14    0.16           0.20     0.24
E17        46.51   39.52   23.81          69.13   25.20   14.62          29.13   30.12           0.22    0.51    0.54    0.37            0.13    0.14    0.14           0.19     0.22
E18        37.14   47.60   26.70          74.57  -26.60   18.87          32.61  144.65           0.48    0.26    0.48    0.34            0.19    0.16    0.09           0.22     0.25
E19        33.26   32.86   50.27          64.05    5.62  -31.52          32.02  280.12           0.52    0.47    0.23    0.50            0.14    0.15    0.06           0.19     0.25
E20        24.51   16.86    1.25          48.08   40.52   61.01          73.24   56.41           0.42    1.09    1.76    0.69            0.10    0.09    0.01           0.19     0.20
E21        17.11   14.06    2.66          44.32   20.96   40.37          45.49   62.56           0.61    1.01    1.45    0.80            0.13    0.11    0.02           0.22     0.28
E22        29.47   25.36    8.30          57.42   20.32   33.57          39.24   58.82           0.40    0.71    0.98    0.55            0.12    0.13    0.05           0.23     0.25
F1          1.48    1.88    1.31          14.85   -8.81    2.89           9.27  161.86           1.89    1.65    1.76    1.75            0.02    0.02    0.02           0.27     0.31
F2          1.16    1.85    1.11          14.67  -17.63    5.36          18.42  163.10           2.12    1.59    1.82    1.78            0.02    0.03    0.02           0.24     0.27
F3          1.02    2.01    1.02          15.52  -26.14    8.04          27.35  162.90           2.33    1.51    1.85    1.76            0.02    0.03    0.02           0.28     0.33
F4          1.04    2.19    1.05          16.48  -29.42    9.29          30.85  162.48           2.37    1.46    1.84    1.73            0.01    0.03    0.01           0.28     0.33
F5          6.59    8.22    5.81          34.44  -13.02    4.40          13.74  161.33           1.22    1.02    1.13    1.11            0.06    0.08    0.08           0.23     0.27
F6          5.41    8.19    4.92          34.38  -25.71    8.74          27.16  161.22           1.42    0.96    1.19    1.13            0.05    0.07    0.04           0.23     0.26
F7          4.28    8.12    4.18          34.22  -39.50   12.57          41.45  162.34           1.71    0.92    1.25    1.15            0.03    0.06    0.05           0.28     0.33
F8          3.18    8.14    3.20          34.28  -56.33   18.98          59.44  161.38           2.22    0.86    1.36    1.17            0.02    0.03    0.04           0.23     0.27
F9         37.50   40.65   32.15          69.93   -5.43    2.09           5.82  158.95           0.42    0.37    0.41    0.40            0.19    0.20    0.20           0.20     0.24
F10        35.77   40.77   30.98          70.01  -11.47    4.01          12.15  160.72           0.46    0.35    0.42    0.40            0.20    0.24    0.27           0.29     0.33
F11        33.99   40.53   29.51          69.85  -16.84    6.05          17.90  160.25           0.50    0.34    0.44    0.41            0.19    0.19    0.13           0.19     0.23
F12        29.10   40.53   26.24          69.85  -34.67   11.51          36.53  161.63           0.65    0.29    0.49    0.42            0.12    0.12    0.18           0.22     0.27
F13        39.15   50.83   59.79          76.57  -28.78  -20.03          35.06  214.83           0.57    0.19    0.14    0.34            0.14    0.14    0.14           0.15     0.18
F14        49.85   39.01   49.45          68.76   35.95  -22.48          42.40  327.98           0.23    0.52    0.24    0.38            0.08    0.10    0.07           0.18     0.21
F15        63.58   65.99   21.58          84.99   -0.10   46.22          46.22   90.13           0.13    0.21    0.57    0.16            0.09    0.10    0.10           0.19     0.22
F16        19.10   19.75   16.44          51.55    0.31   -0.34           0.48  311.53           0.69    0.70    0.70    0.70            0.15    0.14    0.10           0.19     0.22
F17        40.64   32.38   17.32          63.66   31.56   18.49          36.57   30.37           0.26    0.64    0.67    0.44            0.10    0.13    0.12           0.25     0.29
