targets/wolf_faust/reflective/R140603WhiteBacking.it8
IT8.7/2
ORIGINATOR "Wolf Faust"
DESCRIPTOR "Kodak Professional Paper, L* a* b* (light D50, viewing angle 2)"
MANUFACTURER "Wolf Faust - http://www.coloraid.de"
CREATED "August 15, 2014"
PROD_DATE "2014:06"
SAMPLE_BACKING "white"
SERIAL "5x7 R140603 Batch Average Data"
MATERIAL "Kodak Professional Endura Premier"
KEYWORD "MEAN_DE" # Mean Delta E of samples compared to batch average
NUMBER_OF_FIELDS 18
BEGIN_DATA_FORMAT
SAMPLE_ID  XYZ_X   XYZ_Y   XYZ_Z          LAB_L   LAB_A   LAB_B          LAB_C   LAB_H          D_RED  D_GREEN  D_BLUE  D_VIS          STDEV_X STDEV_Y STDEV_Z        MEAN_DE  STDEV_DE
END_DATA_FORMAT
NUMBER_OF_SETS 288
BEGIN_DATA
A1          3.51    2.94    2.02          19.81   11.41    3.66          11.99   17.76           1.34    1.64    1.59    1.49            0.07    0.06    0.05           0.26     0.30
A2          4.37    2.96    1.71          19.87   23.70    6.89          24.68   16.20           1.19    1.81    1.67    1.45            0.06    0.04    0.04           0.27     0.30 
A3          5.39    3.06    1.46          20.27   34.86   10.45          36.39   16.68           1.08    2.04    1.75    1.40            0.08    0.05    0.04           0.34     0.38
A4          5.82    3.26    1.53          21.07   36.31   10.98          37.93   16.83           1.04    2.03    1.73    1.37            0.08    0.04    0.03           0.31     0.34 
A5         12.62   10.89    7.88          39.40   15.08    4.11          15.63   15.23           0.79    1.05    1.01    0.93            0.15    0.15    0.12           0.29     0.32
A6         15.09   11.08    6.82          39.72   29.29    8.97          30.63   17.02           0.67    1.16    1.08    0.90            0.18    0.15    0.10           0.33     0.36 
A7         17.73   11.30    5.99          40.07   42.65   13.27          44.66   17.29           0.57    1.29    1.14    0.86            0.17    0.13    0.11           0.26     0.29
A8         21.49   11.54    5.02          40.48   59.72   18.70          62.58   17.38           0.48    1.54    1.22    0.82            0.06    0.05    0.09           0.37     0.45 
A9         42.02   41.15   32.04          70.28    7.18    2.85           7.73   21.66           0.32    0.41    0.41    0.38            0.22    0.21    0.26           0.21     0.26
A10        44.29   41.23   31.08          70.34   13.66    4.42          14.36   17.93           0.28    0.43    0.42    0.37            0.26    0.26    0.26           0.23     0.26
A11        47.14   41.67   29.70          70.64   20.44    7.12          21.64   19.20           0.23    0.46    0.44    0.35            0.16    0.17    0.14           0.21     0.25
A12        49.21   41.50   28.79          70.52   26.63    8.38          27.92   17.47           0.20    0.49    0.46    0.35            0.13    0.12    0.21           0.24     0.27 
A13        77.52   82.24   66.66          92.68   -3.52    1.11           3.69  162.48           0.10    0.08    0.10    0.09            0.18    0.19    0.22           0.13     0.15
A14        78.04   79.56   65.66          91.49    2.66   -0.00           2.66  239.92           0.08    0.11    0.10    0.10            0.13    0.16    0.17           0.13     0.16 
A15        80.84   84.43   66.45          93.64   -1.10    2.96           3.16  110.38           0.07    0.07    0.10    0.07            0.09    0.11    0.15           0.07     0.09
A16        78.53   81.58   66.25          92.39   -0.25    0.99           1.03  104.29           0.08    0.09    0.10    0.09            0.10    0.09    0.12           0.10     0.12
A17        80.33   83.66   65.62          93.30   -0.65    3.16           3.23  101.57           0.07    0.08    0.10    0.08            0.06    0.07    0.10           0.07     0.08
A18        80.30   84.06   65.99          93.48   -1.45    3.11           3.44  115.00           0.08    0.07    0.10    0.08            0.08    0.08    0.14           0.10     0.11 
A19        73.32   76.36   65.20          90.03   -0.63   -2.09           2.19  253.14           0.12    0.11    0.11    0.12            0.16    0.18    0.11           0.16     0.19
A20         1.37    1.11    0.77           9.88    9.50    2.56           9.84   15.10           1.76    2.08    2.00    1.91            0.02    0.01    0.01           0.25     0.27 
A21         5.29    3.35    0.82          21.39   28.80   21.46          35.92   36.70           1.08    1.86    1.97    1.38            0.06    0.04    0.01           0.21     0.25
A22        10.63    6.05    0.88          29.53   43.44   34.53          55.49   38.48           0.77    1.78    1.94    1.10            0.10    0.06    0.02           0.23     0.27
B1          3.42    2.97    1.64          19.94    9.32    7.78          12.14   39.87           1.35    1.62    1.67    1.49            0.06    0.05    0.03           0.28     0.32
B2          3.99    2.98    1.02          19.96   17.89   15.68          23.79   41.24           1.24    1.74    1.87    1.46            0.06    0.05    0.02           0.27     0.29
B3          4.75    3.13    0.72          20.57   25.69   21.90          33.75   40.45           1.13    1.85    2.02    1.41            0.08    0.05    0.01           0.30     0.35
B4          5.43    3.28    0.53          21.13   31.60   26.35          41.14   39.83           1.06    1.95    2.15    1.38            0.07    0.04    0.01           0.26     0.30
B5         12.92   11.12    5.75          39.77   15.43   13.85          20.74   41.91           0.77    1.06    1.14    0.92            0.17    0.16    0.11           0.33     0.36
B6         15.00   11.22    3.92          39.95   27.70   24.04          36.67   40.95           0.66    1.16    1.30    0.89            0.21    0.17    0.09           0.30     0.33
B7         17.50   11.28    2.31          40.05   41.52   35.93          54.90   40.87           0.56    1.31    1.52    0.85            0.17    0.14    0.05           0.27     0.30
B8         20.98   11.59    1.13          40.55   57.00   49.66          75.60   41.06           0.48    1.54    1.83    0.81            0.08    0.07    0.02           0.18     0.21
B9         41.77   41.18   29.87          70.30    6.33    6.27           8.91   44.71           0.32    0.41    0.44    0.38            0.22    0.22    0.21           0.20     0.23
B10        44.44   41.65   27.09          70.63   12.81   11.39          17.14   41.64           0.27    0.43    0.48    0.36            0.27    0.29    0.23           0.23     0.27
B11        46.48   41.70   24.09          70.67   18.48   16.74          24.93   42.18           0.23    0.46    0.53    0.35            0.17    0.19    0.13           0.19     0.23
B12        48.50   41.81   21.67          70.74   23.79   21.47          32.04   42.06           0.20    0.48    0.57    0.34            0.13    0.15    0.16           0.22     0.26
B13        71.65   78.09   66.09          90.82   -7.55   -1.56           7.71  191.66           0.15    0.09    0.10    0.12            0.20    0.17    0.11           0.17     0.18
B14        74.31   73.49   63.76          88.68    7.21   -3.04           7.83  337.15           0.09    0.15    0.12    0.13            0.09    0.13    0.13           0.13     0.15
B15        77.58   81.28   55.54          92.25   -1.57   11.38          11.48   97.87           0.08    0.09    0.17    0.09            0.08    0.09    0.18           0.13     0.15
B16        62.49   64.75   52.62          84.36    0.13    0.88           0.90   81.13           0.18    0.19    0.20    0.19            0.25    0.26    0.21           0.17     0.18
B17        70.85   70.16   53.13          87.07    6.92    5.01           8.54   35.93           0.10    0.18    0.19    0.15            0.25    0.32    0.27           0.21     0.25
B18        68.34   74.89   54.95          89.34   -8.25    6.97          10.81  139.79           0.16    0.11    0.18    0.13            0.22    0.18    0.18           0.19     0.21
B19        65.62   67.77   63.03          85.89    0.62   -7.15           7.18  274.99           0.17    0.16    0.12    0.17            0.28    0.30    0.07           0.26     0.31
B20         2.90    2.07    0.78          15.87   18.16   12.66          22.14   34.88           1.37    1.93    1.99    1.61            0.06    0.04    0.01           0.30     0.34
B21         8.69    5.09    0.87          26.98   38.93   30.30          49.34   37.89           0.85    1.81    1.94    1.18            0.11    0.07    0.02           0.21     0.26
B22        29.76   25.31   11.92          57.37   21.64   21.58          30.56   44.92           0.40    0.71    0.83    0.56            0.17    0.19    0.14           0.26     0.30
C1          4.53    4.34    2.27          24.75    4.80    9.91          11.02   64.15           1.25    1.41    1.53    1.34            0.06    0.06    0.04           0.25     0.29
C2          4.79    4.32    1.40          24.69    8.39   18.83          20.61   65.98           1.20    1.45    1.73    1.33            0.06    0.06    0.03           0.29     0.33
C3          5.24    4.42    0.80          25.00   12.62   28.14          30.83   65.85           1.14    1.50    1.96    1.30            0.07    0.07    0.01           0.26     0.29
C4          5.62    4.68    0.69          25.80   13.69   31.49          34.34   66.51           1.10    1.49    2.02    1.28            0.08    0.08    0.01           0.33     0.38
C5         24.13   22.84   10.69          54.91    9.45   21.07          23.10   65.85           0.52    0.70    0.87    0.62            0.26    0.27    0.18           0.34     0.37
C6         26.39   23.00    5.57          55.07   18.30   41.13          45.02   66.02           0.44    0.76    1.14    0.59            0.23    0.24    0.09           0.31     0.34
C7         28.53   23.02    2.42          55.09   26.74   60.88          66.50   66.29           0.39    0.82    1.48    0.58            0.25    0.26    0.06           0.32     0.38
C8         30.38   23.19    1.12          55.27   33.04   75.11          82.06   66.25           0.35    0.87    1.81    0.56            0.23    0.24    0.01           0.38     0.45
C9         49.02   49.25   33.28          75.60    4.20   10.17          11.01   67.55           0.26    0.33    0.39    0.30            0.27    0.28    0.21           0.24     0.27
C10        50.86   49.64   27.63          75.85    8.11   19.48          21.10   67.40           0.22    0.34    0.47    0.29            0.17    0.19    0.22           0.23     0.26
C11        52.29   49.49   22.44          75.76   12.24   28.62          31.13   66.84           0.19    0.37    0.56    0.28            0.18    0.20    0.11           0.14     0.19
C12        53.34   49.24   18.94          75.60   15.62   35.48          38.77   66.24           0.17    0.38    0.63    0.28            0.10    0.12    0.13           0.20     0.24
C13        62.64   71.35   65.00          87.66  -13.75   -5.99          15.00  203.53           0.24    0.10    0.11    0.16            0.17    0.17    0.15           0.14     0.17
C14        68.63   64.52   60.89          84.23   14.37   -7.91          16.41  331.18           0.12    0.23    0.14    0.18            0.10    0.14    0.11           0.15     0.17
C15        74.31   77.92   45.34          90.74   -1.68   20.23          20.30   94.75           0.09    0.12    0.26    0.10            0.09    0.10    0.19           0.17     0.20
C16        48.42   50.21   40.99          76.20    0.02    0.57           0.58   88.51           0.29    0.30    0.30    0.30            0.30    0.31    0.27           0.21     0.24
C17        62.52   59.08   41.79          81.33   13.22    8.41          15.67   32.45           0.13    0.27    0.30    0.21            0.20    0.26    0.22           0.23     0.25
C18        56.96   65.61   44.38          84.79  -14.94   11.14          18.63  143.30           0.25    0.15    0.27    0.19            0.21    0.20    0.23           0.18     0.21
C19        53.50   54.84   59.41          78.95    1.59  -15.54          15.62  275.84           0.28    0.25    0.15    0.27            0.28    0.32    0.08           0.30     0.35
C20         1.74    1.47    0.74          12.44    8.58    7.48          11.38   41.10           1.65    1.94    2.01    1.79            0.03    0.03    0.01           0.28     0.31
C21        23.60   17.73    4.76          49.17   31.87   35.07          47.38   47.74           0.46    0.96    1.21    0.69            0.15    0.15    0.07           0.25     0.28
C22        36.15   32.73   17.58          63.94   15.97   18.38          24.34   49.01           0.34    0.56    0.66    0.46            0.28    0.28    0.18           0.26     0.31
D1          4.24    4.40    2.26          24.94   -0.01   10.32          10.32   90.08           1.31    1.37    1.53    1.35            0.06    0.06    0.04           0.32     0.36
D2          4.12    4.32    1.43          24.70   -0.56   18.40          18.40   91.73           1.31    1.38    1.71    1.35            0.06    0.06    0.02           0.27     0.31
D3          4.31    4.54    0.86          25.38   -0.88   27.64          27.65   91.82           1.29    1.37    1.92    1.32            0.05    0.07    0.01           0.29     0.34
D4          4.63    4.85    0.76          26.31   -0.66   30.96          30.97   91.23           1.25    1.34    1.97    1.29            0.04    0.06    0.01           0.28     0.32
D5         27.38   28.43   14.21          60.28   -0.13   20.24          20.24   90.37           0.50    0.56    0.75    0.54            0.25    0.28    0.17           0.31     0.35
D6         26.90   28.15    7.66          60.02   -0.98   40.53          40.54   91.38           0.49    0.58    1.00    0.53            0.20    0.23    0.10           0.27     0.30
D7         26.59   28.05    3.61          59.93   -1.85   60.44          60.47   91.75           0.50    0.59    1.31    0.53            0.20    0.22    0.05           0.25     0.28
D8         26.72   28.31    1.50          60.16   -2.32   78.78          78.82   91.69           0.50    0.60    1.70    0.52            0.21    0.21    0.01           0.25     0.30
D9         56.28   58.42   39.17          80.97   -0.12   11.18          11.18   90.62           0.21    0.24    0.32    0.23            0.20    0.18    0.16           0.16     0.18
D10        55.76   58.07   31.11          80.78   -0.59   22.38          22.39   91.51           0.20    0.25    0.42    0.23            0.14    0.16    0.18           0.19     0.23
D11        55.55   57.89   25.11          80.68   -0.66   32.17          32.18   91.17           0.20    0.26    0.51    0.23            0.19    0.20    0.16           0.20     0.24
D12        55.40   58.10   11.36          80.79   -1.53   63.62          63.63   91.38           0.19    0.28    0.83    0.22            0.15    0.15    0.10           0.18     0.22
D13        54.53   64.89   63.80          84.43  -19.39  -10.41          22.01  208.24           0.33    0.13    0.11    0.21            0.22    0.20    0.16           0.17     0.19
D14        62.80   55.85   57.58          79.53   21.65  -12.69          25.10  329.62           0.14    0.31    0.17    0.24            0.11    0.15    0.14           0.20     0.23
D15        71.07   74.38   36.03          89.10   -1.38   29.49          29.52   92.67           0.10    0.14    0.35    0.12            0.11    0.12    0.19           0.19     0.25
D16        36.85   38.14   31.08          68.12    0.24    0.60           0.65   68.30           0.41    0.42    0.42    0.42            0.19    0.20    0.16           0.16     0.19
D17        54.80   49.12   32.01          75.52   19.67   11.94          23.01   31.25           0.17    0.38    0.41    0.28            0.20    0.24    0.26           0.29     0.33
D18        47.03   57.00   35.03          80.18  -20.99   15.52          26.11  143.53           0.35    0.19    0.36    0.26            0.23    0.22    0.23           0.24     0.27
D19        43.23   43.65   55.35          71.99    3.39  -23.36          23.61  278.26           0.39    0.35    0.18    0.37            0.28    0.31    0.12           0.29     0.35
D20        14.25   10.75    2.76          39.16   26.59   30.66          40.58   49.08           0.68    1.18    1.44    0.90            0.15    0.13    0.05           0.26     0.30
D21        22.04   21.23   11.79          53.20    7.40   14.77          16.52   63.38           0.57    0.72    0.83    0.65            0.22    0.23    0.16           0.34     0.38
D22        39.32   37.31   20.23          67.51   10.83   18.79          21.69   60.05           0.32    0.48    0.60    0.41            0.19    0.21    0.12           0.23     0.26
E1          3.80    4.33    2.28          24.73   -5.38    9.76          11.15  118.87           1.40    1.33    1.52    1.37            0.04    0.04    0.03           0.26     0.30
E2          3.52    4.32    1.44          24.69   -9.58   18.30          20.66  117.64           1.44    1.32    1.71    1.37            0.05    0.06    0.03           0.32     0.38
E3          3.49    4.71    0.95          25.90  -15.21   27.04          31.02  119.36           1.49    1.26    1.87    1.34            0.05    0.07    0.01           0.34     0.39
E4          3.48    4.81    0.83          26.18  -16.61   29.56          33.91  119.33           1.50    1.24    1.93    1.33            0.05    0.07    0.01           0.34     0.40
E5         12.85   14.52    7.74          44.98   -7.46   14.27          16.11  117.61           0.87    0.81    1.01    0.84            0.15    0.18    0.11           0.31     0.34
E6         11.63   14.42    4.67          44.83  -15.14   28.09          31.91  118.33           0.93    0.80    1.21    0.85            0.13    0.16    0.07           0.23     0.27
E7         10.44   14.28    2.61          44.63  -23.06   41.30          47.30  119.17           1.02    0.78    1.44    0.86            0.10    0.14    0.04           0.25     0.28
E8          9.49   14.35    1.31          44.73  -30.90   54.43          62.59  119.58           1.14    0.76    1.74    0.86            0.10    0.12    0.01           0.26     0.32
E9         38.64   41.36   28.46          70.43   -3.90    8.76           9.59  114.02           0.39    0.38    0.46    0.38            0.24    0.24    0.17           0.22     0.26
E10        37.47   41.55   24.20          70.56   -8.23   16.35          18.31  116.71           0.40    0.37    0.52    0.38            0.20    0.21    0.21           0.21     0.25
E11        35.91   41.30   19.93          70.39  -12.62   24.40          27.47  117.34           0.43    0.36    0.60    0.39            0.17    0.20    0.18           0.19     0.23
E12        32.38   41.32   11.17          70.40  -24.87   46.28          52.54  118.25           0.51    0.34    0.84    0.39            0.21    0.19    0.11           0.31     0.36
E13        46.86   58.35   62.40          80.93  -24.70  -15.08          28.94  211.41           0.44    0.15    0.12    0.27            0.20    0.18    0.11           0.17     0.20
E14        57.02   47.65   54.00          74.60   29.15  -17.43          33.96  329.13           0.17    0.41    0.20    0.30            0.14    0.17    0.11           0.22     0.25
E15        68.21   71.06   28.18          87.51   -0.65   38.68          38.68   90.96           0.11    0.17    0.46    0.13            0.09    0.10    0.19           0.22     0.27
E16        27.20   28.15   22.93          60.02    0.26    0.56           0.62   65.52           0.54    0.55    0.55    0.55            0.18    0.19    0.20           0.21     0.24
E17        47.90   40.51   23.98          69.83   26.02   15.53          30.30   30.82           0.21    0.50    0.53    0.36            0.18    0.20    0.15           0.21     0.24
E18        38.06   48.79   26.90          75.32  -26.86   19.81          33.37  143.59           0.47    0.25    0.47    0.33            0.23    0.21    0.13           0.25     0.27
E19        33.96   33.57   50.91          64.62    5.62  -31.26          31.76  280.18           0.51    0.46    0.22    0.49            0.22    0.22    0.12           0.23     0.29
E20        25.21   17.25    1.25          48.58   41.35   61.83          74.38   56.22           0.41    1.08    1.76    0.68            0.16    0.14    0.02           0.23     0.27
E21        17.50   14.33    2.66          44.70   21.46   41.03          46.30   62.39           0.60    1.01    1.45    0.79            0.16    0.15    0.03           0.26     0.31
E22        30.23   25.90    8.32          57.94   20.95   34.38          40.26   58.64           0.39    0.71    0.97    0.54            0.20    0.21    0.09           0.29     0.31
F1          1.50    1.90    1.31          14.96   -8.77    3.10           9.30  160.51           1.88    1.64    1.76    1.74            0.02    0.03    0.02           0.26     0.29
F2          1.17    1.86    1.10          14.74  -17.60    5.53          18.45  162.57           2.11    1.59    1.83    1.78            0.02    0.03    0.02           0.31     0.35
F3          1.04    2.03    1.02          15.65  -26.11    8.36          27.42  162.24           2.31    1.50    1.85    1.76            0.02    0.03    0.02           0.35     0.39
F4          1.06    2.23    1.05          16.63  -29.54    9.53          31.04  162.13           2.36    1.45    1.83    1.72            0.02    0.03    0.01           0.37     0.41
F5          6.66    8.32    5.82          34.63  -13.09    4.66          13.90  160.39           1.22    1.01    1.13    1.10            0.06    0.08    0.07           0.23     0.26
F6          5.49    8.32    4.92          34.63  -25.84    9.18          27.42  160.43           1.41    0.96    1.19    1.12            0.06    0.09    0.05           0.25     0.29
F7          4.35    8.25    4.19          34.49  -39.72   13.01          41.79  161.86           1.70    0.91    1.25    1.14            0.03    0.07    0.06           0.28     0.33
F8          3.22    8.27    3.23          34.54  -56.78   19.25          59.96  161.27           2.22    0.85    1.35    1.16            0.02    0.06    0.05           0.25     0.31
F9         38.30   41.46   32.37          70.50   -5.31    2.73           5.97  152.82           0.41    0.37    0.40    0.39            0.22    0.20    0.18           0.23     0.27
F10        36.44   41.51   31.08          70.53  -11.48    4.76          12.43  157.49           0.45    0.35    0.42    0.39            0.25    0.26    0.22           0.31     0.34
F11        34.65   41.33   29.65          70.40  -16.97    6.79          18.28  158.19           0.49    0.33    0.44    0.40            0.22    0.23    0.18           0.18     0.22
F12        29.75   41.49   26.47          70.52  -35.07   12.26          37.15  160.72           0.64    0.28    0.48    0.41            0.14    0.14    0.22           0.21     0.27
F13        40.08   52.17   60.68          77.38  -29.38  -19.51          35.26  213.59           0.56    0.18    0.14    0.33            0.17    0.16    0.10           0.12     0.17
F14        51.21   39.91   50.06          69.40   36.79  -22.06          42.89  329.06           0.21    0.52    0.23    0.37            0.13    0.14    0.09           0.18     0.22
F15        65.79   68.03   21.78          86.02    0.44   47.60          47.60   89.47           0.11    0.20    0.56    0.15            0.13    0.14    0.16           0.21     0.27
F16        19.50   20.14   16.55          51.99    0.43    0.16           0.47   59.45           0.68    0.69    0.69    0.70            0.20    0.19    0.16           0.23     0.27
F17        41.74   33.09   17.37          64.23   32.42   19.36          37.76   30.84           0.25    0.63    0.67    0.43            0.14    0.18    0.15           0.25     0.30
