targets/wolf_faust/reflective/R140604WhiteBacking.it8
IT8.7/2
ORIGINATOR "Wolf Faust"
DESCRIPTOR "FUJICOLOR Crystal Archive Paper, L* a* b* (light D50, viewing angle 2)"
MANUFACTURER "Wolf Faust - http://www.coloraid.de"
CREATED "September 14, 2014"
PROD_DATE "2014:06"
SAMPLE_BACKING "white"
SERIAL "5x7 R140604 Batch Average Data"
MATERIAL "FUJICOLOR Crystal Archive DP II Paper"
NUMBER_OF_FIELDS 9
BEGIN_DATA_FORMAT
SAMPLE_ID  XYZ_X   XYZ_Y   XYZ_Z          LAB_L   LAB_A   LAB_B          LAB_C   LAB_H
END_DATA_FORMAT
NUMBER_OF_SETS 288
BEGIN_DATA
A1          3.52    2.94    2.10          19.79   11.57    2.85          11.92   13.81
A2          4.34    2.93    1.71          19.75   23.80    6.69          24.73   15.68 
A3          5.31    2.97    1.44          19.93   35.38   10.09          36.80   15.92
A4          5.89    3.22    1.48          20.91   37.78   11.31          39.44   16.67 
A5         12.64   10.96    8.03          39.51   14.73    3.70          15.19   14.10
A6         14.94   11.01    6.87          39.60   28.86    8.55          30.10   16.51 
A7         17.55   11.27    6.18          40.03   41.88   12.29          43.65   16.36
A8         21.70   11.37    4.88          40.20   61.92   18.96          64.76   17.02 
A9         41.31   40.54   32.24          69.85    6.88    1.81           7.12   14.75
A10        43.34   40.25   31.08          69.65   13.83    3.24          14.20   13.21
A11        45.80   40.33   29.62          69.70   20.72    5.62          21.47   15.17
A12        48.95   40.50   28.30          69.82   28.95    7.98          30.03   15.40 
A13        76.34   80.62   69.27          91.96   -2.80   -2.52           3.77  221.98
A14        78.04   79.90   68.91          91.64    1.99   -2.75           3.40  305.90 
A15        79.05   82.42   65.83          92.76   -0.83    2.03           2.19  112.35
A16        79.01   81.94   67.25          92.55    0.01    0.34           0.34   90.51
A17        76.59   78.47   63.42          90.99    1.88    1.27           2.27   34.06
A18        77.26   81.21   65.77          92.22   -2.07    1.16           2.38  150.80 
A19        76.08   78.73   68.56          91.11    0.33   -3.35           3.36  275.63
A20         1.36    1.11    0.73           9.86    9.37    3.25           9.92   19.13 
A21         5.13    3.28    0.81          21.13   27.97   21.26          35.13   37.23
A22        10.18    5.79    0.83          28.87   42.87   34.16          54.82   38.55
B1          3.34    2.95    1.67          19.86    8.40    7.31          11.14   41.04
B2          3.90    2.94    1.01          19.81   17.33   15.62          23.33   42.03
B3          4.59    2.99    0.65          20.00   25.97   22.31          34.24   40.67
B4          5.18    3.26    0.61          21.04   29.02   24.77          38.15   40.48
B5         12.65   10.98    6.02          39.54   14.70   12.19          19.10   39.67
B6         14.64   11.02    3.95          39.61   27.05   23.27          35.68   40.70
B7         16.94   10.95    2.31          39.50   40.80   34.99          53.74   40.62
B8         20.98   11.23    0.93          39.96   59.54   51.71          78.87   40.97
B9         41.09   40.44   29.99          69.78    6.50    5.19           8.31   38.62
B10        42.83   40.32   26.61          69.70   12.09   10.61          16.09   41.26
B11        45.16   40.44   23.67          69.78   18.54   16.01          24.50   40.80
B12        47.80   40.19   20.16          69.60   26.74   22.58          35.00   40.19
B13        71.72   77.34   68.64          90.48   -5.93   -4.51           7.45  217.27
B14        74.69   74.20   67.24          89.02    6.54   -5.74           8.70  318.70
B15        77.27   80.98   57.56          92.12   -1.63    9.05           9.20  100.22
B16        64.26   66.84   54.88          85.42   -0.43    0.30           0.54  144.08
B17        71.82   71.71   55.56          87.83    5.71    3.73           6.82   33.15
B18        69.13   75.34   56.91          89.55   -7.47    5.29           9.15  144.73
B19        67.21   69.37   66.34          86.69    0.71   -8.92           8.95  274.54
B20         2.81    2.01    0.75          15.54   17.84   12.65          21.87   35.34
B21         8.51    4.98    0.83          26.66   38.68   30.33          49.16   38.10
B22        29.39   24.94   12.05          57.01   21.78   20.57          29.96   43.36
C1          4.48    4.32    2.27          24.71    4.27    9.84          10.73   66.54
C2          4.72    4.29    1.38          24.62    7.81   18.88          20.43   67.52
C3          5.46    4.63    0.81          25.65   12.44   28.98          31.54   66.76
C4          5.76    4.85    0.81          26.30   13.12   30.02          32.76   66.40
C5         23.83   22.66   11.01          54.72    8.94   19.76          21.69   65.65
C6         25.59   22.36    5.62          54.41   17.82   39.71          43.53   65.83
C7         27.53   22.27    2.35          54.31   26.16   60.15          65.59   66.50
C8         29.19   22.70    1.35          54.76   30.74   71.23          77.58   66.66
C9         47.73   47.96   33.05          74.80    4.13    9.14          10.03   65.71
C10        49.40   48.30   27.23          75.01    7.78   18.72          20.27   67.44
C11        50.49   47.60   22.00          74.57   12.62   27.44          30.21   65.30
C12        52.98   48.08   16.11          74.87   17.83   40.67          44.41   66.33
C13        62.88   70.74   67.23          87.36  -11.91   -8.59          14.69  215.81
C14        68.47   64.04   64.06          83.99   15.10  -11.42          18.93  322.90
C15        74.98   78.94   46.69          91.21   -2.31   19.43          19.57   96.80
C16        49.63   51.43   42.52          76.94    0.13   -0.10           0.21  200.54
C17        63.37   59.93   43.48          81.80   13.17    7.09          14.96   28.28
C18        58.00   66.76   45.53          85.38  -14.92   10.76          18.39  144.20
C19        54.76   55.66   62.13          79.42    2.77  -17.43          17.65  279.04
C20         1.76    1.49    0.73          12.54    8.74    7.91          11.79   42.17
C21        22.69   17.06    4.83          48.34   31.36   33.30          45.74   46.73
C22        34.79   31.52   17.28          62.94   15.69   17.34          23.39   47.86
D1          4.21    4.35    2.35          24.80    0.18    9.26           9.26   88.89
D2          4.14    4.33    1.45          24.75   -0.49   18.29          18.30   91.53
D3          4.32    4.53    0.88          25.36   -0.72   27.23          27.24   91.50
D4          4.55    4.78    0.88          26.10   -0.81   28.51          28.52   91.62
D5         26.37   27.34   13.61          59.29    0.02   20.14          20.14   89.95
D6         26.33   27.54    7.60          59.46   -0.91   39.80          39.82   91.31
D7         26.33   27.71    3.67          59.62   -1.60   59.55          59.58   91.54
D8         26.29   27.83    1.81          59.74   -2.24   74.57          74.60   91.72
D9         55.05   57.30   38.49          80.35   -0.51   11.01          11.02   92.66
D10        55.14   57.41   31.26          80.41   -0.53   21.52          21.52   91.41
D11        54.67   57.05   25.24          80.21   -0.84   31.12          31.13   91.55
D12        54.55   57.45    8.16          80.43   -2.12   73.79          73.82   91.65
D13        54.68   64.20   65.61          84.07  -17.46  -12.75          21.62  216.13
D14        62.83   55.34   60.59          79.24   22.96  -16.22          28.11  324.75
D15        72.95   76.80   37.58          90.23   -2.29   29.28          29.37   94.47
D16        37.84   39.29   32.41          68.96   -0.14    0.02           0.32  183.81
D17        56.27   50.40   33.77          76.31   19.93   10.68          22.61   28.18
D18        48.17   58.60   36.21          81.07  -21.67   15.38          26.57  144.62
D19        43.73   43.71   57.54          72.03    4.70  -25.56          25.99  280.41
D20        14.00   10.56    2.75          38.83   26.42   30.21          40.13   48.82
D21        21.54   20.75   11.88          52.68    7.36   13.59          15.46   61.54
D22        38.22   36.47   19.96          66.87   10.06   18.28          20.87   61.16
E1          3.89    4.40    2.35          24.94   -5.05    9.56          10.81  117.87
E2          3.49    4.33    1.51          24.72  -10.05   17.49          20.17  119.89
E3          3.54    4.74    0.98          25.97  -14.76   26.73          30.54  118.91
E4          3.55    4.81    0.98          26.17  -15.50   27.13          31.24  119.74
E5         12.54   14.17    7.74          44.48   -7.35   13.39          15.28  118.76
E6         11.36   14.12    4.64          44.40  -15.23   27.49          31.43  118.99
E7         10.54   14.43    2.67          44.85  -23.21   41.19          47.28  119.40
E8          9.89   14.50    1.57          44.94  -28.64   51.67          59.07  119.00
E9         37.78   40.59   28.56          69.89   -4.32    7.66           8.79  119.41
E10        36.59   40.76   23.95          70.01   -8.72   15.88          18.12  118.78
E11        34.96   40.34   19.70          69.71  -12.89   23.72          26.99  118.53
E12        31.38   40.95    9.57          70.14  -27.36   50.98          57.86  118.22
E13        46.62   57.30   63.51          80.35  -22.86  -17.17          28.59  216.91
E14        56.61   46.31   56.40          73.74   31.84  -21.44          38.38  326.04
E15        71.05   74.56   29.82          89.18   -1.76   38.89          38.93   92.59
E16        27.79   28.68   23.92          60.50    0.55   -0.46           0.76  323.24
E17        49.10   41.17   25.21          70.30   27.30   14.09          30.72   27.29
E18        39.20   50.61   28.21          76.44  -28.05   19.54          34.19  145.15
E19        34.27   33.15   52.29          64.28    8.11  -33.37          34.34  283.67
E20        24.41   16.83    1.27          48.04   40.28   60.61          72.78   56.40
E21        17.00   14.05    2.65          44.31   20.43   40.42          45.29   63.19
E22        29.30   25.11    8.02          57.18   20.68   34.24          40.00   58.88
F1          1.48    1.86    1.34          14.71   -8.16    2.31           8.49  164.21
F2          1.20    1.89    1.14          14.91  -17.25    5.25          18.03  163.06
F3          1.25    2.30    1.18          17.00  -24.70    8.31          26.06  161.42
F4          1.08    1.88    0.99          14.82  -21.09    7.31          22.32  160.88
F5          6.69    8.29    5.95          34.58  -12.55    3.95          13.16  162.54
F6          5.50    8.29    4.99          34.58  -25.53    8.70          26.97  161.18
F7          4.42    8.28    4.19          34.56  -39.00   13.09          41.14  161.45
F8          3.56    8.32    3.56          34.64  -51.82   17.16          54.58  161.68
F9         37.08   40.27   31.96          69.66   -5.63    1.91           5.95  161.28
F10        35.49   40.42   30.88          69.77  -11.36    3.75          11.97  161.72
F11        33.98   40.63   29.67          69.92  -17.17    5.92          18.17  160.98
F12        28.91   41.19   25.73          70.31  -37.39   13.20          39.65  160.56
F13        39.86   51.16   61.29          76.77  -27.43  -21.17          34.65  217.66
F14        51.17   38.96   52.29          68.72   39.62  -25.71          47.23  327.02
F15        69.21   72.15   23.40          88.04   -0.76   47.98          47.99   90.91
F16        20.02   20.56   16.98          52.46    0.97   -0.05           0.99  214.18
F17        42.93   33.66   18.23          64.69   33.98   18.23          38.56   28.21
F18        31.61   43.37   21.37          71.80  -33.70   23.91          41.32  144.65
F19        26.65   24.89   47.36          56.96   11.20  -40.41          41.93  285.49
F20        25.61   24.53   11.68          56.61    8.42   20.96          22.59   68.12
F21        33.65   30.44   10.55          62.03   15.68   33.79          37.25   65.11
F22        38.00   35.40   15.49          66.06   12.89   26.96          29.88   64.43
G1          2.38    2.99    2.81          19.98   -9.45   -2.80           9.86  196.55
G2          1.89    2.91    2.88          19.66  -18.82   -3.91          19.22  191.73
G3          1.89    3.39    3.54          21.55  -27.04   -5.29          27.55  191.07
G4          1.80    3.20    3.30          20.81  -26.09   -4.90          26.55  190.64
G5          8.90   10.82    9.60          39.27  -12.26   -2.35          12.48  190.85
G6          7.63   10.89   10.33          39.39  -24.05   -4.56          24.48  190.73
G7          6.57   11.20   11.28          39.91  -36.80   -6.64          37.40  190.22
G8          5.43   11.19   11.94          39.90  -49.33   -8.60          50.08  189.89
G9         37.00   40.28   34.12          69.67   -5.94   -1.29           6.08  192.25
G10        35.33   40.75   35.20          70.00  -12.92   -2.28          13.12  189.99
G11        33.51   40.87   35.90          70.09  -19.51   -3.12          19.76  189.09
G12        28.47   40.92   38.47          70.12  -38.26   -6.60          38.83  189.78
G13        33.84   45.36   58.89          73.13  -31.48  -25.05          40.23  218.52
G14        46.06   32.45   48.07          63.71   47.26  -29.59          55.76  327.94
G15        67.53   69.65   17.56          86.83    0.81   57.89          57.90   89.20
G16        13.57   13.94   11.63          44.15    0.79   -0.38           0.89  333.18
G17        37.66   27.57   12.98          59.49   40.09   22.21          45.83   28.98
G18        24.95   36.64   16.06          67.01  -39.20   27.23          47.73  145.22
G19        20.09   17.86   42.19          49.33   14.82  -47.29          49.56  287.40
G20        35.47   34.21   14.48          65.13    8.56   27.92          29.21   72.96
G21        34.40   32.88    9.28          64.06    9.52   41.51          42.59   77.09
G22        46.26   42.48    2.76          71.20   15.57   85.93          87.33   79.73
H1          2.58    2.98    3.41          19.97   -5.45   -7.13           8.98  232.60
H2          2.27    2.95    4.38          19.82  -11.08  -13.42          17.40  230.46
H3          2.17    3.14    6.09          20.61  -16.67  -20.76          26.63  231.23
H4          2.21    3.24    6.17          20.97  -17.30  -20.53          26.85  229.87
H5          9.74   11.18   12.02          39.88   -8.01   -8.88          11.96  227.93
H6          8.64   10.95   15.27          39.49  -15.44  -18.30          23.94  229.83
H7          7.93   11.15   19.34          39.83  -23.19  -27.05          35.63  229.39
H8          7.12   11.15   23.73          39.83  -30.85  -35.75          47.22  229.20
H9         37.61   40.41   37.23          69.76   -4.31   -5.54           7.02  232.06
H10        36.63   40.71   41.22          69.97   -8.43  -10.46          13.43  231.13
H11        34.81   40.31   45.12          69.69  -13.34  -15.80          20.68  229.82
H12        32.26   40.97   56.95          70.16  -24.28  -28.19          37.20  229.27
H13        28.56   39.98   56.18          69.45  -35.05  -28.61          45.25  219.22
H14        41.49   27.07   44.09          59.04   54.03  -32.90          63.26  328.66
H15        65.64   66.83   12.90          85.42    2.69   67.12          67.17   87.71
H16         8.98    9.25    7.60          36.47    0.47    0.15           0.52   92.67
H17        32.86   22.29    8.52          54.33   46.07   27.44          53.62   30.78
H18        19.31   30.54   11.22          62.11  -44.15   31.83          54.43  144.21
H19        15.15   12.68   37.60          42.27   18.64  -53.43          56.59  289.23
H20        40.87   41.42   15.40          70.47    2.88   34.79          34.91   85.26
H21        30.26   31.39   20.04          62.83   -0.02   11.14          11.14   90.14
H22        34.50   37.50   11.07          67.65   -5.60   41.86          42.24   97.62
I1          4.32    4.36    5.86          24.82    1.61  -12.43          12.53  277.38
I2          4.39    4.40    8.65          24.96    2.03  -23.69          23.77  274.90
I3          4.40    4.36   11.91          24.81    2.74  -34.54          34.64  274.53
I4          4.51    4.32   18.74          24.70    4.79  -51.86          52.08  275.28
I5         13.98   14.35   15.18          44.73    0.91   -9.05           9.10  275.78
I6         13.98   14.24   19.31          44.58    1.53  -18.79          18.85  274.67
I7         14.10   14.23   24.09          44.56    2.39  -28.25          28.35  274.82
I8         14.41   14.24   39.36          44.57    4.21  -51.82          51.99  274.64
I9         39.12   40.36   36.63          69.73    0.65   -4.76           4.81  277.87
I10        39.30   40.37   40.74          69.73    1.19  -10.25          10.32  276.64
I11        39.23   40.27   44.88          69.66    1.28  -15.56          15.62  274.69
I12        40.03   40.67   56.27          69.94    2.56  -27.86          27.98  275.25
I13        23.82   34.83   53.36          65.61  -38.04  -32.23          49.86  220.28
I14        36.67   21.81   39.61          53.82   61.30  -36.21          71.19  329.42
I15        63.78   63.95    9.22          83.94    4.88   76.00          76.15   86.33
I16         5.46    5.62    4.73          28.42    0.55   -0.50           0.81  247.95
I17        28.50   17.82    5.33          49.28   51.67   32.34          60.95   32.04
I18        14.61   25.09    7.75          57.16  -48.76   35.24          60.16  144.15
I19        11.00    8.29   32.75          34.59   24.44  -59.76          64.56  292.24
I20        41.06   44.99   15.62          72.88   -6.94   38.43          39.05  100.24
I21        10.82   14.41    3.50          44.81  -20.94   35.08          40.85  120.83
I22        27.52   35.67   16.79          66.26  -25.38   24.20          35.07  136.37
J1          2.17    1.94    3.09          15.14    6.88  -13.24          14.92  297.48
J2          2.53    1.93    5.16          15.09   14.58  -25.79          29.62  299.48
J3          2.95    1.97    8.09          15.34   21.28  -38.20          43.73  299.12
J4          4.04    2.03   19.16          15.63   37.38  -68.38          77.93  298.66
J5         11.43   11.07   12.12          39.70    5.57   -9.49          11.01  300.42
J6         12.06   10.94   15.84          39.47   10.89  -19.72          22.53  298.91
J7         13.05   11.11   20.33          39.76   16.40  -29.23          33.52  299.29
J8         15.22   10.98   35.26          39.55   30.81  -54.86          62.92  299.32
J9         39.58   40.10   37.08          69.54    2.90   -5.70           6.41  296.94
J10        41.01   40.64   40.74          69.92    5.66   -9.93          11.43  299.71
J11        41.47   40.23   44.69          69.63    8.29  -15.38          17.47  298.33
J12        44.21   40.69   55.53          69.96   15.03  -27.06          30.95  299.05
J13        19.69   30.00   50.16          61.66  -40.30  -35.52          53.72  221.39
J14        32.33   17.51   35.27          48.90   67.61  -38.76          77.93  330.17
J15        61.73   60.70    6.20          82.22    7.59   84.95          85.29   84.90
J16         3.05    3.15    2.73          20.62    0.30   -1.08           1.14  285.79
J17        24.63   14.17    3.11          44.48   56.56   37.22          67.71   33.35
J18        10.67   20.07    5.04          51.92  -52.67   38.35          65.15  143.95
J19         7.85    5.09   27.97          27.00   31.37  -65.32          72.46  295.65
J20        30.01   38.73   22.38          68.55  -25.64   16.32          30.39  147.52
J21         4.25    8.00    1.51          33.98  -38.77   33.50          51.24  139.17
J22         1.33    2.11    0.95          16.03  -18.05   10.01          20.64  151.00
K1          5.28    4.42    5.41          25.01   13.13   -9.93          16.46  322.92
K2          6.44    4.34    7.20          24.77   27.11  -18.41          32.77  325.84
K3          7.90    4.47    9.89          25.18   39.71  -27.61          48.36  325.19
K4          9.49    4.48   13.22          25.19   53.35  -37.62          65.28  324.82
K5         15.64   14.20   14.70          44.52   11.84   -8.19          14.40  325.34
K6         17.72   14.23   18.17          44.56   23.23  -16.33          28.40  324.89
K7         19.90   14.24   22.06          44.58   34.37  -24.39          42.15  324.64
K8         26.56   14.58   34.00          45.05   62.19  -43.57          75.93  324.99
K9         41.30   40.52   36.82          69.84    6.92   -4.83           8.44  325.09
K10        43.86   40.78   40.24          70.02   13.74   -9.10          16.48  326.48
K11        45.44   40.21   43.83          69.62   20.07  -14.35          24.67  324.43
K12        51.59   40.46   53.37          69.79   36.11  -25.03          43.94  325.27
K13        15.96   25.27   46.43          57.34  -41.58  -38.67          56.78  222.93
K14        28.04   13.79   30.61          43.93   72.93  -40.38          83.37  331.03
K15        59.05   56.58    3.84          79.94   11.06   93.46          94.11   83.25
K16         1.47    1.54    1.31          12.88   -0.45   -0.51           0.76  222.60
K17        21.17   11.27    1.51          40.03   60.12   43.96          74.48   36.17
K18         7.46   15.48    3.07          46.29  -55.41   40.63          68.71  143.75
K19         5.59    3.00   23.35          20.04   38.19  -69.17          79.01  298.90
K20         2.38    3.11    1.88          20.49  -11.76    6.25          13.32  152.03
K21         1.35    1.83    1.56          14.55  -11.11   -0.65          11.13  183.35
K22         1.70    2.18    2.93          16.38   -9.40   -9.93          13.67  226.56
L1          3.67    3.00    2.84          20.04   12.92   -2.89          13.24  347.38
L2          4.55    2.99    3.01          19.98   25.54   -4.29          25.90  350.46
L3          5.69    3.13    3.51          20.55   37.13   -6.80          37.75  349.63
L4          6.44    3.42    3.93          21.67   40.54   -7.53          41.23  349.48
L5         13.08   11.16   10.00          39.85   16.13   -2.68          16.36  350.57
L6         15.38   11.06   10.52          39.68   31.16   -4.64          31.51  351.53
L7         18.54   11.24   11.62          39.98   47.30   -7.51          47.89  350.98
L8         22.82   11.41   12.90          40.27   66.77  -10.71          67.63  350.89
L9         41.73   40.45   34.51          69.79    8.42   -1.64           8.58  348.96
L10        44.22   40.67   35.14          69.94   15.14   -2.29          15.31  351.38
L11        46.72   40.81   36.14          70.04   21.83   -3.53          22.12  350.81
L12        50.36   40.80   37.43          70.04   31.82   -5.33          32.27  350.50
L13        12.23   19.96   40.92          51.79  -41.00  -41.43          58.28  225.30
L14        23.12   10.29   25.00          38.36   76.32  -40.59          86.44  331.99
L15        54.37   50.06    2.18          76.10   16.09   99.28         100.57   80.79
L16         0.54    0.56    0.49           5.08   -0.28   -0.48           0.56  239.90
L17        16.84    8.28    0.56          34.55   61.62   48.98          78.71   38.48
L18         4.44   10.32    1.58          38.42  -55.38   40.26          68.47  143.98
L19         3.69    1.48   17.54          12.48   45.77  -70.26          83.85  303.08
L20         0.73    0.79    0.81           7.17   -1.49   -2.81           3.18  242.04
L21         0.98    0.94    1.03           8.46    2.72   -4.27           5.07  302.63
L22         2.04    1.63    1.41          13.41   11.45   -0.84          11.48  355.82
GS0        79.57   82.73   69.29          92.90   -0.40   -0.93           1.01  246.57
GS1        68.78   71.25   58.21          87.60    0.19    0.59           0.63   72.15
