targets/wolf_faust/reflective/R140604.it8
IT8.7/2
ORIGINATOR "Wolf Faust"
DESCRIPTOR "FUJICOLOR Crystal Archive Paper, L* a* b* (light D50, viewing angle 2)"
MANUFACTURER "Wolf Faust - http://www.coloraid.de"
CREATED "September 14, 2014"
PROD_DATE "2014:06"
SAMPLE_BACKING "black"
SERIAL "5x7 R140604 Batch Average Data"
MATERIAL "FUJICOLOR Crystal Archive DP II Paper"
KEYWORD "MEAN_DE" # Mean Delta E of samples compared to batch average
NUMBER_OF_FIELDS 18
BEGIN_DATA_FORMAT
SAMPLE_ID  XYZ_X   XYZ_Y   XYZ_Z          LAB_L   LAB_A   LAB_B          LAB_C   LAB_H          D_RED  D_GREEN  D_BLUE  D_VIS          STDEV_X STDEV_Y STDEV_Z        MEAN_DE  STDEV_DE
END_DATA_FORMAT
NUMBER_OF_SETS 288
BEGIN_DATA
A1          3.46    2.88    2.07          19.57   11.55    2.78          11.89   13.53           1.33    1.66    1.57    1.50            0.07    0.07    0.05           0.45     0.53
A2          4.24    2.86    1.69          19.47   23.62    6.44          24.48   15.25           1.19    1.84    1.66    1.47            0.10    0.07    0.05           0.33     0.39 
A3          5.23    2.93    1.45          19.78   35.08    9.69          36.40   15.44           1.08    2.09    1.74    1.42            0.08    0.05    0.04           0.33     0.40
A4          5.78    3.16    1.46          20.68   37.55   11.08          39.15   16.44           1.03    2.11    1.74    1.38            0.05    0.03    0.04           0.29     0.34 
A5         12.42   10.79    7.94          39.22   14.50    3.56          14.93   13.79           0.80    1.06    1.00    0.94            0.23    0.22    0.18           0.34     0.42
A6         14.72   10.87    6.82          39.35   28.67    8.32          29.85   16.18           0.68    1.17    1.07    0.91            0.28    0.24    0.14           0.45     0.53 
A7         17.23   11.07    6.14          39.70   41.56   11.95          43.24   16.04           0.59    1.29    1.12    0.87            0.29    0.24    0.23           0.58     0.69
A8         21.22   11.11    4.84          39.77   61.47   18.47          64.19   16.72           0.49    1.61    1.23    0.83            0.14    0.09    0.16           0.47     0.65 
A9         40.64   40.00   32.11          69.47    6.47    1.35           6.62   11.82           0.34    0.42    0.41    0.39            0.53    0.57    0.33           0.45     0.51
A10        42.54   39.58   30.87          69.16   13.56    2.74          13.83   11.42           0.30    0.45    0.43    0.39            0.45    0.53    0.37           0.41     0.53
A11        44.92   39.64   29.44          69.21   20.34    5.06          20.96   13.98           0.26    0.48    0.45    0.38            0.45    0.53    0.42           0.47     0.60
A12        47.86   39.72   28.02          69.27   28.37    7.49          29.34   14.79           0.21    0.51    0.47    0.36            0.41    0.49    0.51           0.50     0.62 
A13        74.75   79.02   68.51          91.24   -2.94   -3.07           4.25  226.16           0.12    0.09    0.09    0.11            0.20    0.16    0.09           0.14     0.17
A14        76.53   78.50   68.20          91.01    1.69   -3.19           3.61  297.85           0.10    0.11    0.09    0.11            0.16    0.19    0.13           0.17     0.19 
A15        77.39   80.82   65.11          92.05   -1.07    1.49           1.83  125.97           0.10    0.09    0.11    0.09            0.14    0.15    0.22           0.15     0.17
A16        77.25   80.24   66.49          91.79   -0.24   -0.26           0.36  225.30           0.10    0.09    0.10    0.10            0.12    0.14    0.15           0.13     0.14
A17        75.10   77.09   62.78          90.36    1.58    0.81           1.77   27.17           0.10    0.12    0.12    0.11            0.14    0.19    0.17           0.14     0.18
A18        75.64   79.61   65.07          91.51   -2.27    0.59           2.35  165.55           0.11    0.09    0.11    0.10            0.22    0.21    0.14           0.14     0.16 
A19        74.46   77.15   67.82          90.39    0.16   -3.91           3.91  272.32           0.12    0.11    0.09    0.11            0.21    0.22    0.16           0.14     0.17
A20         1.34    1.09    0.72           9.68    9.36    3.18           9.88   18.75           1.74    2.10    2.02    1.92            0.02    0.02    0.01           0.20     0.24 
A21         5.04    3.22    0.80          20.91   27.87   20.98          34.88   36.98           1.09    1.88    1.96    1.40            0.08    0.05    0.01           0.38     0.45
A22         9.96    5.67    0.83          28.57   42.50   33.74          54.26   38.44           0.79    1.81    1.95    1.13            0.13    0.09    0.03           0.37     0.44
B1          3.26    2.88    1.65          19.56    8.38    6.99          10.92   39.78           1.36    1.63    1.65    1.51            0.06    0.06    0.04           0.37     0.48
B2          3.84    2.90    1.01          19.64   17.15   15.38          23.04   41.88           1.24    1.75    1.86    1.47            0.08    0.07    0.03           0.43     0.55
B3          4.52    2.95    0.65          19.86   25.69   22.00          33.82   40.57           1.14    1.89    2.05    1.44            0.05    0.04    0.01           0.26     0.30
B4          5.09    3.21    0.61          20.85   28.75   24.52          37.79   40.46           1.09    1.91    2.08    1.40            0.06    0.04    0.01           0.38     0.45
B5         12.58   10.95    6.06          39.49   14.38   11.90          18.67   39.61           0.78    1.06    1.11    0.93            0.30    0.30    0.13           0.62     0.72
B6         14.37   10.84    3.93          39.31   26.66   22.89          35.14   40.65           0.68    1.17    1.29    0.90            0.32    0.28    0.18           0.50     0.63
B7         16.75   10.88    2.34          39.38   40.26   34.54          53.04   40.63           0.58    1.32    1.50    0.87            0.28    0.21    0.08           0.41     0.46
B8         20.50   10.98    0.92          39.55   58.98   51.16          78.08   40.94           0.49    1.62    1.90    0.83            0.13    0.10    0.03           0.29     0.34
B9         40.39   39.84   29.77          69.35    6.21    4.79           7.84   37.67           0.34    0.42    0.44    0.39            0.55    0.64    0.62           0.48     0.59
B10        42.31   39.97   26.52          69.45   11.65   10.33          15.56   41.56           0.30    0.45    0.49    0.38            0.62    0.68    0.58           0.47     0.58
B11        44.31   39.78   23.52          69.31   18.10   15.48          23.81   40.54           0.25    0.48    0.54    0.37            0.47    0.51    0.50           0.42     0.54
B12        46.78   39.48   20.00          69.10   26.07   22.03          34.14   40.20           0.21    0.52    0.60    0.36            0.43    0.54    0.49           0.58     0.73
B13        70.23   75.80   67.81          89.77   -6.02   -4.98           7.81  219.59           0.16    0.10    0.09    0.13            0.20    0.18    0.13           0.13     0.15
B14        73.12   72.81   66.61          88.35    6.15   -6.29           8.80  314.33           0.11    0.15    0.10    0.14            0.25    0.33    0.16           0.25     0.29
B15        75.52   79.30   56.98          91.37   -1.91    8.34           8.56  102.87           0.10    0.10    0.16    0.10            0.24    0.23    0.35           0.23     0.26
B16        63.09   65.75   54.55          84.87   -0.71   -0.31           0.79  203.66           0.18    0.18    0.18    0.18            0.43    0.45    0.38           0.25     0.31
B17        70.25   70.30   54.98          87.14    5.33    3.15           6.20   30.59           0.12    0.17    0.18    0.15            0.22    0.29    0.33           0.27     0.33
B18        67.60   73.82   56.09          88.84   -7.71    4.90           9.13  147.53           0.17    0.11    0.17    0.14            0.32    0.27    0.23           0.19     0.24
B19        65.82   67.99   65.61          86.00    0.58   -9.41           9.43  273.53           0.18    0.16    0.11    0.17            0.25    0.30    0.10           0.25     0.30
B20         2.75    1.98    0.74          15.36   17.68   12.46          21.63   35.19           1.38    1.96    2.00    1.63            0.05    0.03    0.02           0.37     0.43
B21         8.28    4.84    0.82          26.29   38.30   29.87          48.57   37.95           0.87    1.83    1.95    1.20            0.13    0.08    0.02           0.46     0.56
B22        28.64   24.32   11.77          56.40   21.53   20.35          29.63   43.39           0.42    0.73    0.83    0.57            0.49    0.45    0.35           0.47     0.58
C1          4.41    4.27    2.26          24.53    4.12    9.64          10.49   66.89           1.25    1.42    1.52    1.35            0.10    0.11    0.09           0.40     0.49
C2          4.65    4.24    1.37          24.44    7.72   18.71          20.24   67.58           1.20    1.46    1.72    1.34            0.09    0.09    0.03           0.54     0.62
C3          5.37    4.57    0.81          25.47   12.19   28.68          31.16   66.98           1.11    1.48    1.93    1.29            0.09    0.07    0.01           0.44     0.53
C4          5.65    4.77    0.80          26.05   12.96   29.81          32.50   66.49           1.09    1.47    1.93    1.27            0.09    0.09    0.01           0.34     0.40
C5         23.44   22.33   10.91          54.37    8.74   19.46          21.33   65.82           0.53    0.70    0.86    0.63            0.49    0.52    0.33           0.53     0.63
C6         25.15   22.06    5.61          54.09   17.37   39.24          42.91   66.12           0.46    0.77    1.12    0.61            0.46    0.48    0.23           0.56     0.71
C7         27.02   21.91    2.32          53.93   25.78   59.75          65.07   66.66           0.41    0.83    1.48    0.60            0.34    0.35    0.06           0.51     0.60
C8         28.45   22.14    1.34          54.18   30.39   70.29          76.57   66.62           0.38    0.87    1.71    0.59            0.32    0.33    0.04           0.54     0.64
C9         46.62   46.87   32.60          74.11    4.05    8.61           9.52   64.81           0.28    0.35    0.40    0.32            0.46    0.52    0.55           0.48     0.57
C10        48.41   47.44   26.95          74.47    7.44   18.25          19.71   67.82           0.24    0.36    0.48    0.31            0.46    0.54    0.42           0.37     0.46
C11        49.41   46.70   21.80          74.00   12.19   26.85          29.48   65.59           0.21    0.39    0.56    0.31            0.48    0.58    0.42           0.50     0.59
C12        52.03   47.49   16.26          74.50   16.98   39.68          43.16   66.84           0.17    0.41    0.68    0.29            0.50    0.68    0.59           0.86     1.01
C13        61.57   69.30   66.41          86.65  -11.92   -9.04          14.96  217.19           0.25    0.12    0.10    0.18            0.35    0.28    0.19           0.27     0.32
C14        66.95   62.75   63.35          83.31   14.67  -11.90          18.89  320.96           0.14    0.23    0.12    0.19            0.21    0.36    0.16           0.40     0.48
C15        73.20   77.24   46.21          90.43   -2.64   18.65          18.84   98.05           0.10    0.12    0.25    0.11            0.09    0.09    0.24           0.21     0.25
C16        48.66   50.49   42.12          76.37   -0.06   -0.58           0.58  263.28           0.29    0.29    0.29    0.30            0.45    0.47    0.40           0.28     0.35
C17        61.96   58.73   43.05          81.14   12.76    6.48          14.31   26.94           0.14    0.27    0.28    0.22            0.26    0.38    0.32           0.36     0.44
C18        56.89   65.54   45.12          84.76  -14.94   10.18          18.08  145.72           0.26    0.15    0.26    0.19            0.49    0.38    0.43           0.39     0.49
C19        53.44   54.33   61.39          78.65    2.72  -18.03          18.24  278.57           0.28    0.26    0.14    0.27            0.38    0.41    0.19           0.33     0.41
C20         1.73    1.46    0.72          12.38    8.69    7.78          11.66   41.84           1.62    1.96    2.01    1.79            0.03    0.03    0.02           0.20     0.26
C21        22.29   16.80    4.79          48.00   30.99   32.93          45.22   46.74           0.49    0.98    1.20    0.71            0.27    0.25    0.14           0.50     0.60
C22        34.17   31.03   17.21          62.53   15.32   16.80          22.74   47.64           0.36    0.58    0.67    0.48            0.46    0.49    0.43           0.54     0.63
D1          4.14    4.29    2.33          24.60    0.13    9.11           9.11   89.21           1.30    1.38    1.50    1.36            0.09    0.11    0.09           0.42     0.52
D2          4.08    4.27    1.43          24.55   -0.51   18.18          18.19   91.60           1.30    1.39    1.70    1.35            0.07    0.09    0.03           0.37     0.45
D3          4.26    4.48    0.88          25.20   -0.79   27.07          27.09   91.66           1.27    1.37    1.89    1.33            0.10    0.11    0.02           0.51     0.60
D4          4.48    4.71    0.88          25.90   -0.92   28.28          28.29   91.86           1.25    1.35    1.89    1.31            0.11    0.14    0.03           0.56     0.69
D5         25.93   26.93   13.51          58.91   -0.15   19.74          19.75   90.44           0.52    0.58    0.76    0.56            0.45    0.50    0.37           0.59     0.70
D6         25.81   27.06    7.53          59.03   -1.20   39.31          39.33   91.75           0.51    0.59    1.00    0.55            0.34    0.41    0.19           0.52     0.62
D7         25.89   27.31    3.63          59.26   -1.82   59.14          59.17   91.76           0.50    0.60    1.29    0.54            0.50    0.55    0.08           0.61     0.71
D8         25.87   27.44    1.79          59.38   -2.42   74.16          74.20   91.87           0.51    0.61    1.59    0.54            0.44    0.48    0.07           0.50     0.59
D9         53.91   56.22   38.12          79.74   -0.76   10.47          10.50   94.16           0.23    0.25    0.33    0.25            0.60    0.66    0.63           0.46     0.53
D10        53.98   56.31   30.94          79.79   -0.80   20.94          20.95   92.20           0.22    0.26    0.42    0.24            0.59    0.67    0.55           0.38     0.47
D11        53.57   56.02   25.04          79.63   -1.13   30.47          30.50   92.13           0.21    0.27    0.50    0.24            0.48    0.52    0.43           0.38     0.45
D12        53.31   56.31    8.08          79.79   -2.51   72.99          73.03   91.97           0.20    0.29    0.96    0.23            0.27    0.31    0.28           0.63     0.80
D13        53.47   62.83   64.82          83.35  -17.44  -13.24          21.90  217.20           0.34    0.14    0.11    0.23            0.33    0.28    0.10           0.34     0.38
D14        61.45   54.27   59.99          78.62   22.44  -16.70          27.97  323.35           0.16    0.32    0.15    0.25            0.27    0.41    0.21           0.39     0.53
D15        71.24   75.19   37.19          89.48   -2.65   28.53          28.65   95.31           0.10    0.13    0.34    0.12            0.23    0.22    0.37           0.38     0.50
D16        37.19   38.65   32.11          68.49   -0.24   -0.33           0.46  232.47           0.40    0.41    0.41    0.41            0.43    0.49    0.38           0.42     0.49
D17        55.01   49.45   33.47          75.73   19.31   10.12          21.80   27.65           0.17    0.38    0.39    0.28            0.38    0.48    0.47           0.41     0.51
D18        47.28   57.56   35.89          80.49  -21.64   14.84          26.24  145.56           0.35    0.19    0.35    0.25            0.37    0.28    0.24           0.36     0.43
D19        42.95   42.96   56.91          71.53    4.58  -25.79          26.20  280.08           0.39    0.36    0.17    0.38            0.39    0.43    0.17           0.44     0.52
D20        13.61   10.29    2.67          38.35   26.07   30.01          39.75   49.02           0.69    1.20    1.44    0.92            0.30    0.25    0.08           0.49     0.57
D21        21.14   20.41   11.77          52.30    7.08   13.26          15.04   61.89           0.59    0.73    0.83    0.67            0.51    0.49    0.42           0.55     0.68
D22        37.43   35.81   19.79          66.38    9.67   17.77          20.23   61.45           0.34    0.49    0.61    0.43            0.73    0.68    0.46           0.55     0.65
E1          3.84    4.35    2.32          24.78   -5.07    9.49          10.76  118.12           1.37    1.34    1.50    1.36            0.09    0.12    0.08           0.40     0.49
E2          3.44    4.27    1.50          24.55  -10.13   17.30          20.05  120.34           1.44    1.32    1.67    1.38            0.06    0.09    0.04           0.37     0.45
E3          3.50    4.69    0.98          25.83  -14.81   26.50          30.36  119.19           1.46    1.26    1.84    1.34            0.05    0.09    0.02           0.55     0.62
E4          3.51    4.76    0.98          26.05  -15.52   26.89          31.05  119.98           1.46    1.25    1.84    1.33            0.06    0.08    0.01           0.48     0.61
E5         12.36   13.97    7.69          44.19   -7.36   13.09          15.02  119.35           0.87    0.83    1.00    0.86            0.23    0.31    0.21           0.46     0.57
E6         11.19   13.92    4.59          44.11  -15.27   27.28          31.27  119.23           0.93    0.81    1.20    0.86            0.22    0.31    0.12           0.52     0.65
E7         10.28   14.09    2.61          44.36  -23.06   40.84          46.90  119.45           1.01    0.78    1.43    0.86            0.19    0.26    0.07           0.56     0.66
E8          9.74   14.30    1.55          44.66  -28.59   51.41          58.82  119.08           1.08    0.76    1.65    0.86            0.15    0.24    0.03           0.48     0.56
E9         37.14   39.97   28.36          69.45   -4.54    7.23           8.54  122.10           0.41    0.39    0.46    0.40            0.61    0.63    0.47           0.44     0.53
E10        35.93   40.08   23.80          69.52   -8.85   15.32          17.70  120.01           0.42    0.38    0.53    0.40            0.54    0.63    0.54           0.48     0.56
E11        34.39   39.72   19.48          69.27  -12.96   23.43          26.77  118.96           0.44    0.37    0.61    0.40            0.52    0.60    0.48           0.45     0.56
E12        30.84   40.30    9.48          69.68  -27.39   50.52          57.46  118.47           0.53    0.34    0.90    0.40            0.43    0.43    0.27           0.52     0.62
E13        45.93   56.41   62.91          79.85  -22.64  -17.45          28.58  217.63           0.45    0.17    0.12    0.28            0.31    0.25    0.11           0.24     0.34
E14        55.43   45.48   55.87          73.21   31.24  -21.82          38.10  325.07           0.19    0.43    0.19    0.32            0.36    0.48    0.29           0.50     0.62
E15        69.36   72.98   29.53          88.44   -2.15   38.08          38.14   93.23           0.10    0.15    0.43    0.12            0.24    0.25    0.33           0.37     0.48
E16        27.29   28.25   23.73          60.11    0.23   -0.78           0.83  287.28           0.53    0.55    0.54    0.55            0.51    0.55    0.47           0.52     0.62
E17        47.97   40.36   24.91          69.73   26.67   13.65          29.96   27.09           0.21    0.50    0.52    0.36            0.48    0.56    0.62           0.60     0.75
E18        38.43   49.70   28.00          75.88  -28.07   18.92          33.86  146.03           0.46    0.23    0.45    0.32            0.24    0.23    0.45           0.42     0.57
E19        33.73   32.66   51.85          63.88    7.98  -33.58          34.51  283.37           0.52    0.48    0.22    0.50            0.33    0.40    0.16           0.54     0.64
E20        23.75   16.37    1.26          47.46   39.90   59.80          71.89   56.29           0.44    1.09    1.74    0.70            0.30    0.29    0.03           0.49     0.62
E21        16.73   13.85    2.64          44.01   20.19   39.98          44.79   63.21           0.62    1.01    1.44    0.81            0.32    0.34    0.09           0.60     0.70
E22        28.77   24.74    8.01          56.82   20.24   33.63          39.25   58.96           0.41    0.72    0.98    0.56            0.43    0.42    0.25           0.48     0.59
F1          1.46    1.83    1.32          14.58   -8.19    2.33           8.52  164.14           1.86    1.67    1.74    1.76            0.02    0.03    0.03           0.39     0.47
F2          1.19    1.87    1.14          14.79  -17.25    5.17          18.00  163.33           2.06    1.59    1.80    1.77            0.02    0.04    0.02           0.33     0.40
F3          1.24    2.29    1.18          16.92  -24.65    8.15          25.97  161.71           2.14    1.47    1.77    1.70            0.01    0.04    0.02           0.42     0.51
F4          1.06    1.85    0.98          14.66  -21.00    7.26          22.22  160.94           2.16    1.58    1.85    1.79            0.01    0.03    0.03           0.41     0.49
F5          6.54    8.10    5.85          34.18  -12.37    3.76          12.93  163.08           1.21    1.03    1.12    1.11            0.12    0.17    0.14           0.43     0.55
F6          5.42    8.18    4.94          34.36  -25.48    8.61          26.90  161.34           1.39    0.97    1.18    1.13            0.11    0.18    0.14           0.47     0.56
F7          4.37    8.19    4.16          34.38  -38.88   13.00          40.99  161.51           1.64    0.92    1.24    1.15            0.08    0.16    0.13           0.48     0.58
F8          3.52    8.23    3.54          34.45  -51.55   16.95          54.26  161.80           1.98    0.87    1.30    1.16            0.04    0.11    0.08           0.32     0.41
F9         36.48   39.67   31.69          69.23   -5.76    1.57           5.97  164.72           0.43    0.38    0.41    0.41            0.41    0.47    0.39           0.32     0.40
F10        34.86   39.75   30.57          69.29  -11.45    3.42          11.96  163.40           0.47    0.36    0.42    0.41            0.39    0.44    0.55           0.40     0.51
F11        33.42   39.99   29.38          69.46  -17.16    5.61          18.06  161.91           0.50    0.35    0.44    0.41            0.47    0.49    0.50           0.36     0.45
F12        28.43   40.52   25.52          69.84  -37.20   12.75          39.32  161.08           0.66    0.29    0.49    0.43            0.29    0.26    0.34           0.47     0.57
F13        39.21   50.30   60.64          76.25  -27.22  -21.42          34.64  218.21           0.57    0.20    0.14    0.34            0.08    0.09    0.11           0.19     0.23
F14        50.07   38.21   51.79          68.18   39.06  -26.10          46.97  326.25           0.23    0.54    0.22    0.39            0.27    0.34    0.15           0.45     0.54
F15        67.49   70.53   22.84          87.26   -1.13   47.70          47.71   91.36           0.11    0.18    0.54    0.14            0.28    0.32    0.54           0.71     0.86
F16        19.61   20.18   16.76          52.03    0.79   -0.27           0.85  341.60           0.67    0.70    0.68    0.69            0.41    0.40    0.42           0.43     0.55
F17        42.00   33.05   18.13          64.20   33.32   17.60          37.69   27.85           0.24    0.63    0.65    0.43            0.35    0.43    0.36           0.50     0.65
