targets/wolf_faust/reflective/R141109.it8
IT8.7/2
ORIGINATOR "Wolf Faust"
DESCRIPTOR "Kodak Professional Paper, L* a* b* (light D50, viewing angle 2)"
MANUFACTURER "Wolf Faust - http://www.coloraid.de"
CREATED "December 11, 2014"
PROD_DATE "2014:11"
SAMPLE_BACKING "black"
SERIAL "5x7 R141109 Batch Average Data"
MATERIAL "Kodak Professional Endura Premier"
KEYWORD "MEAN_DE" # Mean Delta E of samples compared to batch average
NUMBER_OF_FIELDS 18
BEGIN_DATA_FORMAT
SAMPLE_ID  XYZ_X   XYZ_Y   XYZ_Z          LAB_L   LAB_A   LAB_B          LAB_C   LAB_H          D_RED  D_GREEN  D_BLUE  D_VIS          STDEV_X STDEV_Y STDEV_Z        MEAN_DE  STDEV_DE
END_DATA_FORMAT
NUMBER_OF_SETS 288
BEGIN_DATA
A1          3.39    2.85    1.97          19.42   11.11    3.47          11.64   17.36           1.36    1.65    1.60    1.51            0.05    0.04    0.04           0.24     0.26
A2          4.16    2.81    1.64          19.27   23.33    6.68          24.27   15.97           1.22    1.83    1.69    1.47            0.05    0.04    0.02           0.30     0.33 
A3          5.17    2.96    1.49          19.87   33.97    9.35          35.23   15.40           1.10    2.03    1.74    1.42            0.09    0.05    0.03           0.26     0.31
A4          5.60    3.16    1.53          20.69   35.47   10.35          36.95   16.27           1.06    2.02    1.73    1.39            0.06    0.03    0.03           0.24     0.28 
A5         12.31   10.76    7.85          39.17   13.95    3.84          14.47   15.40           0.81    1.05    1.01    0.94            0.14    0.13    0.09           0.25     0.29
A6         14.86   10.97    6.85          39.53   28.73    8.51          29.97   16.49           0.68    1.16    1.07    0.90            0.15    0.12    0.09           0.22     0.26 
A7         17.14   10.91    5.95          39.43   42.22   12.30          43.98   16.25           0.59    1.31    1.14    0.88            0.14    0.10    0.08           0.20     0.24
A8         20.63   11.09    5.00          39.73   58.82   17.51          61.38   16.58           0.50    1.55    1.22    0.83            0.14    0.11    0.09           0.29     0.36 
A9         40.12   39.34   31.19          69.00    6.89    1.94           7.16   15.70           0.35    0.43    0.42    0.40            0.22    0.21    0.20           0.22     0.25
A10        42.66   39.63   29.90          69.20   13.73    4.32          14.39   17.46           0.30    0.45    0.44    0.38            0.19    0.21    0.20           0.19     0.23
A11        44.90   39.58   28.80          69.17   20.43    6.03          21.30   16.45           0.26    0.48    0.46    0.38            0.20    0.19    0.17           0.20     0.22
A12        47.09   39.95   28.27          69.44   25.50    7.36          26.54   16.09           0.22    0.50    0.47    0.37            0.17    0.20    0.20           0.23     0.27 
A13        73.75   78.19   64.20          90.87   -3.38    0.31           3.40  174.75           0.12    0.10    0.11    0.11            0.16    0.16    0.19           0.10     0.12
A14        74.13   75.61   63.14          89.68    2.53   -0.72           2.64  344.14           0.10    0.13    0.12    0.12            0.12    0.17    0.15           0.14     0.16 
A15        76.80   80.21   63.87          91.78   -1.07    2.19           2.44  116.12           0.10    0.09    0.11    0.10            0.16    0.17    0.16           0.09     0.11
A16        74.83   77.71   63.82          90.65   -0.20    0.29           0.36  126.09           0.11    0.11    0.12    0.11            0.15    0.17    0.20           0.13     0.15
A17        76.37   79.54   63.28          91.48   -0.66    2.25           2.34  106.39           0.10    0.10    0.12    0.10            0.17    0.19    0.18           0.11     0.12
A18        76.30   79.85   63.57          91.62   -1.41    2.21           2.62  122.59           0.10    0.09    0.12    0.10            0.16    0.18    0.20           0.13     0.14 
A19        69.83   72.76   62.84          88.33   -0.68   -2.75           2.84  256.04           0.14    0.13    0.12    0.14            0.15    0.16    0.11           0.14     0.15
A20         1.29    1.06    0.76           9.52    8.74    2.14           9.00   13.77           1.79    2.08    2.01    1.93            0.02    0.02    0.01           0.23     0.26 
A21         5.17    3.29    0.85          21.16   28.38   20.47          35.00   35.80           1.09    1.86    1.95    1.39            0.08    0.05    0.01           0.35     0.38
A22        10.02    5.73    0.88          28.72   42.34   33.05          53.71   37.97           0.79    1.79    1.94    1.13            0.08    0.04    0.01           0.24     0.28
B1          3.23    2.86    1.58          19.48    8.28    7.64          11.27   42.72           1.39    1.63    1.69    1.51            0.05    0.05    0.03           0.25     0.28
B2          3.82    2.86    1.05          19.48   17.49   14.47          22.69   39.60           1.26    1.75    1.86    1.48            0.05    0.03    0.02           0.23     0.27
B3          4.62    3.02    0.72          20.14   25.85   21.14          33.40   39.28           1.15    1.87    2.02    1.43            0.06    0.04    0.01           0.24     0.27
B4          5.17    3.13    0.55          20.56   30.97   25.15          39.89   39.08           1.08    1.96    2.14    1.40            0.07    0.04    0.01           0.28     0.34
B5         12.40   10.66    5.68          39.00   15.31   12.88          20.01   40.07           0.78    1.08    1.15    0.94            0.16    0.14    0.10           0.32     0.37
B6         14.37   10.80    3.76          39.24   27.01   23.82          36.01   41.40           0.68    1.17    1.32    0.90            0.12    0.12    0.06           0.30     0.35
B7         16.70   10.83    2.34          39.30   40.37   34.39          53.03   40.42           0.59    1.32    1.52    0.87            0.10    0.08    0.03           0.24     0.26
B8         19.95   10.98    1.12          39.55   56.27   48.10          74.03   40.53           0.50    1.57    1.83    0.83            0.13    0.10    0.02           0.24     0.26
B9         40.03   39.58   29.25          69.17    5.89    5.31           7.93   42.02           0.34    0.43    0.45    0.39            0.24    0.26    0.23           0.27     0.30
B10        41.91   39.42   25.96          69.06   12.14   10.63          16.13   41.20           0.30    0.45    0.50    0.39            0.15    0.16    0.17           0.22     0.25
B11        44.39   39.70   23.09          69.25   18.60   16.17          24.65   41.01           0.25    0.48    0.55    0.37            0.17    0.20    0.21           0.26     0.30
B12        46.07   39.79   21.07          69.32   23.12   20.23          30.73   41.19           0.22    0.50    0.59    0.36            0.11    0.14    0.14           0.24     0.29
B13        67.61   73.79   63.46          88.82   -7.61   -2.51           8.01  198.25           0.18    0.11    0.12    0.14            0.28    0.28    0.24           0.16     0.18
B14        70.90   70.38   61.59          87.18    6.54   -3.52           7.43  331.71           0.12    0.17    0.13    0.15            0.19    0.22    0.19           0.14     0.15
B15        73.49   77.02   53.22          90.33   -1.60   10.53          10.65   98.63           0.10    0.12    0.19    0.11            0.08    0.11    0.09           0.12     0.14
B16        59.54   62.06   50.59          82.94   -0.71    0.69           0.99  136.08           0.20    0.20    0.21    0.21            0.21    0.21    0.18           0.14     0.16
B17        67.57   67.24   51.05          85.62    6.08    4.80           7.75   38.31           0.13    0.19    0.21    0.16            0.13    0.16    0.16           0.15     0.17
B18        64.58   70.87   52.60          87.42   -8.32    6.18          10.37  143.39           0.19    0.13    0.20    0.15            0.27    0.25    0.18           0.19     0.20
B19        62.46   64.87   60.82          84.42   -0.19   -7.53           7.54  268.54           0.20    0.18    0.14    0.19            0.21    0.20    0.16           0.20     0.22
B20         2.73    1.98    0.76          15.36   17.31   12.08          21.11   34.92           1.40    1.94    2.00    1.63            0.03    0.02    0.01           0.23     0.26
B21         8.24    4.82    0.84          26.23   38.19   29.41          48.20   37.59           0.88    1.82    1.96    1.20            0.07    0.04    0.01           0.28     0.32
B22        28.62   24.29   11.57          56.38   21.54   20.88          30.00   44.10           0.42    0.73    0.84    0.57            0.20    0.19    0.13           0.33     0.37
C1          4.30    4.13    2.17          24.09    4.46    9.60          10.58   65.07           1.28    1.43    1.55    1.36            0.07    0.07    0.04           0.23     0.27
C2          4.72    4.26    1.41          24.51    8.36   18.32          20.14   65.47           1.21    1.46    1.73    1.33            0.07    0.06    0.03           0.28     0.33
C3          5.09    4.27    0.79          24.54   12.79   27.45          30.28   65.02           1.15    1.51    1.97    1.32            0.06    0.05    0.01           0.24     0.27
C4          5.40    4.45    0.68          25.09   14.15   30.34          33.48   64.99           1.12    1.51    2.03    1.30            0.07    0.06    0.01           0.27     0.32
C5         23.07   22.00   10.52          54.03    8.55   20.08          21.82   66.93           0.54    0.71    0.88    0.63            0.19    0.19    0.12           0.25     0.28
C6         25.07   21.99    5.34          54.01   17.32   40.44          44.00   66.81           0.47    0.77    1.16    0.62            0.17    0.17    0.07           0.30     0.35
C7         27.45   22.14    2.32          54.17   26.46   60.18          65.74   66.27           0.40    0.84    1.50    0.60            0.15    0.14    0.03           0.22     0.25
C8         28.99   22.19    1.10          54.23   32.24   73.61          80.36   66.35           0.37    0.89    1.82    0.58            0.15    0.16    0.01           0.23     0.28
C9         46.80   47.00   31.93          74.19    4.19    9.77          10.63   66.80           0.28    0.35    0.41    0.32            0.17    0.18    0.15           0.24     0.27
C10        47.92   46.70   26.18          74.00    8.13   18.77          20.46   66.57           0.24    0.37    0.49    0.31            0.23    0.26    0.23           0.23     0.27
C11        49.62   46.96   21.16          74.16   12.03   28.39          30.83   67.03           0.21    0.39    0.58    0.30            0.16    0.16    0.13           0.24     0.27
C12        50.90   47.27   18.44          74.36   14.61   34.43          37.40   67.01           0.19    0.40    0.64    0.30            0.13    0.18    0.20           0.27     0.34
C13        60.06   68.15   62.57          86.08  -13.00   -6.37          14.48  206.12           0.26    0.12    0.12    0.18            0.26    0.23    0.18           0.23     0.26
C14        65.25   61.51   58.68          82.65   13.76   -8.43          16.13  328.50           0.14    0.24    0.16    0.20            0.24    0.30    0.19           0.21     0.28
C15        70.18   73.64   43.20          88.75   -1.75   19.42          19.50   95.14           0.11    0.14    0.28    0.13            0.12    0.14    0.14           0.20     0.22
C16        46.51   48.17   39.28          74.93    0.19    0.62           0.65   73.59           0.31    0.32    0.32    0.32            0.25    0.24    0.18           0.20     0.22
C17        59.31   56.18   40.03          79.72   12.65    7.89          14.91   31.94           0.16    0.29    0.31    0.23            0.23    0.26    0.21           0.19     0.22
C18        54.65   62.67   42.46          83.27  -14.11   10.89          17.82  142.33           0.27    0.17    0.29    0.21            0.29    0.29    0.20           0.24     0.28
C19        51.55   52.79   57.28          77.75    1.69  -15.43          15.53  276.24           0.29    0.27    0.17    0.28            0.24    0.24    0.18           0.22     0.24
C20         1.72    1.45    0.74          12.30    8.72    7.22          11.32   39.63           1.65    1.95    2.01    1.80            0.03    0.03    0.01           0.29     0.33
C21        22.59   16.92    4.68          48.16   31.66   33.80          46.31   46.87           0.48    0.99    1.22    0.71            0.12    0.11    0.05           0.24     0.26
C22        34.09   30.97   16.82          62.48   15.29   17.60          23.31   49.02           0.37    0.58    0.68    0.48            0.17    0.17    0.15           0.23     0.26
D1          3.95    4.12    2.22          24.07   -0.30    9.16           9.17   91.86           1.35    1.39    1.54    1.38            0.04    0.05    0.02           0.23     0.26
D2          3.94    4.11    1.37          24.04   -0.38   18.00          18.00   91.22           1.33    1.40    1.73    1.37            0.07    0.07    0.02           0.25     0.28
D3          4.16    4.35    0.84          24.79   -0.40   26.97          26.98   90.85           1.30    1.39    1.93    1.34            0.06    0.06    0.01           0.27     0.30
D4          4.29    4.52    0.75          25.33   -1.03   29.48          29.50   92.00           1.29    1.37    1.98    1.32            0.04    0.04    0.01           0.21     0.25
D5         25.77   26.88   13.44          58.86   -0.60   19.85          19.86   91.73           0.53    0.58    0.77    0.56            0.17    0.17    0.11           0.23     0.26
D6         26.00   27.21    7.35          59.16   -0.95   40.29          40.30   91.35           0.51    0.59    1.02    0.55            0.14    0.14    0.07           0.22     0.25
D7         25.57   26.90    3.54          58.88   -1.53   59.11          59.13   91.48           0.51    0.61    1.32    0.55            0.10    0.11    0.03           0.21     0.23
D8         25.44   26.94    1.45          58.92   -2.23   77.19          77.22   91.65           0.53    0.62    1.72    0.55            0.18    0.17    0.01           0.26     0.31
D9         52.86   54.99   37.23          79.03   -0.40   10.45          10.46   92.20           0.24    0.26    0.34    0.26            0.26    0.26    0.20           0.21     0.24
D10        53.15   55.24   29.97          79.18   -0.27   21.41          21.41   90.72           0.22    0.27    0.43    0.25            0.23    0.22    0.12           0.20     0.22
D11        52.65   54.94   24.07          79.01   -0.83   31.18          31.19   91.53           0.22    0.28    0.52    0.25            0.24    0.23    0.23           0.27     0.33
D12        52.73   55.31   10.98          79.22   -1.53   62.08          62.10   91.41           0.21    0.30    0.85    0.24            0.23    0.23    0.15           0.25     0.31
D13        51.57   61.36   61.18          82.57  -19.02  -11.06          22.00  210.19           0.36    0.15    0.13    0.24            0.23    0.22    0.14           0.19     0.22
D14        59.77   53.30   55.55          78.05   20.93  -13.12          24.70  327.92           0.17    0.33    0.18    0.26            0.21    0.26    0.16           0.24     0.27
D15        67.26   70.48   34.90          87.23   -1.52   27.87          27.91   93.13           0.12    0.17    0.37    0.14            0.18    0.19    0.16           0.21     0.26
D16        34.95   36.33   29.90          66.77   -0.26    0.12           0.31  154.34           0.43    0.44    0.44    0.44            0.17    0.17    0.14           0.20     0.23
D17        52.12   46.91   31.00          74.13   18.78   11.09          21.81   30.56           0.19    0.40    0.42    0.30            0.18    0.21    0.15           0.24     0.28
D18        44.53   54.00   33.78          78.46  -20.68   14.37          25.18  145.20           0.38    0.22    0.38    0.28            0.28    0.28    0.19           0.27     0.30
D19        41.13   41.69   53.26          70.66    2.84  -23.42          23.59  276.91           0.41    0.36    0.20    0.39            0.24    0.25    0.17           0.22     0.25
D20        13.76   10.40    2.66          38.55   26.18   30.43          40.15   49.29           0.69    1.19    1.46    0.92            0.10    0.08    0.03           0.16     0.20
D21        21.01   20.31   11.30          52.19    6.94   14.48          16.06   64.40           0.59    0.73    0.85    0.67            0.14    0.15    0.12           0.25     0.28
D22        37.61   35.88   19.59          66.43   10.03   18.28          20.85   61.25           0.34    0.50    0.62    0.42            0.15    0.14    0.12           0.19     0.20
E1          3.62    4.12    2.23          24.05   -5.22    9.00          10.41  120.12           1.42    1.35    1.53    1.39            0.03    0.04    0.02           0.19     0.21
E2          3.39    4.18    1.45          24.27   -9.83   17.38          19.97  119.49           1.47    1.33    1.70    1.39            0.04    0.05    0.01           0.22     0.27
E3          3.25    4.41    0.93          24.99  -15.18   25.89          30.01  120.38           1.53    1.28    1.89    1.37            0.03    0.05    0.01           0.21     0.24
E4          3.26    4.55    0.82          25.42  -16.89   28.33          32.98  120.81           1.54    1.26    1.94    1.36            0.05    0.07    0.02           0.20     0.25
E5         12.21   13.83    7.39          43.98   -7.47   13.92          15.80  118.21           0.89    0.83    1.03    0.86            0.10    0.12    0.08           0.29     0.33
E6         10.99   13.73    4.45          43.84  -15.48   27.59          31.64  119.30           0.96    0.81    1.23    0.87            0.11    0.11    0.05           0.26     0.30
E7          9.95   13.62    2.44          43.68  -22.69   41.02          46.87  118.95           1.04    0.80    1.47    0.88            0.07    0.09    0.02           0.18     0.21
E8          9.28   13.96    1.28          44.17  -30.20   53.88          61.76  119.27           1.14    0.77    1.76    0.87            0.06    0.08    0.01           0.18     0.20
E9         36.56   39.28   27.30          68.96   -4.29    8.16           9.22  117.77           0.41    0.40    0.48    0.41            0.24    0.24    0.15           0.24     0.27
E10        35.33   39.31   22.87          68.98   -8.49   16.11          18.21  117.80           0.43    0.39    0.55    0.41            0.22    0.20    0.13           0.25     0.30
E11        33.89   39.13   19.14          68.85  -12.88   23.41          26.72  118.81           0.46    0.38    0.62    0.41            0.24    0.25    0.15           0.26     0.29
E12        30.79   39.37   10.89          69.02  -24.69   44.77          51.13  118.88           0.53    0.36    0.85    0.41            0.21    0.20    0.15           0.35     0.39
E13        44.80   55.64   59.98          79.41  -23.98  -15.32          28.46  212.56           0.46    0.17    0.14    0.29            0.23    0.22    0.14           0.19     0.23
E14        54.35   45.63   52.16          73.30   28.11  -17.67          33.20  327.84           0.20    0.42    0.21    0.32            0.19    0.23    0.20           0.21     0.26
E15        64.54   67.34   27.27          85.68   -0.88   37.03          37.04   91.37           0.13    0.19    0.47    0.16            0.14    0.15    0.13           0.15     0.17
E16        26.02   26.99   22.17          58.97   -0.03    0.21           0.27  139.00           0.56    0.57    0.57    0.57            0.18    0.17    0.13           0.25     0.27
E17        45.64   38.81   23.29          68.61   24.96   14.71          28.97   30.51           0.23    0.52    0.55    0.38            0.21    0.22    0.18           0.24     0.28
E18        36.44   46.62   26.03          73.95  -26.20   18.93          32.33  144.15           0.49    0.27    0.49    0.35            0.21    0.22    0.21           0.25     0.28
E19        32.63   32.31   49.08          63.60    5.34  -30.96          31.42  279.79           0.53    0.47    0.24    0.51            0.22    0.19    0.15           0.28     0.32
E20        24.01   16.40    1.23          47.49   40.89   60.23          72.80   55.82           0.43    1.11    1.77    0.70            0.10    0.09    0.01           0.21     0.24
E21        16.62   13.72    2.63          43.83   20.40   39.77          44.70   62.85           0.63    1.02    1.46    0.81            0.13    0.11    0.03           0.19     0.23
E22        29.15   25.04    7.81          57.12   20.42   34.93          40.46   59.68           0.40    0.72    1.00    0.56            0.12    0.11    0.06           0.18     0.19
F1          1.40    1.79    1.33          14.35   -8.73    1.82           8.93  168.21           1.92    1.66    1.76    1.77            0.02    0.03    0.03           0.29     0.32
F2          1.14    1.81    1.06          14.44  -17.13    5.64          18.04  161.79           2.12    1.60    1.84    1.79            0.02    0.02    0.01           0.24     0.27
F3          1.02    1.97    0.99          15.33  -25.23    8.26          26.55  161.88           2.30    1.52    1.87    1.77            0.02    0.03    0.01           0.24     0.28
F4          1.05    2.18    1.04          16.40  -28.72    9.29          30.19  162.08           2.35    1.46    1.84    1.73            0.01    0.03    0.01           0.25     0.30
F5          6.40    8.02    5.67          34.02  -13.16    4.31          13.85  161.86           1.24    1.02    1.14    1.12            0.07    0.08    0.05           0.23     0.25
F6          5.19    7.99    4.80          33.96  -26.59    8.65          27.96  161.99           1.45    0.97    1.21    1.14            0.04    0.06    0.06           0.26     0.30
F7          4.19    7.97    3.99          33.92  -39.36   13.24          41.53  161.40           1.72    0.92    1.28    1.16            0.03    0.06    0.05           0.24     0.29
F8          3.16    8.01    3.17          34.01  -55.48   18.75          58.56  161.32           2.20    0.86    1.36    1.18            0.02    0.03    0.03           0.20     0.24
F9         36.18   39.33   31.03          68.99   -5.69    2.18           6.09  159.05           0.43    0.39    0.42    0.41            0.23    0.23    0.20           0.24     0.26
F10        34.67   39.40   29.92          69.04  -11.02    4.01          11.72  159.99           0.47    0.37    0.44    0.42            0.21    0.23    0.19           0.24     0.27
F11        33.17   39.55   28.93          69.14  -16.67    5.78          17.65  160.87           0.51    0.35    0.45    0.42            0.14    0.16    0.21           0.19     0.23
F12        28.25   39.43   25.31          69.06  -34.56   11.78          36.51  161.18           0.66    0.30    0.50    0.44            0.18    0.18    0.19           0.24     0.28
F13        38.18   49.63   58.23          75.84  -28.72  -19.71          34.83  214.45           0.58    0.20    0.15    0.35            0.13    0.14    0.11           0.16     0.19
F14        48.83   38.21   48.37          68.17   35.73  -22.25          42.10  328.09           0.23    0.53    0.25    0.39            0.13    0.16    0.12           0.21     0.26
F15        62.29   64.57   21.32          84.26    0.07   45.48          45.48   89.91           0.14    0.22    0.57    0.17            0.19    0.21    0.17           0.23     0.28
F16        18.65   19.27   16.11          51.00    0.36   -0.51           0.65  305.11           0.70    0.71    0.70    0.72            0.09    0.10    0.11           0.23     0.28
F17        39.81   31.66   17.06          63.06   31.54   18.05          36.34   29.78           0.27    0.65    0.68    0.45            0.12    0.14    0.14           0.26     0.29
