targets/wolf_faust/reflective/R141109WhiteBacking.it8
IT8.7/2
ORIGINATOR "Wolf Faust"
DESCRIPTOR "Kodak Professional Paper, L* a* b* (light D50, viewing angle 2)"
MANUFACTURER "Wolf Faust - http://www.coloraid.de"
CREATED "December 11, 2014"
PROD_DATE "2014:11"
SAMPLE_BACKING "white"
SERIAL "5x7 R141109 Batch Average Data"
MATERIAL "Kodak Professional Endura Premier"
NUMBER_OF_FIELDS 9
BEGIN_DATA_FORMAT
SAMPLE_ID  XYZ_X   XYZ_Y   XYZ_Z          LAB_L   LAB_A   LAB_B          LAB_C   LAB_H
END_DATA_FORMAT
NUMBER_OF_SETS 288
BEGIN_DATA
A1          3.51    2.95    2.03          19.84   11.28    3.67          11.86   18.04
A2          4.30    2.91    1.67          19.67   23.61    7.03          24.63   16.57 
A3          5.32    3.04    1.50          20.19   34.36    9.77          35.73   15.87
A4          5.73    3.23    1.53          20.96   35.85   10.77          37.44   16.71 
A5         12.72   11.12    8.00          39.78   14.07    4.32          14.72   17.09
A6         15.29   11.27    6.96          40.03   29.13    8.91          30.46   17.00 
A7         17.67   11.25    6.02          39.99   42.66   12.99          44.59   16.94
A8         21.26   11.42    5.07          40.28   59.48   18.11          62.17   16.93 
A9         41.25   40.39   31.60          69.75    7.15    2.61           7.62   20.06
A10        43.99   40.77   30.31          70.02   14.14    5.07          15.03   19.73
A11        46.32   40.74   29.22          69.99   20.94    6.76          22.01   17.90
A12        48.69   41.19   28.61          70.31   26.13    8.30          27.42   17.63 
A13        76.31   80.79   65.30          92.04   -3.20    1.28           3.45  158.09
A14        76.75   78.14   64.25          90.84    2.86    0.22           2.87    4.36 
A15        79.56   82.94   65.04          92.99   -0.82    3.17           3.27  104.59
A16        77.40   80.24   64.89          91.79    0.06    1.25           1.26   87.13
A17        79.01   82.14   64.31          92.64   -0.37    3.25           3.28   96.48
A18        78.91   82.44   64.59          92.77   -1.14    3.21           3.41  109.59 
A19        72.22   75.12   63.95          89.45   -0.46   -1.89           1.95  256.26
A20         1.32    1.09    0.76           9.71    8.90    2.33           9.21   14.65 
A21         5.28    3.36    0.87          21.41   28.65   20.72          35.35   35.88
A22        10.33    5.91    0.89          29.17   42.79   33.71          54.47   38.24
B1          3.34    2.95    1.62          19.85    8.44    7.91          11.57   43.14
B2          3.92    2.93    1.06          19.75   17.81   14.77          23.14   39.67
B3          4.75    3.10    0.72          20.44   26.22   21.60          33.97   39.49
B4          5.36    3.25    0.55          21.00   31.37   25.81          40.62   39.45
B5         12.73   10.93    5.74          39.46   15.53   13.37          20.50   40.73
B6         14.83   11.12    3.85          39.78   27.43   24.18          36.57   41.39
B7         17.30   11.21    2.40          39.92   40.93   34.92          53.80   40.47
B8         20.61   11.34    1.14          40.14   56.97   48.86          75.05   40.62
B9         41.17   40.65   29.63          69.93    6.12    6.00           8.57   44.46
B10        43.20   40.54   26.33          69.85   12.54   11.37          16.93   42.19
B11        45.71   40.75   23.32          70.00   19.15   17.03          25.63   41.65
B12        47.62   40.98   21.36          70.16   23.83   21.09          31.82   41.51
B13        69.95   76.28   64.63          89.99   -7.56   -1.62           7.74  192.06
B14        73.37   72.67   62.58          88.29    6.96   -2.58           7.42  339.68
B15        76.14   79.63   54.13          91.52   -1.29   11.59          11.67   96.34
B16        61.42   63.92   51.35          83.93   -0.50    1.53           1.61  108.07
B17        69.93   69.42   51.93          86.71    6.51    5.71           8.66   41.23
B18        66.63   73.06   53.41          88.48   -8.28    7.13          10.93  139.28
B19        64.51   66.90   61.83          85.45    0.02   -6.74           6.74  270.16
B20         2.81    2.02    0.77          15.61   17.58   12.38          21.50   35.15
B21         8.49    4.97    0.85          26.64   38.63   29.94          48.87   37.78
B22        29.51   24.98   11.75          57.06   22.06   21.52          30.82   44.28
C1          4.36    4.18    2.20          24.26    4.56    9.70          10.72   64.83
C2          4.83    4.34    1.42          24.78    8.49   18.67          20.51   65.55
C3          5.26    4.40    0.80          24.96   13.00   27.95          30.83   65.05
C4          5.52    4.55    0.70          25.40   14.30   30.67          33.84   64.99
C5         23.67   22.53   10.69          54.59    8.84   20.49          22.32   66.66
C6         25.82   22.60    5.42          54.65   17.75   41.10          44.77   66.64
C7         28.25   22.71    2.35          54.77   27.02   60.91          66.64   66.08
C8         29.86   22.80    1.13          54.87   32.82   74.38          81.30   66.19
C9         48.26   48.36   32.43          75.05    4.53   10.48          11.42   66.63
C10        49.43   48.05   26.55          74.85    8.56   19.60          21.38   66.41
C11        51.25   48.35   21.48          75.05   12.56   29.29          31.87   66.79
C12        52.57   48.63   18.72          75.22   15.25   35.30          38.45   66.63
C13        61.94   70.28   63.63          87.14  -13.14   -5.57          14.28  202.98
C14        67.48   63.43   59.62          83.67   14.30   -7.61          16.20  331.97
C15        72.81   76.22   43.94          89.96   -1.42   20.59          20.64   93.94
C16        47.91   49.54   39.90          75.79    0.38    1.28           1.34   73.70
C17        61.26   57.87   40.64          80.67   13.18    8.73          15.81   33.53
C18        56.32   64.55   43.14          84.25  -14.15   11.73          18.38  140.36
C19        53.00   54.23   58.17          78.60    1.85  -14.90          15.01  277.06
C20         1.77    1.49    0.75          12.53    8.85    7.44          11.56   40.07
C21        23.32   17.43    4.74          48.80   32.19   34.53          47.21   47.00
C22        35.10   31.81   17.04          63.18   15.69   18.32          24.12   49.42
D1          4.05    4.22    2.26          24.38   -0.21    9.31           9.31   91.30
D2          4.06    4.23    1.40          24.42   -0.34   18.32          18.32   91.06
D3          4.26    4.44    0.85          25.08   -0.35   27.29          27.29   90.73
D4          4.38    4.62    0.77          25.62   -1.04   29.67          29.69   92.00
D5         26.52   27.58   13.63          59.51   -0.33   20.45          20.45   90.93
D6         26.77   27.95    7.49          59.84   -0.73   40.87          40.87   91.03
D7         26.28   27.61    3.61          59.54   -1.40   59.74          59.76   91.35
D8         26.08   27.58    1.48          59.51   -2.11   77.83          77.86   91.55
D9         54.51   56.60   37.71          79.95   -0.15   11.38          11.39   90.73
D10        54.88   56.89   30.38          80.12    0.07   22.38          22.38   89.81
D11        54.41   56.65   24.43          79.98   -0.52   32.18          32.19   90.93
D12        54.56   57.07   11.20          80.22   -1.17   63.11          63.13   91.06
D13        53.16   63.27   62.28          83.58  -19.24  -10.39          21.87  208.37
D14        61.76   54.93   56.39          79.00   21.54  -12.37          24.84  330.13
D15        69.69   72.83   35.46          88.37   -1.16   29.02          29.04   92.28
D16        35.97   37.35   30.39          67.53   -0.13    0.67           0.69  101.76
D17        53.89   48.35   31.41          75.04   19.44   12.03          22.86   31.75
D18        45.81   55.52   34.27          79.34  -20.80   15.17          25.74  143.90
D19        42.22   42.78   54.07          71.40    2.94  -23.01          23.20  277.27
D20        14.23   10.74    2.71          39.14   26.57   31.01          40.84   49.41
D21        21.60   20.84   11.48          52.78    7.20   14.97          16.61   64.32
D22        38.80   36.91   19.89          67.21   10.46   19.00          21.69   61.16
E1          3.70    4.20    2.28          24.31   -5.14    9.05          10.41  119.60
E2          3.45    4.26    1.48          24.52   -9.90   17.53          20.13  119.44
E3          3.31    4.50    0.94          25.26  -15.29   26.11          30.26  120.36
E4          3.34    4.66    0.83          25.74  -16.87   28.73          33.32  120.41
E5         12.53   14.16    7.49          44.46   -7.36   14.37          16.15  117.14
E6         11.23   14.03    4.54          44.27  -15.58   27.86          31.92  119.22
E7         10.19   13.93    2.48          44.13  -22.79   41.45          47.30  118.80
E8          9.49   14.25    1.30          44.59  -30.33   54.29          62.19  119.19
E9         37.51   40.26   27.66          69.65   -4.17    8.75           9.70  115.51
E10        36.22   40.27   23.14          69.66   -8.46   16.78          18.80  116.76
E11        34.81   40.15   19.41          69.58  -12.85   24.09          27.30  118.09
E12        31.67   40.43   11.05          69.77  -24.74   45.57          51.85  118.49
E13        45.99   57.17   60.93          80.28  -24.32  -14.77          28.45  211.27
E14        56.07   46.91   52.89          74.13   28.86  -17.05          33.52  329.43
E15        66.89   69.60   27.74          86.80   -0.49   38.18          38.19   90.74
E16        26.76   27.72   22.50          59.63    0.12    0.71           0.74   81.97
E17        47.14   39.93   23.58          69.42   25.68   15.55          30.02   31.20
E18        37.38   47.83   26.40          74.72  -26.43   19.61          32.91  143.42
E19        33.42   33.08   49.73          64.22    5.41  -30.62          31.09  280.03
E20        24.78   16.88    1.25          48.11   41.54   61.03          73.82   55.76
E21        17.07   14.06    2.66          44.33   20.73   40.32          45.34   62.79
E22        30.03   25.73    7.93          57.78   20.90   35.60          41.28   59.58
F1          1.45    1.85    1.35          14.69   -8.81    2.15           9.07  166.30
F2          1.16    1.84    1.07          14.63  -17.30    5.79          18.24  161.51
F3          1.04    2.01    1.00          15.56  -25.40    8.42          26.76  161.67
F4          1.07    2.22    1.06          16.62  -28.94    9.41          30.43  161.99
F5          6.57    8.21    5.76          34.42  -13.14    4.60          13.93  160.70
F6          5.28    8.14    4.88          34.27  -26.78    8.74          28.17  161.93
F7          4.30    8.16    4.05          34.30  -39.58   13.53          41.83  161.12
F8          3.21    8.14    3.22          34.27  -55.90   18.80          58.98  161.41
F9         37.17   40.36   31.51          69.73   -5.62    2.71           6.24  154.23
F10        35.58   40.42   30.38          69.77  -11.04    4.54          11.93  157.66
F11        34.03   40.55   29.40          69.86  -16.75    6.25          17.88  159.53
F12        28.97   40.43   25.62          69.77  -34.85   12.47          37.01  160.32
F13        39.12   50.92   59.11          76.63  -29.12  -19.24          34.91  213.46
F14        50.37   39.33   49.03          68.99   36.35  -21.60          42.28  329.28
F15        64.57   66.73   21.63          85.37    0.51   46.78          46.78   89.38
F16        19.15   19.77   16.34          51.57    0.46   -0.07           0.48  269.23
F17        41.06   32.56   17.23          63.80   32.17   18.93          37.33   30.48
F18        29.89   40.67   20.22          69.94  -32.05   23.03          39.46  144.29
F19        25.67   24.57   45.12          56.66    8.48  -38.27          39.20  282.50
F20        25.81   24.66   11.56          56.75    8.69   21.56          23.24   68.05
F21        34.01   30.53   10.44          62.11   16.57   34.28          38.07   64.20
F22        38.44   35.68   15.50          66.27   13.38   27.30          30.40   63.90
G1          2.22    2.84    2.54          19.40  -10.29   -1.63          10.42  188.99
G2          1.81    2.83    2.77          19.33  -19.31   -3.60          19.65  190.56
G3          1.65    3.15    3.30          20.62  -29.04   -5.28          29.52  190.30
G4          1.72    3.37    3.58          21.45  -30.86   -5.69          31.38  190.45
G5          8.91   10.93    9.65          39.46  -12.99   -2.17          13.18  189.48
G6          7.49   10.77   10.11          39.19  -24.54   -4.18          24.90  189.67
G7          6.31   10.91   10.85          39.44  -37.50   -6.11          38.00  189.26
G8          4.93   10.83   11.69          39.30  -52.79   -8.91          53.53  189.58
G9         37.24   40.57   33.84          69.87   -6.02   -0.54           6.05  185.08
G10        35.16   40.53   34.49          69.84  -12.81   -1.53          12.90  186.79
G11        33.47   40.69   35.43          69.96  -19.10   -2.68          19.29  187.99
G12        28.12   40.23   37.37          69.63  -37.54   -5.95          38.00  189.00
G13        32.86   44.84   57.07          72.79  -33.46  -23.79          41.05  215.41
G14        45.04   32.69   45.11          63.91   43.50  -25.75          50.55  329.38
G15        62.25   63.64   15.85          83.78    2.06   56.63          56.67   87.92
G16        13.01   13.47   11.09          43.47    0.12    0.10           0.23  149.63
G17        35.76   26.44   11.94          58.45   38.32   23.35          44.88   31.35
G18        23.25   33.93   14.64          64.91  -37.53   27.12          46.31  144.15
G19        19.25   17.61   40.46          49.02   11.94  -45.59          47.13  284.68
G20        35.85   34.28   13.99          65.18    9.60   29.28          30.82   71.84
G21        34.19   32.55    9.04          63.80    9.93   41.90          43.06   76.67
G22        46.63   42.71    2.65          71.36   15.93   87.02          88.47   79.63
H1          2.50    2.91    3.25          19.66   -5.70   -6.56           8.70  229.02
H2          2.18    2.87    4.32          19.53  -11.77  -13.58          17.97  229.07
H3          1.95    2.91    5.55          19.69  -17.58  -19.81          26.49  228.41
H4          2.10    3.25    6.58          21.04  -19.98  -22.21          29.88  228.03
H5          9.45   10.86   11.74          39.35   -8.08   -8.99          12.08  228.04
H6          8.45   10.84   15.15          39.31  -16.31  -18.31          24.52  228.31
H7          7.60   10.89   18.77          39.39  -24.37  -26.59          36.06  227.50
H8          6.68   10.84   24.09          39.32  -33.06  -37.31          49.85  228.46
H9         37.61   40.44   36.38          69.78   -4.45   -4.31           6.19  224.09
H10        36.32   40.43   39.85          69.77   -8.62   -9.02          12.48  226.31
H11        34.82   40.34   44.08          69.71  -13.41  -14.50          19.75  227.23
H12        31.79   40.36   54.89          69.72  -24.08  -26.79          36.02  228.05
H13        27.57   39.34   54.78          69.00  -36.98  -27.92          46.33  217.05
H14        39.98   26.78   41.09          58.77   50.54  -29.61          58.58  329.64
H15        60.34   60.91   11.49          82.33    3.83   65.88          65.99   86.67
H16         8.55    8.89    7.28          35.77   -0.16    0.24           0.32  134.56
H17        31.22   21.44    7.95          53.43   44.08   28.04          52.24   32.46
H18        18.03   28.30   10.43          60.16  -42.35   30.93          52.45  143.86
H19        14.31   12.22   36.04          41.57   16.59  -52.48          55.05  287.54
H20        40.73   40.94   14.81          70.13    3.90   35.68          35.89   83.77
H21        30.78   31.86   20.09          63.22    0.25   11.72          11.72   88.78
H22        34.58   37.61   10.87          67.73   -5.68   42.61          42.98   97.59
I1          4.16    4.24    5.60          24.46    0.94  -11.84          11.88  274.51
I2          4.13    4.15    8.30          24.15    1.81  -23.78          23.85  274.35
I3          4.26    4.24   11.70          24.45    2.39  -34.52          34.61  273.96
I4          4.37    4.27   19.34          24.54    3.59  -53.42          53.54  273.85
I5         13.82   14.15   14.94          44.44    1.16   -8.94           9.01  277.42
I6         14.02   14.32   19.12          44.69    1.31  -18.20          18.25  274.13
I7         13.90   14.14   23.63          44.43    1.72  -27.64          27.69  273.56
I8         14.46   14.54   38.63          44.99    2.77  -50.13          50.21  273.17
I9         39.15   40.51   36.17          69.83    0.29   -3.94           3.95  274.28
I10        39.55   40.81   40.29          70.04    0.61   -9.14           9.16  273.83
I11        39.70   40.81   44.34          70.04    1.08  -14.25          14.29  274.35
I12        39.82   40.65   53.33          69.93    1.96  -24.76          24.84  274.53
I13        22.93   34.19   52.23          65.11  -39.83  -31.87          51.02  218.66
I14        35.15   21.47   37.01          53.46   57.76  -33.32          66.68  330.02
I15        58.47   58.10    7.90          80.80    5.99   75.42          75.65   85.46
I16         5.24    5.47    4.44          28.04   -0.38    0.42           0.58  132.37
I17        27.08   17.16    4.88          48.46   49.58   33.25          59.70   33.84
I18        13.58   23.15    6.99          55.22  -46.85   34.95          58.45  143.28
I19        10.33    7.93   31.56          33.83   22.70  -59.26          63.46  290.96
I20        41.39   45.26   15.46          73.06   -6.70   39.12          39.69   99.71
I21        10.65   14.26    3.36          44.60  -21.36   35.67          41.57  120.91
I22        27.59   35.61   16.62          66.22  -24.92   24.53          34.96  135.45
J1          2.12    1.90    2.92          14.93    6.75  -12.30          14.04  298.77
J2          2.44    1.90    4.86          14.97   13.25  -24.40          27.76  298.50
J3          2.80    1.91    7.81          14.99   20.13  -37.70          42.74  298.11
J4          3.92    1.90   19.32          14.93   38.67  -69.94          79.92  298.94
J5         11.32   11.02   11.84          39.61    5.11   -8.84          10.21  300.05
J6         12.08   11.02   15.53          39.62   10.49  -18.73          21.46  299.25
J7         12.72   10.87   19.63          39.36   15.92  -28.48          32.63  299.21
J8         15.15   11.06   33.95          39.69   29.77  -52.74          60.56  299.44
J9         40.29   40.83   36.98          70.06    2.87   -4.68           5.49  301.57
J10        41.17   40.93   40.14          70.13    5.26   -8.80          10.25  300.86
J11        42.06   40.81   44.17          70.05    8.30  -14.03          16.30  300.62
J12        44.11   41.16   52.49          70.29   13.33  -23.23          26.78  299.85
J13        19.14   29.66   49.67          61.36  -41.77  -35.49          54.81  220.35
J14        30.31   16.65   32.59          47.81   64.90  -36.72          74.57  330.50
J15        56.87   55.52    5.28          79.34    8.36   84.38          84.80   84.34
J16         2.93    3.05    2.52          20.23   -0.05   -0.08           0.21  181.67
J17        23.35   13.60    2.81          43.65   54.51   38.04          66.47   34.91
J18        10.02   18.67    4.53          50.30  -50.73   38.32          63.57  142.93
J19         7.43    4.83   27.18          26.24   30.69  -65.30          72.15  295.17
J20        29.38   38.00   21.70          68.02  -25.71   16.74          30.68  146.93
J21         4.06    7.69    1.44          33.32  -38.71   33.14          50.96  139.43
J22         1.30    2.06    0.93          15.79  -17.89   10.02          20.50  150.75
K1          5.11    4.29    5.13          24.59   12.85   -9.23          15.82  324.33
K2          6.46    4.41    7.25          24.98   26.45  -18.25          32.14  325.40
K3          7.80    4.41    9.79          24.99   39.61  -27.60          48.28  325.14
K4          8.96    4.44   11.84          25.08   49.40  -33.89          59.91  325.55
K5         15.89   14.50   14.62          44.94   11.46   -7.27          13.57  327.61
K6         17.89   14.41   17.99          44.81   23.06  -15.52          27.79  326.07
K7         20.19   14.42   22.00          44.83   34.70  -23.84          42.10  325.52
K8         26.14   14.72   32.26          45.25   59.58  -40.63          72.11  325.71
K9         41.48   40.69   36.12          69.95    6.96   -3.65           7.86  332.32
K10        43.98   41.06   39.82          70.21   13.27   -8.22          15.61  328.22
K11        46.03   40.73   43.08          69.99   20.14  -12.78          23.85  327.60
K12        50.71   41.13   50.29          70.26   31.78  -20.84          38.00  326.74
K13        15.40   24.76   46.15          56.84  -42.68  -39.20          57.95  222.56
K14        25.88   12.76   28.17          42.40   70.80  -39.09          80.87  331.10
K15        54.91   52.46    3.29          77.55   11.18   92.98          93.65   83.14
K16         1.39    1.45    1.25          12.28   -0.34   -0.73           0.82  244.09
K17        19.80   10.61    1.39          38.91   58.31   43.43          72.71   36.68
K18         6.93   14.32    2.65          44.68  -53.68   41.03          67.56  142.61
K19         5.27    2.74   22.73          18.95   39.15  -69.86          80.09  299.27
K20         2.29    3.04    1.89          20.20  -12.37    5.61          13.58  155.59
K21         1.30    1.77    1.52          14.25  -11.40   -0.63          11.42  183.15
K22         1.64    2.15    2.85          16.25  -10.32   -9.54          14.05  222.76
L1          3.59    2.93    2.65          19.77   12.71   -1.91          12.86  351.44
L2          4.54    2.99    2.95          20.00   25.30   -3.82          25.59  351.42
L3          5.61    3.15    3.28          20.64   35.86   -5.09          36.22  351.92
L4          6.16    3.40    3.65          21.58   37.90   -5.92          38.36  351.12
L5         12.98   11.07    9.83          39.69   16.23   -2.40          16.41  351.60
L6         15.65   11.19   10.64          39.90   31.77   -4.66          32.11  351.65
L7         18.60   11.29   11.71          40.07   47.20   -7.63          47.81  350.82
L8         22.35   11.55   12.69          40.50   63.61   -9.75          64.35  351.28
L9         42.32   41.10   34.07          70.24    8.24   -0.23           8.25  358.37
L10        44.36   40.77   34.82          70.01   15.24   -1.71          15.34  353.59
L11        47.11   41.03   36.02          70.20   22.26   -3.09          22.48  352.09
L12        49.73   41.07   36.94          70.23   29.30   -4.32          29.62  351.62
L13        11.88   19.59   41.32          51.37  -41.59  -42.66          59.58  225.73
L14        21.61    9.66   23.59          37.22   74.32  -39.99          84.39  331.72
L15        51.31   47.44    1.74          74.47   15.21  100.76         101.91   81.42
L16         0.54    0.58    0.50           5.22   -0.73   -0.38           0.83  207.75
L17        16.11    7.97    0.54          33.92   60.21   48.25          77.16   38.70
L18         4.17    9.69    1.29          37.28  -54.16   41.85          68.44  142.31
L19         3.74    1.47   18.04          12.43   46.67  -71.46          85.35  303.15
L20         0.74    0.81    0.83           7.29   -1.67   -2.99           3.42  240.79
L21         0.93    0.90    0.94           8.14    2.34   -3.34           4.08  305.06
L22         1.94    1.57    1.34          13.05   10.88   -0.57          10.90  357.01
GS0        79.12   82.52   65.24          92.80   -0.89    2.66           2.80  108.41
GS1        69.21   71.88   57.85          87.91   -0.21    1.49           1.51   97.95
