targets/wolf_faust/reflective/R150502WhiteBacking.it8
IT8.7/2
ORIGINATOR "Wolf Faust"
DESCRIPTOR "Kodak Professional Paper, L* a* b* (light D50, viewing angle 2)"
MANUFACTURER "Wolf Faust - http://www.coloraid.de"
CREATED "July 06, 2015"
PROD_DATE "2015:05"
SAMPLE_BACKING "white"
SERIAL "5x7 R150502 Batch Average Data"
MATERIAL "Kodak Professional Endura Premier"
NUMBER_OF_FIELDS 9
BEGIN_DATA_FORMAT
SAMPLE_ID  XYZ_X   XYZ_Y   XYZ_Z          LAB_L   LAB_A   LAB_B          LAB_C   LAB_H
END_DATA_FORMAT
NUMBER_OF_SETS 288
BEGIN_DATA
A1          3.60    2.96    2.04          19.89   12.38    3.64          12.91   16.37
A2          4.46    2.96    1.66          19.89   24.72    7.55          25.85   16.98 
A3          5.46    3.10    1.43          20.42   35.04   11.02          36.73   17.47
A4          5.79    3.25    1.49          21.00   36.24   11.28          37.96   17.29 
A5         12.95   11.11    7.93          39.76   15.68    4.52          16.32   16.09
A6         15.28   11.22    7.02          39.95   29.37    8.52          30.58   16.17 
A7         17.77   11.33    6.07          40.13   42.63   12.97          44.56   16.93
A8         21.23   11.32    5.01          40.12   60.04   18.16          62.73   16.83 
A9         42.55   41.60   32.33          70.59    7.42    2.95           7.98   21.68
A10        44.79   41.84   31.01          70.76   13.28    5.26          14.29   21.62
A11        47.30   41.69   29.88          70.66   20.83    6.85          21.93   18.21
A12        49.68   42.06   28.74          70.91   26.23    9.13          27.78   19.20 
A13        76.95   81.32   67.17          92.28   -2.92   -0.05           2.92  181.02
A14        77.76   79.36   66.38          91.40    2.49   -0.84           2.62  341.34 
A15        79.60   82.98   65.97          93.01   -0.80    2.33           2.46  108.97
A16        79.55   82.53   67.13          92.81   -0.04    0.90           0.90   92.71
A17        78.73   81.60   64.64          92.40    0.10    2.53           2.53   87.72
A18        78.96   82.57   65.97          92.83   -1.30    2.02           2.40  122.76 
A19        74.49   77.48   66.20          90.54   -0.45   -2.14           2.19  258.10
A20         1.33    1.06    0.72           9.47   10.21    2.69          10.56   14.76 
A21         5.43    3.40    0.78          21.59   29.65   22.45          37.19   37.14
A22        10.60    6.03    0.84          29.48   43.52   35.03          55.87   38.83
B1          3.38    2.91    1.53          19.69    9.89    8.58          13.09   40.93
B2          3.96    2.92    0.98          19.70   18.67   15.96          24.56   40.52
B3          4.90    3.17    0.70          20.72   26.94   22.41          35.04   39.76
B4          5.60    3.29    0.46          21.16   33.45   27.82          43.50   39.75
B5         13.24   11.31    5.85          40.10   16.16   13.93          21.34   40.76
B6         15.04   11.26    3.88          40.01   27.74   24.39          36.93   41.32
B7         17.62   11.29    2.24          40.07   42.06   36.55          55.72   40.99
B8         20.76   11.42    1.07          40.28   57.08   50.05          75.92   41.25
B9         42.39   41.77   30.42          70.71    6.43    6.11           8.87   43.51
B10        44.25   41.53   26.70          70.54   12.62   11.91          17.35   43.35
B11        46.65   41.87   24.05          70.78   18.46   17.03          25.12   42.69
B12        48.43   41.63   21.51          70.62   24.11   21.58          32.36   41.82
B13        71.99   77.82   66.62          90.70   -6.30   -2.27           6.70  199.78
B14        74.76   74.42   64.87          89.12    6.25   -3.34           7.09  331.87
B15        76.93   80.47   56.02          91.89   -1.32   10.25          10.34   97.35
B16        64.47   66.85   54.01          85.43    0.03    1.22           1.23   88.98
B17        71.60   71.49   54.29          87.72    5.69    4.88           7.50   40.61
B18        69.08   75.08   55.60          89.43   -7.04    6.44           9.55  137.56
B19        67.33   69.55   64.27          86.78    0.59   -6.81           6.84  274.96
B20         2.89    2.04    0.73          15.70   18.66   13.31          22.93   35.49
B21         8.65    5.03    0.81          26.82   39.30   30.96          50.04   38.23
B22        30.16   25.62   12.15          57.67   21.88   21.42          30.62   44.39
C1          4.60    4.39    2.23          24.91    5.00   10.48          11.61   64.49
C2          4.88    4.35    1.35          24.79    9.06   19.52          21.52   65.10
C3          5.32    4.41    0.77          24.98   13.66   28.49          31.59   64.39
C4          5.78    4.73    0.63          25.96   14.85   32.84          36.04   65.67
C5         24.62   23.35   10.86          55.43    9.29   21.43          23.36   66.57
C6         26.58   23.24    5.56          55.32   18.00   41.57          45.30   66.58
C7         28.63   23.10    2.32          55.18   26.74   61.89          67.43   66.63
C8         30.50   23.35    1.09          55.43   32.79   75.86          82.64   66.63
C9         49.24   49.63   33.24          75.84    3.80   10.64          11.30   70.36
C10        50.72   49.40   27.07          75.70    8.36   20.17          21.84   67.49
C11        52.38   49.47   22.30          75.74   12.53   28.87          31.47   66.54
C12        53.37   49.22   18.53          75.59   15.73   36.35          39.61   66.60
C13        63.54   71.60   65.77          87.78  -12.19   -6.51          13.83  208.10
C14        69.22   65.38   62.05          84.68   13.73   -8.27          16.03  328.92
C15        74.00   77.52   46.00          90.56   -1.53   19.13          19.19   94.57
C16        50.30   52.06   42.14          77.32    0.27    1.03           1.08   74.96
C17        63.38   60.26   42.80          81.98   12.42    8.23          14.90   33.55
C18        58.19   66.34   45.11          85.17  -13.54   10.90          17.38  141.17
C19        55.21   56.42   60.65          79.85    2.03  -15.23          15.36  277.59
C20         1.71    1.42    0.71          12.10    9.41    7.52          12.04   38.62
C21        23.69   17.73    4.67          49.17   32.24   35.56          48.00   47.81
C22        36.26   32.95   17.79          64.12   15.58   18.21          23.97   49.46
D1          4.17    4.30    2.17          24.63    0.35   10.57          10.58   88.09
D2          4.11    4.24    1.37          24.46    0.25   18.71          18.71   89.24
D3          4.34    4.49    0.83          25.22    0.15   27.94          27.94   89.69
D4          4.65    4.83    0.71          26.25   -0.13   31.92          31.92   90.24
D5         27.63   28.75   14.21          60.56   -0.36   20.72          20.72   91.00
D6         27.42   28.64    7.69          60.47   -0.80   41.16          41.17   91.12
D7         26.93   28.27    3.60          60.13   -1.29   60.85          60.86   91.21
D8         26.97   28.52    1.47          60.35   -2.09   79.37          79.40   91.51
D9         56.11   58.27   39.09          80.89   -0.20   11.14          11.14   91.04
D10        55.76   58.10   30.99          80.79   -0.64   22.59          22.60   91.64
D11        55.86   58.34   25.24          80.93   -0.98   32.37          32.39   91.73
D12        55.13   57.88   11.50          80.67   -1.71   63.00          63.02   91.55
D13        55.50   65.26   64.70          84.62  -17.78  -10.94          20.88  211.60
D14        63.31   56.41   58.60          79.85   21.46  -13.18          25.19  328.44
D15        71.06   74.33   36.86          89.08   -1.28   28.29          28.32   92.60
D16        38.39   39.58   32.03          69.17    0.74    0.95           1.21   52.23
D17        55.59   50.06   32.82          76.11   19.12   11.73          22.44   31.52
D18        48.37   57.99   35.88          80.73  -19.67   15.26          24.89  142.18
D19        44.76   44.92   56.60          72.84    4.21  -23.20          23.58  280.28
D20        14.34   10.80    2.63          39.24   26.83   31.87          41.66   49.90
D21        22.51   21.65   11.89          53.65    7.66   15.24          17.06   63.32
D22        39.78   37.82   20.36          67.89   10.63   19.20          21.95   61.03
E1          3.85    4.31    2.29          24.68   -4.47    9.62          10.61  114.94
E2          3.47    4.27    1.38          24.55   -9.75   18.75          21.14  117.45
E3          3.45    4.60    0.92          25.56  -14.39   27.05          30.64  118.02
E4          3.42    4.75    0.78          26.02  -16.81   30.19          34.56  119.11
E5         13.03   14.71    7.72          45.23   -7.33   14.78          16.50  116.37
E6         11.73   14.48    4.66          44.91  -14.83   28.27          31.93  117.67
E7         10.60   14.45    2.56          44.87  -22.83   42.12          47.91  118.46
E8          9.59   14.39    1.28          44.78  -30.31   54.94          62.75  118.88
E9         38.79   41.46   28.44          70.50   -3.71    8.90           9.64  112.62
E10        37.39   41.52   24.23          70.54   -8.43   16.29          18.34  117.36
E11        36.06   41.46   19.92          70.49  -12.60   24.61          27.64  117.11
E12        32.50   41.36   11.22          70.43  -24.55   46.16          52.28  118.01
E13        47.15   58.23   63.25          80.87  -23.62  -16.02          28.54  214.14
E14        57.50   48.05   54.92          74.86   29.24  -17.97          34.32  328.42
E15        68.22   71.04   28.63          87.50   -0.59   37.93          37.93   90.89
E16        28.01   29.00   23.48          60.78    0.16    0.84           0.86   79.38
E17        48.50   41.20   24.31          70.32   25.59   15.74          30.04   31.60
E18        38.66   49.27   27.51          75.62  -26.22   19.28          32.55  143.67
E19        34.81   34.27   51.94          65.17    6.14  -31.45          32.04  281.04
E20        25.05   17.12    1.20          48.42   41.39   62.27          74.77   56.39
E21        17.53   14.42    2.63          44.82   21.10   41.49          46.55   63.05
E22        30.47   26.11    8.12          58.14   20.98   35.51          41.24   59.43
F1          1.45    1.82    1.24          14.51   -8.07    3.26           8.70  157.98
F2          1.11    1.79    1.04          14.37  -17.88    5.83          18.80  161.94
F3          0.97    1.93    0.95          15.14  -26.24    8.49          27.58  162.07
F4          0.98    2.12    0.98          16.11  -30.13    9.68          31.65  162.20
F5          6.66    8.28    5.75          34.56  -12.84    4.89          13.74  159.16
F6          5.45    8.32    4.89          34.64  -26.39    9.34          28.00  160.52
F7          4.29    8.23    3.97          34.45  -40.25   14.22          42.69  160.53
F8          3.13    8.12    3.16          34.23  -57.02   19.20          60.17  161.39
F9         38.12   41.29   32.24          70.38   -5.36    2.72           6.02  153.13
F10        36.43   41.40   31.04          70.45  -11.20    4.70          12.14  157.25
F11        34.63   41.33   29.69          70.41  -17.05    6.74          18.34  158.45
F12        30.10   41.71   26.17          70.67  -34.40   13.05          36.79  159.23
F13        40.77   52.48   61.75          77.57  -28.03  -20.25          34.58  215.84
F14        51.80   40.38   50.93          69.74   36.91  -22.45          43.20  328.68
F15        65.85   68.04   21.95          86.03    0.54   47.29          47.29   89.35
F16        20.26   20.89   16.89          52.82    0.59    0.80           1.00   53.12
F17        42.24   33.66   17.78          64.69   31.91   19.22          37.25   31.06
F18        31.25   42.15   20.74          70.97  -31.44   23.74          39.40  142.94
F19        27.16   25.76   47.22          57.81    9.62  -38.80          39.97  283.92
F20        26.46   25.22   11.51          57.29    9.03   22.63          24.37   68.25
F21        34.64   31.33   10.62          62.78   15.86   34.86          38.30   65.54
F22        39.07   36.43   15.73          66.85   12.91   27.74          30.60   65.05
G1          2.26    2.87    2.55          19.53  -10.06   -1.53          10.18  188.65
G2          1.74    2.74    2.76          18.96  -19.49   -4.17          19.93  192.08
G3          1.57    3.06    3.23          20.30  -29.68   -5.35          30.16  190.21
G4          1.63    3.30    3.49          21.22  -32.04   -5.51          32.51  189.76
G5          9.06   10.99    9.57          39.56  -12.17   -1.73          12.29  188.09
G6          7.73   11.08   10.37          39.71  -24.58   -4.11          24.92  189.49
G7          6.31   10.94   11.05          39.49  -37.64   -6.65          38.23  190.02
G8          4.91   10.89   11.92          39.39  -53.37   -9.45          54.20  190.04
G9         38.29   41.67   34.64          70.64   -5.96   -0.36           5.97  183.49
G10        36.23   41.75   35.63          70.69  -12.89   -1.69          13.00  187.48
G11        34.04   41.20   35.70          70.32  -18.69   -2.44          18.84  187.43
G12        28.99   41.25   37.89          70.35  -37.24   -5.42          37.64  188.29
G13        34.44   46.40   59.80          73.80  -32.33  -24.82          40.76  217.51
G14        46.40   33.58   46.81          64.62   44.29  -26.55          51.64  329.06
G15        63.69   65.14   16.51          84.55    2.01   56.40          56.44   87.96
G16        14.05   14.50   11.75          44.94    0.44    0.62           0.78   55.12
G17        36.84   27.42   12.43          59.37   37.96   23.53          44.66   31.80
G18        24.60   35.47   15.42          66.11  -36.81   27.22          45.78  143.52
G19        20.59   18.68   42.46          50.31   13.02  -45.93          47.74  285.82
G20        36.56   35.08   14.41          65.81    9.24   29.28          30.70   72.49
G21        35.23   33.63    9.28          64.67    9.74   42.55          43.65   77.11
G22        47.50   43.58    2.70          71.94   15.82   87.70          89.11   79.78
H1          2.46    2.83    3.25          19.36   -5.19   -7.09           8.79  233.83
H2          2.16    2.85    4.24          19.41  -11.65  -13.32          17.70  228.84
H3          1.94    2.91    5.63          19.68  -17.72  -20.22          26.88  228.77
H4          2.06    3.20    6.76          20.84  -20.11  -23.35          30.81  229.27
H5          9.76   11.05   12.05          39.66   -6.89   -9.35          11.62  233.60
H6          8.72   11.14   15.40          39.81  -16.12  -18.06          24.21  228.26
H7          7.80   11.04   19.35          39.64  -23.56  -27.39          36.13  229.30
H8          6.72   10.88   24.51          39.38  -32.99  -37.96          50.29  229.00
H9         38.72   41.61   37.19          70.60   -4.38   -4.03           5.95  222.58
H10        37.59   41.69   40.83          70.66   -8.27   -8.78          12.06  226.71
H11        36.23   41.77   45.31          70.71  -12.97  -14.26          19.28  227.72
H12        32.92   41.96   57.68          70.84  -24.88  -27.77          37.28  228.15
H13        28.77   40.58   57.56          69.88  -36.08  -29.30          46.48  219.08
H14        40.91   27.13   42.27          59.10   52.01  -30.54          60.31  329.58
H15        61.84   62.44   12.07          83.15    3.83   65.56          65.67   86.65
H16         9.07    9.34    7.75          36.62    0.56   -0.19           0.62  261.46
H17        31.87   21.93    8.34          53.95   44.19   27.45          52.02   31.84
H18        18.86   29.36   11.00          61.10  -42.09   30.77          52.14  143.83
H19        15.01   12.66   37.41          42.24   17.93  -53.22          56.16  288.62
H20        41.46   41.75   15.36          70.70    3.70   35.29          35.48   84.01
H21        31.27   32.31   20.35          63.60    0.42   11.82          11.83   87.94
H22        35.81   38.68   11.11          68.52   -4.92   43.22          43.50   96.49
I1          4.23    4.29    5.61          24.61    1.36  -11.60          11.68  276.69
I2          4.28    4.28    8.48          24.59    2.14  -23.72          23.82  275.16
I3          4.33    4.29   11.83          24.61    2.71  -34.65          34.76  274.47
I4          4.37    4.19   19.77          24.28    4.67  -54.76          54.96  274.88
I5         14.36   14.77   15.37          45.32    0.75   -8.51           8.54  275.07
I6         14.39   14.68   19.64          45.19    1.49  -18.45          18.51  274.62
I7         14.41   14.62   24.28          45.11    1.90  -27.65          27.71  273.93
I8         14.80   14.87   40.25          45.45    2.86  -51.49          51.57  273.18
I9         40.87   42.31   37.58          71.08    0.23   -3.73           3.74  273.52
I10        40.75   41.91   41.20          70.81    1.07   -9.00           9.06  276.76
I11        40.49   41.56   45.04          70.56    1.29  -14.20          14.25  275.18
I12        41.00   41.97   55.73          70.85    1.64  -25.73          25.78  273.65
I13        24.14   35.50   55.18          66.13  -38.88  -33.28          51.18  220.56
I14        35.77   21.60   37.76          53.60   59.25  -34.11          68.37  330.07
I15        59.97   59.55    8.21          81.59    6.14   75.58          75.83   85.36
I16         5.59    5.74    4.62          28.73    0.75    0.60           0.99   38.23
I17        27.48   17.43    5.03          48.79   49.76   33.00          59.71   33.55
I18        14.31   24.09    7.31          56.18  -46.40   35.30          58.30  142.74
I19        10.89    8.23   32.62          34.45   24.17  -59.79          64.49  292.01
I20        42.48   46.35   15.87          73.77   -6.50   39.35          39.88   99.37
I21        10.89   14.48    3.38          44.91  -20.89   36.08          41.69  120.07
I22        28.51   36.75   17.24          67.09  -25.04   24.57          35.09  135.54
J1          2.12    1.87    2.94          14.78    7.32  -12.73          14.69  299.91
J2          2.43    1.87    4.85          14.77   13.88  -24.71          28.34  299.32
J3          2.76    1.84    7.72          14.65   20.92  -37.94          43.33  298.86
J4          3.91    1.83   19.60          14.57   39.99  -71.16          81.63  299.33
J5         11.70   11.29   12.13          40.06    5.90   -8.89          10.67  303.55
J6         12.52   11.38   15.90          40.21   10.89  -18.60          21.55  300.34
J7         13.27   11.30   20.16          40.08   16.45  -28.35          32.78  300.12
J8         15.66   11.40   35.10          40.24   30.41  -53.45          61.50  299.63
J9         41.47   41.91   37.42          70.81    3.25   -3.99           5.15  309.21
J10        42.56   42.44   41.52          71.18    4.93   -8.77          10.07  299.33
J11        43.77   42.32   45.45          71.09    8.86  -13.77          16.38  302.74
J12        45.94   42.78   54.84          71.40   13.79  -23.84          27.54  300.05
J13        19.95   30.53   52.32          62.10  -40.92  -37.15          55.27  222.24
J14        31.19   17.10   33.43          48.39   65.71  -36.97          75.40  330.64
J15        58.19   56.70    5.37          80.01    8.71   85.10          85.55   84.15
J16         3.09    3.18    2.55          20.76    0.40    0.58           0.74   56.52
J17        23.72   13.87    2.80          44.05   54.47   38.79          66.87   35.46
J18        10.42   19.23    4.61          50.96  -50.49   39.01          63.80  142.31
J19         7.79    5.05   28.05          26.87   31.31  -65.65          72.74  295.50
J20        30.64   39.29   22.48          68.96  -25.04   16.84          30.17  146.08
J21         4.16    7.88    1.48          33.73  -38.94   33.40          51.30  139.38
J22         1.28    2.06    0.90          15.82  -18.77   10.52          21.51  150.74
K1          5.37    4.47    5.21          25.15   13.59   -8.67          16.12  327.48
K2          6.57    4.40    7.28          24.96   27.69  -18.42          33.26  326.37
K3          8.00    4.45    9.80          25.10   40.91  -27.44          49.26  326.15
K4          9.02    4.47   11.76          25.17   49.50  -33.50          59.77  325.92
K5         16.32   14.83   14.97          45.41   11.88   -7.34          13.97  328.27
K6         18.53   14.94   18.56          45.55   23.20  -15.51          27.91  326.25
K7         20.53   14.67   22.25          45.18   34.86  -23.72          42.17  325.77
K8         26.48   14.79   32.81          45.34   60.58  -41.30          73.32  325.72
K9         42.90   42.12   37.17          70.96    6.89   -3.39           7.68  333.80
K10        45.78   42.87   41.19          71.47   13.05   -7.84          15.22  328.99
K11        47.93   42.82   44.69          71.43   19.20  -12.27          22.79  327.42
K12        52.48   42.36   52.30          71.12   32.72  -21.59          39.20  326.58
K13        16.20   25.65   48.81          57.70  -41.79  -40.81          58.42  224.32
K14        26.74   13.24   28.86          43.13   71.19  -38.97          81.16  331.30
K15        56.39   53.79    3.41          78.34   11.49   93.50          94.20   82.99
K16         1.48    1.54    1.29          12.86   -0.04   -0.23           0.28  234.14
K17        20.17   10.85    1.40          39.33   58.31   44.02          73.06   37.05
K18         7.27   14.89    2.79          45.48  -53.82   41.31          67.84  142.49
K19         5.50    2.86   23.48          19.49   39.50  -70.36          80.69  299.31
K20         2.30    3.02    1.86          20.13  -11.81    5.78          13.15  153.90
K21         1.26    1.72    1.47          13.93  -11.38   -0.61          11.40  183.06
K22         1.57    2.05    2.73          15.74  -10.22   -9.44          13.91  222.72
L1          3.66    2.94    2.69          19.81   13.70   -2.16          13.87  351.03
L2          4.63    3.00    2.98          20.05   26.38   -3.93          26.67  351.52
L3          5.59    3.12    3.26          20.52   36.10   -5.17          36.47  351.86
L4          6.31    3.46    3.64          21.80   38.57   -5.53          38.97  351.85
L5         13.41   11.35   10.04          40.16   16.98   -2.28          17.13  352.36
L6         15.99   11.38   10.82          40.22   32.40   -4.67          32.73  351.80
L7         18.88   11.38   11.74          40.22   48.06   -7.48          48.64  351.15
L8         22.37   11.43   12.82          40.30   64.57  -10.45          65.41  350.81
L9         43.47   42.25   35.02          71.05    8.20   -0.21           8.20  278.53
L10        45.95   42.35   35.84          71.11   15.08   -1.27          15.13  355.18
L11        48.37   42.17   36.98          70.99   22.33   -3.06          22.54  352.20
L12        51.53   42.89   38.03          71.48   28.68   -3.66          28.91  352.73
L13        12.49   20.31   43.81          52.18  -40.87  -44.39          60.34  227.37
L14        22.20    9.91   23.89          37.68   75.07  -39.77          84.96  332.09
L15        52.97   48.99    1.82          75.45   15.34  101.62         102.77   81.42
L16         0.49    0.52    0.44           4.65   -0.33   -0.27           0.43  219.08
L17        16.38    8.08    0.49          34.16   60.70   49.69          78.44   39.30
L18         4.36   10.16    1.35          38.14  -55.18   42.52          69.66  142.38
L19         3.80    1.45   18.52          12.27   48.21  -72.78          87.30  303.52
L20         0.67    0.73    0.77           6.56   -1.36   -3.21           3.49  246.97
L21         0.93    0.87    0.92           7.88    3.61   -3.46           5.01  316.28
L22         1.94    1.53    1.29          12.81   11.73   -0.38          11.74  318.17
GS0        79.49   82.82   67.02          92.94   -0.74    1.22           1.43  121.16
GS1        70.64   73.36   58.94          88.62   -0.22    1.60           1.62   97.67
