targets/wolf_faust/reflective/R150502.it8
IT8.7/2
ORIGINATOR "Wolf Faust"
DESCRIPTOR "Kodak Professional Paper, L* a* b* (light D50, viewing angle 2)"
MANUFACTURER "Wolf Faust - http://www.coloraid.de"
CREATED "July 06, 2015"
PROD_DATE "2015:05"
SAMPLE_BACKING "black"
SERIAL "5x7 R150502 Batch Average Data"
MATERIAL "Kodak Professional Endura Premier"
KEYWORD "MEAN_DE" # Mean Delta E of samples compared to batch average
NUMBER_OF_FIELDS 18
BEGIN_DATA_FORMAT
SAMPLE_ID  XYZ_X   XYZ_Y   XYZ_Z          LAB_L   LAB_A   LAB_B          LAB_C   LAB_H          D_RED  D_GREEN  D_BLUE  D_VIS          STDEV_X STDEV_Y STDEV_Z        MEAN_DE  STDEV_DE
END_DATA_FORMAT
NUMBER_OF_SETS 288
BEGIN_DATA
A1          3.51    2.89    2.00          19.62   12.14    3.55          12.65   16.29           1.34    1.66    1.60    1.50            0.06    0.05    0.04           0.32     0.38
A2          4.33    2.88    1.64          19.57   24.40    7.20          25.45   16.44           1.19    1.85    1.69    1.46            0.05    0.03    0.05           0.38     0.41 
A3          5.32    3.03    1.43          20.16   34.54   10.64          36.14   17.12           1.08    2.04    1.76    1.41            0.07    0.05    0.04           0.39     0.44
A4          5.62    3.16    1.48          20.68   35.83   10.93          37.46   16.97           1.06    2.05    1.74    1.39            0.04    0.02    0.03           0.33     0.38 
A5         12.57   10.81    7.82          39.26   15.33    4.10          15.87   14.98           0.79    1.06    1.02    0.94            0.16    0.15    0.13           0.37     0.41
A6         14.85   10.92    6.91          39.45   28.97    8.11          30.09   15.64           0.68    1.17    1.07    0.90            0.18    0.15    0.12           0.37     0.41 
A7         17.24   11.01    5.98          39.60   42.04   12.50          43.85   16.56           0.59    1.30    1.14    0.87            0.18    0.14    0.09           0.29     0.31
A8         20.48   10.95    4.95          39.49   59.17   17.38          61.67   16.37           0.51    1.58    1.23    0.84            0.10    0.08    0.09           0.33     0.38 
A9         41.27   40.44   31.82          69.78    7.08    2.33           7.45   18.24           0.33    0.42    0.41    0.38            0.29    0.29    0.28           0.23     0.27
A10        43.31   40.54   30.46          69.86   12.84    4.56          13.63   19.55           0.29    0.44    0.43    0.38            0.23    0.25    0.21           0.20     0.24
A11        45.71   40.42   29.44          69.77   20.18    6.03          21.06   16.63           0.25    0.47    0.45    0.37            0.22    0.25    0.21           0.25     0.29
A12        47.87   40.69   28.25          69.96   25.42    8.30          26.74   18.09           0.22    0.49    0.47    0.36            0.19    0.22    0.22           0.26     0.29 
A13        73.98   78.26   65.61          90.90   -3.03   -0.98           3.19  197.87           0.12    0.10    0.10    0.11            0.16    0.15    0.17           0.10     0.12
A14        74.74   76.41   64.87          90.05    2.19   -1.74           2.80  321.62           0.10    0.12    0.11    0.12            0.19    0.20    0.19           0.11     0.12 
A15        76.50   79.85   64.45          91.62   -1.01    1.36           1.70  126.50           0.10    0.09    0.11    0.10            0.20    0.21    0.20           0.11     0.12
A16        76.54   79.51   65.64          91.46   -0.26   -0.03           0.27  186.54           0.10    0.10    0.10    0.10            0.13    0.14    0.14           0.09     0.10
A17        75.67   78.55   63.21          91.03   -0.15    1.54           1.55   95.54           0.10    0.10    0.12    0.10            0.15    0.15    0.13           0.09     0.10
A18        75.89   79.46   64.45          91.44   -1.48    1.06           1.82  144.33           0.10    0.10    0.11    0.10            0.11    0.12    0.12           0.08     0.09 
A19        71.78   74.75   64.78          89.27   -0.62   -2.99           3.05  258.29           0.13    0.12    0.11    0.13            0.11    0.12    0.11           0.13     0.14
A20         1.30    1.03    0.72           9.27   10.06    2.49          10.37   13.90           1.78    2.13    2.03    1.94            0.03    0.02    0.01           0.29     0.33 
A21         5.30    3.33    0.78          21.32   29.23   22.07          36.62   37.05           1.08    1.88    1.99    1.38            0.07    0.05    0.02           0.33     0.36
A22        10.30    5.87    0.83          29.07   42.94   34.48          55.07   38.76           0.78    1.80    1.96    1.11            0.09    0.06    0.01           0.21     0.24
B1          3.29    2.83    1.51          19.36    9.69    8.29          12.75   40.55           1.37    1.65    1.71    1.51            0.04    0.04    0.03           0.28     0.31
B2          3.84    2.83    0.97          19.37   18.37   15.58          24.08   40.31           1.25    1.77    1.89    1.48            0.06    0.04    0.02           0.28     0.31
B3          4.77    3.10    0.70          20.43   26.59   22.04          34.54   39.65           1.13    1.88    2.03    1.42            0.08    0.05    0.02           0.27     0.31
B4          5.42    3.19    0.45          20.77   32.99   27.23          42.78   39.54           1.06    2.01    2.22    1.38            0.05    0.03    0.00           0.23     0.26
B5         12.86   11.01    5.77          39.59   15.84   13.48          20.80   40.39           0.77    1.07    1.14    0.92            0.17    0.16    0.12           0.30     0.35
B6         14.61   10.96    3.82          39.51   27.28   23.91          36.28   41.24           0.67    1.17    1.31    0.90            0.17    0.14    0.08           0.35     0.39
B7         17.06   10.96    2.19          39.51   41.42   36.05          54.92   41.03           0.58    1.33    1.54    0.87            0.16    0.12    0.05           0.30     0.35
B8         20.05   11.06    1.06          39.69   56.18   49.19          74.67   41.20           0.50    1.57    1.85    0.83            0.07    0.06    0.02           0.20     0.24
B9         41.08   40.59   29.97          69.88    6.05    5.38           8.09   41.64           0.33    0.42    0.44    0.38            0.29    0.30    0.32           0.24     0.28
B10        42.76   40.25   26.26          69.65   12.12   11.13          16.46   42.55           0.29    0.45    0.49    0.38            0.22    0.22    0.19           0.20     0.22
B11        45.03   40.56   23.66          69.87   17.79   16.16          24.04   42.25           0.25    0.47    0.54    0.36            0.17    0.19    0.17           0.25     0.29
B12        46.69   40.30   21.20          69.68   23.30   20.59          31.10   41.46           0.22    0.50    0.58    0.36            0.15    0.19    0.15           0.23     0.29
B13        69.30   74.95   65.10          89.37   -6.30   -3.13           7.04  206.44           0.16    0.10    0.11    0.13            0.20    0.19    0.16           0.15     0.17
B14        71.93   71.76   63.49          87.85    5.84   -4.21           7.20  324.24           0.11    0.16    0.12    0.14            0.13    0.14    0.14           0.13     0.15
B15        73.82   77.36   54.79          90.49   -1.59    9.12           9.26   99.89           0.10    0.11    0.18    0.11            0.12    0.13    0.18           0.19     0.25
B16        62.20   64.59   52.94          84.27   -0.19    0.39           0.44  117.90           0.19    0.19    0.20    0.19            0.23    0.23    0.22           0.16     0.18
B17        68.85   68.91   53.19          86.46    5.26    3.89           6.54   36.51           0.12    0.18    0.19    0.16            0.11    0.14    0.16           0.17     0.20
B18        66.53   72.37   54.44          88.15   -7.10    5.46           8.95  142.43           0.17    0.12    0.18    0.14            0.15    0.12    0.16           0.17     0.19
B19        64.91   67.12   62.90          85.56    0.44   -7.59           7.60  273.31           0.18    0.17    0.12    0.18            0.21    0.21    0.14           0.17     0.19
B20         2.82    2.00    0.72          15.46   18.46   13.09          22.63   35.33           1.38    1.96    2.02    1.62            0.04    0.03    0.01           0.26     0.28
B21         8.38    4.88    0.80          26.40   38.77   30.40          49.27   38.10           0.87    1.84    1.98    1.20            0.08    0.05    0.01           0.24     0.27
B22        29.21   24.89   11.98          56.96   21.30   20.67          29.68   44.15           0.41    0.72    0.83    0.56            0.21    0.21    0.13           0.24     0.27
C1          4.48    4.28    2.20          24.58    4.86   10.18          11.28   64.46           1.26    1.42    1.54    1.35            0.08    0.07    0.06           0.34     0.39
C2          4.73    4.23    1.34          24.42    8.86   19.09          21.05   65.10           1.20    1.47    1.75    1.34            0.08    0.07    0.03           0.32     0.36
C3          5.16    4.29    0.76          24.62   13.40   28.04          31.08   64.46           1.14    1.52    1.97    1.31            0.08    0.07    0.02           0.35     0.40
C4          5.61    4.61    0.62          25.58   14.57   32.34          35.47   65.75           1.10    1.50    2.06    1.28            0.07    0.06    0.01           0.37     0.42
C5         23.86   22.69   10.69          54.75    8.96   20.77          22.62   66.68           0.53    0.70    0.87    0.62            0.17    0.17    0.15           0.30     0.34
C6         25.73   22.57    5.47          54.62   17.48   40.81          44.39   66.81           0.46    0.76    1.15    0.60            0.22    0.21    0.08           0.27     0.30
C7         27.67   22.42    2.28          54.46   26.09   60.99          66.34   66.84           0.40    0.83    1.50    0.59            0.22    0.21    0.03           0.27     0.30
C8         29.45   22.63    1.07          54.68   32.05   74.85          81.43   66.82           0.36    0.88    1.83    0.58            0.16    0.16    0.01           0.27     0.31
C9         47.60   48.08   32.68          74.88    3.46    9.81          10.40   70.56           0.27    0.34    0.40    0.31            0.18    0.18    0.18           0.19     0.22
C10        48.94   47.80   26.58          74.70    7.90   19.28          20.84   67.71           0.24    0.36    0.49    0.30            0.22    0.22    0.17           0.23     0.26
C11        50.49   47.86   21.92          74.74   11.91   27.88          30.32   66.87           0.21    0.38    0.57    0.30            0.21    0.26    0.20           0.27     0.31
C12        51.46   47.67   18.27          74.62   14.99   35.26          38.31   66.97           0.18    0.40    0.64    0.29            0.12    0.14    0.16           0.25     0.31
C13        61.32   69.06   64.30          86.53  -11.98   -7.26          14.01  211.23           0.24    0.12    0.11    0.18            0.22    0.19    0.15           0.15     0.17
C14        66.62   63.12   60.74          83.51   13.12   -9.01          15.92  325.52           0.13    0.23    0.14    0.19            0.13    0.19    0.15           0.19     0.23
C15        71.01   74.54   45.04          89.18   -1.84   17.90          17.99   95.87           0.11    0.13    0.26    0.12            0.14    0.15    0.18           0.17     0.22
C16        48.61   50.38   41.32          76.30    0.09    0.32           0.38   74.24           0.29    0.30    0.30    0.30            0.27    0.27    0.30           0.27     0.30
C17        61.06   58.24   42.00          80.87   11.83    7.34          13.92   31.79           0.15    0.28    0.30    0.22            0.14    0.19    0.22           0.23     0.27
C18        56.21   64.11   44.24          84.02  -13.44    9.98          16.75  143.40           0.26    0.16    0.27    0.20            0.23    0.22    0.14           0.24     0.28
C19        53.39   54.60   59.35          78.81    1.92  -15.73          15.84  276.95           0.28    0.25    0.15    0.27            0.22    0.23    0.16           0.26     0.30
C20         1.67    1.39    0.70          11.88    9.20    7.29          11.74   38.39           1.66    1.98    2.03    1.81            0.03    0.03    0.01           0.28     0.33
C21        22.91   17.21    4.60          48.52   31.60   34.84          47.04   47.79           0.47    0.98    1.23    0.70            0.19    0.17    0.06           0.26     0.30
C22        35.13   32.01   17.54          63.35   15.08   17.46          23.07   49.18           0.35    0.57    0.66    0.47            0.19    0.19    0.16           0.29     0.32
D1          4.05    4.19    2.15          24.28    0.22   10.21          10.21   88.78           1.33    1.39    1.55    1.37            0.06    0.07    0.04           0.35     0.39
D2          4.00    4.14    1.35          24.13    0.15   18.44          18.44   89.53           1.32    1.40    1.74    1.37            0.05    0.06    0.03           0.29     0.38
D3          4.22    4.37    0.82          24.87   -0.01   27.56          27.56   90.02           1.29    1.39    1.94    1.34            0.07    0.08    0.02           0.32     0.39
D4          4.53    4.72    0.70          25.91   -0.23   31.54          31.54   90.42           1.26    1.36    2.00    1.30            0.05    0.06    0.01           0.30     0.34
D5         26.80   27.95   13.98          59.84   -0.61   20.10          20.11   91.75           0.51    0.57    0.76    0.54            0.19    0.21    0.13           0.27     0.29
D6         26.56   27.79    7.53          59.70   -0.96   40.48          40.49   91.35           0.50    0.58    1.01    0.54            0.16    0.18    0.08           0.27     0.30
D7         26.10   27.43    3.52          59.37   -1.46   60.08          60.10   91.39           0.50    0.60    1.32    0.54            0.22    0.23    0.06           0.28     0.31
D8         26.16   27.72    1.45          59.64   -2.33   78.46          78.50   91.70           0.51    0.61    1.71    0.53            0.16    0.18    0.01           0.24     0.26
D9         54.19   56.39   38.45          79.83   -0.45   10.18          10.19   92.52           0.23    0.25    0.33    0.24            0.23    0.23    0.25           0.19     0.22
D10        53.82   56.20   30.43          79.73   -0.94   21.63          21.65   92.50           0.22    0.26    0.43    0.24            0.15    0.16    0.16           0.20     0.22
D11        53.86   56.40   24.80          79.84   -1.31   31.28          31.30   92.40           0.21    0.27    0.51    0.24            0.15    0.16    0.14           0.17     0.20
D12        53.05   55.87   11.32          79.54   -2.09   61.57          61.60   91.94           0.21    0.29    0.84    0.23            0.15    0.14    0.08           0.21     0.25
D13        53.63   63.00   63.21          83.44  -17.42  -11.55          20.90  213.54           0.34    0.14    0.12    0.22            0.24    0.22    0.16           0.19     0.23
D14        61.03   54.58   57.44          78.80   20.69  -13.81          24.87  326.28           0.16    0.32    0.17    0.25            0.12    0.21    0.13           0.29     0.35
D15        68.28   71.60   36.12          87.78   -1.65   27.08          27.13   93.49           0.12    0.16    0.35    0.14            0.11    0.11    0.22           0.22     0.29
D16        37.29   38.49   31.60          68.38    0.57    0.25           0.64   63.03           0.40    0.41    0.42    0.41            0.29    0.29    0.28           0.26     0.29
D17        53.56   48.41   32.28          75.08   18.42   10.76          21.33   30.29           0.18    0.38    0.41    0.29            0.14    0.21    0.16           0.27     0.31
D18        46.75   56.07   35.23          79.65  -19.49   14.32          24.18  143.70           0.35    0.20    0.36    0.26            0.21    0.18    0.22           0.28     0.32
D19        43.26   43.44   55.40          71.85    4.11  -23.66          24.01  279.86           0.38    0.35    0.18    0.37            0.21    0.24    0.18           0.25     0.29
D20        13.91   10.49    2.59          38.71   26.38   31.25          40.90   49.83           0.69    1.20    1.47    0.91            0.14    0.13    0.05           0.32     0.38
D21        21.85   21.05   11.74          53.01    7.40   14.57          16.35   63.06           0.58    0.72    0.83    0.66            0.23    0.23    0.15           0.31     0.35
D22        38.49   36.72   20.03          67.06   10.11   18.45          21.04   61.28           0.33    0.49    0.61    0.41            0.19    0.20    0.14           0.23     0.26
E1          3.76    4.22    2.26          24.38   -4.52    9.36          10.40  115.79           1.40    1.35    1.53    1.38            0.06    0.08    0.06           0.39     0.45
E2          3.38    4.17    1.37          24.22   -9.81   18.38          20.83  118.08           1.46    1.33    1.73    1.39            0.05    0.08    0.03           0.37     0.44
E3          3.37    4.50    0.90          25.25  -14.34   26.71          30.32  118.22           1.50    1.28    1.89    1.36            0.06    0.09    0.02           0.38     0.43
E4          3.34    4.66    0.77          25.73  -16.93   29.82          34.29  119.58           1.52    1.25    1.96    1.35            0.03    0.06    0.01           0.30     0.36
E5         12.68   14.33    7.61          44.71   -7.39   14.32          16.11  117.29           0.87    0.82    1.01    0.85            0.13    0.15    0.10           0.29     0.32
E6         11.47   14.19    4.61          44.50  -14.86   27.85          31.57  118.07           0.93    0.80    1.21    0.85            0.12    0.16    0.08           0.29     0.33
E7         10.31   14.08    2.52          44.34  -22.76   41.55          47.38  118.71           1.02    0.78    1.46    0.86            0.11    0.15    0.04           0.28     0.31
E8          9.35   14.05    1.26          44.30  -30.16   54.36          62.17  119.02           1.13    0.77    1.76    0.87            0.09    0.11    0.01           0.27     0.32
E9         37.60   40.24   27.97          69.64   -3.84    8.22           9.07  115.08           0.40    0.39    0.47    0.40            0.14    0.16    0.18           0.23     0.26
E10        36.24   40.31   23.81          69.69   -8.49   15.57          17.74  118.61           0.42    0.38    0.53    0.40            0.26    0.27    0.22           0.23     0.27
E11        34.98   40.27   19.61          69.66  -12.61   23.82          26.95  117.90           0.44    0.37    0.61    0.40            0.21    0.24    0.16           0.20     0.24
E12        31.55   40.18   11.08          69.60  -24.43   45.17          51.35  118.41           0.51    0.35    0.84    0.40            0.22    0.21    0.10           0.25     0.30
E13        45.76   56.42   61.94          79.85  -23.14  -16.50          28.42  215.49           0.45    0.17    0.13    0.28            0.19    0.17    0.08           0.14     0.19
E14        55.52   46.57   53.92          73.91   28.41  -18.53          33.92  326.89           0.19    0.41    0.20    0.31            0.16    0.19    0.16           0.21     0.25
E15        65.60   68.51   28.24          86.26   -1.03   36.43          36.44   91.61           0.13    0.19    0.46    0.15            0.14    0.14    0.17           0.22     0.27
E16        27.24   28.23   23.15          60.10    0.06    0.28           0.32   76.33           0.54    0.55    0.55    0.55            0.22    0.23    0.23           0.25     0.28
E17        46.76   39.88   23.96          69.39   24.78   14.78          28.85   30.83           0.22    0.50    0.53    0.36            0.17    0.22    0.18           0.29     0.35
E18        37.43   47.70   27.01          74.64  -25.92   18.43          31.81  144.59           0.47    0.26    0.47    0.34            0.20    0.19    0.14           0.23     0.25
E19        33.91   33.39   51.01          64.48    6.05  -31.61          32.19  280.83           0.51    0.46    0.22    0.49            0.17    0.18    0.13           0.24     0.28
E20        24.22   16.60    1.18          47.76   40.65   61.38          73.62   56.48           0.43    1.10    1.78    0.69            0.17    0.15    0.02           0.29     0.33
E21        16.97   13.98    2.57          44.20   20.72   40.85          45.81   63.10           0.62    1.01    1.46    0.80            0.16    0.16    0.04           0.32     0.35
E22        29.50   25.35    8.00          57.42   20.45   34.71          40.29   59.50           0.40    0.72    0.99    0.55            0.19    0.19    0.11           0.27     0.30
F1          1.41    1.78    1.22          14.26   -8.04    3.06           8.61  159.19           1.90    1.68    1.79    1.77            0.03    0.04    0.03           0.32     0.37
F2          1.08    1.75    1.02          14.13  -17.82    5.67          18.70  162.34           2.15    1.61    1.86    1.80            0.02    0.04    0.02           0.30     0.38
F3          0.95    1.89    0.94          14.91  -26.08    8.31          27.37  162.32           2.37    1.53    1.88    1.79            0.02    0.04    0.02           0.35     0.44
F4          0.96    2.08    0.97          15.89  -29.89    9.49          31.36  162.38           2.45    1.48    1.87    1.75            0.02    0.04    0.02           0.31     0.36
F5          6.47    8.06    5.66          34.11  -12.77    4.55          13.56  160.39           1.23    1.03    1.14    1.11            0.08    0.10    0.09           0.35     0.41
F6          5.32    8.13    4.82          34.25  -26.27    9.06          27.79  160.98           1.43    0.97    1.20    1.13            0.07    0.09    0.05           0.25     0.28
F7          4.19    8.03    3.91          34.04  -39.92   13.91          42.27  160.79           1.72    0.92    1.28    1.16            0.06    0.09    0.06           0.29     0.34
F8          3.07    7.95    3.11          33.88  -56.54   18.95          59.63  161.47           2.27    0.87    1.37    1.18            0.03    0.06    0.06           0.29     0.34
F9         36.96   40.08   31.63          69.53   -5.45    2.19           5.88  158.12           0.42    0.38    0.41    0.40            0.13    0.13    0.12           0.21     0.24
F10        35.45   40.28   30.57          69.67  -11.09    4.06          11.81  159.89           0.46    0.36    0.43    0.41            0.21    0.22    0.21           0.21     0.24
F11        33.59   40.11   29.17          69.55  -16.92    6.10          17.99  160.18           0.50    0.35    0.45    0.41            0.15    0.17    0.27           0.32     0.36
F12        29.26   40.51   25.71          69.83  -33.96   12.41          36.16  159.93           0.64    0.30    0.49    0.42            0.13    0.14    0.11           0.18     0.20
F13        39.69   50.93   60.48          76.64  -27.36  -20.60          34.25  216.97           0.56    0.19    0.14    0.34            0.10    0.09    0.08           0.17     0.23
F14        50.02   39.11   50.00          68.83   36.11  -22.98          42.81  327.53           0.23    0.52    0.24    0.38            0.13    0.17    0.14           0.22     0.25
F15        63.31   65.64   21.69          84.81    0.05   45.71          45.71   89.94           0.13    0.21    0.57    0.17            0.10    0.10    0.18           0.32     0.37
F16        19.78   20.40   16.67          52.29    0.50    0.39           0.64   37.28           0.67    0.69    0.69    0.69            0.17    0.17    0.14           0.23     0.26
F17        40.78   32.64   17.54          63.87   31.05   18.34          36.07   30.57           0.26    0.63    0.67    0.44            0.15    0.19    0.15           0.31     0.35
