targets/wolf_faust/reflective/R151101WhiteBacking.it8
IT8.7/2
ORIGINATOR "Wolf Faust"
DESCRIPTOR "L* a* b* Batch average data (light D50, viewing angle 2)"
MANUFACTURER "Wolf Faust - http://www.coloraid.de"
CREATED "December 28, 2015"
PROD_DATE "2015:11"
SAMPLE_BACKING "white"
SERIAL "R151101"
MATERIAL "Kodak Professional Endura Premier"
NUMBER_OF_FIELDS 13
BEGIN_DATA_FORMAT
SAMPLE_ID  XYZ_X   XYZ_Y   XYZ_Z          LAB_L   LAB_A   LAB_B          LAB_C   LAB_H          D_RED  D_GREEN  D_BLUE  D_VIS
END_DATA_FORMAT
NUMBER_OF_SETS 288
BEGIN_DATA
A1          3.41    2.83    1.98          19.37   11.66    3.29          12.12   15.74           1.36    1.66    1.60    1.51
A2          4.30    2.89    1.68          19.60   23.91    6.79          24.86   15.85           1.20    1.83    1.68    1.46
A3          5.23    2.98    1.45          19.95   34.31    9.96          35.73   16.19           1.09    2.04    1.75    1.42
A4          5.65    3.20    1.51          20.83   35.48   10.77          37.07   16.88           1.05    2.02    1.73    1.38
A5         12.40   10.73    7.80          39.12   14.80    3.92          15.31   14.84           0.80    1.06    1.02    0.94
A6         14.84   10.88    6.71          39.37   29.25    8.81          30.55   16.76           0.68    1.17    1.08    0.90
A7         17.63   11.23    6.07          39.97   42.51   12.73          44.38   16.67           0.58    1.29    1.13    0.86
A8         21.04   11.31    5.16          40.10   59.24   17.32          61.72   16.30           0.49    1.54    1.21    0.83
A9         41.16   40.34   31.87          69.71    7.02    2.14           7.34   16.92           0.33    0.42    0.41    0.39
A10        43.50   40.59   30.84          69.89   13.26    4.03          13.86   16.90           0.29    0.44    0.43    0.37
A11        46.03   40.64   29.48          69.92   20.40    6.24          21.33   17.00           0.25    0.47    0.45    0.36
A12        48.30   40.56   28.54          69.87   27.00    7.66          28.07   15.84           0.21    0.50    0.46    0.36
A13        75.27   79.98   64.62          91.68   -3.75    1.30           3.97  160.81           0.11    0.09    0.11    0.10
A14        75.52   76.94   63.69          90.29    2.73   -0.19           2.73  356.07           0.10    0.12    0.12    0.11
A15        78.49   82.18   64.57          92.66   -1.49    3.04           3.38  116.10           0.09    0.08    0.11    0.09
A16        75.97   78.96   64.26          91.22   -0.33    0.85           0.92  111.47           0.10    0.10    0.11    0.10
A17        77.68   81.00   63.29          92.13   -0.84    3.36           3.46  104.08           0.09    0.09    0.12    0.09
A18        77.94   81.78   64.25          92.48   -1.82    3.04           3.55  120.98           0.09    0.08    0.11    0.09
A19        70.28   73.28   63.19          88.58   -0.82   -2.66           2.79  252.89           0.14    0.13    0.12    0.14
A20         1.27    1.02    0.71           9.18    9.63    2.34           9.91   13.63           1.79    2.12    2.04    1.94
A21         5.12    3.22    0.75          20.91   28.84   21.83          36.17   37.12           1.10    1.89    2.01    1.39
A22        10.32    5.86    0.83          29.04   43.24   34.51          55.32   38.59           0.78    1.80    1.97    1.11
B1          3.23    2.82    1.54          19.30    8.96    7.86          11.92   41.23           1.38    1.64    1.70    1.52
B2          3.88    2.87    0.99          19.51   18.31   15.38          23.91   40.02           1.25    1.77    1.89    1.47
B3          4.77    3.10    0.65          20.45   26.40   22.90          34.95   40.94           1.13    1.87    2.06    1.42
B4          5.00    3.16    0.61          20.68   28.37   24.17          37.27   40.43           1.10    1.90    2.09    1.40
B5         12.58   10.81    5.74          39.26   15.39   13.05          20.18   40.30           0.78    1.07    1.14    0.93
B6         14.67   11.00    3.86          39.59   27.36   23.79          36.26   41.01           0.67    1.17    1.31    0.89
B7         17.24   11.11    2.27          39.77   41.31   35.78          54.65   40.89           0.57    1.32    1.53    0.86
B8         20.26   11.21    1.12          39.92   56.20   48.77          74.41   40.95           0.49    1.56    1.83    0.83
B9         41.02   40.39   29.67          69.75    6.42    5.63           8.55   41.24           0.33    0.42    0.44    0.38
B10        43.17   40.60   26.55          69.89   12.28   11.05          16.52   41.99           0.29    0.44    0.49    0.37
B11        45.18   40.65   23.65          69.93   17.97   16.29          24.26   42.18           0.25    0.47    0.54    0.36
B12        47.36   40.52   21.28          69.84   24.50   20.70          32.08   40.20           0.21    0.50    0.58    0.35
B13        68.44   75.14   64.02          89.46   -8.55   -1.94           8.77  192.81           0.17    0.10    0.11    0.13
B14        72.05   71.13   62.06          87.55    7.40   -3.35           8.12  335.66           0.11    0.16    0.13    0.14
B15        75.58   79.40   53.85          91.41   -1.98   11.73          11.89   99.57           0.09    0.10    0.19    0.10
B16        59.98   62.29   50.73          83.07   -0.20    0.75           0.79  104.82           0.20    0.20    0.21    0.21
B17        68.61   67.70   51.16          85.86    7.34    5.08           8.93   34.69           0.12    0.19    0.21    0.16
B18        65.47   72.32   52.91          88.12   -9.34    7.06          11.70  142.92           0.18    0.12    0.19    0.15
B19        62.56   64.74   61.10          84.35    0.32   -7.92           7.93  272.32           0.20    0.18    0.14    0.19
B20         2.76    1.96    0.70          15.26   18.13   13.04          22.34   35.72           1.39    1.96    2.04    1.63
B21         8.48    4.93    0.80          26.52   39.07   30.68          49.67   38.14           0.86    1.84    1.98    1.19
B22        29.21   24.73   11.63          56.81   21.97   21.47          30.72   44.34           0.41    0.72    0.84    0.57
C1          4.39    4.23    2.19          24.42    4.33   10.05          10.95   66.68           1.27    1.42    1.55    1.35
C2          4.59    4.15    1.36          24.18    8.07   18.43          20.12   66.35           1.22    1.47    1.74    1.35
C3          5.11    4.30    0.74          24.65   12.58   28.46          31.12   66.16           1.15    1.51    1.99    1.31
C4          5.29    4.45    0.75          25.11   12.82   29.06          31.77   66.19           1.13    1.50    1.99    1.30
C5         23.48   22.32   10.61          54.37    8.91   20.39          22.25   66.39           0.54    0.71    0.88    0.63
C6         25.77   22.53    5.59          54.58   17.85   40.16          43.95   66.04           0.46    0.76    1.14    0.60
C7         28.09   22.74    2.32          54.80   26.30   61.22          66.63   66.75           0.39    0.83    1.50    0.58
C8         29.38   22.79    1.23          54.85   31.04   72.92          79.26   66.94           0.37    0.87    1.77    0.57
C9         48.06   48.33   32.71          75.03    4.04   10.04          10.82   68.08           0.27    0.34    0.40    0.31
C10        49.39   48.31   26.80          75.02    7.71   19.45          20.93   68.37           0.23    0.35    0.48    0.30
C11        50.84   48.09   21.98          74.88   12.21   28.01          30.56   66.45           0.20    0.38    0.57    0.29
C12        52.58   48.49   18.04          75.13   15.69   36.64          39.85   66.82           0.17    0.39    0.65    0.28
C13        60.20   68.95   63.14          86.48  -14.39   -6.24          15.68  203.43           0.26    0.12    0.12    0.18
C14        66.57   62.35   59.28          83.10   14.78   -8.26          16.93  330.79           0.13    0.24    0.15    0.19
C15        72.76   76.45   44.26          90.07   -1.98   20.37          20.47   95.55           0.10    0.12    0.27    0.11
C16        46.78   48.46   39.86          75.12    0.14    0.17           0.28  110.38           0.31    0.31    0.32    0.31
C17        60.70   57.00   40.40          80.18   13.98    8.20          16.20   30.39           0.15    0.29    0.31    0.23
C18        55.09   63.80   42.93          83.86  -15.53   11.32          19.21  143.90           0.27    0.16    0.28    0.21
C19        51.35   52.45   57.65          77.55    2.03  -16.17          16.29  277.17           0.29    0.27    0.16    0.29
C20         1.65    1.38    0.69          11.85    8.92    7.43          11.61   39.78           1.67    1.98    2.05    1.81
C21        22.93   17.20    4.61          48.51   31.72   34.79          47.08   47.64           0.47    0.98    1.23    0.70
C22        34.93   31.67   17.03          63.07   15.63   18.12          23.93   49.22           0.36    0.58    0.68    0.47
D1          4.01    4.20    2.22          24.31   -0.50    9.56           9.58   93.00           1.34    1.38    1.54    1.37
D2          3.91    4.12    1.36          24.07   -0.90   18.20          18.23   92.84           1.34    1.40    1.74    1.37
D3          4.17    4.40    0.82          24.97   -1.12   27.70          27.73   92.31           1.31    1.38    1.95    1.34
D4          4.43    4.69    0.83          25.82   -1.23   28.89          28.91   92.45           1.28    1.35    1.94    1.31
D5         26.23   27.36   13.60          59.30   -0.62   20.18          20.19   91.75           0.52    0.58    0.77    0.55
D6         26.63   27.98    7.68          59.87   -1.44   40.18          40.21   92.05           0.50    0.58    1.00    0.54
D7         26.26   27.71    3.59          59.62   -1.86   60.04          60.06   91.77           0.50    0.60    1.32    0.54
D8         26.30   27.97    1.61          59.86   -2.72   76.99          77.04   92.02           0.51    0.61    1.67    0.53
D9         54.64   56.73   38.01          80.03   -0.15   11.11          11.11   90.76           0.22    0.25    0.33    0.24
D10        54.10   56.45   30.66          79.87   -0.84   21.50          21.52   92.24           0.22    0.26    0.42    0.24
D11        54.42   56.89   24.81          80.12   -1.09   31.73          31.75   91.97           0.21    0.26    0.51    0.23
D12        54.47   57.37   12.16          80.39   -2.13   60.54          60.58   92.01           0.20    0.28    0.81    0.22
D13        52.31   62.64   62.04          83.25  -20.02  -10.74          22.72  208.21           0.36    0.14    0.13    0.23
D14        61.10   54.07   56.23          78.50   22.13  -13.06          25.70  329.46           0.15    0.33    0.18    0.25
D15        69.89   73.24   35.41          88.56   -1.57   29.44          29.48   93.06           0.11    0.15    0.36    0.13
D16        35.74   37.12   30.57          67.37   -0.18    0.10           0.25  148.84           0.42    0.43    0.43    0.43
D17        53.44   47.64   31.18          74.60   20.21   11.62          23.31   29.89           0.18    0.40    0.42    0.29
D18        45.12   55.10   33.81          79.10  -21.73   15.42          26.64  144.63           0.38    0.21    0.38    0.27
D19        41.24   41.58   53.73          70.58    3.53  -24.07          24.33  278.35           0.41    0.37    0.20    0.39
D20        13.85   10.45    2.77          38.63   26.39   29.71          39.74   48.39           0.69    1.20    1.45    0.92
D21        21.54   20.72   11.60          52.64    7.52   14.34          16.19   62.34           0.58    0.73    0.84    0.66
D22        38.67   36.78   19.93          67.11   10.49   18.74          21.48   60.76           0.33    0.49    0.61    0.41
E1          3.75    4.27    2.26          24.55   -5.35    9.62          11.01  119.08           1.41    1.34    1.53    1.37
E2          3.31    4.11    1.42          24.05  -10.18   17.45          20.21  120.26           1.48    1.33    1.72    1.39
E3          3.30    4.51    0.89          25.29  -15.72   27.08          31.32  120.14           1.53    1.27    1.91    1.36
E4          3.42    4.68    0.90          25.80  -15.87   27.70          31.92  119.81           1.51    1.26    1.90    1.34
E5         12.33   13.94    7.40          44.14   -7.31   14.20          15.97  117.24           0.88    0.83    1.03    0.86
E6         11.40   14.17    4.54          44.48  -15.30   28.19          32.08  118.50           0.94    0.80    1.22    0.85
E7         10.40   14.20    2.55          44.52  -22.89   41.59          47.47  118.83           1.02    0.78    1.46    0.86
E8          9.54   14.29    1.41          44.64  -30.16   53.09          61.06  119.61           1.13    0.76    1.71    0.86
E9         37.97   40.84   28.15          70.06   -4.45    8.64           9.71  117.25           0.40    0.38    0.46    0.39
E10        36.44   40.52   23.55          69.84   -8.49   16.31          18.39  117.51           0.42    0.38    0.54    0.39
E11        35.20   40.66   19.83          69.94  -13.06   23.82          27.17  118.74           0.44    0.37    0.61    0.39
E12        32.33   41.01   11.66          70.18  -24.10   44.42          50.54  118.48           0.51    0.34    0.82    0.39
E13        45.24   56.57   60.65          79.94  -25.00  -15.09          29.20  211.11           0.46    0.16    0.14    0.28
E14        55.56   46.14   52.76          73.63   29.72  -17.76          34.62  329.14           0.18    0.42    0.21    0.31
E15        67.13   69.92   27.46          86.96   -0.63   38.91          38.92   90.93           0.11    0.18    0.47    0.14
E16        26.53   27.51   22.35          59.44    0.04    0.67           0.67   88.53           0.55    0.56    0.56    0.56
E17        46.58   39.17   22.85          68.88   26.47   15.97          30.91   31.11           0.22    0.52    0.56    0.37
E18        36.65   47.19   25.57          74.31  -27.08   20.37          33.89  143.05           0.49    0.26    0.50    0.34
E19        32.81   32.25   49.64          63.55    6.17  -31.67          32.27  281.02           0.53    0.48    0.23    0.51
E20        24.51   16.73    1.19          47.92   41.21   61.51          74.04   56.18           0.42    1.10    1.79    0.69
E21        17.05   13.96    2.61          44.18   21.26   40.50          45.74   62.31           0.61    1.02    1.46    0.80
E22        29.66   25.45    7.97          57.51   20.66   34.97          40.62   59.43           0.39    0.72    0.99    0.55
F1          1.37    1.75    1.29          14.13   -8.90    1.88           9.10  168.11           1.94    1.67    1.77    1.78
F2          1.08    1.77    1.04          14.21  -18.22    5.49          19.03  163.24           2.17    1.61    1.85    1.80
F3          0.97    1.96    0.97          15.29  -27.06    8.45          28.35  162.67           2.41    1.51    1.87    1.77
F4          1.04    2.15    1.05          16.26  -28.66    9.00          30.04  162.56           2.39    1.47    1.84    1.74
F5          6.50    8.11    5.72          34.21  -12.92    4.41          13.65  161.13           1.23    1.02    1.14    1.11
F6          5.24    8.07    4.81          34.12  -26.67    8.87          28.11  161.61           1.45    0.97    1.21    1.13
F7          4.26    8.18    4.15          34.35  -40.24   12.99          42.29  162.10           1.73    0.91    1.26    1.15
F8          3.30    8.28    3.39          34.56  -55.61   18.14          58.50  161.93           2.23    0.85    1.34    1.16
F9         37.42   40.54   32.15          69.85   -5.34    1.95           5.69  159.98           0.42    0.37    0.41    0.40
F10        35.34   40.23   30.50          69.63  -11.28    4.11          12.01  159.99           0.46    0.36    0.43    0.41
F11        34.12   40.77   29.55          70.01  -17.09    6.28          18.21  159.82           0.50    0.34    0.44    0.41
F12        29.36   40.88   26.24          70.09  -34.68   11.93          36.68  161.02           0.64    0.29    0.49    0.42
F13        38.84   50.73   59.13          76.52  -29.51  -19.45          35.35  213.39           0.57    0.19    0.15    0.34
F14        49.97   38.61   48.94          68.47   37.52  -22.39          43.69  329.17           0.22    0.53    0.24    0.38
F15        64.92   67.03   21.30          85.52    0.65   47.70          47.70   89.22           0.12    0.21    0.57    0.16
F16        19.25   19.90   16.38          51.72    0.30    0.09           0.40  216.21           0.69    0.70    0.70    0.70
F17        40.76   32.16   16.90          63.48   32.69   19.14          37.88   30.35           0.25    0.65    0.68    0.44
F18        29.54   40.28   19.74          69.67  -32.20   23.56          39.90  143.81           0.60    0.31    0.61    0.42
F19        25.51   24.20   45.25          56.29    9.37  -39.06          40.17  283.49           0.67    0.60    0.28    0.64
F20        25.81   24.68   11.68          56.77    8.60   21.23          22.90   67.95           0.50    0.66    0.84    0.58
F21        33.57   30.35   10.45          61.96   15.72   33.97          37.43   65.17           0.36    0.61    0.88    0.48
F22        38.29   35.70   15.38          66.29   12.80   27.64          30.46   65.16           0.32    0.52    0.72    0.42
G1          2.16    2.78    2.53          19.13  -10.48   -2.02          10.67  190.93           1.77    1.47    1.49    1.59
G2          1.78    2.81    2.76          19.26  -19.89   -3.61          20.21  190.28           2.03    1.40    1.45    1.61
G3          1.56    3.04    3.24          20.22  -29.60   -5.57          30.12  190.65           2.38    1.31    1.38    1.60
G4          1.68    3.32    3.48          21.28  -31.13   -5.35          31.59  189.75           2.37    1.27    1.35    1.57
G5          8.83   10.79    9.46          39.22  -12.64   -1.96          12.79  188.83           1.12    0.90    0.93    0.99
G6          7.59   10.90   10.42          39.42  -24.58   -4.79          25.04  191.03           1.31    0.84    0.89    1.01
G7          6.28   10.95   10.95          39.49  -37.98   -6.34          38.51  189.48           1.62    0.78    0.86    1.03
G8          5.04   10.97   12.03          39.54  -52.47   -9.50          53.33  190.26           2.20    0.73    0.82    1.06
G9         37.53   41.00   34.28          70.17   -6.38   -0.66           6.41  185.91           0.43    0.36    0.38    0.40
G10        35.14   40.52   34.69          69.84  -12.84   -1.82          12.97  188.08           0.49    0.35    0.37    0.41
G11        33.37   40.52   35.39          69.84  -18.95   -2.84          19.16  188.52           0.54    0.33    0.37    0.42
G12        28.58   40.76   38.31          70.01  -37.35   -6.58          37.92  189.99           0.73    0.27    0.33    0.44
G13        32.79   44.83   57.19          72.78  -33.70  -23.92          41.32  215.37           0.71    0.22    0.16    0.40
G14        44.73   32.07   45.07          63.40   44.81  -26.59          52.11  329.32           0.26    0.66    0.28    0.45
G15        62.77   64.08   15.98          84.01    2.28   56.72          56.77   87.69           0.13    0.24    0.69    0.17
G16        13.31   13.77   11.37          43.90    0.20   -0.03           0.34  141.81           0.85    0.86    0.85    0.86
G17        35.47   26.08   11.76          58.12   38.80   23.33          45.27   31.02           0.30    0.79    0.84    0.52
G18        23.23   33.80   14.49          64.80  -37.17   27.33          46.14  143.67           0.74    0.37    0.73    0.50
G19        19.28   17.44   40.68          48.81   13.02  -46.25          48.05  285.73           0.83    0.74    0.33    0.79
G20        35.82   34.45   14.33          65.32    8.92   28.63          29.99   72.70           0.35    0.52    0.75    0.44
G21        34.66   33.18    9.23          64.31    9.36   42.10          43.13   77.47           0.36    0.55    0.93    0.45
G22        47.02   43.30    2.76          71.76   15.29   86.85          88.18   80.01           0.21    0.49    1.43    0.32
H1          2.38    2.82    3.24          19.32   -6.58   -7.07           9.66  227.02           1.71    1.48    1.39    1.58
H2          2.12    2.82    4.32          19.31  -12.23  -13.95          18.56  228.74           1.94    1.42    1.27    1.61
H3          1.91    2.89    5.58          19.60  -18.06  -20.12          27.04  228.07           2.30    1.36    1.16    1.63
H4          2.07    3.22    6.64          20.89  -19.92  -22.72          30.22  228.76           2.39    1.30    1.09    1.60
H5          9.39   10.74   11.86          39.14   -7.60   -9.71          12.33  231.95           1.09    0.91    0.84    0.99
H6          8.47   10.81   14.98          39.26  -15.93  -17.98          24.02  228.46           1.26    0.86    0.74    1.01
H7          7.63   10.80   19.10          39.25  -23.51  -27.54          36.21  229.52           1.55    0.81    0.64    1.04
H8          6.69   10.79   24.17          39.22  -32.53  -37.62          49.74  229.15           2.21    0.75    0.54    1.08
H9         37.60   40.48   36.87          69.81   -4.56   -4.95           6.73  227.35           0.43    0.37    0.35    0.40
H10        36.32   40.45   40.19          69.79   -8.70   -9.44          12.83  227.32           0.47    0.35    0.31    0.41
H11        35.19   40.73   44.52          69.99  -13.33  -14.56          19.74  227.52           0.52    0.33    0.27    0.41
H12        32.30   40.71   55.19          69.98  -23.34  -26.67          35.44  228.81           0.67    0.29    0.18    0.44
H13        27.83   39.69   55.16          69.25  -37.01  -27.89          46.34  217.00           0.85    0.26    0.18    0.46
H14        39.64   26.12   41.04          58.15   52.18  -30.61          60.50  329.60           0.31    0.80    0.33    0.53
H15        60.89   61.25   11.47          82.51    4.35   66.25          66.39   86.24           0.13    0.27    0.83    0.19
H16         8.86    9.14    7.49          36.24    0.41    0.18           0.46   20.62           1.02    1.04    1.03    1.04
H17        30.85   21.08    7.90          53.04   44.38   27.56          52.25   31.84           0.34    0.95    1.01    0.60
H18        18.13   28.20   10.23          60.07  -41.45   31.42          52.01  142.83           0.89    0.43    0.88    0.58
H19        14.41   12.11   36.17          41.39   17.94  -52.97          55.93  288.70           1.01    0.90    0.38    0.96
H20        40.54   41.13   15.05          70.27    2.73   35.31          35.41   85.58           0.32    0.42    0.72    0.37
H21        30.71   31.78   19.79          63.16    0.24   12.23          12.23   88.86           0.46    0.51    0.61    0.49
H22        35.14   38.19   11.15          68.16   -5.61   42.47          42.84   97.52           0.40    0.43    0.85    0.41
I1          4.13    4.24    5.65          24.46    0.58  -12.05          12.06  272.75           1.42    1.35    1.16    1.39
I2          4.15    4.20    8.30          24.31    1.49  -23.52          23.57  273.62           1.51    1.33    1.00    1.41
I3          4.21    4.16   11.79          24.20    2.79  -35.23          35.34  274.53           1.66    1.30    0.86    1.44
I4          4.36    4.20   19.46          24.32    4.30  -54.05          54.22  274.55           2.36    1.22    0.65    1.51
I5         13.65   13.99   14.86          44.22    0.99   -9.10           9.16  276.20           0.86    0.84    0.74    0.86
I6         13.89   14.16   19.13          44.47    1.49  -18.60          18.66  274.58           0.89    0.83    0.64    0.86
I7         14.16   14.34   24.10          44.72    2.11  -28.01          28.09  274.31           0.93    0.81    0.54    0.87
I8         14.34   14.31   38.80          44.68    3.35  -50.90          51.01  273.77           1.12    0.77    0.35    0.90
