targets/wolf_faust/reflective/R151002.it8
IT8.7/2
ORIGINATOR "Wolf Faust"
DESCRIPTOR "Kodak Professional Paper, L* a* b* (light D50, viewing angle 2)"
MANUFACTURER "Wolf Faust - http://www.coloraid.de"
CREATED "April 15, 2016"
PROD_DATE "2015:10"
SAMPLE_BACKING "black"
SERIAL "5x7 R151002 Batch Average Data"
MATERIAL "Kodak Professional Endura Premier"
KEYWORD "MEAN_DE" # Mean Delta E of samples compared to batch average
NUMBER_OF_FIELDS 18
BEGIN_DATA_FORMAT
SAMPLE_ID  XYZ_X   XYZ_Y   XYZ_Z          LAB_L   LAB_A   LAB_B          LAB_C   LAB_H          D_RED  D_GREEN  D_BLUE  D_VIS          STDEV_X STDEV_Y STDEV_Z        MEAN_DE  STDEV_DE
END_DATA_FORMAT
NUMBER_OF_SETS 288
BEGIN_DATA
A1          3.27    2.70    1.88          18.79   11.87    3.25          12.31   15.31           1.37    1.69    1.62    1.53            0.05    0.05    0.03           0.40     0.48
A2          4.22    2.84    1.60          19.37   23.79    7.22          24.86   16.87           1.21    1.84    1.70    1.47            0.06    0.04    0.03           0.33     0.37 
A3          5.19    2.93    1.36          19.76   34.64   10.71          36.26   17.18           1.09    2.07    1.77    1.42            0.06    0.04    0.02           0.37     0.42
A4          5.49    3.07    1.41          20.33   35.79   11.13          37.48   17.27           1.07    2.07    1.76    1.40            0.06    0.03    0.02           0.24     0.30 
A5         12.32   10.69    7.59          39.05   14.58    4.64          15.30   17.65           0.80    1.06    1.03    0.94            0.16    0.15    0.12           0.38     0.42
A6         14.61   10.71    6.69          39.09   29.08    8.44          30.29   16.19           0.68    1.18    1.09    0.91            0.18    0.15    0.10           0.34     0.37 
A7         17.08   10.85    5.73          39.32   42.35   13.17          44.35   17.27           0.59    1.31    1.16    0.88            0.16    0.12    0.07           0.32     0.37
A8         20.52   10.98    4.86          39.54   59.11   17.95          61.78   16.89           0.50    1.57    1.24    0.84            0.07    0.05    0.07           0.28     0.35 
A9         40.44   39.66   31.04          69.23    6.91    2.57           7.37   20.40           0.34    0.43    0.43    0.39            0.30    0.32    0.30           0.26     0.31
A10        42.29   39.36   29.61          69.01   13.45    4.45          14.17   18.31           0.30    0.45    0.45    0.39            0.26    0.29    0.26           0.32     0.35
A11        45.12   39.94   28.86          69.43   19.96    6.38          20.96   17.72           0.25    0.47    0.46    0.37            0.16    0.20    0.17           0.27     0.29
A12        46.93   39.82   28.10          69.34   25.47    7.48          26.54   16.36           0.22    0.50    0.47    0.37            0.20    0.24    0.16           0.24     0.28 
A13        73.89   78.09   65.38          90.82   -2.88   -0.89           3.02  197.07           0.12    0.10    0.11    0.11            0.12    0.13    0.14           0.09     0.11
A14        74.69   76.36   64.61          90.03    2.18   -1.53           2.67  324.96           0.10    0.12    0.11    0.12            0.09    0.09    0.07           0.09     0.11 
A15        76.59   79.86   64.30          91.62   -0.84    1.51           1.73  118.98           0.10    0.10    0.11    0.10            0.09    0.09    0.07           0.09     0.10
A16        76.24   79.09   64.97          91.27   -0.03    0.28           0.28   96.05           0.10    0.10    0.11    0.10            0.13    0.14    0.13           0.08     0.09
A17        75.83   78.75   63.30          91.12   -0.21    1.61           1.62   97.41           0.10    0.10    0.12    0.10            0.12    0.14    0.14           0.09     0.10
A18        75.77   79.28   64.20          91.36   -1.37    1.17           1.80  139.61           0.10    0.10    0.11    0.10            0.11    0.13    0.11           0.08     0.09 
A19        71.34   74.50   64.32          89.16   -1.04   -2.75           2.94  249.28           0.13    0.12    0.11    0.13            0.15    0.17    0.17           0.12     0.13
A20         1.24    0.99    0.69           8.94    9.72    2.37          10.01   13.70           1.80    2.14    2.05    1.96            0.02    0.02    0.01           0.31     0.35 
A21         5.09    3.19    0.75          20.80   28.95   21.72          36.19   36.89           1.10    1.90    2.01    1.40            0.07    0.05    0.01           0.27     0.32
A22         9.99    5.68    0.80          28.58   42.70   34.20          54.71   38.69           0.79    1.82    1.98    1.13            0.06    0.04    0.01           0.20     0.24
B1          3.19    2.80    1.51          19.21    8.75    8.00          11.86   42.44           1.39    1.64    1.71    1.52            0.04    0.04    0.02           0.21     0.24
B2          3.79    2.79    0.96          19.20   18.35   15.38          23.94   39.96           1.26    1.78    1.90    1.49            0.06    0.05    0.01           0.24     0.29
B3          4.63    3.00    0.67          20.02   26.41   21.96          34.35   39.74           1.14    1.89    2.05    1.43            0.06    0.04    0.01           0.24     0.30
B4          5.21    3.09    0.45          20.41   32.04   26.61          41.66   39.71           1.08    2.01    2.22    1.40            0.07    0.04    0.01           0.29     0.35
B5         12.52   10.73    5.69          39.12   15.60   13.04          20.33   39.89           0.78    1.08    1.15    0.93            0.15    0.13    0.11           0.33     0.37
B6         14.31   10.68    3.65          39.03   27.52   24.12          36.59   41.23           0.68    1.19    1.33    0.91            0.10    0.08    0.05           0.23     0.26
B7         16.81   10.75    2.11          39.16   41.56   36.15          55.08   41.01           0.58    1.34    1.56    0.87            0.12    0.09    0.03           0.24     0.30
B8         19.99   10.99    1.04          39.57   56.42   49.33          74.95   41.16           0.50    1.58    1.86    0.83            0.09    0.07    0.01           0.24     0.27
B9         40.13   39.65   29.18          69.22    5.98    5.51           8.13   42.66           0.34    0.42    0.45    0.39            0.23    0.23    0.13           0.23     0.25
B10        42.17   39.68   25.75          69.24   12.12   11.32          16.58   43.06           0.30    0.45    0.50    0.38            0.22    0.26    0.23           0.26     0.29
B11        44.25   39.58   22.61          69.17   18.57   16.94          25.14   42.38           0.25    0.48    0.56    0.37            0.18    0.18    0.13           0.26     0.29
B12        46.08   39.84   21.00          69.36   22.99   20.43          30.75   41.63           0.22    0.50    0.59    0.36            0.18    0.23    0.18           0.25     0.30
B13        69.65   75.02   64.76          89.40   -5.70   -2.75           6.32  205.76           0.16    0.11    0.11    0.13            0.22    0.23    0.24           0.14     0.16
B14        71.84   71.73   63.19          87.84    5.69   -3.94           6.92  325.28           0.11    0.16    0.12    0.14            0.10    0.12    0.12           0.11     0.13
B15        73.54   76.97   54.58          90.31   -1.39    9.03           9.14   98.75           0.11    0.11    0.18    0.11            0.13    0.14    0.19           0.13     0.16
B16        61.96   64.25   52.33          84.10    0.02    0.75           0.76   88.85           0.19    0.19    0.20    0.19            0.21    0.20    0.21           0.14     0.17
B17        68.43   68.45   52.75          86.23    5.35    3.97           6.66   36.59           0.12    0.18    0.20    0.16            0.14    0.16    0.16           0.17     0.19
B18        66.44   72.11   54.17          88.02   -6.75    5.53           8.73  140.69           0.17    0.13    0.18    0.15            0.18    0.17    0.20           0.18     0.20
B19        64.87   67.02   62.47          85.52    0.56   -7.25           7.27  274.39           0.18    0.17    0.13    0.18            0.19    0.19    0.10           0.14     0.16
B20         2.71    1.92    0.69          15.05   18.26   12.86          22.33   35.17           1.40    1.97    2.04    1.64            0.04    0.03    0.01           0.24     0.28
B21         8.13    4.71    0.78          25.90   38.66   29.93          48.89   37.75           0.88    1.86    1.99    1.21            0.05    0.03    0.01           0.22     0.25
B22        28.65   24.35   11.47          56.43   21.44   21.28          30.21   44.79           0.42    0.73    0.85    0.57            0.17    0.18    0.09           0.25     0.28
C1          4.29    4.13    2.15          24.10    4.33    9.88          10.79   66.32           1.28    1.43    1.55    1.36            0.06    0.06    0.02           0.22     0.27
C2          4.64    4.16    1.27          24.18    8.71   19.57          21.42   66.01           1.21    1.48    1.77    1.34            0.07    0.06    0.02           0.24     0.30
C3          5.06    4.26    0.72          24.51   12.57   28.59          31.24   66.26           1.15    1.51    2.00    1.32            0.05    0.04    0.01           0.23     0.27
C4          5.39    4.43    0.60          25.03   14.31   31.78          34.86   65.75           1.12    1.52    2.07    1.30            0.05    0.04    0.01           0.22     0.29
C5         23.18   22.01   10.45          54.04    8.99   20.33          22.23   66.14           0.54    0.71    0.88    0.63            0.17    0.17    0.11           0.30     0.35
C6         25.30   22.11    5.20          54.14   17.75   41.37          45.01   66.78           0.46    0.77    1.17    0.61            0.18    0.16    0.07           0.24     0.28
C7         27.36   22.19    2.26          54.23   25.86   60.78          66.05   66.95           0.41    0.83    1.51    0.59            0.12    0.13    0.03           0.22     0.26
C8         29.12   22.26    1.04          54.30   32.45   74.72          81.46   66.53           0.37    0.89    1.84    0.58            0.15    0.12    0.01           0.17     0.21
C9         46.84   47.19   32.00          74.31    3.78    9.86          10.56   69.01           0.28    0.34    0.41    0.32            0.22    0.23    0.21           0.22     0.25
C10        48.32   47.09   26.18          74.25    8.15   19.19          20.85   66.99           0.24    0.37    0.49    0.31            0.17    0.22    0.19           0.24     0.26
C11        49.67   47.00   21.22          74.19   12.08   28.31          30.78   66.89           0.21    0.39    0.58    0.30            0.16    0.18    0.15           0.25     0.28
C12        50.88   47.29   18.58          74.38   14.48   34.14          37.09   67.02           0.19    0.40    0.64    0.30            0.16    0.21    0.17           0.29     0.33
C13        61.23   68.83   63.77          86.42  -11.70   -6.96          13.61  210.74           0.24    0.12    0.12    0.18            0.28    0.27    0.19           0.18     0.20
C14        66.31   63.01   60.27          83.45   12.67   -8.64          15.34  325.70           0.14    0.23    0.14    0.19            0.11    0.15    0.13           0.16     0.18
C15        70.30   73.71   44.30          88.79   -1.64   18.12          18.20   95.18           0.11    0.14    0.27    0.13            0.14    0.17    0.09           0.14     0.17
C16        48.01   49.79   40.64          75.94    0.01    0.58           0.59   88.13           0.29    0.30    0.31    0.30            0.23    0.25    0.18           0.18     0.21
C17        60.20   57.46   41.30          80.44   11.68    7.48          13.87   32.65           0.16    0.28    0.30    0.23            0.13    0.18    0.20           0.21     0.25
C18        55.68   63.42   43.62          83.66  -13.21   10.12          16.64  142.53           0.26    0.17    0.27    0.21            0.27    0.24    0.27           0.24     0.29
C19        53.13   54.40   58.80          78.69    1.75  -15.37          15.47  276.50           0.28    0.25    0.16    0.27            0.19    0.19    0.15           0.20     0.25
C20         1.60    1.34    0.66          11.56    8.88    7.50          11.63   40.17           1.68    1.99    2.06    1.83            0.03    0.02    0.01           0.33     0.39
C21        22.59   16.92    4.40          48.16   31.70   35.33          47.47   48.10           0.48    0.99    1.25    0.71            0.10    0.10    0.03           0.21     0.25
C22        34.34   31.18   16.82          62.66   15.39   17.90          23.61   49.32           0.36    0.58    0.68    0.48            0.18    0.17    0.15           0.25     0.28
D1          3.89    4.05    2.12          23.85   -0.29    9.69           9.70   91.71           1.35    1.40    1.56    1.38            0.04    0.04    0.02           0.26     0.28
D2          3.86    4.07    1.32          23.90   -0.92   18.38          18.40   92.86           1.34    1.40    1.75    1.38            0.04    0.04    0.01           0.24     0.30
D3          4.05    4.26    0.77          24.53   -0.83   27.72          27.74   91.72           1.31    1.39    1.96    1.35            0.06    0.05    0.00           0.27     0.33
D4          4.40    4.63    0.68          25.65   -0.87   31.30          31.31   91.59           1.28    1.36    2.01    1.31            0.02    0.02    0.00           0.15     0.18
D5         26.42   27.45   13.58          59.39   -0.20   20.40          20.40   90.56           0.52    0.58    0.77    0.55            0.26    0.27    0.17           0.25     0.30
D6         26.13   27.31    7.35          59.26   -0.83   40.43          40.43   91.17           0.51    0.59    1.02    0.55            0.18    0.18    0.05           0.24     0.27
D7         25.59   27.01    3.40          58.99   -1.90   60.24          60.27   91.81           0.51    0.61    1.34    0.55            0.14    0.13    0.03           0.18     0.20
D8         25.76   27.19    1.40          59.15   -1.89   78.22          78.24   91.38           0.52    0.62    1.73    0.54            0.20    0.17    0.01           0.28     0.33
D9         53.30   55.33   37.24          79.23   -0.12   10.79          10.79   90.63           0.23    0.26    0.34    0.25            0.18    0.20    0.21           0.16     0.19
D10        53.41   55.65   30.25          79.42   -0.65   21.38          21.39   91.75           0.22    0.27    0.43    0.25            0.18    0.20    0.20           0.22     0.24
D11        53.45   55.65   24.05          79.42   -0.53   31.91          31.92   90.96           0.21    0.27    0.52    0.24            0.18    0.20    0.25           0.30     0.33
D12        52.57   55.12   10.96          79.11   -1.48   61.94          61.96   91.37           0.21    0.30    0.85    0.24            0.21    0.20    0.10           0.28     0.31
D13        53.01   62.36   62.54          83.10  -17.58  -11.48          21.00  213.13           0.34    0.15    0.12    0.23            0.20    0.21    0.18           0.17     0.21
D14        60.82   54.75   57.07          78.90   19.77  -13.25          23.80  326.18           0.16    0.31    0.17    0.25            0.19    0.24    0.20           0.22     0.26
D15        67.45   70.65   35.75          87.31   -1.48   26.80          26.84   93.15           0.12    0.16    0.36    0.14            0.14    0.16    0.20           0.21     0.25
D16        36.38   37.86   31.00          67.92   -0.41    0.38           0.59  135.97           0.42    0.42    0.43    0.42            0.14    0.17    0.20           0.25     0.28
D17        53.07   48.23   32.08          74.97   17.67   10.87          20.75   31.61           0.19    0.38    0.41    0.29            0.13    0.18    0.19           0.23     0.27
D18        45.71   54.96   34.51          79.02  -19.72   14.27          24.34  144.11           0.36    0.21    0.37    0.27            0.22    0.20    0.27           0.28     0.33
D19        42.65   43.26   54.85          71.73    2.81  -23.28          23.45  276.87           0.39    0.35    0.19    0.38            0.23    0.21    0.18           0.26     0.28
D20        13.54   10.16    2.57          38.13   26.53   30.43          40.37   48.93           0.70    1.21    1.47    0.93            0.07    0.06    0.02           0.19     0.21
D21        21.06   20.32   11.31          52.19    7.17   14.45          16.13   63.61           0.59    0.74    0.85    0.67            0.11    0.11    0.09           0.19     0.22
D22        37.66   35.82   19.43          66.39   10.38   18.54          21.24   60.75           0.34    0.50    0.62    0.42            0.16    0.19    0.20           0.24     0.30
E1          3.58    4.07    2.20          23.89   -5.15    9.03          10.40  119.72           1.42    1.36    1.54    1.39            0.04    0.05    0.03           0.25     0.28
E2          3.29    4.08    1.37          23.95  -10.07   17.83          20.48  119.45           1.48    1.34    1.73    1.40            0.04    0.04    0.01           0.25     0.29
E3          3.25    4.39    0.86          24.93  -14.89   26.87          30.71  118.99           1.52    1.29    1.91    1.37            0.04    0.05    0.01           0.24     0.31
E4          3.26    4.57    0.75          25.48  -17.09   29.77          34.33  119.86           1.54    1.26    1.97    1.35            0.03    0.04    0.01           0.20     0.23
E5         12.20   13.89    7.34          44.08   -7.92   14.29          16.34  118.99           0.89    0.83    1.03    0.86            0.10    0.11    0.04           0.30     0.34
E6         11.16   13.88    4.41          44.06  -15.20   28.21          32.05  118.32           0.95    0.81    1.23    0.86            0.14    0.16    0.07           0.32     0.36
E7         10.06   13.73    2.44          43.85  -22.60   41.36          47.13  118.65           1.03    0.80    1.47    0.87            0.11    0.12    0.02           0.27     0.31
E8          9.04   13.71    1.22          43.82  -30.66   54.05          62.14  119.56           1.16    0.78    1.77    0.88            0.07    0.09    0.01           0.23     0.26
E9         37.17   39.87   27.80          69.38   -4.12    8.04           9.03  117.11           0.41    0.39    0.47    0.40            0.28    0.31    0.24           0.26     0.28
E10        35.65   39.60   22.86          69.18   -8.30   16.49          18.46  116.73           0.43    0.39    0.55    0.40            0.18    0.22    0.13           0.22     0.24
E11        34.41   39.72   19.27          69.27  -12.90   23.87          27.13  118.40           0.45    0.38    0.62    0.40            0.17    0.18    0.14           0.19     0.21
E12        31.00   39.51   10.94          69.12  -24.38   44.78          50.99  118.57           0.52    0.36    0.85    0.41            0.20    0.19    0.11           0.27     0.31
E13        45.90   56.44   61.29          79.86  -22.80  -15.84          27.76  214.80           0.44    0.17    0.13    0.28            0.24    0.24    0.21           0.18     0.20
E14        55.23   46.73   53.53          74.02   27.23  -17.93          32.61  326.63           0.19    0.41    0.20    0.31            0.15    0.20    0.17           0.28     0.33
E15        64.59   67.41   27.94          85.71   -0.91   35.97          35.98   91.45           0.13    0.19    0.46    0.16            0.15    0.17    0.17           0.27     0.31
E16        27.07   28.09   22.84          59.97   -0.05    0.64           0.66   97.35           0.54    0.55    0.56    0.55            0.16    0.18    0.18           0.28     0.32
E17        46.27   39.64   23.85          69.21   24.14   14.70          28.26   31.33           0.22    0.50    0.54    0.37            0.18    0.21    0.15           0.27     0.31
E18        37.23   47.29   26.63          74.38  -25.45   18.64          31.55  143.78           0.47    0.26    0.48    0.34            0.21    0.20    0.14           0.25     0.29
E19        33.82   33.50   50.52          64.56    5.39  -30.92          31.39  279.88           0.51    0.46    0.23    0.49            0.16    0.16    0.11           0.24     0.28
E20        24.00   16.35    1.16          47.43   41.09   61.14          73.66   56.10           0.43    1.11    1.79    0.70            0.10    0.08    0.01           0.17     0.19
E21        16.67   13.69    2.59          43.79   20.84   40.03          45.13   62.50           0.62    1.02    1.46    0.81            0.07    0.07    0.02           0.19     0.22
E22        29.03   24.92    7.67          56.99   20.49   35.25          40.77   59.83           0.40    0.72    1.01    0.56            0.16    0.16    0.08           0.24     0.28
F1          1.36    1.74    1.24          14.03   -8.52    2.48           8.87  163.77           1.93    1.68    1.79    1.78            0.02    0.03    0.03           0.28     0.32
F2          1.05    1.71    1.01          13.88  -18.12    5.40          18.91  163.40           2.18    1.62    1.86    1.82            0.01    0.02    0.01           0.21     0.25
F3          0.93    1.88    0.90          14.82  -26.43    8.70          27.83  161.77           2.40    1.53    1.90    1.79            0.02    0.03    0.01           0.26     0.31
F4          0.95    2.07    0.96          15.87  -30.05    9.61          31.55  162.27           2.46    1.48    1.87    1.75            0.01    0.02    0.01           0.24     0.27
F5          6.34    7.99    5.54          33.96  -13.54    4.87          14.39  160.20           1.25    1.03    1.15    1.12            0.08    0.09    0.06           0.25     0.28
F6          5.23    8.04    4.76          34.05  -26.46    9.00          27.95  161.21           1.44    0.97    1.21    1.14            0.07    0.10    0.06           0.26     0.30
F7          4.18    7.99    3.94          33.96  -39.70   13.59          41.96  161.10           1.72    0.92    1.28    1.16            0.06    0.10    0.07           0.27     0.34
F8          3.05    7.90    3.02          33.77  -56.34   19.42          59.59  160.98           2.28    0.87    1.38    1.19            0.02    0.05    0.02           0.20     0.23
F9         36.66   39.79   30.98          69.32   -5.54    2.83           6.22  152.96           0.43    0.38    0.42    0.41            0.28    0.31    0.27           0.27     0.31
F10        35.11   39.89   29.80          69.39  -11.02    4.81          12.02  156.43           0.46    0.36    0.44    0.41            0.20    0.24    0.21           0.22     0.25
F11        33.15   39.48   28.46          69.10  -16.54    6.46          17.75  158.66           0.51    0.35    0.46    0.42            0.16    0.16    0.11           0.21     0.23
F12        28.49   39.58   25.10          69.17  -34.09   12.34          36.26  160.10           0.65    0.30    0.51    0.43            0.17    0.18    0.10           0.21     0.23
F13        39.12   50.34   59.46          76.28  -27.60  -20.20          34.20  216.20           0.56    0.20    0.15    0.34            0.19    0.21    0.19           0.19     0.21
F14        49.69   39.25   49.70          68.93   34.79  -22.47          41.42  327.14           0.23    0.51    0.24    0.38            0.17    0.19    0.13           0.24     0.27
F15        62.11   64.36   21.28          84.15    0.12   45.38          45.38   89.85           0.14    0.22    0.57    0.17            0.11    0.11    0.13           0.23     0.26
F16        19.31   20.01   16.23          51.85    0.10    0.67           0.69   82.49           0.68    0.70    0.70    0.70            0.12    0.13    0.14           0.26     0.30
F17        40.34   32.35   17.19          63.63   30.74   18.72          35.99   31.34           0.26    0.63    0.68    0.44            0.10    0.13    0.12           0.23     0.28
