targets/wolf_faust/reflective/R151002WhiteBacking.it8
IT8.7/2
ORIGINATOR "Wolf Faust"
DESCRIPTOR "Kodak Professional Paper, L* a* b* (light D50, viewing angle 2)"
MANUFACTURER "Wolf Faust - http://www.coloraid.de"
CREATED "April 15, 2016"
PROD_DATE "2015:10"
SAMPLE_BACKING "white"
SERIAL "5x7 R151002 Batch Average Data"
MATERIAL "Kodak Professional Endura Premier"
NUMBER_OF_FIELDS 9
BEGIN_DATA_FORMAT
SAMPLE_ID  XYZ_X   XYZ_Y   XYZ_Z          LAB_L   LAB_A   LAB_B          LAB_C   LAB_H
END_DATA_FORMAT
NUMBER_OF_SETS 288
BEGIN_DATA
A1          3.36    2.78    1.90          19.12   11.96    3.64          12.50   16.94
A2          4.33    2.91    1.63          19.69   23.90    7.51          25.06   17.44 
A3          5.31    3.00    1.37          20.02   34.94   11.04          36.65   17.54
A4          5.62    3.14    1.43          20.59   36.17   11.36          37.91   17.44 
A5         12.60   10.92    7.61          39.44   14.75    5.24          15.66   19.56
A6         14.95   10.95    6.72          39.50   29.39    9.00          30.74   17.03 
A7         17.54   11.12    5.79          39.78   42.87   13.70          45.00   17.72
A8         21.18   11.31    4.90          40.10   59.84   18.70          62.70   17.35 
A9         41.58   40.71   31.44          69.97    7.18    3.25           7.88   24.34
A10        43.56   40.47   30.05          69.80   13.82    5.10          14.73   20.27
A11        46.49   40.99   29.19          70.17   20.66    7.13          21.86   19.04
A12        48.61   41.09   28.48          70.24   26.20    8.40          27.51   17.78 
A13        76.61   80.89   66.71          92.08   -2.77    0.04           2.77  179.19
A14        77.41   78.99   65.84          91.23    2.51   -0.62           2.58  346.16 
A15        79.34   82.60   65.48          92.84   -0.59    2.49           2.56  103.32
A16        79.08   81.88   66.26          92.52    0.26    1.21           1.24   77.89
A17        78.65   81.52   64.48          92.36    0.08    2.62           2.62   88.19
A18        78.70   82.23   65.55          92.68   -1.16    2.15           2.44  118.30 
A19        73.96   77.15   65.63          90.39   -0.88   -1.87           2.07  244.89
A20         1.28    1.02    0.70           9.17    9.86    2.60          10.20   14.78 
A21         5.23    3.28    0.75          21.12   29.29   22.18          36.73   37.13
A22        10.29    5.84    0.81          29.00   43.17   34.80          55.45   38.87
B1          3.25    2.85    1.53          19.43    8.87    8.19          12.07   42.71
B2          3.86    2.84    0.97          19.41   18.48   15.56          24.16   40.09
B3          4.75    3.06    0.67          20.29   26.80   22.38          34.92   39.86
B4          5.36    3.18    0.46          20.75   32.41   27.15          42.28   39.95
B5         12.78   10.94    5.71          39.48   15.82   13.53          20.82   40.53
B6         14.74   10.98    3.73          39.55   27.93   24.53          37.18   41.29
B7         17.28   11.01    2.15          39.60   42.24   36.57          55.87   40.88
B8         20.78   11.41    1.05          40.26   57.25   50.37          76.26   41.34
B9         41.37   40.76   29.51          70.01    6.38    6.33           9.00   44.77
B10        43.53   40.84   26.08          70.07   12.60   12.17          17.51   44.01
B11        45.76   40.80   22.93          70.03   19.16   17.82          26.17   42.92
B12        47.75   41.14   21.41          70.27   23.71   21.19          31.80   41.78
B13        72.25   77.81   66.16          90.69   -5.74   -1.85           6.03  197.84
B14        74.57   74.30   64.40          89.06    6.08   -2.99           6.77  333.82
B15        76.52   79.91   55.58          91.65   -1.08   10.28          10.34   96.00
B16        64.14   66.41   53.31          85.21    0.22    1.60           1.62   82.01
B17        71.08   70.93   53.72          87.45    5.77    5.02           7.65   41.04
B18        68.92   74.73   55.19          89.26   -6.68    6.59           9.38  135.37
B19        67.25   69.44   63.61          86.72    0.65   -6.28           6.32  275.93
B20         2.77    1.95    0.70          15.23   18.48   13.02          22.61   35.16
B21         8.40    4.87    0.79          26.36   39.04   30.57          49.58   38.06
B22        29.48   24.95   11.55          57.03   22.07   22.07          31.21   45.00
C1          4.42    4.25    2.18          24.48    4.47   10.24          11.17   66.44
C2          4.75    4.23    1.28          24.43    8.98   19.82          21.75   65.63
C3          5.18    4.34    0.73          24.77   12.90   28.91          31.66   65.95
C4          5.55    4.55    0.62          25.42   14.55   32.21          35.34   65.69
C5         23.86   22.61   10.62          54.67    9.28   20.86          22.83   66.00
C6         26.12   22.78    5.29          54.84   18.18   42.11          45.86   66.65
C7         28.26   22.83    2.30          54.90   26.55   61.60          67.08   66.69
C8         30.06   22.89    1.05          54.95   33.20   75.65          82.62   66.30
C9         48.41   48.64   32.43          75.23    4.17   10.80          11.57   68.89
C10        50.02   48.57   26.55          75.18    8.71   20.17          21.97   66.64
C11        51.46   48.53   21.64          75.16   12.65   29.16          31.79   66.54
C12        52.72   48.80   18.83          75.33   15.22   35.25          38.40   66.65
C13        63.48   71.37   65.18          87.67  -11.86   -6.14          13.36  207.37
C14        68.74   65.09   61.38          84.53   13.35   -7.88          15.50  329.44
C15        73.17   76.54   45.26          90.11   -1.32   19.24          19.29   93.92
C16        49.72   51.47   41.47          76.96    0.25    1.27           1.30   78.94
C17        62.45   59.43   42.02          81.53   12.22    8.45          14.86   34.66
C18        57.60   65.57   44.46          84.78  -13.28   11.01          17.26  140.34
C19        54.84   56.13   59.92          79.69    1.79  -14.78          14.89  276.92
C20         1.66    1.38    0.67          11.84    9.11    7.84          12.02   40.70
C21        23.34   17.42    4.42          48.78   32.38   36.28          48.63   48.25
C22        35.43   32.07   17.09          63.40   15.89   18.57          24.44   49.44
D1          4.02    4.17    2.16          24.23   -0.11    9.94           9.94   90.65
D2          3.97    4.17    1.35          24.23   -0.77   18.65          18.67   92.35
D3          4.18    4.38    0.78          24.89   -0.62   28.13          28.14   91.25
D4          4.53    4.76    0.69          26.05   -0.77   31.81          31.82   91.38
D5         27.10   28.13   13.73          60.01   -0.08   21.05          21.06   90.23
D6         26.95   28.10    7.44          59.97   -0.57   41.33          41.33   90.80
D7         26.37   27.76    3.44          59.67   -1.61   61.15          61.17   91.51
D8         26.59   27.99    1.42          59.88   -1.60   79.13          79.15   91.16
D9         55.19   57.19   37.81          80.28    0.12   11.82          11.82   89.44
D10        55.38   57.57   30.85          80.50   -0.35   22.31          22.31   90.89
D11        55.38   57.53   24.52          80.48   -0.23   32.88          32.88   90.40
D12        54.63   57.08   11.15          80.22   -1.03   63.27          63.28   90.93
D13        54.76   64.50   63.87          84.22  -17.93  -10.83          20.95  211.14
D14        63.10   56.66   58.17          79.99   20.36  -12.50          23.89  328.45
D15        70.02   73.15   36.30          88.52   -1.11   28.10          28.12   92.26
D16        37.67   39.16   31.68          68.87   -0.27    0.97           1.02  105.99
D17        54.99   49.76   32.41          75.92   18.44   12.02          22.01   33.10
D18        47.13   56.69   35.19          80.00  -19.93   14.98          24.94  143.07
D19        43.90   44.51   55.84          72.57    2.87  -22.87          23.05  277.15
D20        13.96   10.46    2.63          38.66   26.92   30.84          40.94   48.88
D21        21.64   20.83   11.50          52.77    7.44   14.89          16.65   63.43
D22        38.84   36.87   19.72          67.18   10.73   19.31          22.09   60.95
E1          3.67    4.16    2.24          24.19   -5.07    9.22          10.53  118.82
E2          3.36    4.17    1.39          24.23  -10.02   18.14          20.73  118.92
E3          3.31    4.47    0.87          25.16  -14.83   27.03          30.83  118.75
E4          3.35    4.68    0.76          25.81  -17.11   30.17          34.69  119.56
E5         12.48   14.20    7.46          44.51   -7.88   14.56          16.56  118.44
E6         11.41   14.16    4.44          44.46  -15.11   28.73          32.46  117.74
E7         10.33   14.08    2.47          44.34  -22.66   41.91          47.64  118.40
E8          9.30   14.05    1.23          44.30  -30.62   54.72          62.71  119.23
E9         38.23   40.96   28.18          70.15   -4.00    8.73           9.61  114.61
E10        36.76   40.77   23.20          70.01   -8.19   17.27          19.12  115.36
E11        35.55   40.94   19.60          70.13  -12.73   24.66          27.76  117.31
E12        31.96   40.67   11.08          69.95  -24.42   45.79          51.89  118.07
E13        47.26   58.19   62.46          80.85  -23.22  -15.29          27.80  213.37
E14        57.16   48.20   54.48          74.95   28.01  -17.34          32.95  328.24
E15        67.12   69.83   28.28          86.91   -0.46   37.48          37.48   90.70
E16        27.82   28.83   23.19          60.63    0.09    1.13           1.15   86.32
E17        47.95   40.91   24.17          70.11   24.94   15.66          29.45   32.13
E18        38.38   48.75   27.08          75.29  -25.71   19.46          32.24  142.88
E19        34.67   34.38   51.37          65.26    5.27  -30.67          31.12  279.74
E20        24.82   16.85    1.17          48.07   41.93   62.01          74.86   55.94
E21        17.16   14.05    2.60          44.30   21.32   40.81          46.04   62.41
E22        29.94   25.60    7.81          57.66   21.06   35.88          41.60   59.58
F1          1.39    1.76    1.25          14.19   -8.49    2.58           8.88  163.12
F2          1.09    1.77    1.02          14.24  -18.18    5.91          19.12  161.97
F3          0.95    1.92    0.92          15.06  -26.64    8.95          28.10  161.43
F4          0.98    2.12    0.97          16.12  -30.26    9.86          31.83  161.95
F5          6.52    8.21    5.62          34.41  -13.54    5.23          14.51  158.87
F6          5.37    8.22    4.80          34.43  -26.49    9.46          28.13  160.35
F7          4.29    8.18    3.99          34.36  -39.97   13.95          42.34  160.76
F8          3.11    8.06    3.07          34.10  -56.77   19.60          60.06  160.95
F9         37.59   40.76   31.34          70.01   -5.46    3.45           6.46  147.68
F10        36.05   40.96   30.17          70.15  -11.12    5.52          12.42  153.62
F11        34.12   40.60   28.82          69.90  -16.60    7.25          18.11  156.42
F12        29.21   40.62   25.40          69.91  -34.50   13.07          36.89  159.25
F13        40.27   51.91   60.61          77.23  -28.09  -19.72          34.32  215.07
F14        51.34   40.40   50.52          69.75   35.64  -21.97          41.86  328.35
F15        64.57   66.68   21.59          85.34    0.63   46.82          46.82   89.23
F16        19.84   20.53   16.50          52.43    0.24    1.04           1.07   77.64
F17        41.71   33.35   17.50          64.44   31.39   19.42          36.91   31.75
F18        30.55   41.27   20.24          70.37  -31.39   23.71          39.34  142.94
F19        26.67   25.56   46.55          57.62    8.45  -38.32          39.24  282.44
F20        26.12   24.85   11.45          56.93    9.17   22.19          24.02   67.54
F21        33.89   30.49   10.31          62.07   16.33   34.63          38.28   64.75
F22        38.60   35.77   15.31          66.35   13.57   27.90          31.03   64.07
G1          2.22    2.82    2.53          19.29   -9.92   -1.74          10.07  189.93
G2          1.74    2.76    2.68          19.05  -19.90   -3.34          20.18  189.54
G3          1.54    3.01    3.17          20.09  -29.71   -5.24          30.17  190.00
G4          1.65    3.38    3.46          21.52  -32.83   -4.81          33.18  188.33
G5          8.83   10.83    9.47          39.30  -12.96   -1.86          13.09  188.16
G6          7.52   10.88   10.08          39.37  -25.06   -3.78          25.35  188.57
G7          6.26   10.90   10.80          39.41  -37.94   -5.99          38.41  188.97
G8          4.85   10.80   11.50          39.23  -53.53   -8.46          54.20  188.98
G9         37.62   40.92   33.82          70.12   -5.85   -0.07           5.86  180.68
G10        35.41   40.92   34.50          70.12  -13.15   -1.07          13.19  184.66
G11        33.72   40.87   35.38          70.09  -18.81   -2.38          18.96  187.21
G12        28.46   40.52   37.38          69.84  -37.09   -5.61          37.51  188.60
G13        34.11   46.00   58.70          73.55  -32.36  -24.14          40.37  216.73
G14        45.99   33.64   46.53          64.68   42.92  -26.13          50.25  328.67
G15        62.40   63.78   16.11          83.85    2.10   56.14          56.18   87.86
G16        13.70   14.21   11.41          44.53   -0.04    0.96           0.97   91.55
G17        36.44   27.20   12.21          59.16   37.53   23.80          44.44   32.37
G18        24.01   34.67   14.87          65.49  -36.70   27.54          45.89  143.11
G19        20.19   18.54   41.85          50.14   11.83  -45.46          46.98  284.59
G20        36.23   34.71   14.15          65.52    9.43   29.44          30.91   72.24
G21        34.89   33.20    9.17          64.32   10.08   42.34          43.52   76.61
G22        46.88   42.90    2.62          71.49   16.08   87.52          88.98   79.59
H1          2.42    2.83    3.14          19.35   -6.09   -6.30           8.76  225.94
H2          2.10    2.82    4.06          19.30  -12.45  -12.44          17.60  224.98
H3          1.86    2.82    5.40          19.29  -18.01  -19.75          26.73  227.63
H4          2.01    3.14    6.59          20.60  -20.27  -23.01          30.66  228.61
H5          9.62   11.05   11.79          39.66   -8.00   -8.57          11.73  226.98
H6          8.57   10.96   15.25          39.51  -16.17  -18.20          24.35  228.38
H7          7.60   10.86   18.94          39.34  -24.20  -27.04          36.29  228.17
H8          6.62   10.80   24.12          39.24  -33.36  -37.49          50.19  228.34
H9         38.03   41.07   36.86          70.22   -4.98   -4.23           6.54  220.30
H10        37.00   41.25   40.43          70.35   -8.87   -8.78          12.48  224.72
H11        35.60   41.17   44.93          70.29  -13.25  -14.54          19.67  227.65
H12        32.01   40.99   56.27          70.17  -25.20  -27.48          37.29  227.48
H13        28.45   40.17   56.23          69.59  -36.09  -28.42          45.93  218.22
H14        40.24   26.88   41.90          58.87   50.95  -30.48          59.37  329.11
H15        60.43   60.96   11.58          82.36    3.93   65.65          65.77   86.57
H16         8.87    9.12    7.44          36.22    0.64    0.37           0.78   69.44
H17        31.39   21.57    8.10          53.57   44.09   27.70          52.07   32.14
H18        18.58   28.87   10.57          60.67  -41.65   31.38          52.15  143.01
H19        14.73   12.47   36.85          41.95   17.47  -52.94          55.75  288.26
H20        41.25   41.53   14.85          70.54    3.73   36.31          36.50   84.14
H21        30.83   31.81   19.60          63.19    0.57   12.67          12.68   87.43
H22        34.89   37.73   10.78          67.82   -5.01   43.06          43.35   96.64
I1          4.13    4.25    5.58          24.49    0.38  -11.66          11.67  271.84
I2          4.12    4.17    8.30          24.21    1.52  -23.67          23.72  273.67
I3          4.25    4.26   11.62          24.51    1.93  -34.20          34.25  273.23
I4          4.30    4.17   19.39          24.23    3.92  -54.05          54.19  274.15
I5         13.69   14.08   14.65          44.35    0.74   -8.35           8.38  275.04
I6         13.93   14.30   18.98          44.66    0.90  -17.95          17.98  272.88
I7         14.08   14.37   23.81          44.77    1.37  -27.39          27.43  272.86
I8         14.26   14.32   39.10          44.69    2.80  -51.28          51.36  273.12
I9         39.82   41.24   36.60          70.35    0.17   -3.65           3.66  272.66
I10        39.92   41.05   40.59          70.21    1.06   -9.24           9.30  276.56
I11        39.84   41.09   44.17          70.24    0.70  -13.70          13.72  272.92
I12        40.71   41.73   54.88          70.68    1.46  -25.12          25.16  273.33
I13        23.57   34.84   53.63          65.62  -39.19  -32.51          50.92  219.68
I14        35.47   21.64   37.82          53.64   58.09  -34.13          67.38  329.56
I15        58.62   58.15    7.79          80.82    6.23   75.89          76.14   85.30
I16         5.37    5.58    4.38          28.32   -0.09    1.27           1.28   93.98
I17        27.34   17.36    4.84          48.71   49.54   33.88          60.02   34.36
I18        13.88   23.46    6.92          55.55  -46.32   35.80          58.55  142.30
I19        10.67    8.16   32.39          34.31   23.18  -59.70          64.04  291.22
I20        41.57   45.39   15.53          73.15   -6.54   39.10          39.64   99.50
I21        10.58   14.21    3.23          44.53  -21.56   36.49          42.38  120.57
I22        27.92   36.00   16.79          66.52  -24.89   24.64          35.02  135.29
J1          2.03    1.82    2.87          14.50    6.61  -12.74          14.35  297.43
J2          2.38    1.84    4.75          14.60   13.73  -24.48          28.07  299.29
J3          2.74    1.83    7.55          14.59   20.64  -37.39          42.71  298.90
J4          3.88    1.83   19.56          14.57   39.54  -71.08          81.33  299.09
J5         11.26   10.95   11.96          39.49    5.20   -9.38          10.73  298.98
J6         12.13   10.98   15.51          39.55   11.08  -18.79          21.81  300.52
J7         12.93   11.07   19.64          39.69   15.88  -27.92          32.12  299.63
J8         15.13   11.05   34.62          39.67   29.72  -53.74          61.41  298.95
J9         40.73   41.25   36.95          70.35    2.95   -4.13           5.08  305.55
J10        41.55   41.19   40.35          70.31    5.65   -8.76          10.43  302.80
J11        42.57   41.24   44.58          70.34    8.56  -14.02          16.43  301.39
J12        44.72   41.41   53.52          70.46   14.35  -24.05          28.01  300.83
J13        19.50   30.02   50.77          61.67  -41.29  -36.19          54.91  221.23
J14        30.49   16.66   33.22          47.83   65.51  -37.62          75.54  330.13
J15        56.92   55.45    5.17          79.30    8.65   84.87          85.31   84.18
J16         2.95    3.04    2.45          20.20    0.31    0.52           0.63   94.55
J17        23.38   13.57    2.70          43.61   54.83   38.84          67.19   35.31
J18        10.16   18.83    4.40          50.48  -50.38   39.34          63.92  142.01
J19         7.60    4.90   27.81          26.44   31.44  -66.02          73.12  295.47
J20        29.83   38.41   21.63          68.32  -25.30   17.38          30.70  145.51
J21         4.03    7.69    1.38          33.32  -39.01   33.86          51.65  139.04
J22         1.20    1.98    0.86          15.37  -19.32   10.40          21.94  151.72
K1          5.12    4.24    4.99          24.44   13.64   -8.78          16.23  327.23
K2          6.40    4.31    7.13          24.67   27.15  -18.31          32.75  326.01
K3          7.71    4.32    9.54          24.70   39.98  -27.26          48.39  325.72
K4          8.78    4.30   11.82          24.64   49.79  -34.57          60.62  325.23
K5         15.87   14.40   14.67          44.80   11.95   -7.62          14.18  327.48
K6         17.93   14.46   18.17          44.88   22.97  -15.79          27.87  325.50
K7         20.30   14.56   21.84          45.03   34.37  -23.19          41.46  325.99
K8         26.17   14.59   32.68          45.06   60.51  -41.60          73.43  325.49
K9         42.07   41.34   36.25          70.41    6.75   -3.04           7.40  335.73
K10        44.53   41.67   40.32          70.64   13.01   -8.14          15.35  327.95
K11        46.73   41.64   43.68          70.62   19.39  -12.44          23.04  327.32
K12        51.76   41.89   51.52          70.80   32.23  -21.29          38.63  326.56
K13        15.60   24.95   47.08          57.03  -42.32  -39.97          58.21  223.37
K14        26.05   12.78   28.71          42.43   71.38  -39.92          81.78  330.78
K15        55.08   52.48    3.18          77.57   11.57   93.80          94.51   82.97
K16         1.33    1.39    1.17          11.88   -0.20   -0.26           0.41  220.20
K17        19.85   10.59    1.30          38.88   58.71   44.54          73.69   37.19
K18         6.92   14.32    2.57          44.68  -53.84   41.68          68.09  142.25
K19         5.31    2.70   23.15          18.80   40.24  -70.92          81.54  299.57
K20         2.24    2.95    1.80          19.84  -11.88    5.95          13.29  153.40
K21         1.21    1.68    1.42          13.72  -11.83   -0.39          11.84  181.87
K22         1.57    2.06    2.70          15.82  -10.46   -9.15          13.90  221.16
L1          3.53    2.86    2.53          19.47   13.07   -1.42          13.15  353.79
L2          4.42    2.88    2.83          19.57   25.58   -3.64          25.84  351.91
L3          5.52    3.06    3.19          20.30   36.24   -5.03          36.58  352.09
L4          6.16    3.36    3.58          21.43   38.56   -5.73          38.99  351.55
L5         12.98   11.04    9.77          39.65   16.39   -2.25          16.55  352.19
L6         15.67   11.27   10.62          40.03   31.38   -4.38          31.68  352.06
L7         18.62   11.24   11.52          39.98   47.71   -7.24          48.25  351.37
L8         22.23   11.41   12.63          40.26   64.11  -10.00          64.89  351.14
L9         42.70   41.48   34.23          70.51    8.22   -0.01           8.23  159.97
L10        45.32   41.73   35.44          70.68   15.10   -1.44          15.17  354.57
L11        47.30   41.31   36.04          70.39   21.96   -2.79          22.14  352.77
L12        50.02   41.52   36.62          70.54   28.75   -3.35          28.95  353.35
L13        12.11   19.90   42.29          51.72  -41.48  -43.29          59.96  226.23
L14        21.76    9.65   24.02          37.20   75.07  -40.81          85.45  331.47
L15        52.03   48.12    1.75          74.90   15.23  101.40         102.54   81.46
L16         0.45    0.48    0.43           4.34   -0.37   -0.54           0.66  235.55
L17        16.28    8.00    0.48          33.98   60.94   49.50          78.51   39.08
L18         4.26    9.96    1.30          37.77  -55.00   42.53          69.53  142.28
L19         3.75    1.41   18.41          12.02   48.57  -73.00          87.68  303.64
L20         0.65    0.71    0.74           6.42   -1.44   -2.96           3.29  244.05
L21         0.87    0.82    0.92           7.41    3.10   -4.25           5.26  306.21
L22         1.88    1.48    1.25          12.46   11.82   -0.39          11.83  358.12
GS0        78.75   81.93   66.10          92.54   -0.49    1.40           1.48  109.40
GS1        69.06   71.53   57.52          87.74    0.20    1.53           1.55   82.33
