targets/wolf_faust/reflective/R160727WhiteBacking.it8
IT8.7/2
ORIGINATOR "Wolf Faust"
DESCRIPTOR "Kodak Professional Paper, L* a* b* (light D50, viewing angle 2)"
MANUFACTURER "Wolf Faust - http://www.coloraid.de"
CREATED "July 28, 2016"
PROD_DATE "2016:07"
SAMPLE_BACKING "white"
SERIAL "5x7 R160727 Batch Average Data"
MATERIAL "Kodak Professional Endura Premier"
NUMBER_OF_FIELDS 9
BEGIN_DATA_FORMAT
SAMPLE_ID  XYZ_X   XYZ_Y   XYZ_Z          LAB_L   LAB_A   LAB_B          LAB_C   LAB_H
END_DATA_FORMAT
NUMBER_OF_SETS 288
BEGIN_DATA
A1          3.63    3.03    2.04          20.16   11.77    4.05          12.45   18.98
A2          4.49    3.07    1.72          20.31   23.39    7.55          24.58   17.88 
A3          5.47    3.21    1.53          20.85   33.32   10.63          34.98   17.68
A4          5.88    3.40    1.61          21.58   34.86   11.01          36.56   17.53 
A5         13.02   11.35    7.92          40.15   14.48    5.23          15.40   19.87
A6         15.30   11.23    6.83          39.97   29.46    9.32          30.90   17.55 
A7         17.75   11.33    6.02          40.14   42.47   13.22          44.48   17.29
A8         21.35   11.55    4.97          40.50   58.97   19.01          61.96   17.87 
A9         42.00   41.29   31.91          70.38    6.71    3.22           7.44   25.61
A10        44.62   41.52   30.54          70.54   13.71    5.62          14.82   22.30
A11        47.00   41.44   29.74          70.48   20.73    6.77          21.81   18.09
A12        49.34   41.59   28.58          70.58   26.70    8.83          28.13   18.30 
A13        76.30   81.00   66.49          92.13   -3.62    0.33           3.64  174.77
A14        76.93   78.22   65.40          90.88    3.06   -0.81           3.16  345.19 
A15        79.71   83.24   65.83          93.12   -1.07    2.65           2.86  112.07
A16        78.46   81.43   66.20          92.32   -0.12    0.93           0.94   97.12
A17        79.01   82.17   64.76          92.65   -0.44    2.85           2.88   98.73
A18        79.13   82.85   65.77          92.95   -1.48    2.41           2.82  121.52 
A19        72.49   75.65   65.12          89.70   -0.94   -2.58           2.75  250.03
A20         1.50    1.25    0.84          10.95    8.56    3.05           9.09   19.61 
A21         5.35    3.45    0.88          21.76   27.90   21.08          34.97   37.07
A22        10.62    6.12    0.95          29.72   42.59   33.66          54.29   38.32
B1          3.46    3.04    1.66          20.20    8.94    8.00          12.00   41.80
B2          4.09    3.06    1.12          20.28   17.97   14.91          23.35   39.67
B3          4.91    3.25    0.78          21.03   25.71   21.55          33.55   39.97
B4          5.49    3.38    0.61          21.50   30.71   25.51          39.92   39.71
B5         13.11   11.33    5.91          40.14   15.16   13.75          20.47   42.20
B6         15.15   11.42    3.93          40.28   27.19   24.56          36.64   42.09
B7         17.50   11.33    2.36          40.13   41.15   35.61          54.42   40.88
B8         20.95   11.69    1.26          40.72   56.13   48.11          73.92   40.60
B9         41.57   41.03   29.86          70.19    6.21    6.09           8.70   44.46
B10        44.13   41.54   26.78          70.55   12.26   11.79          17.01   43.87
B11        46.48   41.54   23.82          70.55   18.96   17.06          25.51   41.98
B12        48.28   41.36   21.33          70.43   24.49   21.61          32.66   41.43
B13        71.34   77.50   65.95          90.55   -7.06   -1.89           7.30  194.96
B14        74.22   73.71   64.03          88.78    6.58   -3.12           7.28  334.66
B15        77.17   80.84   56.22          92.06   -1.57   10.33          10.45   98.62
B16        63.47   65.78   53.77          84.88    0.11    0.55           0.58   77.41
B17        71.25   70.84   54.28          87.40    6.32    4.35           7.67   34.56
B18        68.67   75.01   55.89          89.40   -7.78    6.08           9.87  141.99
B19        66.09   68.32   63.29          86.16    0.50   -6.92           6.94  274.08
B20         3.01    2.19    0.85          16.48   17.45   12.55          21.49   35.71
B21         8.68    5.13    0.91          27.11   38.30   29.81          48.53   37.89
B22        30.05   25.54   11.89          57.59   21.79   22.04          30.99   45.33
C1          4.60    4.40    2.29          24.94    4.88   10.07          11.20   64.12
C2          4.88    4.38    1.47          24.89    8.74   18.33          20.31   64.50
C3          5.31    4.50    0.88          25.26   12.38   27.12          29.81   65.48
C4          5.75    4.79    0.78          26.12   13.76   30.29          33.27   65.57
C5         24.06   22.95   10.68          55.02    8.64   21.29          22.98   67.90
C6         26.04   22.77    5.50          54.83   17.85   41.03          44.75   66.49
C7         28.47   22.98    2.39          55.05   26.68   61.12          66.69   66.41
C8         30.27   23.15    1.24          55.22   32.85   73.46          80.47   65.91
C9         48.92   49.20   33.39          75.57    4.07    9.96          10.76   67.75
C10        50.12   48.90   27.27          75.39    8.10   19.30          20.94   67.23
C11        51.95   49.11   21.76          75.52   12.36   29.55          32.03   67.31
C12        53.44   49.22   18.35          75.58   15.95   36.73          40.05   66.53
C13        63.01   71.36   65.17          87.66  -12.91   -6.14          14.30  205.44
C14        69.20   65.49   61.61          84.74   13.44   -7.75          15.52  330.01
C15        73.99   77.62   45.07          90.61   -1.77   20.33          20.40   94.97
C16        49.76   51.79   41.49          77.16   -0.48    1.58           1.65  106.56
C17        63.33   60.29   42.19          81.99   12.24    9.04          15.21   36.46
C18        57.28   65.78   44.02          84.89  -14.54   11.73          18.69  141.10
C19        54.63   56.16   60.14          79.70    1.22  -14.97          15.02  274.65
C20         1.87    1.61    0.82          13.28    8.07    7.54          11.04   43.06
C21        23.75   17.85    4.74          49.32   31.91   35.44          47.68   48.00
C22        35.88   32.57   17.17          63.81   15.63   19.09          24.68   50.69
D1          4.23    4.39    2.29          24.93   -0.04   10.01          10.01   90.24
D2          4.29    4.42    1.46          25.02    0.36   18.62          18.62   88.89
D3          4.46    4.65    0.95          25.71   -0.35   26.75          26.75   90.74
D4          4.68    4.94    0.86          26.55   -1.02   29.61          29.63   91.98
D5         27.21   28.30   13.81          60.15   -0.32   21.10          21.10   90.86
D6         27.11   28.39    7.55          60.24   -1.06   41.31          41.32   91.48
D7         26.76   28.19    3.69          60.06   -1.67   60.16          60.18   91.59
D8         26.60   28.34    1.64          60.19   -2.91   77.21          77.27   92.16
D9         55.73   57.83   38.90          80.64   -0.09   10.98          10.98   90.47
D10        55.70   57.97   30.91          80.72   -0.47   22.59          22.60   91.20
D11        55.42   57.84   24.88          80.65   -0.85   32.53          32.54   91.50
D12        55.33   58.14   11.06          80.82   -1.83   64.57          64.60   91.63
D13        54.50   64.62   63.97          84.29  -18.86  -10.81          21.74  209.82
D14        63.07   56.14   58.16          79.69   21.55  -12.99          25.16  328.92
D15        71.20   74.56   36.16          89.19   -1.47   29.45          29.49   92.86
D16        37.51   38.96   31.53          68.72   -0.18    0.95           0.98  100.27
D17        55.48   49.93   32.38          76.03   19.21   12.24          22.78   32.51
D18        47.40   57.36   35.11          80.38  -20.82   15.75          26.10  142.90
D19        43.56   43.97   55.95          72.21    3.43  -23.62          23.87  278.26
D20        14.23   10.79    2.75          39.22   26.21   30.88          40.51   49.68
D21        22.12   21.33   11.52          53.30    7.35   15.74          17.37   64.99
D22        39.43   37.42   19.97          67.59   10.80   19.49          22.29   61.00
E1          3.94    4.43    2.32          25.03   -4.68    9.93          10.98  115.25
E2          3.61    4.42    1.52          25.02   -9.50   17.94          20.30  117.90
E3          3.56    4.73    1.05          25.94  -14.30   25.60          29.33  119.19
E4          3.63    4.98    0.94          26.67  -16.41   28.64          33.01  119.82
E5         12.95   14.65    7.70          45.14   -7.51   14.72          16.53  117.04
E6         11.76   14.52    4.71          44.96  -14.84   28.11          31.78  117.84
E7         10.71   14.56    2.64          45.03  -22.68   41.73          47.50  118.53
E8          9.72   14.64    1.45          45.13  -30.78   53.44          61.67  119.94
E9         38.66   41.61   28.73          70.60   -4.60    8.61           9.76  118.10
E10        37.35   41.57   23.95          70.57   -8.67   16.84          18.95  117.25
E11        35.28   40.83   19.63          70.06  -13.31   24.45          27.84  118.57
E12        32.09   41.17   11.13          70.30  -25.47   46.22          52.77  118.86
E13        46.66   57.95   62.55          80.71  -24.32  -15.61          28.90  212.70
E14        57.12   47.58   54.54          74.56   29.60  -18.08          34.69  328.59
E15        68.59   71.44   28.07          87.70   -0.64   39.19          39.20   90.94
E16        27.77   28.77   23.14          60.58    0.10    1.12           1.14   84.62
E17        48.31   40.95   23.99          70.14   25.80   16.03          30.38   31.86
E18        38.52   49.27   26.99          75.62  -26.65   20.15          33.41  142.90
E19        34.37   33.80   51.61          64.80    6.23  -31.72          32.33  281.10
E20        25.02   17.14    1.36          48.44   41.17   60.27          72.99   55.67
E21        17.49   14.36    2.74          44.74   21.22   40.47          45.69   62.33
E22        30.58   26.19    8.02          58.22   21.07   36.02          41.73   59.67
F1          1.66    2.05    1.42          15.77   -7.78    3.16           8.40  157.92
F2          1.32    2.00    1.19          15.50  -16.02    5.62          16.98  160.65
F3          1.20    2.18    1.11          16.40  -23.70    8.30          25.11  160.71
F4          1.17    2.40    1.11          17.48  -29.49   10.18          31.20  160.96
F5          6.94    8.62    5.92          35.24  -12.93    5.26          13.96  157.84
F6          5.65    8.48    4.91          34.97  -25.51    9.81          27.33  158.97
F7          4.53    8.43    4.12          34.85  -38.80   14.06          41.27  160.08
F8          3.39    8.65    3.27          35.30  -57.26   20.24          60.73  160.54
F9         37.90   41.07   32.16          70.22   -5.41    2.57           5.99  154.57
F10        36.11   41.20   30.78          70.31  -11.65    4.85          12.62  157.41
F11        34.45   41.19   29.32          70.31  -17.22    7.15          18.65  157.45
F12        29.70   41.47   26.05          70.50  -35.20   12.97          37.51  159.77
F13        39.78   51.71   60.96          77.11  -29.10  -20.27          35.46  214.87
F14        51.28   39.74   50.55          69.28   37.49  -22.82          43.89  328.67
F15        66.20   68.39   21.34          86.20    0.58   48.78          48.78   89.32
F16        19.90   20.60   16.63          52.51    0.15    0.87           0.90   80.69
F17        41.89   33.26   17.26          64.37   32.25   19.85          37.87   31.61
F18        30.48   41.54   20.13          70.55  -32.50   24.28          40.57  143.24
F19        26.40   25.05   46.87          57.13    9.47  -39.54          40.66  283.47
F20        26.37   25.29   11.62          57.36    8.36   22.42          23.93   69.55
F21        34.52   31.11   10.69          62.60   16.25   34.32          37.97   64.67
F22        38.60   35.99   15.38          66.51   12.83   28.02          30.81   65.40
G1          2.45    3.03    2.61          20.16   -8.94   -0.94           8.99  185.97
G2          2.01    3.02    2.88          20.12  -18.01   -3.08          18.27  189.71
G3          1.83    3.35    3.38          21.38  -27.77   -4.45          28.13  189.11
G4          1.85    3.62    3.75          22.38  -31.69   -5.20          32.11  189.32
G5          9.33   11.29    9.90          40.07  -12.14   -1.98          12.30  189.24
G6          7.79   11.16   10.24          39.85  -24.58   -3.46          24.83  188.01
G7          6.64   11.30   11.17          40.09  -36.80   -6.00          37.28  189.25
G8          5.16   11.37   12.23          40.19  -53.77   -8.97          54.51  189.47
G9         37.87   41.32   34.39          70.40   -6.25   -0.42           6.27  183.86
G10        35.61   41.17   34.92          70.29  -13.23   -1.38          13.30  185.95
G11        33.75   41.00   36.08          70.17  -19.06   -3.23          19.34  189.61
G12        28.98   41.36   38.55          70.43  -37.60   -6.18          38.11  189.33
G13        33.59   45.70   59.08          73.35  -33.32  -24.86          41.58  216.72
G14        45.57   32.60   46.35          63.84   45.34  -27.36          52.96  328.90
G15        64.03   65.38   15.63          84.68    2.26   58.72          58.77   87.80
G16        13.61   14.08   11.28          44.35    0.20    1.04           1.07   79.70
G17        36.36   26.92   11.94          58.90   38.38   24.13          45.34   32.16
G18        24.09   35.02   14.70          65.76  -37.51   28.43          47.06  142.84
G19        20.00   18.03   42.12          49.52   13.53  -46.86          48.77  286.11
G20        36.43   34.95   14.44          65.71    9.26   29.03          30.47   72.30
G21        35.52   33.83    9.41          64.83   10.02   42.38          43.55   76.69
G22        47.45   43.50    2.78          71.89   15.90   86.97          88.42   79.64
H1          2.63    3.00    3.24          20.06   -4.88   -5.78           7.56  229.81
H2          2.37    3.05    4.41          20.25  -10.79  -12.81          16.75  229.88
H3          2.16    3.11    5.76          20.49  -16.36  -19.44          25.41  229.92
H4          2.25    3.41    7.17          21.62  -19.20  -23.72          30.51  231.01
H5          9.92   11.36   11.92          40.18   -7.85   -8.07          11.26  225.76
H6          8.88   11.25   15.19          40.00  -15.60  -17.23          23.24  227.84
H7          7.99   11.29   19.22          40.06  -23.66  -26.41          35.45  228.14
H8          7.05   11.33   25.54          40.14  -32.89  -38.50          50.64  229.49
H9         38.97   42.04   37.46          70.90   -4.89   -3.89           6.25  218.49
H10        37.43   41.75   41.21          70.69   -8.95   -9.20          12.84  225.79
H11        35.65   41.36   45.57          70.42  -13.64  -15.08          20.34  227.87
H12        32.76   41.68   57.15          70.65  -24.60  -27.55          36.94  228.24
H13        28.62   40.55   57.10          69.86  -36.56  -28.87          46.59  218.29
H14        40.33   26.48   42.11          58.49   52.84  -31.39          61.46  329.28
H15        62.19   62.64   11.24          83.26    4.18   68.23          68.35   86.50
H16         9.03    9.29    7.34          36.54    0.61    1.32           1.46   65.29
H17        31.52   21.65    7.81          53.65   44.23   28.96          52.86   33.22
H18        18.77   29.24   10.29          61.00  -42.12   32.83          53.40  142.06
H19        14.89   12.42   37.42          41.87   18.82  -53.88          57.07  289.25
H20        41.67   42.14   15.16          70.97    3.14   36.25          36.38   85.04
H21        31.52   32.63   20.13          63.86    0.20   12.73          12.73   89.10
H22        35.38   38.42   11.23          68.33   -5.53   42.54          42.90   97.41
I1          4.41    4.48    5.66          25.19    1.24  -10.87          10.94  276.49
I2          4.49    4.51    8.61          25.28    2.01  -22.97          23.05  275.00
I3          4.59    4.60   11.94          25.55    2.06  -33.35          33.41  273.53
I4          4.68    4.47   20.71          25.18    4.86  -55.15          55.36  275.03
I5         14.15   14.53   15.08          44.98    0.88   -8.37           8.41  275.96
I6         14.39   14.72   19.53          45.24    1.24  -18.12          18.16  273.91
I7         14.53   14.75   24.04          45.28    1.93  -26.91          26.98  274.11
I8         14.81   14.79   40.33          45.34    3.37  -51.78          51.89  273.73
I9         40.23   41.67   37.15          70.64    0.16   -3.89           3.89  272.27
I10        40.55   41.84   41.07          70.76    0.65   -8.91           8.93  274.14
I11        40.20   41.41   45.16          70.46    0.85  -14.52          14.55  273.35
I12        40.82   41.75   55.40          70.70    1.74  -25.64          25.70  273.86
I13        23.72   35.12   54.62          65.84  -39.48  -33.19          51.57  220.05
I14        35.27   21.06   37.76          53.01   60.12  -35.13          69.63  329.70
I15        60.51   60.00    7.79          81.84    6.36   77.61          77.87   85.31
I16         5.50    5.66    4.51          28.53    0.49    0.87           1.02   61.17
I17        27.16   17.20    4.84          48.51   49.67   33.54          59.93   34.03
I18        14.07   23.84    6.97          55.93  -46.80   36.24          59.20  142.25
I19        10.78    8.07   32.76          34.13   24.78  -60.56          65.44  292.25
I20        42.08   46.16   15.74          73.65   -7.16   39.44          40.09  100.29
I21        10.95   14.58    3.37          45.06  -21.04   36.36          42.01  120.06
I22        28.16   36.39   17.01          66.81  -25.24   24.63          35.27  135.70
J1          2.31    2.05    3.00          15.75    7.22  -11.54          13.61  302.04
J2          2.60    2.05    4.97          15.74   13.12  -23.70          27.09  298.96
J3          2.99    2.05    7.91          15.77   20.21  -36.77          41.96  298.80
J4          4.21    2.07   20.56          15.84   38.89  -70.96          80.92  298.73
J5         11.78   11.43   12.27          40.29    5.47   -8.91          10.46  301.57
J6         12.56   11.44   15.76          40.32   10.68  -18.08          21.00  300.57
J7         13.32   11.40   20.28          40.25   15.98  -28.29          32.49  299.46
J8         15.90   11.61   35.72          40.59   30.27  -53.72          61.66  299.40
J9         41.22   41.66   37.28          70.64    3.23   -4.08           5.21  308.33
J10        42.15   41.83   40.82          70.75    5.55   -8.61          10.24  302.80
J11        42.63   41.48   44.96          70.51    8.00  -14.19          16.29  299.42
J12        45.00   41.87   54.27          70.78   13.80  -24.30          27.95  299.58
J13        19.67   30.25   51.80          61.87  -41.34  -36.99          55.47  221.82
J14        30.78   16.70   33.57          47.88   66.40  -38.05          76.53  330.18
J15        58.76   57.23    5.22          80.31    8.79   86.38          86.83   84.19
J16         3.11    3.20    2.57          20.84    0.39    0.59           0.76   57.54
J17        23.34   13.65    2.77          43.73   54.18   38.46          66.44   35.37
J18        10.38   19.19    4.53          50.91  -50.58   39.36          64.09  142.11
J19         7.81    5.01   28.31          26.75   32.02  -66.29          73.62  295.78
J20        30.34   39.05   22.17          68.79  -25.41   17.14          30.65  145.99
J21         4.35    8.08    1.58          34.15  -38.20   32.91          50.42  139.26
J22         1.49    2.26    1.03          16.79  -16.80   10.20          19.66  148.74
K1          5.38    4.51    5.12          25.30   13.08   -8.00          15.33  328.56
K2          6.73    4.61    7.27          25.58   26.63  -17.31          31.76  326.98
K3          8.07    4.62    9.87          25.63   39.30  -26.75          47.54  325.76
K4          9.16    4.66   11.71          25.74   48.21  -32.35          58.06  326.14
K5         16.32   14.84   14.84          45.42   11.83   -7.01          13.75  329.34
K6         18.37   14.78   18.13          45.33   23.36  -14.94          27.73  327.40
K7         20.69   14.86   22.19          45.44   34.52  -23.17          41.57  326.13
K8         26.91   14.91   33.27          45.50   61.63  -41.70          74.41  325.92
K9         42.53   41.72   37.10          70.68    6.99   -3.77           7.94  331.67
K10        44.81   41.88   40.71          70.78   13.21   -8.40          15.65  327.54
K11        47.34   41.99   44.17          70.86   20.02  -12.61          23.66  327.78
K12        52.25   42.23   52.19          71.03   32.49  -21.62          39.03  326.36
K13        16.19   25.71   48.66          57.76  -42.07  -40.53          58.42  223.93
K14        26.53   13.05   29.25          42.84   71.57  -40.09          82.03  330.75
K15        56.73   54.10    3.28          78.52   11.55   94.74          95.44   83.05
K16         1.56    1.61    1.28          13.29    0.15    0.62           0.67   77.36
K17        19.85   10.72    1.39          39.11   57.67   43.76          72.39   37.19
K18         7.36   14.93    2.70          45.54  -53.20   42.13          67.86  141.62
K19         5.66    2.96   23.92          19.87   39.73  -70.52          80.94  299.40
K20         2.52    3.25    1.98          21.03  -11.17    6.19          12.77  150.99
K21         1.50    1.98    1.58          15.36  -10.39    0.63          10.41  176.56
K22         1.78    2.28    2.87          16.90   -9.56   -8.58          12.84  221.90
L1          3.82    3.13    2.82          20.57   12.88   -1.86          13.02  351.80
L2          4.72    3.15    3.04          20.65   24.94   -3.34          25.17  352.37
L3          5.90    3.38    3.42          21.51   35.27   -4.52          35.56  352.70
L4          6.36    3.61    3.70          22.33   36.82   -4.95          37.15  352.35
L5         13.34   11.45   10.01          40.33   15.83   -1.90          15.94  353.15
L6         15.95   11.42   10.83          40.28   31.90   -4.61          32.23  351.78
L7         19.39   11.80   11.78          40.89   47.69   -6.44          48.12  352.31
L8         22.53   11.64   12.84          40.65   63.79   -9.90          64.55  351.18
L9         43.30   42.15   35.24          70.97    8.00   -0.65           8.03  355.34
L10        45.50   41.86   35.74          70.77   15.22   -1.70          15.32  353.63
L11        48.05   41.98   36.51          70.86   22.02   -2.65          22.18  353.15
L12        50.98   42.18   37.69          70.99   29.33   -4.03          29.61  352.17
L13        13.02   21.14   44.55          53.10  -41.28  -43.72          60.13  226.64
L14        22.77   10.24   25.13          38.27   75.10  -40.97          85.55  331.38
L15        53.65   49.89    1.97          76.00   14.68  101.02         102.08   81.73
L16         0.70    0.72    0.58           6.52    0.14    0.24           0.30   60.74
L17        16.46    8.24    0.62          34.48   59.78   47.66          76.45   38.56
L18         4.82   10.83    1.50          39.29  -54.18   42.70          68.98  141.76
L19         4.15    1.68   19.59          13.70   47.28  -72.63          86.67  303.06
L20         0.88    0.95    0.89           8.56   -1.24   -1.88           2.26  236.63
L21         1.09    1.06    1.04           9.44    2.71   -2.69           3.83  315.25
L22         2.14    1.74    1.40          14.06   10.96    0.44          10.97    2.32
GS0        79.28   82.79   66.20          92.92   -1.08    1.96           2.24  118.79
GS1        70.17   72.90   59.02          88.40   -0.26    1.14           1.17  102.88
