targets/wolf_faust/reflective/R160727.it8
IT8.7/2
ORIGINATOR "Wolf Faust"
DESCRIPTOR "Kodak Professional Paper, L* a* b* (light D50, viewing angle 2)"
MANUFACTURER "Wolf Faust - http://www.coloraid.de"
CREATED "July 28, 2016"
PROD_DATE "2016:07"
SAMPLE_BACKING "black"
SERIAL "5x7 R160727 Batch Average Data"
MATERIAL "Kodak Professional Endura Premier"
KEYWORD "MEAN_DE" # Mean Delta E of samples compared to batch average
NUMBER_OF_FIELDS 18
BEGIN_DATA_FORMAT
SAMPLE_ID  XYZ_X   XYZ_Y   XYZ_Z          LAB_L   LAB_A   LAB_B          LAB_C   LAB_H          D_RED  D_GREEN  D_BLUE  D_VIS          STDEV_X STDEV_Y STDEV_Z        MEAN_DE  STDEV_DE
END_DATA_FORMAT
NUMBER_OF_SETS 288
BEGIN_DATA
A1          3.54    2.96    2.01          19.90   11.53    3.89          12.17   18.63           1.34    1.64    1.59    1.49            0.06    0.05    0.03           0.34     0.39
A2          4.38    3.00    1.70          20.04   23.06    7.34          24.21   17.66           1.19    1.80    1.67    1.45            0.05    0.02    0.02           0.34     0.39 
A3          5.32    3.12    1.50          20.51   32.95   10.32          34.53   17.38           1.08    1.98    1.73    1.40            0.07    0.04    0.01           0.34     0.39
A4          5.72    3.31    1.59          21.26   34.40   10.64          36.01   17.18           1.05    1.97    1.71    1.37            0.10    0.06    0.02           0.41     0.48 
A5         12.55   10.96    7.77          39.51   14.15    4.71          14.91   18.41           0.80    1.05    1.02    0.93            0.19    0.17    0.08           0.39     0.44
A6         14.87   10.93    6.73          39.46   29.03    8.91          30.37   17.07           0.68    1.17    1.08    0.90            0.21    0.16    0.09           0.43     0.48 
A7         17.25   11.04    5.94          39.64   41.90   12.74          43.79   16.91           0.59    1.30    1.14    0.87            0.18    0.13    0.10           0.32     0.38
A8         20.65   11.18    4.91          39.88   58.29   18.30          61.09   17.43           0.50    1.54    1.23    0.83            0.08    0.06    0.05           0.21     0.26 
A9         40.75   40.12   31.43          69.55    6.44    2.53           6.92   21.47           0.34    0.42    0.42    0.39            0.65    0.68    0.56           0.46     0.54
A10        43.26   40.35   30.07          69.72   13.30    4.94          14.18   20.39           0.29    0.44    0.44    0.38            0.65    0.69    0.53           0.49     0.57
A11        45.52   40.25   29.28          69.64   20.17    6.08          21.07   16.77           0.25    0.47    0.45    0.37            0.55    0.61    0.52           0.46     0.56
A12        47.66   40.31   28.15          69.69   26.01    8.00          27.21   17.09           0.22    0.50    0.47    0.36            0.39    0.50    0.43           0.46     0.60 
A13        73.62   78.25   65.23          90.89   -3.76   -0.62           3.81  189.36           0.13    0.09    0.11    0.11            0.25    0.22    0.19           0.15     0.17
A14        74.20   75.58   64.15          89.67    2.74   -1.72           3.24  327.88           0.11    0.13    0.11    0.12            0.26    0.34    0.29           0.20     0.23 
A15        76.93   80.46   64.58          91.89   -1.29    1.71           2.14  127.22           0.10    0.09    0.11    0.09            0.11    0.10    0.16           0.11     0.14
A16        75.65   78.64   64.88          91.07   -0.35    0.01           0.36  179.02           0.10    0.10    0.11    0.10            0.15    0.16    0.15           0.08     0.10
A17        76.30   79.48   63.60          91.45   -0.67    1.89           2.01  109.64           0.10    0.10    0.12    0.10            0.12    0.14    0.16           0.10     0.12
A18        76.40   80.10   64.57          91.73   -1.68    1.44           2.22  139.43           0.10    0.09    0.11    0.10            0.10    0.10    0.12           0.09     0.10 
A19        70.05   73.20   63.90          88.54   -1.13   -3.41           3.60  251.66           0.14    0.13    0.12    0.14            0.28    0.28    0.13           0.18     0.21
A20         1.47    1.23    0.84          10.80    8.37    2.92           8.87   19.24           1.74    2.02    1.97    1.87            0.01    0.01    0.01           0.23     0.29 
A21         5.20    3.36    0.87          21.42   27.57   20.70          34.47   36.90           1.09    1.84    1.95    1.38            0.05    0.04    0.01           0.33     0.36
A22        10.33    5.97    0.94          29.33   42.09   33.16          53.59   38.23           0.78    1.76    1.91    1.11            0.09    0.05    0.01           0.30     0.34
B1          3.39    2.98    1.64          19.96    8.84    7.88          11.85   41.70           1.36    1.62    1.67    1.49            0.04    0.03    0.02           0.30     0.35
B2          3.96    2.97    1.10          19.93   17.61   14.47          22.79   39.41           1.24    1.74    1.84    1.46            0.05    0.03    0.01           0.29     0.34
B3          4.82    3.20    0.77          20.82   25.43   21.30          33.17   39.95           1.13    1.83    1.99    1.41            0.05    0.03    0.01           0.25     0.32
B4          5.32    3.28    0.61          21.14   30.29   25.03          39.29   39.56           1.07    1.92    2.10    1.38            0.05    0.03    0.00           0.25     0.34
B5         12.75   11.04    5.80          39.65   14.84   13.39          19.99   42.05           0.77    1.06    1.14    0.92            0.16    0.14    0.07           0.32     0.34
B6         14.67   11.08    3.87          39.71   26.81   23.91          35.92   41.73           0.67    1.16    1.31    0.89            0.20    0.16    0.06           0.43     0.47
B7         16.98   11.02    2.33          39.61   40.56   35.00          53.57   40.79           0.58    1.32    1.52    0.87            0.17    0.11    0.03           0.30     0.34
B8         20.26   11.33    1.24          40.13   55.33   47.37          72.84   40.57           0.49    1.53    1.79    0.82            0.07    0.05    0.01           0.15     0.18
B9         40.39   39.95   29.46          69.43    5.87    5.41           7.98   42.69           0.34    0.42    0.45    0.39            0.57    0.62    0.50           0.44     0.50
B10        42.73   40.33   26.38          69.70   11.79   11.01          16.13   43.05           0.29    0.44    0.49    0.38            0.49    0.52    0.34           0.40     0.47
B11        45.01   40.37   23.50          69.73   18.32   16.23          24.47   41.53           0.25    0.47    0.54    0.37            0.46    0.54    0.36           0.43     0.51
B12        46.62   40.11   20.99          69.55   23.70   20.78          31.52   41.25           0.22    0.50    0.59    0.36            0.33    0.42    0.30           0.45     0.55
B13        68.78   74.78   64.61          89.29   -7.08   -2.80           7.62  201.58           0.17    0.10    0.11    0.13            0.43    0.35    0.23           0.26     0.31
B14        71.61   71.26   62.92          87.61    6.20   -4.07           7.42  326.67           0.11    0.16    0.12    0.14            0.30    0.46    0.27           0.39     0.46
B15        74.32   78.01   55.22          90.79   -1.84    9.18           9.36  101.36           0.10    0.11    0.18    0.11            0.15    0.15    0.26           0.19     0.23
B16        61.39   63.72   52.86          83.82   -0.12   -0.30           0.35  247.57           0.19    0.19    0.20    0.20            0.42    0.46    0.35           0.24     0.28
B17        68.69   68.46   53.33          86.23    5.89    3.35           6.77   29.67           0.12    0.18    0.19    0.16            0.26    0.37    0.38           0.26     0.32
B18        66.34   72.53   54.90          88.22   -7.84    5.10           9.36  146.98           0.17    0.12    0.18    0.14            0.29    0.21    0.30           0.26     0.30
B19        63.87   66.09   62.10          85.04    0.31   -7.70           7.71  272.28           0.19    0.17    0.13    0.18            0.37    0.42    0.12           0.35     0.40
B20         2.92    2.14    0.84          16.20   17.01   12.23          20.94   35.71           1.38    1.90    1.96    1.60            0.04    0.03    0.01           0.35     0.39
B21         8.43    4.99    0.89          26.69   37.86   29.37          47.91   37.80           0.87    1.80    1.93    1.19            0.09    0.05    0.01           0.31     0.37
B22        29.13   24.84   11.73          56.92   21.21   21.35          30.10   45.18           0.41    0.72    0.84    0.57            0.32    0.30    0.17           0.34     0.39
C1          4.50    4.31    2.26          24.67    4.66    9.88          10.92   64.76           1.26    1.41    1.53    1.34            0.07    0.06    0.03           0.36     0.40
C2          4.79    4.30    1.44          24.63    8.62   18.20          20.14   64.66           1.20    1.46    1.72    1.33            0.07    0.06    0.02           0.33     0.40
C3          5.16    4.38    0.87          24.89   12.13   26.67          29.30   65.55           1.14    1.50    1.93    1.31            0.08    0.06    0.01           0.41     0.47
C4          5.54    4.63    0.77          25.64   13.45   29.72          32.62   65.65           1.11    1.49    1.98    1.28            0.07    0.04    0.00           0.34     0.40
C5         23.36   22.34   10.54          54.39    8.31   20.63          22.24   68.05           0.54    0.71    0.88    0.63            0.24    0.25    0.11           0.33     0.39
C6         25.24   22.14    5.42          54.18   17.38   40.32          43.90   66.68           0.46    0.77    1.15    0.61            0.26    0.24    0.06           0.33     0.37
C7         27.61   22.35    2.35          54.40   26.10   60.34          65.74   66.61           0.40    0.83    1.50    0.59            0.27    0.24    0.03           0.37     0.42
C8         29.31   22.49    1.21          54.54   32.13   72.62          79.41   66.13           0.36    0.88    1.78    0.58            0.12    0.12    0.01           0.26     0.30
C9         47.36   47.73   32.83          74.65    3.76    9.20           9.94   67.78           0.27    0.34    0.40    0.31            0.55    0.62    0.52           0.40     0.46
C10        48.48   47.43   26.86          74.46    7.66   18.40          19.93   67.40           0.24    0.36    0.48    0.31            0.55    0.60    0.47           0.41     0.49
C11        50.18   47.60   21.45          74.57   11.78   28.51          30.85   67.56           0.21    0.38    0.57    0.30            0.39    0.47    0.32           0.37     0.43
C12        51.59   47.70   18.07          74.63   15.25   35.71          38.83   66.88           0.18    0.40    0.65    0.29            0.32    0.44    0.31           0.46     0.56
C13        60.95   69.02   63.92          86.51  -12.76   -6.93          14.52  208.52           0.25    0.12    0.11    0.18            0.46    0.36    0.18           0.31     0.40
C14        66.69   63.28   60.45          83.59   12.92   -8.58          15.51  326.41           0.13    0.23    0.14    0.19            0.38    0.56    0.32           0.49     0.59
C15        71.17   74.84   44.09          89.32   -2.09   19.29          19.41   96.17           0.11    0.13    0.27    0.12            0.07    0.08    0.38           0.35     0.43
C16        48.19   50.21   40.74          76.20   -0.62    0.89           1.09  124.51           0.29    0.30    0.31    0.30            0.44    0.48    0.36           0.32     0.37
C17        61.11   58.33   41.48          80.92   11.71    8.09          14.23   34.63           0.15    0.27    0.30    0.22            0.32    0.44    0.38           0.34     0.42
C18        55.64   63.88   43.50          83.91  -14.36   10.69          17.91  143.33           0.26    0.16    0.28    0.20            0.38    0.31    0.36           0.29     0.36
C19        52.94   54.47   59.04          78.73    1.09  -15.54          15.58  274.01           0.28    0.25    0.15    0.27            0.48    0.59    0.25           0.48     0.58
C20         1.81    1.56    0.80          13.01    7.90    7.40          10.82   43.13           1.63    1.91    1.98    1.77            0.03    0.03    0.01           0.25     0.29
C21        23.03   17.36    4.67          48.72   31.29   34.78          46.79   48.02           0.47    0.97    1.22    0.70            0.20    0.14    0.06           0.33     0.37
C22        34.83   31.71   16.96          63.10   15.15   18.36          23.80   50.47           0.36    0.57    0.68    0.47            0.33    0.34    0.20           0.30     0.35
D1          4.14    4.31    2.26          24.68   -0.20    9.82           9.82   91.17           1.32    1.37    1.53    1.36            0.06    0.06    0.02           0.33     0.37
D2          4.16    4.29    1.43          24.62    0.25   18.24          18.24   89.21           1.30    1.39    1.71    1.35            0.05    0.05    0.01           0.35     0.41
D3          4.34    4.54    0.94          25.37   -0.45   26.38          26.39   90.99           1.28    1.37    1.89    1.32            0.06    0.05    0.00           0.35     0.42
D4          4.56    4.82    0.85          26.21   -1.10   29.27          29.29   92.16           1.26    1.34    1.93    1.30            0.05    0.04    0.01           0.25     0.35
D5         26.45   27.57   13.67          59.50   -0.54   20.32          20.33   91.53           0.52    0.57    0.77    0.55            0.32    0.34    0.18           0.37     0.40
D6         26.29   27.63    7.49          59.55   -1.42   40.38          40.40   92.02           0.51    0.58    1.01    0.54            0.26    0.27    0.09           0.33     0.36
D7         26.04   27.47    3.61          59.40   -1.84   59.53          59.56   91.78           0.51    0.60    1.31    0.54            0.29    0.27    0.03           0.36     0.41
D8         25.97   27.70    1.61          59.62   -3.03   76.52          76.58   92.27           0.52    0.61    1.67    0.53            0.20    0.16    0.01           0.31     0.39
D9         53.95   56.11   38.34          79.68   -0.40   10.06          10.07   92.25           0.23    0.26    0.33    0.25            0.49    0.54    0.52           0.33     0.39
D10        53.90   56.21   30.48          79.73   -0.76   21.56          21.57   92.03           0.22    0.26    0.43    0.24            0.48    0.51    0.45           0.34     0.40
D11        53.70   56.19   24.70          79.72   -1.23   31.25          31.28   92.26           0.21    0.27    0.51    0.24            0.46    0.48    0.35           0.31     0.37
D12        53.31   56.19   10.81          79.72   -2.21   63.46          63.50   91.99           0.20    0.29    0.86    0.23            0.37    0.33    0.19           0.30     0.37
D13        52.63   62.42   62.70          83.13  -18.68  -11.58          21.98  211.79           0.35    0.14    0.12    0.23            0.52    0.43    0.17           0.39     0.50
D14        60.92   54.40   57.17          78.69   20.88  -13.71          24.98  326.71           0.16    0.32    0.17    0.25            0.42    0.60    0.33           0.55     0.69
D15        68.56   71.98   35.56          87.96   -1.84   28.17          28.23   93.74           0.12    0.16    0.36    0.13            0.13    0.14    0.39           0.38     0.47
D16        36.44   37.89   31.06          67.94   -0.33    0.32           0.50  133.99           0.41    0.42    0.42    0.42            0.45    0.51    0.40           0.41     0.47
D17        53.55   48.37   31.92          75.05   18.51   11.27          21.67   31.33           0.18    0.39    0.41    0.29            0.30    0.42    0.33           0.39     0.46
D18        45.93   55.61   34.62          79.39  -20.68   14.75          25.40  144.49           0.36    0.20    0.37    0.27            0.30    0.25    0.38           0.33     0.42
D19        42.32   42.76   55.00          71.39    3.30  -24.03          24.26  277.81           0.40    0.36    0.19    0.38            0.47    0.56    0.32           0.48     0.62
D20        13.83   10.51    2.71          38.74   25.79   30.30          39.80   49.60           0.69    1.19    1.45    0.91            0.11    0.08    0.05           0.30     0.34
D21        21.52   20.79   11.37          52.72    7.07   15.19          16.76   65.05           0.58    0.73    0.85    0.66            0.23    0.22    0.10           0.35     0.41
D22        38.22   36.38   19.72          66.81   10.38   18.66          21.36   60.92           0.33    0.49    0.61    0.42            0.35    0.37    0.22           0.33     0.37
E1          3.85    4.34    2.29          24.75   -4.73    9.74          10.83  115.91           1.39    1.34    1.52    1.36            0.05    0.05    0.04           0.37     0.42
E2          3.52    4.32    1.50          24.70   -9.52   17.58          19.99  118.43           1.45    1.32    1.69    1.37            0.07    0.07    0.02           0.38     0.46
E3          3.51    4.65    1.03          25.72  -14.20   25.47          29.16  119.14           1.48    1.27    1.84    1.34            0.04    0.06    0.00           0.33     0.40
E4          3.53    4.85    0.93          26.31  -16.33   28.18          32.57  120.09           1.50    1.24    1.89    1.33            0.03    0.04    0.00           0.28     0.34
E5         12.62   14.31    7.60          44.67   -7.62   14.30          16.21  118.06           0.87    0.82    1.01    0.85            0.21    0.22    0.12           0.37     0.42
E6         11.47   14.19    4.64          44.50  -14.91   27.67          31.43  118.31           0.93    0.80    1.21    0.85            0.16    0.19    0.07           0.30     0.35
E7         10.53   14.32    2.61          44.68  -22.53   41.40          47.14  118.56           1.01    0.78    1.45    0.86            0.16    0.19    0.03           0.36     0.44
E8          9.50   14.31    1.43          44.68  -30.61   52.91          61.13  120.05           1.13    0.76    1.71    0.86            0.10    0.11    0.01           0.28     0.36
E9         37.56   40.48   28.32          69.81   -4.71    7.93           9.23  120.73           0.40    0.38    0.46    0.39            0.45    0.51    0.41           0.34     0.42
E10        36.24   40.41   23.62          69.76   -8.81   16.06          18.32  118.76           0.42    0.38    0.53    0.40            0.46    0.50    0.39           0.34     0.42
E11        34.27   39.71   19.30          69.26  -13.32   23.77          27.25  119.27           0.45    0.37    0.62    0.40            0.38    0.39    0.23           0.35     0.39
E12        31.18   40.06   10.96          69.51  -25.39   45.39          52.01  119.22           0.52    0.35    0.85    0.41            0.31    0.29    0.12           0.30     0.36
E13        45.39   56.30   61.44          79.78  -23.91  -16.13          28.84  214.00           0.46    0.17    0.13    0.28            0.39    0.35    0.19           0.32     0.41
E14        55.21   46.10   53.62          73.61   28.93  -18.72          34.46  327.09           0.19    0.42    0.20    0.31            0.39    0.52    0.33           0.52     0.62
E15        66.02   68.96   27.44          86.48   -1.04   38.13          38.15   91.57           0.12    0.18    0.47    0.15            0.12    0.13    0.25           0.29     0.36
E16        27.03   28.05   22.82          59.93   -0.06    0.62           0.66   95.41           0.54    0.55    0.56    0.55            0.39    0.40    0.26           0.39     0.47
E17        46.69   39.75   23.66          69.29   25.00   15.17          29.25   31.25           0.22    0.51    0.54    0.36            0.28    0.35    0.32           0.37     0.47
E18        37.30   47.71   26.52          74.64  -26.38   19.29          32.68  143.82           0.47    0.26    0.48    0.34            0.25    0.32    0.21           0.33     0.40
E19        33.48   32.93   50.76          64.10    6.17  -31.99          32.58  280.91           0.52    0.47    0.23    0.50            0.46    0.54    0.29           0.56     0.70
E20        24.27   16.68    1.34          47.86   40.46   59.51          71.96   55.79           0.43    1.09    1.74    0.69            0.16    0.13    0.02           0.20     0.24
E21        16.99   13.98    2.70          44.20   20.80   39.85          44.95   62.44           0.62    1.01    1.44    0.80            0.18    0.14    0.04           0.39     0.43
E22        29.67   25.49    7.90          57.55   20.52   35.34          40.86   59.86           0.39    0.72    1.00    0.55            0.33    0.29    0.11           0.31     0.37
F1          1.60    1.99    1.40          15.42   -7.79    2.75           8.26  160.57           1.84    1.63    1.74    1.72            0.02    0.03    0.02           0.25     0.31
F2          1.30    1.96    1.18          15.30  -15.95    5.46          16.86  161.09           2.03    1.58    1.80    1.75            0.02    0.03    0.01           0.32     0.35
F3          1.18    2.13    1.09          16.15  -23.44    8.10          24.79  160.94           2.19    1.50    1.82    1.73            0.01    0.03    0.01           0.30     0.33
F4          1.15    2.36    1.10          17.25  -29.23    9.92          30.87  161.26           2.30    1.43    1.82    1.69            0.02    0.04    0.02           0.37     0.43
F5          6.75    8.41    5.84          34.82  -12.96    4.91          13.86  159.24           1.21    1.01    1.13    1.10            0.11    0.12    0.09           0.30     0.37
F6          5.48    8.25    4.84          34.50  -25.41    9.35          27.08  159.79           1.40    0.96    1.20    1.12            0.08    0.11    0.09           0.32     0.39
F7          4.44    8.27    4.08          34.53  -38.56   13.70          40.93  160.44           1.66    0.91    1.26    1.14            0.06    0.10    0.05           0.32     0.35
F8          3.33    8.47    3.23          34.94  -56.80   19.92          60.19  160.67           2.17    0.84    1.35    1.15            0.02    0.04    0.02           0.16     0.18
F9         36.85   39.98   31.75          69.45   -5.48    1.87           5.80  161.12           0.43    0.38    0.41    0.40            0.49    0.53    0.37           0.39     0.45
F10        35.12   40.09   30.33          69.53  -11.62    4.21          12.36  160.09           0.47    0.36    0.43    0.41            0.48    0.53    0.38           0.38     0.46
F11        33.53   40.09   28.84          69.54  -17.09    6.59          18.32  158.90           0.50    0.35    0.45    0.41            0.48    0.52    0.41           0.36     0.43
F12        28.89   40.33   25.63          69.70  -34.83   12.31          36.95  160.53           0.65    0.30    0.50    0.43            0.25    0.27    0.15           0.26     0.32
F13        38.71   50.23   59.84          76.21  -28.59  -20.71          35.30  215.91           0.58    0.20    0.14    0.34            0.37    0.36    0.22           0.28     0.37
F14        49.60   38.54   49.74          68.42   36.74  -23.40          43.56  327.51           0.23    0.53    0.24    0.38            0.37    0.46    0.35           0.49     0.62
F15        63.72   66.03   21.00          85.01    0.10   47.43          47.43   89.88           0.13    0.21    0.58    0.16            0.12    0.15    0.23           0.30     0.36
F16        19.37   20.08   16.41          51.93    0.03    0.39           0.45   78.79           0.68    0.70    0.70    0.70            0.28    0.29    0.28           0.40     0.44
F17        40.56   32.33   17.08          63.62   31.45   18.96          36.72   31.08           0.26    0.64    0.68    0.44            0.25    0.32    0.22           0.38     0.48
